P3
600 400
255
220.76407 235.49197 255.744
220.79137 235.5073 255.744
220.75873 235.48894 255.744
220.77773 235.49965 255.744
220.74954 235.48376 255.744
220.76839 235.49442 255.744
220.79239 235.5079 255.744
220.77028 235.49545 255.744
220.75241 235.48541 255.744
220.77103 235.49586 255.744
220.75163 235.48499 255.744
220.744 235.48068 255.744
220.76035 235.48985 255.744
220.74873 235.48332 255.744
220.76828 235.49432 255.744
220.75175 235.48505 255.744
220.74716 235.48245 255.744
220.76114 235.49033 255.744
220.7696 235.49504 255.744
220.77676 235.49913 255.744
220.73068 235.47318 255.744
220.75728 235.48814 255.744
220.7763 235.49883 255.744
220.76064 235.49002 255.744
220.76787 235.4941 255.744
220.75731 235.48814 255.744
220.76567 235.49287 255.744
220.75685 235.48793 255.744
220.77467 235.49792 255.744
220.74724 235.48251 255.744
220.73253 235.4742 255.744
220.74352 235.4804 255.744
220.74327 235.48027 255.744
220.75128 235.48476 255.744
220.7545 235.48659 255.744
220.75546 235.48718 255.744
220.7583 235.48872 255.744
220.77878 235.50024 255.744
220.75114 235.48471 255.744
220.75954 235.4894 255.744
220.74876 235.48337 255.744
220.73189 235.47386 255.744
220.75368 235.48613 255.744
220.73543 235.47585 255.744
220.7614 235.4905 255.744
220.7702 235.49545 255.744
220.76442 235.49216 255.744
220.7867 235.5047 255.744
220.75127 235.48477 255.744
220.7648 235.49237 255.744
220.75809 235.48862 255.744
220.7492 235.48361 255.744
220.76183 235.49069 255.744
220.73868 235.47769 255.744
220.73991 235.47838 255.744
220.75433 235.48647 255.744
220.74527 235.48138 255.744
220.75603 235.48743 255.744
220.7457 235.48164 255.744
220.74744 235.4826 255.744
220.76828 235.49431 255.744
220.7534 235.48596 255.744
220.75232 235.48537 255.744
220.76369 235.49174 255.744
220.74683 235.48225 255.744
220.75606 235.48744 255.744
220.76265 235.49117 255.744
220.73007 235.47281 255.744
220.7564 235.48767 255.744
220.75221 235.48528 255.744
220.75877 235.48898 255.744
220.75024 235.48422 255.744
220.75374 235.48616 255.744
220.75267 235.48555 255.744
220.75453 235.48659 255.744
220.77388 235.4975 255.744
220.75446 235.48653 255.744
220.7536 235.48607 255.744
220.7519 235.4851 255.744
220.77026 235.49545 255.744
220.74997 235.48402 255.744
220.73712 235.47679 255.744
220.75081 235.48453 255.744
220.74658 235.4821 255.744
220.74658 235.48212 255.744
220.73956 235.47816 255.744
220.75198 235.48517 255.744
220.73163 235.47372 255.744
220.75018 235.48416 255.744
220.7507 235.48445 255.744
220.75284 235.48564 255.744
220.74194 235.4795 255.744
220.77124 235.49599 255.744
220.74947 235.48375 255.744
220.7533 235.48587 255.744
220.72194 235.46828 255.744
220.74873 235.48332 255.744
220.75284 235.48564 255.744
220.7281 235.4717 255.744
220.75342 235.48598 255.744
220.73198 235.47394 255.744
220.75298 235.48573 255.744
220.75603 235.4874 255.744
220.761 235.49023 255.744
220.76515 235.49254 255.744
220.74588 235.48174 255.744
220.72429 235.46957 255.744
220.7386 235.47763 255.744
220.76671 235.49344 255.744
220.73888 235.4778 255.744
220.75409 235.48634 255.744
220.73949 235.47813 255.744
220.75348 235.48601 255.744
220.73354 235.4748 255.744
220.7353 235.47583 255.744
220.73514 235.4757 255.744
220.75499 235.48685 255.744
220.75085 235.48453 255.744
220.75798 235.48854 255.744
220.75363 235.48608 255.744
220.75043 235.4843 255.744
220.74664 235.48213 255.744
220.7442 235.4808 255.744
220.73668 235.47652 255.744
220.73601 235.47617 255.744
220.77127 235.496 255.744
220.73868 235.47769 255.744
220.74374 235.48051 255.744
220.74644 235.48204 255.744
220.75069 235.48442 255.744
220.76009 235.4897 255.744
220.7395 235.47813 255.744
220.74406 235.48068 255.744
220.73903 235.47786 255.744
220.74886 235.48338 255.744
220.74663 235.48213 255.744
220.72958 235.47255 255.744
220.74118 235.47908 255.744
220.74405 235.48071 255.744
220.74858 235.48323 255.744
220.73424 235.47517 255.744
220.7288 235.47214 255.744
220.73973 235.47826 255.744
220.74767 235.48273 255.744
220.74759 235.48268 255.744
220.7424 235.4798 255.744
220.73534 235.47583 255.744
220.75294 235.4857 255.744
220.7593 235.48927 255.744
220.73752 235.47704 255.744
220.71906 235.46663 255.744
220.74196 235.47954 255.744
220.7273 235.47128 255.744
220.74742 235.48257 255.744
220.73071 235.4732 255.744
220.7319 235.47385 255.744
220.73727 235.4769 255.744
220.72504 235.47 255.744
220.73633 235.47635 255.744
220.73149 235.47363 255.744
220.75148 235.48491 255.744
220.73753 235.47704 255.744
220.7249 235.46992 255.744
220.72061 235.4675 255.744
220.72957 235.47255 255.744
220.72232 235.46848 255.744
220.74556 235.48157 255.744
220.73802 235.47731 255.744
220.75145 235.48488 255.744
220.75359 235.48607 255.744
220.73843 235.47754 255.744
220.73927 235.47803 255.744
220.76259 235.49112 255.744
220.76672 235.49347 255.744
220.73381 235.47495 255.744
220.74571 235.48163 255.744
220.73099 235.47336 255.744
220.7368 235.47664 255.744
220.72017 235.46724 255.744
220.73334 235.47466 255.744
220.73999 235.47842 255.744
220.76427 235.49207 255.744
220.74973 235.48387 255.744
220.75003 235.48404 255.744
220.73845 235.47757 255.744
220.72688 235.47105 255.744
220.73862 235.47766 255.744
220.71866 235.46643 255.744
220.74203 235.47955 255.744
220.73027 235.47298 255.744
220.75185 235.4851 255.744
220.74425 235.4808 255.744
220.74043 235.47865 255.744
220.7334 235.47467 255.744
220.73773 235.47716 255.744
220.73462 235.4754 255.744
220.75812 235.4886 255.744
220.73195 235.47389 255.744
220.74182 235.47945 255.744
220.73662 235.47652 255.744
220.74869 235.48329 255.744
220.74472 235.4811 255.744
220.74315 235.48021 255.744
220.73773 235.47714 255.744
220.7387 235.47769 255.744
220.737 235.47675 255.744
220.74811 235.48299 255.744
220.74277 235.47998 255.744
220.74875 235.48335 255.744
220.73048 235.47308 255.744
220.7367 235.47658 255.744
220.72316 235.46892 255.744
220.75493 235.4868 255.744
220.72035 235.46738 255.744
220.73625 235.47632 255.744
220.73915 235.47794 255.744
220.73854 235.47762 255.744
220.7519 235.48509 255.744
220.73012 235.47289 255.744
220.74075 235.47885 255.744
220.7272 235.47124 255.744
220.7417 235.47937 255.744
220.73004 235.47284 255.744
220.7488 235.48338 255.744
220.73169 235.47374 255.744
220.73633 235.47635 255.744
220.73589 235.47609 255.744
220.72427 235.4696 255.744
220.73938 235.47806 255.744
220.7386 235.47765 255.744
220.73589 235.47612 255.744
220.72977 235.47269 255.744
220.73724 235.47688 255.744
220.74649 235.48207 255.744
220.74564 235.4816 255.744
220.72424 235.46956 255.744
220.74828 235.48306 255.744
220.74265 235.47989 255.744
220.71524 235.46451 255.744
220.7489 235.48344 255.744
220.74443 235.48091 255.744
220.72118 235.46786 255.744
220.72661 235.47089 255.744
220.7404 235.47868 255.744
220.73904 235.47789 255.744
220.72272 235.46869 255.744
220.74046 235.47868 255.744
220.72974 235.47264 255.744
220.72948 235.4725 255.744
220.73856 235.47762 255.744
220.74156 235.47928 255.744
220.74536 235.48146 255.744
220.7357 235.476 255.744
220.72607 235.47057 255.744
220.73941 235.47812 255.744
220.72461 235.46976 255.744
220.7311 235.4734 255.744
220.72269 235.46872 255.744
220.72772 235.47154 255.744
220.74907 235.48354 255.744
220.74179 235.47945 255.744
220.74004 235.47844 255.744
220.73235 235.47409 255.744
220.7256 235.47032 255.744
220.74115 235.47908 255.744
220.72499 235.46997 255.744
220.73085 235.4733 255.744
220.74199 235.47954 255.744
220.74199 235.47955 255.744
220.73335 235.47472 255.744
220.72134 235.46793 255.744
220.71916 235.46669 255.744
220.7278 235.47154 255.744
220.73018 235.4729 255.744
220.71593 235.4649 255.744
220.73796 235.47731 255.744
220.7274 235.47133 255.744
220.7393 235.47803 255.744
220.73363 235.47484 255.744
220.73734 235.47691 255.744
220.74661 235.48215 255.744
220.73325 235.47462 255.744
220.72777 235.47153 255.744
220.72427 235.46956 255.744
220.74086 235.47891 255.744
220.74698 235.48236 255.744
220.72859 235.47203 255.744
220.70508 235.45877 255.744
220.74394 235.48064 255.744
220.72786 235.47159 255.744
220.73373 235.4749 255.744
220.71732 235.46564 255.744
220.73413 235.47513 255.744
220.72307 235.46892 255.744
220.72076 235.4676 255.744
220.75447 235.48654 255.744
220.73695 235.47672 255.744
220.72966 235.47261 255.744
220.7519 235.48512 255.744
220.73245 235.47418 255.744
220.73035 235.47299 255.744
220.71791 235.46599 255.744
220.74214 235.47963 255.744
220.74179 235.47945 255.744
220.7278 235.47157 255.744
220.73628 235.47635 255.744
220.74188 235.47949 255.744
220.72139 235.46796 255.744
220.734 235.47504 255.744
220.73859 235.47765 255.744
220.74146 235.47926 255.744
220.73561 235.47594 255.744
220.7382 235.47742 255.744
220.72478 235.46986 255.744
220.72559 235.47032 255.744
220.72905 235.47226 255.744
220.74356 235.48041 255.744
220.74078 235.47888 255.744
220.72581 235.47044 255.744
220.74426 235.48083 255.744
220.74074 235.47884 255.744
220.75246 235.48541 255.744
220.73663 235.47652 255.744
220.73245 235.47418 255.744
220.73367 235.47485 255.744
220.73949 235.47815 255.744
220.73671 235.4766 255.744
220.72244 235.46855 255.744
220.72652 235.47084 255.744
220.72461 235.46979 255.744
220.73468 235.47545 255.744
220.73305 235.47452 255.744
220.74377 235.48056 255.744
220.73282 235.4744 255.744
220.73337 235.47473 255.744
220.72581 235.47043 255.744
220.73662 235.4765 255.744
220.75116 235.48471 255.744
220.74602 235.4818 255.744
220.74963 235.48387 255.744
220.73846 235.47757 255.744
220.72328 235.46902 255.744
220.72333 235.46907 255.744
220.72797 235.47165 255.744
220.72401 235.46944 255.744
220.73947 235.47812 255.744
220.71843 235.46631 255.744
220.73854 235.47762 255.744
220.72458 235.46971 255.744
220.73103 235.4734 255.744
220.72235 235.46849 255.744
220.7359 235.47614 255.744
220.72955 235.47255 255.744
220.75043 235.4843 255.744
220.72583 235.47047 255.744
220.72531 235.47017 255.744
220.73158 235.47368 255.744
220.75345 235.48596 255.744
220.74265 235.47993 255.744
220.74188 235.47949 255.744
220.73111 235.47342 255.744
220.73373 235.47491 255.744
220.71667 235.46529 255.744
220.73393 235.475 255.744
220.73503 235.47562 255.744
220.74155 235.47926 255.744
220.72208 235.46837 255.744
220.74046 235.47868 255.744
220.73012 235.47287 255.744
220.72722 235.47124 255.744
220.73358 235.47484 255.744
220.7588 235.489 255.744
220.74127 235.47917 255.744
220.72464 235.46979 255.744
220.74295 235.48009 255.744
220.73538 235.47581 255.744
220.72171 235.46812 255.744
220.7504 235.48427 255.744
220.74196 235.47954 255.744
220.7409 235.47893 255.744
220.73572 235.47601 255.744
220.73235 235.47409 255.744
220.71906 235.46661 255.744
220.74057 235.47874 255.744
220.7419 235.47954 255.744
220.73691 235.47668 255.744
220.74881 235.48337 255.744
220.74448 235.48094 255.744
220.74332 235.4803 255.744
220.7538 235.48618 255.744
220.73344 235.47473 255.744
220.72238 235.46855 255.744
220.74043 235.47868 255.744
220.73405 235.4751 255.744
220.74118 235.47908 255.744
220.74397 235.48065 255.744
220.74234 235.47977 255.744
220.73047 235.47307 255.744
220.72714 235.47119 255.744
220.71875 235.46646 255.744
220.73796 235.47728 255.744
220.74237 235.47978 255.744
220.74022 235.47853 255.744
220.74817 235.48302 255.744
220.74446 235.48093 255.744
220.73921 235.47798 255.744
220.7318 235.47382 255.744
220.7308 235.47327 255.744
220.72847 235.47192 255.744
220.73013 235.47289 255.744
220.72311 235.46892 255.744
220.74928 235.48363 255.744
220.7236 235.4692 255.744
220.73575 235.47601 255.744
220.74844 235.48315 255.744
220.72954 235.47253 255.744
220.75005 235.48412 255.744
220.74275 235.47997 255.744
220.72263 235.46866 255.744
220.73761 235.47708 255.744
220.7413 235.47917 255.744
220.74486 235.48119 255.744
220.71785 235.46594 255.744
220.73434 235.47523 255.744
220.7484 235.48315 255.744
220.73563 235.47598 255.744
220.73746 235.47697 255.744
220.73378 235.47491 255.744
220.73074 235.4732 255.744
220.71742 235.46573 255.744
220.73015 235.4729 255.744
220.73785 235.47722 255.744
220.75563 235.48721 255.744
220.75325 235.48589 255.744
220.74608 235.48187 255.744
220.74231 235.4797 255.744
220.75885 235.489 255.744
220.73746 235.477 255.744
220.72543 235.47023 255.744
220.74693 235.48233 255.744
220.73274 235.47433 255.744
220.74783 235.4828 255.744
220.73206 235.47397 255.744
220.73027 235.47293 255.744
220.71983 235.46709 255.744
220.7303 235.47296 255.744
220.73956 235.47818 255.744
220.76471 235.49232 255.744
220.73782 235.47719 255.744
220.7434 235.48032 255.744
220.72855 235.47197 255.744
220.75562 235.48721 255.744
220.75195 235.48515 255.744
220.74521 235.48134 255.744
220.75485 235.48679 255.744
220.74158 235.4793 255.744
220.73708 235.47678 255.744
220.76013 235.48978 255.744
220.75755 235.48827 255.744
220.73723 235.47687 255.744
220.75578 235.48734 255.744
220.75433 235.4865 255.744
220.73106 235.47339 255.744
220.75677 235.48784 255.744
220.74196 235.4795 255.744
220.75978 235.48955 255.744
220.74623 235.48193 255.744
220.7473 235.48254 255.744
220.76451 235.4922 255.744
220.72868 235.47209 255.744
220.73291 235.47444 255.744
220.74747 235.48264 255.744
220.74371 235.48055 255.744
220.76723 235.49376 255.744
220.74625 235.48195 255.744
220.74753 235.48267 255.744
220.71582 235.46483 255.744
220.74095 235.47897 255.744
220.76598 235.49303 255.744
220.74657 235.48212 255.744
220.73447 235.47528 255.744
220.73705 235.47678 255.744
220.74513 235.48131 255.744
220.75417 235.4864 255.744
220.7383 235.47746 255.744
220.75102 235.4846 255.744
220.76561 235.49283 255.744
220.75742 235.48822 255.744
220.73604 235.47618 255.744
220.7331 235.47453 255.744
220.74937 235.4837 255.744
220.76416 235.49202 255.744
220.74829 235.4831 255.744
220.74022 235.47855 255.744
220.74046 235.47868 255.744
220.7539 235.48627 255.744
220.74144 235.47922 255.744
220.75273 235.48558 255.744
220.7586 235.4889 255.744
220.7493 235.48366 255.744
220.73709 235.4768 255.744
220.74174 235.4794 255.744
220.75314 235.4858 255.744
220.75104 235.48463 255.744
220.75774 235.4884 255.744
220.75099 235.4846 255.744
220.75403 235.48631 255.744
220.76689 235.49355 255.744
220.73764 235.47708 255.744
220.74791 235.48288 255.744
220.72653 235.47084 255.744
220.74872 235.48335 255.744
220.75175 235.48505 255.744
220.73816 235.4774 255.744
220.74942 235.4837 255.744
220.75087 235.48454 255.744
220.7539 235.48625 255.744
220.73576 235.47606 255.744
220.74474 235.4811 255.744
220.77087 235.49577 255.744
220.74815 235.483 255.744
220.75468 235.4867 255.744
220.75368 235.48615 255.744
220.76558 235.49281 255.744
220.74702 235.48235 255.744
220.76816 235.49426 255.744
220.74414 235.48074 255.744
220.76372 235.49176 255.744
220.75343 235.48598 255.744
220.75204 235.4852 255.744
220.7561 235.48747 255.744
220.73543 235.47583 255.744
220.75317 235.48584 255.744
220.73962 235.47821 255.744
220.75064 235.48439 255.744
220.74536 235.48145 255.744
220.74527 235.48138 255.744
220.76431 235.49208 255.744
220.75183 235.48508 255.744
220.74396 235.48064 255.744
220.74246 235.47978 255.744
220.74887 235.48341 255.744
220.74156 235.4793 255.744
220.76277 235.49126 255.744
220.75647 235.48769 255.744
220.75339 235.48595 255.744
220.74669 235.48218 255.744
220.74443 235.48091 255.744
220.74997 235.48402 255.744
220.74991 235.48404 255.744
220.7614 235.49045 255.744
220.7562 235.48752 255.744
220.75389 235.48627 255.744
220.74973 235.48387 255.744
220.76639 235.49329 255.744
220.74359 235.48045 255.744
220.75859 235.48888 255.744
220.75963 235.48944 255.744
220.76332 235.49156 255.744
220.75717 235.48808 255.744
220.76534 235.49268 255.744
220.73933 235.47806 255.744
220.76627 235.49321 255.744
220.76683 235.49353 255.744
220.74498 235.48122 255.744
220.75868 235.48894 255.744
220.76141 235.49046 255.744
220.75803 235.48854 255.744
220.75241 235.4854 255.744
220.7588 235.489 255.744
220.7672 235.49373 255.744
220.72995 235.47275 255.744
220.76038 235.48988 255.744
220.76624 235.49315 255.744
220.75815 235.48863 255.744
220.761 235.49023 255.744
220.73833 235.47748 255.744
220.76877 235.4946 255.744
220.7415 235.47926 255.744
220.76746 235.49387 255.744
220.74152 235.47926 255.744
220.76898 235.49474 255.744
220.75407 235.48633 255.744
220.78351 235.50288 255.744
220.75858 235.48885 255.744
220.75441 235.48654 255.744
220.76917 235.49484 255.744
220.78305 235.50262 255.744
220.77737 235.49944 255.744
220.76534 235.49268 255.744
220.75339 235.48595 255.744
220.76938 235.49498 255.744
220.76262 235.49115 255.744
220.76892 235.49467 255.744
220.77875 235.50021 255.744
220.74641 235.48203 255.744
220.75148 235.48491 255.744
220.74802 235.48293 255.744
220.75227 235.48537 255.744
220.75235 235.48537 255.744
220.80511 235.51506 255.744
220.81036 235.51802 255.744
220.80879 235.51714 255.744
220.79967 235.51201 255.744
220.8017 235.51314 255.744
220.77974 235.5008 255.744
220.80844 235.51692 255.744
220.7901 235.50659 255.744
220.79219 235.50778 255.744
220.80435 235.5146 255.744
220.78363 235.50298 255.744
220.8067 235.51593 255.744
220.8018 235.51317 255.744
220.78726 235.505 255.744
220.79124 235.50725 255.744
220.7887 235.50581 255.744
220.80742 235.51634 255.744
220.7695 235.495 255.744
220.78827 235.50557 255.744
220.78296 235.50256 255.744
220.79533 235.50957 255.744
220.7921 235.50774 255.744
220.78214 235.50212 255.744
220.78923 235.5061 255.744
220.8033 235.51404 255.744
220.79129 235.50726 255.744
220.77716 235.49936 255.744
220.77509 235.49814 255.744
220.7924 235.50787 255.744
220.79944 235.51183 255.744
220.78468 235.50356 255.744
220.7927 235.50806 255.744
220.79324 235.50838 255.744
220.78268 235.50247 255.744
220.77612 235.49873 255.744
220.78085 235.50137 255.744
220.79341 235.50845 255.744
220.77545 235.49837 255.744
220.7825 235.5023 255.744
220.76201 235.4908 255.744
220.78233 235.50224 255.744
220.79773 235.5109 255.744
220.80264 235.51367 255.744
220.80022 235.51228 255.744
220.79276 235.50809 255.744
220.8103 235.51797 255.744
220.78522 235.50386 255.744
220.77779 235.49968 255.744
220.78358 235.50291 255.744
220.7864 235.50453 255.744
220.78435 235.50337 255.744
220.78935 235.5062 255.744
220.78508 235.50378 255.744
220.78566 235.50412 255.744
220.77515 235.4982 255.744
220.7698 235.4952 255.744
220.78151 235.50177 255.744
220.78944 235.50623 255.744
220.77885 235.50027 255.744
220.79262 235.50801 255.744
220.7619 235.49074 255.744
220.81061 235.51816 255.744
220.77632 235.49887 255.744
220.77794 235.49977 255.744
220.7808 235.50137 255.744
220.77933 235.50055 255.744
220.78523 235.50386 255.744
220.78162 235.50183 255.744
220.77612 235.49875 255.744
220.79454 235.50912 255.744
220.80547 235.51526 255.744
220.79187 235.5076 255.744
220.77948 235.50061 255.744
220.78706 235.50491 255.744
220.76875 235.49458 255.744
220.79453 235.5091 255.744
220.78589 235.50421 255.744
220.77887 235.50029 255.744
220.78114 235.50159 255.744
220.78203 235.50204 255.744
220.78297 235.50261 255.744
220.7927 235.50809 255.744
220.76855 235.49452 255.744
220.78773 235.50531 255.744
220.78024 235.50108 255.744
220.77895 235.50027 255.744
220.80502 235.51498 255.744
220.77684 235.49915 255.744
220.80264 235.51364 255.744
220.79205 235.50769 255.744
220.78467 235.50356 255.744
220.77863 235.50012 255.744
220.78513 235.50378 255.744
220.79181 235.50755 255.744
220.79701 235.51051 255.744
220.78993 235.50652 255.744
220.77638 235.49892 255.744
220.79955 235.51189 255.744
220.7789 235.50032 255.744
220.80414 235.51448 255.744
220.78525 235.50388 255.744
220.78134 235.50168 255.744
220.78052 235.5012 255.744
220.77832 235.49998 255.744
220.76889 235.49469 255.744
220.77956 235.50067 255.744
220.78227 235.50217 255.744
220.77556 235.49841 255.744
220.80238 235.5135 255.744
220.78995 235.50653 255.744
220.77184 235.49634 255.744
220.77191 235.49635 255.744
220.77104 235.49588 255.744
220.78357 235.50296 255.744
220.77882 235.50024 255.744
220.78629 235.50449 255.744
220.76587 235.493 255.744
220.78323 235.50272 255.744
220.77623 235.49884 255.744
220.77998 235.50092 255.744
220.77971 235.50073 255.744
220.79245 235.50798 255.744
220.76944 235.49498 255.744
220.76617 235.49316 255.744
220.79478 235.50925 255.744
220.78981 235.50645 255.744
220.77637 235.49889 255.744
220.78775 235.50528 255.744
220.78746 235.50511 255.744
220.76212 235.49088 255.744
220.77124 235.49603 255.744
220.77843 235.50003 255.744
220.77219 235.4965 255.744
220.76802 235.49416 255.744
220.78596 235.5043 255.744
220.78607 235.50433 255.744
220.80315 235.51393 255.744
220.77696 235.49919 255.744
220.77477 235.49799 255.744
220.77817 235.49992 255.744
220.76671 235.49344 255.744
220.78322 235.50272 255.744
220.7619 235.49075 255.744
220.78317 235.5027 255.744
220.78284 235.5025 255.744
220.77498 235.49808 255.744
220.77876 235.5002 255.744
220.77571 235.49849 255.744
220.75778 235.48842 255.744
220.7875 235.50517 255.744
220.7779 235.49973 255.744
220.76323 235.49152 255.744
220.7918 235.50757 255.744
220.79384 235.50873 255.744
220.76266 235.49118 255.744
220.78839 235.50566 255.744
220.76234 235.49101 255.744
220.77475 235.49802 255.744
220.80103 235.51276 255.744
220.77818 235.49988 255.744
220.7689 235.4947 255.744
220.7601 235.48973 255.744
220.75372 235.48615 255.744
220.77534 235.4983 255.744
220.77335 235.49718 255.744
220.78978 235.50644 255.744
220.77892 235.50032 255.744
220.762 235.49078 255.744
220.79292 235.5082 255.744
220.7769 235.49919 255.744
220.7852 235.50383 255.744
220.78252 235.50235 255.744
220.77136 235.49606 255.744
220.77 235.4953 255.744
220.76785 235.49408 255.744
220.78496 235.5037 255.744
220.77078 235.49573 255.744
220.75696 235.48795 255.744
220.76355 235.49168 255.744
220.77713 235.49933 255.744
220.76126 235.49042 255.744
220.7722 235.49655 255.744
220.77531 235.4983 255.744
220.77783 235.49968 255.744
220.76782 235.49408 255.744
220.7632 235.49147 255.744
220.78491 235.50368 255.744
220.75984 235.48962 255.744
220.77823 235.49994 255.744
220.78133 235.50168 255.744
220.76736 235.49384 255.744
220.77643 235.49895 255.744
220.76907 235.4948 255.744
220.77635 235.4989 255.744
220.76643 235.4933 255.744
220.74907 235.48354 255.744
220.76161 235.49055 255.744
220.77095 235.49582 255.744
220.75871 235.48897 255.744
220.7841 235.50323 255.744
220.74791 235.48285 255.744
220.75803 235.48857 255.744
220.75252 235.48546 255.744
220.77748 235.49951 255.744
220.75487 235.48679 255.744
220.76926 235.4949 255.744
220.77925 235.5005 255.744
220.76355 235.49168 255.744
220.75757 235.48833 255.744
220.75114 235.4847 255.744
220.77861 235.50014 255.744
220.74991 235.48401 255.744
220.77898 235.50035 255.744
220.76616 235.49316 255.744
220.75287 235.48567 255.744
220.76157 235.49054 255.744
220.7635 235.49161 255.744
220.77982 235.50082 255.744
220.75812 235.48862 255.744
220.7737 235.49738 255.744
220.7523 235.48537 255.744
220.745 235.48126 255.744
220.78065 235.50128 255.744
220.74805 235.48297 255.744
220.75258 235.48552 255.744
220.76784 235.49408 255.744
220.74835 235.48311 255.744
220.76088 235.49016 255.744
220.7573 235.48816 255.744
220.77519 235.49821 255.744
220.77908 235.5004 255.744
220.7659 235.493 255.744
220.78058 235.50125 255.744
220.77039 235.49548 255.744
220.76643 235.49329 255.744
220.75772 235.48839 255.744
220.78162 235.50183 255.744
220.7751 235.49815 255.744
220.76135 235.49043 255.744
220.76588 235.49298 255.744
220.76584 235.49297 255.744
220.75879 235.48898 255.744
220.75803 235.48857 255.744
220.76285 235.49127 255.744
220.7669 235.49355 255.744
220.75685 235.48793 255.744
220.75288 235.48564 255.744
220.7699 235.49525 255.744
220.7749 235.49806 255.744
220.76309 235.49144 255.744
220.74176 235.4794 255.744
220.7833 235.50278 255.744
220.77641 235.4989 255.744
220.75854 235.48885 255.744
220.77531 235.49832 255.744
220.75945 235.48936 255.744
220.77203 235.49643 255.744
220.7656 235.49281 255.744
220.77039 235.49548 255.744
220.77158 235.49615 255.744
220.7685 235.49445 255.744
220.77551 235.4984 255.744
220.77254 235.4967 255.744
220.76234 235.49098 255.744
220.75812 235.48863 255.744
220.78111 235.50157 255.744
220.77492 235.49805 255.744
220.77037 235.49553 255.744
220.76837 235.49437 255.744
220.77663 235.49901 255.744
220.74692 235.4823 255.744
220.7616 235.49059 255.744
220.75883 235.48901 255.744
220.76894 235.49472 255.744
220.7637 235.49178 255.744
220.7447 235.48108 255.744
220.77293 235.49696 255.744
220.75867 235.4889 255.744
220.77792 235.49974 255.744
220.77695 235.49919 255.744
220.76378 235.4918 255.744
220.75998 235.48965 255.744
220.76357 235.49168 255.744
220.7729 235.49692 255.744
220.74338 235.48033 255.744
220.75818 235.48862 255.744
220.75563 235.4872 255.744
220.76804 235.49417 255.744
220.74864 235.48328 255.744
220.76077 235.49008 255.744
220.75987 235.4896 255.744
220.77267 235.49678 255.744
220.78366 235.50299 255.744
220.77603 235.49872 255.744
220.75899 235.48909 255.744
220.78183 235.50195 255.744
220.76064 235.49004 255.744
220.7661 235.4931 255.744
220.76236 235.49103 255.744
220.77075 235.4957 255.744
220.77658 235.49901 255.744
220.777 235.49924 255.744
220.76888 235.49467 255.744
220.77437 235.49776 255.744
220.77342 235.49721 255.744
220.76512 235.4926 255.744
220.76549 235.49277 255.744
220.76927 235.49489 255.744
220.76646 235.49332 255.744
220.75262 235.48553 255.744
220.76472 235.4923 255.744
220.7658 235.49295 255.744
220.77368 235.49734 255.744
220.75027 235.48419 255.744
220.75368 235.48611 255.744
220.78009 235.501 255.744
220.76115 235.49034 255.744
220.74301 235.48013 255.744
220.75337 235.48596 255.744
220.75699 235.48798 255.744
220.75757 235.4883 255.744
220.75433 235.48651 255.744
220.75453 235.48663 255.744
220.75812 235.4886 255.744
220.76294 235.4913 255.744
220.76567 235.49289 255.744
220.7769 235.49919 255.744
220.75441 235.48653 255.744
220.7789 235.5003 255.744
220.78746 235.50511 255.744
220.75806 235.4886 255.744
220.75916 235.48921 255.744
220.76584 235.49298 255.744
220.7682 235.4943 255.744
220.76505 235.49252 255.744
220.77144 235.49614 255.744
220.76555 235.4928 255.744
220.77197 235.4964 255.744
220.77066 235.49568 255.744
220.77376 235.49739 255.744
220.77734 235.49944 255.744
220.77834 235.50002 255.744
220.78069 235.50131 255.744
220.75243 235.48544 255.744
220.76038 235.48991 255.744
220.76074 235.49011 255.744
220.76132 235.49042 255.744
220.74957 235.4838 255.744
220.77147 235.49612 255.744
220.76295 235.49136 255.744
220.74194 235.4795 255.744
220.76295 235.49136 255.744
220.79092 235.50708 255.744
220.75546 235.4871 255.744
220.75822 235.48866 255.744
220.77634 235.49887 255.744
220.76024 235.48978 255.744
220.75232 235.48537 255.744
220.77223 235.49658 255.744
220.77124 235.49599 255.744
220.76173 235.49065 255.744
220.77869 235.5002 255.744
220.75822 235.48871 255.744
220.76942 235.495 255.744
220.76685 235.4935 255.744
220.77599 235.49869 255.744
220.76866 235.49452 255.744
220.76291 235.49135 255.744
220.76926 235.49487 255.744
220.7725 235.49669 255.744
220.7718 235.4963 255.744
220.74132 235.47919 255.744
220.75203 235.4852 255.744
220.76581 235.49294 255.744
220.75798 235.48854 255.744
220.7573 235.48813 255.744
220.74333 235.4803 255.744
220.77238 235.49666 255.744
220.75829 235.48871 255.744
220.76904 235.49478 255.744
220.77197 235.4964 255.744
220.76796 235.49417 255.744
220.76805 235.49422 255.744
220.76465 235.4923 255.744
220.76747 235.49388 255.744
220.77087 235.49579 255.744
220.76189 235.49074 255.744
220.78644 235.50456 255.744
220.75415 235.48639 255.744
220.77127 235.49602 255.744
220.77818 235.4999 255.744
220.76195 235.49078 255.744
220.7703 235.49545 255.744
220.76338 235.49156 255.744
220.76974 235.49516 255.744
220.74814 235.48302 255.744
220.7766 235.49901 255.744
220.76913 235.4948 255.744
220.78271 235.50246 255.744
220.77393 235.4975 255.744
220.76271 235.4912 255.744
220.77501 235.49811 255.744
220.7825 235.50232 255.744
220.76944 235.49496 255.744
220.78232 235.50223 255.744
220.7635 235.49164 255.744
220.76111 235.4903 255.744
220.76836 235.49437 255.744
220.77534 235.49828 255.744
220.77953 235.50066 255.744
220.77248 235.4967 255.744
220.75528 235.48701 255.744
220.7871 235.50493 255.744
220.78545 235.504 255.744
220.75568 235.48723 255.744
220.7686 235.49449 255.744
220.78806 235.50546 255.744
220.7718 235.4963 255.744
220.76686 235.49353 255.744
220.77397 235.4975 255.744
220.77187 235.4963 255.744
220.75269 235.48557 255.744
220.78665 235.50465 255.744
220.75417 235.48637 255.744
220.76906 235.49474 255.744
220.7695 235.49504 255.744
220.77736 235.49945 255.744
220.77467 235.49792 255.744
220.76698 235.49359 255.744
220.78552 235.50403 255.744
220.77814 235.49985 255.744
220.76611 235.4931 255.744
220.76561 235.49283 255.744
220.79121 235.50722 255.744
220.77075 235.49573 255.744
220.76428 235.49207 255.744
220.78186 235.50197 255.744
220.77397 235.49754 255.744
220.7619 235.49075 255.744
220.78656 235.50462 255.744
220.78185 235.50195 255.744
220.78423 235.50328 255.744
220.77003 235.49532 255.744
220.78676 235.50471 255.744
220.75342 235.48596 255.744
220.77403 235.49759 255.744
220.76363 235.4917 255.744
220.77942 235.50061 255.744
220.7636 235.4917 255.744
220.75673 235.48782 255.744
220.76697 235.49356 255.744
220.77713 235.49931 255.744
220.77219 235.49652 255.744
220.7704 235.49553 255.744
220.76358 235.4917 255.744
220.79816 235.51114 255.744
220.76692 235.49356 255.744
220.78363 235.50296 255.744
220.769 235.49472 255.744
220.78212 235.50212 255.744
220.7675 235.49388 255.744
220.77478 235.49797 255.744
220.78882 235.50589 255.744
220.75024 235.4842 255.744
220.76204 235.49078 255.744
220.76575 235.49295 255.744
220.75366 235.48608 255.744
220.77153 235.49615 255.744
220.77686 235.49913 255.744
220.76062 235.49004 255.744
220.77124 235.49597 255.744
220.77219 235.49654 255.744
220.77632 235.49887 255.744
220.76355 235.49165 255.744
220.77023 235.49542 255.744
220.79134 235.50732 255.744
220.77577 235.49854 255.744
220.7844 235.50339 255.744
220.78728 235.50504 255.744
220.79346 235.50847 255.744
220.7741 235.4976 255.744
220.78291 235.50258 255.744
220.76132 235.4904 255.744
220.77974 235.50078 255.744
220.78679 235.50475 255.744
220.77188 235.49635 255.744
220.77003 235.49533 255.744
220.78065 235.50127 255.744
220.78563 235.50407 255.744
220.77138 235.49608 255.744
220.76512 235.49254 255.744
220.77211 235.49648 255.744
220.76973 235.49518 255.744
220.7734 235.49721 255.744
220.77928 235.50055 255.744
220.77031 235.49547 255.744
220.79256 235.50798 255.744
220.77576 235.49852 255.744
220.7751 235.49817 255.744
220.7845 235.50345 255.744
220.80664 235.51588 255.744
220.77843 235.50005 255.744
220.80345 235.51413 255.744
220.7772 235.49934 255.744
220.78444 235.50345 255.744
220.78944 235.50624 255.744
220.79317 235.50835 255.744
220.79494 235.50931 255.744
220.77084 235.49573 255.744
220.771 235.49588 255.744
220.78326 235.50278 255.744
220.76721 235.49371 255.744
220.78809 235.50546 255.744
220.78363 235.50294 255.744
220.79407 235.50883 255.744
220.77353 235.4973 255.744
220.77968 235.50073 255.744
220.78189 235.50197 255.744
220.80435 235.51462 255.744
220.79895 235.51157 255.744
220.7862 235.5044 255.744
220.78215 235.50214 255.744
220.78462 235.50352 255.744
220.78073 235.50134 255.744
220.7813 235.50165 255.744
220.77538 235.4983 255.744
220.78288 235.50256 255.744
220.79173 235.50752 255.744
220.7651 235.49254 255.744
220.77972 235.50076 255.744
220.78976 235.50642 255.744
220.79395 235.50876 255.744
220.78188 235.50195 255.744
220.78316 235.5027 255.744
220.79663 235.51028 255.744
220.77943 235.5006 255.744
220.785 235.50371 255.744
220.77863 235.50015 255.744
220.78532 235.50389 255.744
220.79033 235.50671 255.744
220.79404 235.50883 255.744
220.7769 235.4992 255.744
220.79045 235.5068 255.744
220.78616 235.5044 255.744
220.77763 235.4996 255.744
220.7992 235.5117 255.744
220.79834 235.51126 255.744
220.77975 235.5008 255.744
220.79692 235.51044 255.744
220.79463 235.50914 255.744
220.79607 235.51 255.744
220.81334 235.51967 255.744
220.79706 235.51051 255.744
220.79266 235.50806 255.744
220.77335 235.49716 255.744
220.78143 235.50174 255.744
220.79788 235.51099 255.744
220.80215 235.51341 255.744
220.76454 235.49222 255.744
220.78075 235.50131 255.744
220.78319 235.50273 255.744
220.77562 235.49846 255.744
220.79628 235.51007 255.744
220.76442 235.49214 255.744
220.7813 235.50166 255.744
220.81155 235.51866 255.744
220.80688 235.51604 255.744
220.78229 235.50223 255.744
220.79913 235.51167 255.744
220.79907 235.51166 255.744
220.81133 235.51855 255.744
220.7677 235.49399 255.744
220.79137 235.50731 255.744
220.7965 235.51018 255.744
220.79488 235.5093 255.744
220.78242 235.50227 255.744
220.78604 235.50432 255.744
220.77226 235.49658 255.744
220.80482 235.5149 255.744
220.81148 235.51863 255.744
220.80032 235.51234 255.744
220.79112 235.5072 255.744
220.77509 235.49818 255.744
220.77258 235.49675 255.744
220.79025 235.50668 255.744
220.77821 235.49988 255.744
220.79538 235.5096 255.744
220.80011 235.51225 255.744
220.7752 235.49823 255.744
220.8024 235.5135 255.744
220.79057 235.50687 255.744
220.80734 235.51633 255.744
220.79076 235.50699 255.744
220.8052 235.5151 255.744
220.80504 235.51501 255.744
220.78745 235.50511 255.744
220.76558 235.4928 255.744
220.79466 235.50916 255.744
220.79536 235.50957 255.744
220.78386 235.50308 255.744
220.8303 235.5292 255.744
220.83511 235.53195 255.744
220.8272 235.52748 255.744
220.83235 235.53036 255.744
220.83774 235.53343 255.744
220.82295 235.52507 255.744
220.82787 235.52783 255.744
220.82004 235.52345 255.744
220.80751 235.5164 255.744
220.82607 235.52684 255.744
220.82933 235.52867 255.744
220.8177 235.52214 255.744
220.81963 235.52322 255.744
220.82175 235.52438 255.744
220.82663 235.52716 255.744
220.81187 235.51884 255.744
220.81157 235.51866 255.744
220.82576 235.52669 255.744
220.82568 235.52663 255.744
220.83328 235.5309 255.744
220.8398 235.53458 255.744
220.82106 235.52405 255.744
220.8319 235.53012 255.744
220.83826 235.5337 255.744
220.83046 235.52931 255.744
220.82823 235.52808 255.744
220.82053 235.52376 255.744
220.83098 235.5296 255.744
220.82777 235.52782 255.744
220.82326 235.52527 255.744
220.8165 235.52144 255.744
220.8232 235.52524 255.744
220.82112 235.52405 255.744
220.81879 235.52277 255.744
220.82628 235.52696 255.744
220.81013 235.51787 255.744
220.81308 235.51953 255.744
220.83443 235.53154 255.744
220.84221 235.53593 255.744
220.80394 235.51439 255.744
220.79611 235.50996 255.744
220.83466 235.53165 255.744
220.78783 235.50531 255.744
220.81027 235.51796 255.744
220.79642 235.51016 255.744
220.8086 235.517 255.744
220.80975 235.51768 255.744
220.82896 235.52846 255.744
220.82607 235.52686 255.744
220.82411 235.52573 255.744
220.81998 235.5234 255.744
220.83315 235.53082 255.744
220.8403 235.53482 255.744
220.81227 235.51909 255.744
220.81859 235.52263 255.744
220.81364 235.51985 255.744
220.81076 235.51825 255.744
220.81297 235.51945 255.744
220.82996 235.52904 255.744
220.81032 235.51799 255.744
220.80602 235.51556 255.744
220.8218 235.52443 255.744
220.80972 235.51765 255.744
220.8067 235.51596 255.744
220.81723 235.52188 255.744
220.82112 235.52406 255.744
220.79608 235.50996 255.744
220.8174 235.52199 255.744
220.83844 235.53381 255.744
220.81458 235.52037 255.744
220.82419 235.52579 255.744
220.82166 235.52434 255.744
220.81876 235.52275 255.744
220.80864 235.51704 255.744
220.81303 235.5195 255.744
220.80608 235.51561 255.744
220.81491 235.52057 255.744
220.81784 235.52222 255.744
220.80974 235.51764 255.744
220.81757 235.52205 255.744
220.80838 235.51689 255.744
220.80597 235.51553 255.744
220.82875 235.52835 255.744
220.82385 235.52559 255.744
220.81354 235.5198 255.744
220.80959 235.51758 255.744
220.80307 235.5139 255.744
220.79982 235.51205 255.744
220.80841 235.51692 255.744
220.80785 235.51656 255.744
220.81151 235.51866 255.744
220.79617 235.51 255.744
220.81857 235.52264 255.744
220.80754 235.51642 255.744
220.82228 235.52472 255.744
220.80727 235.51627 255.744
220.81169 235.51874 255.744
220.79381 235.50865 255.744
220.82713 235.52742 255.744
220.80861 235.51704 255.744
220.79488 235.5093 255.744
220.82133 235.52414 255.744
220.81291 235.51942 255.744
220.82114 235.5241 255.744
220.80733 235.51631 255.744
220.81197 235.51889 255.744
220.85295 235.54198 255.744
220.80746 235.51639 255.744
220.83057 235.52934 255.744
220.81099 235.51836 255.744
220.80588 235.5155 255.744
220.82129 235.52417 255.744
220.80779 235.51656 255.744
220.8113 235.51852 255.744
220.79886 235.51154 255.744
220.8054 235.5152 255.744
220.80972 235.51762 255.744
220.8084 235.51692 255.744
220.79852 235.51138 255.744
220.79947 235.51184 255.744
220.80882 235.51717 255.744
220.79128 235.50726 255.744
220.81934 235.52304 255.744
220.80295 235.51381 255.744
220.81053 235.5181 255.744
220.81114 235.51843 255.744
220.81175 235.51877 255.744
220.78029 235.5011 255.744
220.81726 235.52188 255.744
220.80014 235.51225 255.744
220.80334 235.51408 255.744
220.80127 235.51288 255.744
220.81941 235.52307 255.744
220.81499 235.52063 255.744
220.80688 235.51605 255.744
220.8087 235.51707 255.744
220.82533 235.52643 255.744
220.81686 235.52168 255.744
220.80965 235.5176 255.744
220.81741 235.52199 255.744
220.81342 235.51976 255.744
220.8088 235.51712 255.744
220.81555 235.52092 255.744
220.80682 235.516 255.744
220.8193 235.52303 255.744
220.81296 235.51945 255.744
220.7846 235.50351 255.744
220.80052 235.51247 255.744
220.80975 235.51767 255.744
220.81337 235.51968 255.744
220.80186 235.51323 255.744
220.81293 235.51942 255.744
220.82277 235.525 255.744
220.79016 235.50664 255.744
220.80862 235.51703 255.744
220.80522 235.5151 255.744
220.80363 235.51422 255.744
220.80693 235.51605 255.744
220.8042 235.51454 255.744
220.81172 235.5188 255.744
220.78276 235.50249 255.744
220.81482 235.52052 255.744
220.80814 235.51672 255.744
220.80933 235.51743 255.744
220.804 235.51442 255.744
220.82242 235.52477 255.744
220.80003 235.51219 255.744
220.80766 235.51648 255.744
220.81723 235.52188 255.744
220.80222 235.51343 255.744
220.79495 235.50931 255.744
220.80751 235.5164 255.744
220.78502 235.50377 255.744
220.81494 235.5206 255.744
220.803 235.51389 255.744
220.82436 235.52586 255.744
220.79095 235.50708 255.744
220.8038 235.51431 255.744
220.79262 235.50803 255.744
220.81653 235.52147 255.744
220.79855 235.51135 255.744
220.81325 235.51962 255.744
220.80167 235.5131 255.744
220.79776 235.51091 255.744
220.78491 235.50371 255.744
220.79817 235.51114 255.744
220.79703 235.51051 255.744
220.79794 235.51105 255.744
220.78143 235.50172 255.744
220.80144 235.51297 255.744
220.78946 235.50624 255.744
220.79077 235.50699 255.744
220.79172 235.5075 255.744
220.80737 235.51633 255.744
220.81125 235.51848 255.744
220.80539 235.51518 255.744
220.78557 235.50406 255.744
220.79538 235.50955 255.744
220.81142 235.51862 255.744
220.78445 235.50343 255.744
220.76608 235.49309 255.744
220.79443 235.50902 255.744
220.80061 235.51251 255.744
220.79617 235.51003 255.744
220.7987 235.51146 255.744
220.8053 235.5151 255.744
220.8054 235.51518 255.744
220.79941 235.51187 255.744
220.79936 235.51181 255.744
220.81898 235.52287 255.744
220.79443 235.50903 255.744
220.79427 235.50893 255.744
220.79001 235.50653 255.744
220.80583 235.51546 255.744
220.79239 235.5079 255.744
220.79982 235.51208 255.744
220.78517 235.50385 255.744
220.79341 235.50845 255.744
220.78712 235.50497 255.744
220.78244 235.50229 255.744
220.79143 235.50737 255.744
220.80577 235.51541 255.744
220.81332 235.51965 255.744
220.79736 235.5107 255.744
220.79465 235.50917 255.744
220.7884 235.50566 255.744
220.79704 235.51051 255.744
220.80568 235.51538 255.744
220.78459 235.50354 255.744
220.80765 235.51648 255.744
220.8026 235.51366 255.744
220.7936 235.50856 255.744
220.79651 235.51022 255.744
220.79378 235.50865 255.744
220.78874 235.50586 255.744
220.7814 235.50172 255.744
220.79211 235.50775 255.744
220.7838 235.50307 255.744
220.80814 235.51675 255.744
220.81236 235.51913 255.744
220.79149 235.50739 255.744
220.79189 235.5076 255.744
220.81508 235.52066 255.744
220.779 235.50035 255.744
220.7815 235.50177 255.744
220.79425 235.50893 255.744
220.80637 235.51575 255.744
220.80304 235.51385 255.744
220.7854 235.50397 255.744
220.79369 235.50864 255.744
220.78558 235.50406 255.744
220.79184 235.50758 255.744
220.79794 235.51099 255.744
220.79271 235.50807 255.744
220.80801 235.5167 255.744
220.81718 235.52185 255.744
220.78133 235.5017 255.744
220.78728 235.505 255.744
220.78998 235.50655 255.744
220.78833 235.50563 255.744
220.79442 235.50903 255.744
220.79785 235.51097 255.744
220.802 235.51332 255.744
220.79214 235.50777 255.744
220.80684 235.516 255.744
220.80865 235.51704 255.744
220.7911 235.50717 255.744
220.78047 235.50119 255.744
220.81259 235.51927 255.744
220.79413 235.50888 255.744
220.79199 235.50768 255.744
220.80714 235.51619 255.744
220.81004 235.51779 255.744
220.79544 235.5096 255.744
220.79738 235.51068 255.744
220.8023 235.51347 255.744
220.80194 235.51326 255.744
220.79466 235.50914 255.744
220.79276 235.5081 255.744
220.79376 235.50865 255.744
220.78456 235.5035 255.744
220.79106 235.50716 255.744
220.8148 235.52051 255.744
220.79561 235.50972 255.744
220.80351 235.51414 255.744
220.80699 235.51611 255.744
220.80698 235.51608 255.744
220.82304 235.52513 255.744
220.79372 235.50864 255.744
220.80258 235.51364 255.744
220.79665 235.5103 255.744
220.79465 235.50916 255.744
220.7886 235.50578 255.744
220.80455 235.51472 255.744
220.8077 235.51651 255.744
220.794 235.5088 255.744
220.7925 235.50793 255.744
220.81485 235.52052 255.744
220.80362 235.51419 255.744
220.78084 235.50137 255.744
220.78186 235.50197 255.744
220.80165 235.5131 255.744
220.7935 235.50851 255.744
220.78278 235.5025 255.744
220.81526 235.52077 255.744
220.7978 235.51093 255.744
220.79854 235.51137 255.744
220.79492 235.50931 255.744
220.77295 235.49695 255.744
220.8059 235.51547 255.744
220.8106 235.51813 255.744
220.81514 235.5207 255.744
220.7935 235.5085 255.744
220.79817 235.51115 255.744
220.77211 235.49649 255.744
220.80696 235.51611 255.744
220.82826 235.52805 255.744
220.80211 235.51337 255.744
220.79604 235.50993 255.744
220.81436 235.52025 255.744
220.80186 235.51321 255.744
220.795 235.50938 255.744
220.8104 235.51804 255.744
220.78717 235.50494 255.744
220.78264 235.50243 255.744
220.80031 235.51234 255.744
220.7966 235.51024 255.744
220.79024 235.50668 255.744
220.77309 235.49706 255.744
220.79152 235.5074 255.744
220.80768 235.51651 255.744
220.79337 235.50844 255.744
220.80038 235.5124 255.744
220.77715 235.49934 255.744
220.79454 235.50908 255.744
220.80504 235.515 255.744
220.79936 235.51183 255.744
220.77774 235.49966 255.744
220.78633 235.50449 255.744
220.80424 235.51454 255.744
220.79298 235.50822 255.744
220.7777 235.49965 255.744
220.80539 235.51521 255.744
220.7954 235.50958 255.744
220.80351 235.51418 255.744
220.78732 235.50505 255.744
220.80392 235.51437 255.744
220.79494 235.50934 255.744
220.79857 235.51137 255.744
220.83203 235.53021 255.744
220.8073 235.51628 255.744
220.80562 235.51534 255.744
220.8081 235.51672 255.744
220.82585 235.5267 255.744
220.80022 235.51233 255.744
220.80284 235.51378 255.744
220.80493 235.51495 255.744
220.79927 235.51175 255.744
220.80011 235.51225 255.744
220.78513 235.50383 255.744
220.80894 235.51718 255.744
220.79977 235.51207 255.744
220.80049 235.51244 255.744
220.80023 235.51233 255.744
220.78491 235.50368 255.744
220.81554 235.52094 255.744
220.78297 235.50261 255.744
220.80038 235.51239 255.744
220.81564 235.52098 255.744
220.79785 235.51094 255.744
220.80594 235.51552 255.744
220.79869 235.51144 255.744
220.7905 235.50684 255.744
220.79544 235.50961 255.744
220.80531 235.51517 255.744
220.79637 235.51013 255.744
220.83005 235.52908 255.744
220.7985 235.51132 255.744
220.79883 235.51152 255.744
220.77707 235.49925 255.744
220.77966 235.50073 255.744
220.80482 235.51488 255.744
220.79753 235.5108 255.744
220.79062 235.5069 255.744
220.82642 235.52704 255.744
220.81569 235.521 255.744
220.79147 235.50739 255.744
220.7981 235.51111 255.744
220.79956 235.51192 255.744
220.81581 235.52107 255.744
220.79587 235.50986 255.744
220.80498 235.515 255.744
220.79259 235.50801 255.744
220.80264 235.51367 255.744
220.80174 235.51317 255.744
220.8025 235.51361 255.744
220.80305 235.51387 255.744
220.80965 235.51761 255.744
220.79872 235.51144 255.744
220.80005 235.51224 255.744
220.80247 235.51357 255.744
220.81946 235.52313 255.744
220.80124 235.51288 255.744
220.80652 235.51581 255.744
220.79755 235.51079 255.744
220.79994 235.51216 255.744
220.80276 235.51375 255.744
220.80527 235.51514 255.744
220.81445 235.5203 255.744
220.79265 235.50804 255.744
220.81012 235.51788 255.744
220.81934 235.52309 255.744
220.79439 235.509 255.744
220.79684 235.5104 255.744
220.79865 235.51143 255.744
220.81075 235.5182 255.744
220.79398 235.5088 255.744
220.79681 235.51038 255.744
220.79985 235.51208 255.744
220.81664 235.52151 255.744
220.82405 235.52571 255.744
220.81163 235.51872 255.744
220.80302 235.51385 255.744
220.80064 235.51254 255.744
220.79977 235.51202 255.744
220.79263 235.50801 255.744
220.77643 235.4989 255.744
220.79701 235.5105 255.744
220.7999 235.51212 255.744
220.80504 235.51501 255.744
220.8006 235.51253 255.744
220.82076 235.52385 255.744
220.78459 235.50354 255.744
220.80322 235.51399 255.744
220.79764 235.51085 255.744
220.80757 235.51643 255.744
220.80486 235.5149 255.744
220.80052 235.51244 255.744
220.80959 235.51756 255.744
220.81714 235.52182 255.744
220.8208 235.52386 255.744
220.81703 235.52176 255.744
220.79851 235.51132 255.744
220.80498 235.51495 255.744
220.80179 235.51318 255.744
220.81929 235.52304 255.744
220.79749 235.51077 255.744
220.79826 235.51122 255.744
220.80954 235.51755 255.744
220.79883 235.5115 255.744
220.81303 235.51952 255.744
220.80547 235.51523 255.744
220.8101 235.51784 255.744
220.79744 235.51071 255.744
220.81624 235.52132 255.744
220.8171 235.52179 255.744
220.8045 235.5147 255.744
220.79887 235.51155 255.744
220.8215 235.52429 255.744
220.79964 235.512 255.744
220.80696 235.51613 255.744
220.79309 235.5083 255.744
220.78961 235.5063 255.744
220.80418 235.51454 255.744
220.80125 235.51288 255.744
220.79764 235.51083 255.744
220.80688 235.51607 255.744
220.79475 235.50922 255.744
220.80785 235.5166 255.744
220.8026 235.51364 255.744
220.8175 235.52203 255.744
220.82947 235.52875 255.744
220.80563 235.51532 255.744
220.81343 235.51971 255.744
220.79851 235.51132 255.744
220.81537 235.52081 255.744
220.79782 235.51094 255.744
220.79988 235.51208 255.744
220.80728 235.51625 255.744
220.80977 235.51768 255.744
220.81761 235.52206 255.744
220.8055 235.51527 255.744
220.82472 235.5261 255.744
220.80614 235.51566 255.744
220.80708 235.51616 255.744
220.79872 235.51146 255.744
220.80649 235.5158 255.744
220.79549 235.50964 255.744
220.80734 235.51633 255.744
220.80255 235.5136 255.744
220.81264 235.51929 255.744
220.82153 235.52429 255.744
220.7946 235.50912 255.744
220.81357 235.5198 255.744
220.8081 235.51674 255.744
220.80647 235.51584 255.744
220.81155 235.51866 255.744
220.83563 235.53224 255.744
220.81401 235.52005 255.744
220.8255 235.5265 255.744
220.80225 235.51341 255.744
220.79312 235.50827 255.744
220.81982 235.52333 255.744
220.81273 235.51933 255.744
220.8078 235.51657 255.744
220.81248 235.51921 255.744
220.80016 235.51227 255.744
220.80377 235.5143 255.744
220.79634 235.51013 255.744
220.81625 235.52133 255.744
220.81248 235.51918 255.744
220.82413 235.52573 255.744
220.8134 235.51968 255.744
220.81824 235.52243 255.744
220.81201 235.5189 255.744
220.81577 235.52104 255.744
220.78471 235.50356 255.744
220.80704 235.51611 255.744
220.82475 235.5261 255.744
220.8213 235.52417 255.744
220.81087 235.5183 255.744
220.79294 235.50818 255.744
220.81635 235.52138 255.744
220.83208 235.53021 255.744
220.82947 235.52875 255.744
220.81802 235.5223 255.744
220.82803 235.52792 255.744
220.81587 235.5211 255.744
220.82675 235.52722 255.744
220.82059 235.52377 255.744
220.81773 235.52216 255.744
220.80135 235.51292 255.744
220.8228 235.525 255.744
220.80942 235.51747 255.744
220.81493 235.52058 255.744
220.79675 235.51038 255.744
220.81929 235.52301 255.744
220.81865 235.52267 255.744
220.81902 235.5229 255.744
220.80002 235.51218 255.744
220.80719 235.51624 255.744
220.8105 235.5181 255.744
220.81044 235.51805 255.744
220.81532 235.5208 255.744
220.82747 235.52759 255.744
220.81613 235.52124 255.744
220.81432 235.52022 255.744
220.82431 235.52588 255.744
220.80896 235.51723 255.744
220.84164 235.53557 255.744
220.80876 235.5171 255.744
220.80876 235.51709 255.744
220.83295 235.53072 255.744
220.82417 235.52577 255.744
220.83151 235.52989 255.744
220.81833 235.5225 255.744
220.83272 235.53056 255.744
220.84135 235.53543 255.744
220.82411 235.52573 255.744
220.80478 235.51488 255.744
220.82973 235.5289 255.744
220.83354 235.53104 255.744
220.82051 235.52371 255.744
220.81064 235.51817 255.744
220.84305 235.5364 255.744
220.81723 235.52187 255.744
220.82413 235.52573 255.744
220.84204 235.53584 255.744
220.83087 235.52951 255.744
220.8167 235.52156 255.744
220.82304 235.52515 255.744
220.81996 235.52338 255.744
220.81924 235.523 255.744
220.82451 235.52596 255.744
220.834 235.5313 255.744
220.81813 235.52237 255.744
220.8354 235.5321 255.744
220.82361 235.52545 255.744
220.80865 235.51704 255.744
220.80624 235.51569 255.744
220.83475 235.53172 255.744
220.8448 235.53738 255.744
220.84714 235.53868 255.744
220.83064 235.5294 255.744
220.82028 235.52359 255.744
220.8195 235.52315 255.744
220.83629 235.53258 255.744
220.82193 235.52452 255.744
220.83276 235.53062 255.744
220.82144 235.52423 255.744
220.81596 235.52113 255.744
220.83145 235.52986 255.744
220.8126 235.51927 255.744
220.81496 235.52057 255.744
220.8325 235.53049 255.744
220.81166 235.51872 255.744
220.82149 235.52428 255.744
220.81548 235.52089 255.744
220.83122 235.52974 255.744
220.84732 235.53879 255.744
220.87112 235.5522 255.744
220.84642 235.53828 255.744
220.86285 235.54755 255.744
220.8653 235.54893 255.744
220.85918 235.54546 255.744
220.84952 235.54002 255.744
220.86441 235.54843 255.744
220.84892 235.53972 255.744
220.8573 235.54439 255.744
220.8698 235.55144 255.744
220.87271 235.55309 255.744
220.85309 235.54204 255.744
220.85655 235.54399 255.744
220.8584 235.54506 255.744
220.84605 235.53809 255.744
220.87231 235.55283 255.744
220.85385 235.5425 255.744
220.86656 235.54965 255.744
220.84883 235.53961 255.744
220.86372 235.54803 255.744
220.8536 235.54233 255.744
220.85445 235.5428 255.744
220.83244 235.5304 255.744
220.85454 235.54286 255.744
220.84827 235.53932 255.744
220.83244 235.53044 255.744
220.84106 235.53523 255.744
220.85042 235.54056 255.744
220.86087 235.54642 255.744
220.86362 235.54797 255.744
220.86671 235.54968 255.744
220.8562 235.54381 255.744
220.85669 235.54408 255.744
220.86209 235.54709 255.744
220.86008 235.54596 255.744
220.85046 235.54054 255.744
220.85545 235.54337 255.744
220.85336 235.5422 255.744
220.84833 235.53935 255.744
220.86183 235.54695 255.744
220.84828 235.53932 255.744
220.864 235.54819 255.744
220.85445 235.54283 255.744
220.85535 235.54332 255.744
220.84581 235.53795 255.744
220.8444 235.53717 255.744
220.8342 235.53142 255.744
220.85606 235.54372 255.744
220.84218 235.5359 255.744
220.8455 235.53775 255.744
220.85347 235.54224 255.744
220.83075 235.52945 255.744
220.8479 235.53912 255.744
220.86603 235.5493 255.744
220.83662 235.53278 255.744
220.8379 235.53348 255.744
220.86324 235.54773 255.744
220.85309 235.54204 255.744
220.84937 235.53995 255.744
220.85509 235.5432 255.744
220.85756 235.54454 255.744
220.84753 235.53894 255.744
220.81892 235.52281 255.744
220.84782 235.53905 255.744
220.85396 235.54251 255.744
220.83972 235.53452 255.744
220.848 235.53915 255.744
220.84401 235.53693 255.744
220.84865 235.53952 255.744
220.84874 235.53958 255.744
220.84903 235.53973 255.744
220.85767 235.54459 255.744
220.83742 235.53323 255.744
220.86644 235.54955 255.744
220.84225 235.53592 255.744
220.85922 235.54547 255.744
220.87029 235.55173 255.744
220.86536 235.54895 255.744
220.84161 235.53558 255.744
220.85428 235.54271 255.744
220.85033 235.54048 255.744
220.84668 235.5384 255.744
220.84378 235.53679 255.744
220.84761 235.53897 255.744
220.84135 235.5354 255.744
220.83813 235.53362 255.744
220.84604 235.53806 255.744
220.84349 235.53662 255.744
220.83731 235.53317 255.744
220.84674 235.5385 255.744
220.84018 235.53476 255.744
220.84865 235.53955 255.744
220.85158 235.54123 255.744
220.81737 235.52196 255.744
220.83705 235.53302 255.744
220.82275 235.52496 255.744
220.8171 235.52177 255.744
220.8627 235.54744 255.744
220.86057 235.54623 255.744
220.82884 235.52843 255.744
220.84961 235.54008 255.744
220.81247 235.5192 255.744
220.85645 235.54393 255.744
220.84079 235.53513 255.744
220.83736 235.53319 255.744
220.83289 235.5307 255.744
220.84367 235.53673 255.744
220.8448 235.53737 255.744
220.83572 235.53224 255.744
220.8375 235.53326 255.744
220.83438 235.53154 255.744
220.84094 235.5352 255.744
220.83711 235.53305 255.744
220.83403 235.53133 255.744
220.8587 235.54517 255.744
220.83607 235.53246 255.744
220.83923 235.53426 255.744
220.83807 235.53358 255.744
220.85051 235.5406 255.744
220.85585 235.54358 255.744
220.841 235.53525 255.744
220.83812 235.5336 255.744
220.83658 235.53273 255.744
220.84142 235.53546 255.744
220.83502 235.53189 255.744
220.85391 235.54247 255.744
220.82603 235.52681 255.744
220.86267 235.54744 255.744
220.85966 235.54575 255.744
220.82625 235.52695 255.744
220.82698 235.52731 255.744
220.83635 235.53264 255.744
220.83423 235.53145 255.744
220.83917 235.5342 255.744
220.82976 235.52892 255.744
220.8405 235.53496 255.744
220.82867 235.5283 255.744
220.83232 235.53035 255.744
220.81738 235.52196 255.744
220.82346 235.52534 255.744
220.84573 235.53792 255.744
220.85847 235.54509 255.744
220.82051 235.5237 255.744
220.84656 235.5384 255.744
220.83511 235.53192 255.744
220.82123 235.52411 255.744
220.8288 235.52837 255.744
220.8699 235.5515 255.744
220.83046 235.52931 255.744
220.82878 235.52837 255.744
220.84572 235.53789 255.744
220.85675 235.5441 255.744
220.84262 235.53613 255.744
220.83907 235.53415 255.744
220.83379 235.53117 255.744
220.83739 235.53317 255.744
220.84006 235.5347 255.744
220.83963 235.53444 255.744
220.82474 235.5261 255.744
220.85596 235.54366 255.744
220.83435 235.53151 255.744
220.84674 235.53848 255.744
220.84164 235.53561 255.744
220.82771 235.52777 255.744
220.84781 235.53906 255.744
220.83118 235.52972 255.744
220.82121 235.52412 255.744
220.8218 235.52444 255.744
220.8464 235.5383 255.744
220.82796 235.52788 255.744
220.84091 235.5352 255.744
220.85074 235.54074 255.744
220.83069 235.52943 255.744
220.82646 235.52705 255.744
220.8491 235.53978 255.744
220.85179 235.54132 255.744
220.83331 235.53093 255.744
220.83167 235.52998 255.744
220.82512 235.52632 255.744
220.84694 235.53856 255.744
220.82907 235.52853 255.744
220.82983 235.52895 255.744
220.8219 235.52449 255.744
220.83485 235.53178 255.744
220.84364 235.53673 255.744
220.82962 235.52884 255.744
220.81946 235.52312 255.744
220.83812 235.5336 255.744
220.82259 235.52487 255.744
220.82668 235.52719 255.744
220.83417 235.53139 255.744
220.84697 235.53857 255.744
220.83229 235.53033 255.744
220.83037 235.52925 255.744
220.86023 235.54605 255.744
220.83992 235.53464 255.744
220.82465 235.52605 255.744
220.82423 235.52579 255.744
220.83826 235.53369 255.744
220.82045 235.52368 255.744
220.85551 235.5434 255.744
220.81865 235.52267 255.744
220.83757 235.53331 255.744
220.83218 235.53029 255.744
220.8483 235.53932 255.744
220.83218 235.53027 255.744
220.8191 235.52295 255.744
220.83313 235.53078 255.744
220.83522 235.53198 255.744
220.8216 235.52434 255.744
220.83774 235.53342 255.744
220.82031 235.52362 255.744
220.83615 235.5325 255.744
220.82549 235.5265 255.744
220.8422 235.53592 255.744
220.81554 235.52094 255.744
220.83508 235.5319 255.744
220.83293 235.5307 255.744
220.83641 235.53264 255.744
220.81627 235.5213 255.744
220.83408 235.53136 255.744
220.83325 235.53085 255.744
220.81467 235.52042 255.744
220.82565 235.5266 255.744
220.82227 235.5247 255.744
220.83148 235.52989 255.744
220.82886 235.52841 255.744
220.85188 235.54137 255.744
220.82387 235.52559 255.744
220.85435 235.54277 255.744
220.83984 235.5346 255.744
220.82436 235.52588 255.744
220.84718 235.53873 255.744
220.82085 235.5239 255.744
220.82545 235.52646 255.744
220.82898 235.52844 255.744
220.8298 235.52895 255.744
220.82079 235.52386 255.744
220.83118 235.5297 255.744
220.81851 235.5226 255.744
220.83253 235.53047 255.744
220.85693 235.5442 255.744
220.82896 235.52846 255.744
220.8318 235.53004 255.744
220.83098 235.5296 255.744
220.84622 235.53816 255.744
220.8274 235.52762 255.744
220.81389 235.51996 255.744
220.82669 235.52719 255.744
220.83458 235.53162 255.744
220.82408 235.52571 255.744
220.83769 235.53336 255.744
220.83746 235.53325 255.744
220.84499 235.53746 255.744
220.83034 235.5292 255.744
220.82034 235.52362 255.744
220.83937 235.53435 255.744
220.84021 235.53477 255.744
220.83443 235.53154 255.744
220.80486 235.51491 255.744
220.82974 235.52892 255.744
220.84677 235.53851 255.744
220.84305 235.53639 255.744
220.84209 235.53586 255.744
220.80954 235.51755 255.744
220.81464 235.5204 255.744
220.83679 235.53285 255.744
220.83699 235.53297 255.744
220.81793 235.52225 255.744
220.82753 235.52763 255.744
220.83464 235.53165 255.744
220.82436 235.52588 255.744
220.81429 235.52023 255.744
220.83485 235.53178 255.744
220.83102 235.52963 255.744
220.8444 235.53717 255.744
220.8389 235.53406 255.744
220.814 235.52005 255.744
220.82922 235.52863 255.744
220.84673 235.53847 255.744
220.8198 235.52332 255.744
220.83064 235.52942 255.744
220.85025 235.54045 255.744
220.82892 235.52841 255.744
220.83078 235.5295 255.744
220.82434 235.5259 255.744
220.80986 235.51772 255.744
220.82141 235.52423 255.744
220.83212 235.53027 255.744
220.82547 235.5265 255.744
220.84163 235.53561 255.744
220.81854 235.5226 255.744
220.81895 235.52284 255.744
220.82253 235.52486 255.744
220.80931 235.51741 255.744
220.84998 235.5403 255.744
220.83989 235.53462 255.744
220.8449 235.53745 255.744
220.82675 235.52724 255.744
220.81586 235.5211 255.744
220.84755 235.53893 255.744
220.83072 235.52948 255.744
220.81813 235.5224 255.744
220.8272 235.5275 255.744
220.8178 235.5222 255.744
220.81593 235.52115 255.744
220.82478 235.52611 255.744
220.81668 235.52158 255.744
220.83751 235.53325 255.744
220.81439 235.5203 255.744
220.82504 235.52626 255.744
220.82738 235.52757 255.744
220.81628 235.52132 255.744
220.84172 235.53563 255.744
220.82858 235.52823 255.744
220.83853 235.53384 255.744
220.84294 235.53633 255.744
220.83171 235.53001 255.744
220.83691 235.53294 255.744
220.82303 235.52512 255.744
220.84744 235.53886 255.744
220.84758 235.53893 255.744
220.84096 235.53523 255.744
220.82596 235.5268 255.744
220.8402 235.53479 255.744
220.84517 235.53758 255.744
220.84833 235.53937 255.744
220.85179 235.54135 255.744
220.82478 235.52612 255.744
220.82323 235.52525 255.744
220.83177 235.53004 255.744
220.82936 235.52866 255.744
220.83563 235.53221 255.744
220.82953 235.52878 255.744
220.81508 235.52066 255.744
220.83308 235.53078 255.744
220.8473 235.53879 255.744
220.82324 235.52524 255.744
220.84683 235.53853 255.744
220.84274 235.53621 255.744
220.82458 235.52602 255.744
220.81474 235.52048 255.744
220.83492 235.53181 255.744
220.83302 235.53075 255.744
220.8264 235.52702 255.744
220.83168 235.52997 255.744
220.80492 235.51494 255.744
220.80502 235.515 255.744
220.83398 235.53128 255.744
220.83917 235.53421 255.744
220.82004 235.52344 255.744
220.84386 235.53683 255.744
220.832 235.53018 255.744
220.84549 235.53775 255.744
220.82932 235.52867 255.744
220.82692 235.5273 255.744
220.82663 235.52715 255.744
220.80428 235.51457 255.744
220.82997 235.52904 255.744
220.84596 235.53802 255.744
220.85422 235.5427 255.744
220.83296 235.53072 255.744
220.82632 235.52698 255.744
220.82806 235.52797 255.744
220.8406 235.53503 255.744
220.82846 235.52818 255.744
220.84973 235.54015 255.744
220.85104 235.54092 255.744
220.82875 235.52834 255.744
220.83267 235.5305 255.744
220.85175 235.54128 255.744
220.82286 235.52502 255.744
220.82312 235.52518 255.744
220.83798 235.53354 255.744
220.85068 235.54068 255.744
220.85274 235.54185 255.744
220.81946 235.52312 255.744
220.83118 235.5297 255.744
220.8293 235.52867 255.744
220.83 235.52904 255.744
220.82956 235.5288 255.744
220.82364 235.5255 255.744
220.79805 235.5111 255.744
220.8335 235.531 255.744
220.8509 235.54079 255.744
220.83514 235.53194 255.744
220.82922 235.52863 255.744
220.83534 235.53203 255.744
220.82802 235.52791 255.744
220.82545 235.52649 255.744
220.83212 235.53026 255.744
220.82364 235.52548 255.744
220.824 235.52567 255.744
220.83533 235.53203 255.744
220.82237 235.52477 255.744
220.8279 235.52786 255.744
220.82545 235.52649 255.744
220.84085 235.53517 255.744
220.82552 235.52652 255.744
220.81493 235.52055 255.744
220.84407 235.53697 255.744
220.85884 235.54527 255.744
220.83322 235.53085 255.744
220.83757 235.53331 255.744
220.83147 235.52986 255.744
220.81776 235.52217 255.744
220.84415 235.53702 255.744
220.82281 235.52501 255.744
220.84091 235.53517 255.744
220.81819 235.5224 255.744
220.81938 235.52306 255.744
220.8283 235.52809 255.744
220.83044 235.5293 255.744
220.83263 235.53052 255.744
220.84369 235.53674 255.744
220.82831 235.5281 255.744
220.83147 235.52986 255.744
220.84277 235.53622 255.744
220.84096 235.53522 255.744
220.8302 235.52916 255.744
220.84303 235.53638 255.744
220.83722 235.53311 255.744
220.81586 235.52109 255.744
220.84904 235.53978 255.744
220.85188 235.54137 255.744
220.83623 235.53255 255.744
220.83978 235.53456 255.744
220.83331 235.53091 255.744
220.83551 235.53217 255.744
220.84813 235.53925 255.744
220.83875 235.53398 255.744
220.84561 235.53783 255.744
220.82306 235.52518 255.744
220.83066 235.52942 255.744
220.84145 235.53548 255.744
220.83752 235.53328 255.744
220.83536 235.53206 255.744
220.84195 235.5358 255.744
220.85266 235.54181 255.744
220.82944 235.52875 255.744
220.8528 235.54185 255.744
220.84015 235.53476 255.744
220.82748 235.52762 255.744
220.86485 235.54865 255.744
220.81624 235.5213 255.744
220.84314 235.53647 255.744
220.844 235.5369 255.744
220.83575 235.53229 255.744
220.8454 235.53772 255.744
220.83119 235.52971 255.744
220.82692 235.52734 255.744
220.83125 235.52979 255.744
220.85115 235.54094 255.744
220.8365 235.53268 255.744
220.8364 235.53267 255.744
220.81628 235.52132 255.744
220.83766 235.53339 255.744
220.82889 235.52844 255.744
220.8448 235.53738 255.744
220.83034 235.52924 255.744
220.852 235.54141 255.744
220.84749 235.53888 255.744
220.82703 235.52734 255.744
220.84143 235.53549 255.744
220.84268 235.5362 255.744
220.84647 235.5383 255.744
220.83318 235.53082 255.744
220.83908 235.53415 255.744
220.8366 235.53278 255.744
220.83403 235.5313 255.744
220.82573 235.52663 255.744
220.82263 235.5249 255.744
220.85303 235.542 255.744
220.82088 235.52391 255.744
220.84029 235.53484 255.744
220.85437 235.54277 255.744
220.84584 235.53792 255.744
220.81932 235.52306 255.744
220.842 235.53578 255.744
220.83395 235.53125 255.744
220.84724 235.53876 255.744
220.84094 235.5352 255.744
220.84494 235.53745 255.744
220.85005 235.54034 255.744
220.8479 235.53911 255.744
220.85577 235.54355 255.744
220.84113 235.53532 255.744
220.82568 235.52663 255.744
220.85489 235.54305 255.744
220.8553 235.54327 255.744
220.84824 235.53932 255.744
220.85704 235.54428 255.744
220.84612 235.53812 255.744
220.84244 235.53603 255.744
220.86522 235.5489 255.744
220.84004 235.5347 255.744
220.82974 235.52892 255.744
220.84972 235.54012 255.744
220.83292 235.53069 255.744
220.85167 235.54124 255.744
220.84174 235.53564 255.744
220.83255 235.53049 255.744
220.82402 235.5257 255.744
220.85039 235.5405 255.744
220.86476 235.5486 255.744
220.85951 235.54564 255.744
220.85284 235.54192 255.744
220.83536 235.53207 255.744
220.83406 235.53134 255.744
220.84729 235.53879 255.744
220.84549 235.53773 255.744
220.85936 235.54555 255.744
220.8298 235.52895 255.744
220.8467 235.53842 255.744
220.85228 235.54158 255.744
220.8561 235.54373 255.744
220.84789 235.53914 255.744
220.84122 235.53534 255.744
220.83751 235.53326 255.744
220.83418 235.5314 255.744
220.86046 235.54619 255.744
220.84802 235.53918 255.744
220.86554 235.54906 255.744
220.83997 235.53464 255.744
220.83226 235.53036 255.744
220.85951 235.54567 255.744
220.85616 235.5438 255.744
220.83105 235.52968 255.744
220.8369 235.53296 255.744
220.85413 235.54262 255.744
220.85379 235.54242 255.744
220.85863 235.54514 255.744
220.85474 235.54295 255.744
220.84682 235.53851 255.744
220.83273 235.53058 255.744
220.83572 235.53226 255.744
220.83784 235.53348 255.744
220.85507 235.54317 255.744
220.83247 235.53046 255.744
220.84827 235.5393 255.744
220.83833 235.53374 255.744
220.85175 235.5413 255.744
220.86462 235.54854 255.744
220.84732 235.5388 255.744
220.84427 235.53711 255.744
220.84154 235.53552 255.744
220.83644 235.53265 255.744
220.85297 235.54198 255.744
220.84785 235.53908 255.744
220.84299 235.53635 255.744
220.84123 235.53539 255.744
220.82445 235.52594 255.744
220.85912 235.54544 255.744
220.85875 235.54524 255.744
220.84991 235.54027 255.744
220.85518 235.54321 255.744
220.8508 235.54074 255.744
220.82825 235.52808 255.744
220.84543 235.53773 255.744
220.8404 235.53491 255.744
220.84534 235.53766 255.744
220.87274 235.55309 255.744
220.8323 235.53036 255.744
220.84521 235.53763 255.744
220.83699 235.533 255.744
220.85454 235.54285 255.744
220.85239 235.54166 255.744
220.84973 235.54018 255.744
220.84985 235.5402 255.744
220.84862 235.53952 255.744
220.86601 235.54932 255.744
220.84425 235.53706 255.744
220.87692 235.5555 255.744
220.85747 235.54451 255.744
220.84767 235.53899 255.744
220.83192 235.5301 255.744
220.87416 235.55388 255.744
220.83173 235.52998 255.744
220.86351 235.54791 255.744
220.85019 235.54039 255.744
220.86058 235.54628 255.744
220.87129 235.55226 255.744
220.86824 235.55054 255.744
220.84741 235.53888 255.744
220.86955 235.5513 255.744
220.85883 235.54527 255.744
220.86885 235.55092 255.744
220.87193 235.55263 255.744
220.84988 235.54022 255.744
220.86528 235.54889 255.744
220.86378 235.54805 255.744
220.85596 235.54364 255.744
220.87065 235.55193 255.744
220.85301 235.54198 255.744
220.85669 235.5441 255.744
220.85869 235.5452 255.744
220.8449 235.53741 255.744
220.85304 235.542 255.744
220.85997 235.54593 255.744
220.84857 235.53949 255.744
220.87846 235.55632 255.744
220.89415 235.56514 255.744
220.89082 235.56328 255.744
220.87373 235.55363 255.744
220.86511 235.54878 255.744
220.89456 235.56537 255.744
220.87793 235.55603 255.744
220.89592 235.56615 255.744
220.8742 235.55394 255.744
220.89494 235.5656 255.744
220.8882 235.5618 255.744
220.89113 235.56343 255.744
220.87596 235.5549 255.744
220.89342 235.56473 255.744
220.88936 235.56242 255.744
220.88371 235.55927 255.744
220.88689 235.56105 255.744
220.88454 235.55975 255.744
220.89526 235.56577 255.744
220.85973 235.54579 255.744
220.89375 235.5649 255.744
220.87015 235.55164 255.744
220.86751 235.55014 255.744
220.87865 235.55644 255.744
220.8854 235.5602 255.744
220.87144 235.55237 255.744
220.8766 235.55525 255.744
220.8812 235.55786 255.744
220.90811 235.57297 255.744
220.90288 235.57007 255.744
220.89159 235.56369 255.744
220.88428 235.55959 255.744
220.88293 235.55885 255.744
220.8871 235.56117 255.744
220.89484 235.56554 255.744
220.89993 235.56839 255.744
220.87834 235.55623 255.744
220.8713 235.5523 255.744
220.89084 235.56326 255.744
220.87564 235.55472 255.744
220.89673 235.56659 255.744
220.8984 235.56752 255.744
220.88492 235.55994 255.744
220.8816 235.55807 255.744
220.89659 235.56651 255.744
220.87422 235.55396 255.744
220.89537 235.56581 255.744
220.8761 235.55496 255.744
220.88403 235.55943 255.744
220.88368 235.55927 255.744
220.87373 235.55367 255.744
220.88708 235.56117 255.744
220.90327 235.57025 255.744
220.89236 235.56412 255.744
220.88533 235.56018 255.744
220.88402 235.55943 255.744
220.89728 235.56693 255.744
220.86342 235.54784 255.744
220.88672 235.56097 255.744
220.8668 235.54974 255.744
220.85742 235.54448 255.744
220.87859 235.55637 255.744
220.88638 235.56078 255.744
220.86113 235.54659 255.744
220.87877 235.55649 255.744
220.88821 235.56181 255.744
220.88255 235.55861 255.744
220.87752 235.55577 255.744
220.88074 235.55759 255.744
220.86732 235.55003 255.744
220.8904 235.56303 255.744
220.85881 235.54527 255.744
220.88264 235.55867 255.744
220.87221 235.5528 255.744
220.88193 235.55824 255.744
220.89455 235.56534 255.744
220.85463 235.54288 255.744
220.8786 235.55641 255.744
220.87512 235.55446 255.744
220.87196 235.55269 255.744
220.87238 235.55289 255.744
220.85703 235.54428 255.744
220.86557 235.54906 255.744
220.87958 235.55693 255.744
220.86652 235.54962 255.744
220.86737 235.5501 255.744
220.88185 235.55823 255.744
220.86772 235.55028 255.744
220.8696 235.55133 255.744
220.87204 235.55272 255.744
220.8794 235.55681 255.744
220.85902 235.54538 255.744
220.8735 235.5535 255.744
220.85974 235.54579 255.744
220.89565 235.56598 255.744
220.8789 235.55656 255.744
220.86969 235.55138 255.744
220.86552 235.54898 255.744
220.85703 235.54428 255.744
220.88855 235.562 255.744
220.87634 235.55511 255.744
220.85648 235.54395 255.744
220.87311 235.55331 255.744
220.88943 235.5625 255.744
220.86621 235.54942 255.744
220.87636 235.55513 255.744
220.8769 235.55544 255.744
220.8688 235.55089 255.744
220.87422 235.55394 255.744
220.85901 235.54538 255.744
220.88936 235.56244 255.744
220.87149 235.55238 255.744
220.87383 235.55368 255.744
220.84756 235.53894 255.744
220.8683 235.55058 255.744
220.85858 235.54515 255.744
220.87613 235.55501 255.744
220.87257 235.55301 255.744
220.86697 235.54985 255.744
220.88611 235.56061 255.744
220.87709 235.55553 255.744
220.87181 235.5526 255.744
220.88019 235.55728 255.744
220.85715 235.54433 255.744
220.8716 235.55244 255.744
220.8536 235.54233 255.744
220.85713 235.54431 255.744
220.85252 235.54172 255.744
220.85425 235.54268 255.744
220.8693 235.55113 255.744
220.86111 235.54652 255.744
220.87271 235.55312 255.744
220.88568 235.56033 255.744
220.85985 235.54585 255.744
220.84775 235.53902 255.744
220.85919 235.54547 255.744
220.8455 235.53777 255.744
220.85583 235.54356 255.744
220.88226 235.55847 255.744
220.87048 235.55185 255.744
220.8632 235.54773 255.744
220.87099 235.55211 255.744
220.87262 235.55305 255.744
220.86636 235.54953 255.744
220.85304 235.54202 255.744
220.86981 235.55144 255.744
220.87056 235.55188 255.744
220.85344 235.54227 255.744
220.87222 235.55284 255.744
220.8553 235.54326 255.744
220.86418 235.54828 255.744
220.87787 235.55597 255.744
220.87375 235.55368 255.744
220.85995 235.54591 255.744
220.8697 235.5514 255.744
220.86142 235.54675 255.744
220.87299 235.55322 255.744
220.88354 235.55919 255.744
220.8578 235.54471 255.744
220.8741 235.55385 255.744
220.83331 235.5309 255.744
220.86781 235.55032 255.744
220.85724 235.54437 255.744
220.86179 235.54695 255.744
220.86569 235.54913 255.744
220.8569 235.54419 255.744
220.87389 235.55373 255.744
220.87106 235.55215 255.744
220.87354 235.55357 255.744
220.88326 235.55898 255.744
220.87201 235.5527 255.744
220.8588 235.54526 255.744
220.8765 235.5552 255.744
220.87386 235.55374 255.744
220.85895 235.54533 255.744
220.8812 235.55786 255.744
220.8756 235.55469 255.744
220.87747 235.55577 255.744
220.86519 235.54884 255.744
220.8732 235.55338 255.744
220.87587 235.55487 255.744
220.86462 235.54854 255.744
220.86078 235.54634 255.744
220.85721 235.54437 255.744
220.87392 235.55374 255.744
220.8575 235.54454 255.744
220.85269 235.54182 255.744
220.87254 235.55296 255.744
220.86513 235.54883 255.744
220.86093 235.54645 255.744
220.85802 235.54482 255.744
220.85854 235.54512 255.744
220.85347 235.54224 255.744
220.86684 235.54976 255.744
220.86761 235.5502 255.744
220.87424 235.55394 255.744
220.87221 235.5528 255.744
220.86267 235.54744 255.744
220.87521 235.55446 255.744
220.84784 235.53911 255.744
220.89793 235.56729 255.744
220.87616 235.55501 255.744
220.86053 235.54622 255.744
220.86758 235.5502 255.744
220.87799 235.55603 255.744
220.87653 235.55524 255.744
220.89072 235.56322 255.744
220.87852 235.55637 255.744
220.85861 235.54512 255.744
220.85547 235.5434 255.744
220.88254 235.5586 255.744
220.85681 235.54411 255.744
220.85149 235.54114 255.744
220.85435 235.54277 255.744
220.86331 235.54778 255.744
220.86514 235.54884 255.744
220.8501 235.54034 255.744
220.87364 235.5536 255.744
220.8691 235.55107 255.744
220.86536 235.54895 255.744
220.85883 235.54526 255.744
220.8553 235.54326 255.744
220.8666 235.54965 255.744
220.87389 235.55371 255.744
220.85349 235.54227 255.744
220.85385 235.54247 255.744
220.85724 235.54439 255.744
220.87198 235.55267 255.744
220.86897 235.55096 255.744
220.84773 235.53903 255.744
220.86015 235.546 255.744
220.85284 235.5419 255.744
220.84908 235.53978 255.744
220.8615 235.54678 255.744
220.85674 235.5441 255.744
220.86238 235.54726 255.744
220.8609 235.54646 255.744
220.862 235.54704 255.744
220.85422 235.54268 255.744
220.85564 235.54349 255.744
220.87566 235.55475 255.744
220.85947 235.54561 255.744
220.85625 235.5438 255.744
220.86992 235.55153 255.744
220.86436 235.54839 255.744
220.843 235.53635 255.744
220.87083 235.55202 255.744
220.85497 235.54312 255.744
220.87682 235.55537 255.744
220.87253 235.553 255.744
220.84608 235.53812 255.744
220.85922 235.5455 255.744
220.87099 235.55212 255.744
220.8805 235.55746 255.744
220.8658 235.54922 255.744
220.87442 235.55405 255.744
220.86823 235.55057 255.744
220.8563 235.54382 255.744
220.85458 235.54286 255.744
220.85995 235.54588 255.744
220.85695 235.54417 255.744
220.86282 235.54752 255.744
220.84175 235.53569 255.744
220.852 235.54141 255.744
220.87547 235.55463 255.744
220.8494 235.53995 255.744
220.83833 235.5337 255.744
220.85709 235.54428 255.744
220.84903 235.53975 255.744
220.87288 235.55318 255.744
220.87415 235.5539 255.744
220.84253 235.53607 255.744
220.86609 235.54933 255.744
220.87228 235.55284 255.744
220.85088 235.54083 255.744
220.86435 235.54839 255.744
220.85783 235.5447 255.744
220.84665 235.53842 255.744
220.86542 235.54895 255.744
220.87682 235.55539 255.744
220.8734 235.5534 255.744
220.86385 235.5481 255.744
220.84413 235.53702 255.744
220.86473 235.54855 255.744
220.86873 235.55083 255.744
220.86824 235.55057 255.744
220.84528 235.53764 255.744
220.8648 235.54863 255.744
220.87021 235.55167 255.744
220.87839 235.55627 255.744
220.87126 235.55229 255.744
220.86362 235.54793 255.744
220.8773 235.55565 255.744
220.8536 235.54234 255.744
220.85503 235.54314 255.744
220.86243 235.54729 255.744
220.86436 235.54839 255.744
220.8542 235.54268 255.744
220.8554 235.54333 255.744
220.84932 235.53993 255.744
220.85495 235.54309 255.744
220.88637 235.56079 255.744
220.8551 235.54315 255.744
220.86339 235.54782 255.744
220.84485 235.53741 255.744
220.85585 235.54361 255.744
220.85403 235.54257 255.744
220.8667 235.54971 255.744
220.8552 235.54323 255.744
220.868 235.55043 255.744
220.85666 235.54405 255.744
220.86218 235.54716 255.744
220.86534 235.54893 255.744
220.86456 235.5485 255.744
220.86201 235.54706 255.744
220.86275 235.54747 255.744
220.86998 235.55156 255.744
220.85709 235.54431 255.744
220.85115 235.54095 255.744
220.85866 235.54515 255.744
220.87085 235.552 255.744
220.84157 235.5356 255.744
220.86519 235.54887 255.744
220.8447 235.53731 255.744
220.87068 235.55191 255.744
220.85463 235.5429 255.744
220.84343 235.53659 255.744
220.84863 235.53954 255.744
220.87155 235.55244 255.744
220.85483 235.54303 255.744
220.86151 235.54677 255.744
220.86551 235.549 255.744
220.85329 235.54214 255.744
220.851 235.54085 255.744
220.85768 235.54462 255.744
220.8691 235.55104 255.744
220.87285 235.55316 255.744
220.84647 235.5383 255.744
220.82912 235.52853 255.744
220.85284 235.54192 255.744
220.86737 235.55005 255.744
220.85217 235.54152 255.744
220.85191 235.54138 255.744
220.84937 235.53995 255.744
220.88252 235.55858 255.744
220.85936 235.54558 255.744
220.85812 235.54486 255.744
220.86511 235.5488 255.744
220.86589 235.54924 255.744
220.86891 235.55095 255.744
220.8458 235.53792 255.744
220.86002 235.54594 255.744
220.88432 235.5596 255.744
220.85956 235.5457 255.744
220.88837 235.56187 255.744
220.86314 235.54771 255.744
220.8724 235.55292 255.744
220.8557 235.54352 255.744
220.86942 235.5512 255.744
220.85374 235.54239 255.744
220.86035 235.54613 255.744
220.88258 235.55864 255.744
220.8642 235.54831 255.744
220.8603 235.54611 255.744
220.85204 235.54144 255.744
220.87234 235.55286 255.744
220.86908 235.55103 255.744
220.85664 235.54404 255.744
220.85675 235.5441 255.744
220.86441 235.54842 255.744
220.85191 235.5414 255.744
220.86609 235.54935 255.744
220.87532 235.55455 255.744
220.8877 235.5615 255.744
220.87189 235.55264 255.744
220.85641 235.54393 255.744
220.87279 235.55312 255.744
220.84753 235.53891 255.744
220.8572 235.54437 255.744
220.87393 235.55374 255.744
220.85364 235.54233 255.744
220.87096 235.55211 255.744
220.8619 235.547 255.744
220.8577 235.54462 255.744
220.84805 235.53923 255.744
220.8617 235.5469 255.744
220.85983 235.54582 255.744
220.87599 235.55495 255.744
220.86261 235.5474 255.744
220.85445 235.54279 255.744
220.86572 235.54915 255.744
220.86333 235.54779 255.744
220.88548 235.56026 255.744
220.8692 235.55109 255.744
220.88016 235.55728 255.744
220.85876 235.54527 255.744
220.85985 235.54582 255.744
220.86241 235.5473 255.744
220.82709 235.52739 255.744
220.8515 235.54115 255.744
220.84656 235.53836 255.744
220.85805 235.54482 255.744
220.86452 235.5485 255.744
220.86366 235.54797 255.744
220.86981 235.55144 255.744
220.87697 235.5555 255.744
220.85155 235.54118 255.744
220.85487 235.54305 255.744
220.87181 235.55258 255.744
220.85313 235.54207 255.744
220.87329 235.55339 255.744
220.84459 235.53726 255.744
220.86644 235.54955 255.744
220.88158 235.55807 255.744
220.86768 235.55023 255.744
220.87418 235.55392 255.744
220.89326 235.56464 255.744
220.86974 235.5514 255.744
220.87158 235.55246 255.744
220.86925 235.55115 255.744
220.88144 235.55798 255.744
220.84485 235.5374 255.744
220.85498 235.5431 255.744
220.85387 235.54247 255.744
220.84541 235.5377 255.744
220.84392 235.5369 255.744
220.85983 235.54582 255.744
220.87215 235.55278 255.744
220.87029 235.55171 255.744
220.8792 235.55672 255.744
220.85754 235.54456 255.744
220.8569 235.5442 255.744
220.86263 235.5474 255.744
220.85497 235.54309 255.744
220.89265 235.5643 255.744
220.85052 235.54059 255.744
220.8491 235.5398 255.744
220.8811 235.55779 255.744
220.8536 235.54236 255.744
220.8769 235.55542 255.744
220.87599 235.55492 255.744
220.87634 235.55515 255.744
220.8649 235.54869 255.744
220.87627 235.55507 255.744
220.85124 235.541 255.744
220.87102 235.55212 255.744
220.85689 235.54419 255.744
220.87265 235.55302 255.744
220.87323 235.55338 255.744
220.86392 235.54816 255.744
220.8636 235.54796 255.744
220.88058 235.5575 255.744
220.8834 235.55911 255.744
220.87979 235.55707 255.744
220.85292 235.54196 255.744
220.87347 235.55351 255.744
220.8705 235.55183 255.744
220.85632 235.54385 255.744
220.86328 235.54773 255.744
220.87776 235.55595 255.744
220.8769 235.55545 255.744
220.8698 235.55142 255.744
220.86806 235.55048 255.744
220.87808 235.55612 255.744
220.88289 235.5588 255.744
220.86618 235.5494 255.744
220.86052 235.54622 255.744
220.87265 235.55304 255.744
220.83807 235.53358 255.744
220.87596 235.55492 255.744
220.8886 235.562 255.744
220.86726 235.54999 255.744
220.87828 235.55623 255.744
220.8465 235.53835 255.744
220.86852 235.55072 255.744
220.86275 235.54747 255.744
220.87872 235.55649 255.744
220.86447 235.54843 255.744
220.8702 235.55164 255.744
220.87306 235.5533 255.744
220.88281 235.55879 255.744
220.88867 235.56206 255.744
220.90227 235.56969 255.744
220.87599 235.55492 255.744
220.86063 235.54628 255.744
220.86766 235.55025 255.744
220.88484 235.5599 255.744
220.85861 235.54518 255.744
220.87437 235.55403 255.744
220.86699 235.54985 255.744
220.84535 235.53769 255.744
220.85587 235.54361 255.744
220.86597 235.5493 255.744
220.8714 235.55232 255.744
220.87207 235.55269 255.744
220.8618 235.54694 255.744
220.87549 235.55463 255.744
220.87088 235.55205 255.744
220.86996 235.55154 255.744
220.86452 235.54843 255.744
220.88058 235.55751 255.744
220.87524 235.55449 255.744
220.8914 235.56358 255.744
220.90231 235.56975 255.744
220.8873 235.5613 255.744
220.86003 235.54596 255.744
220.8731 235.5533 255.744
220.84952 235.54001 255.744
220.87949 235.55688 255.744
220.86641 235.54955 255.744
220.89014 235.5629 255.744
220.87958 235.55693 255.744
220.87737 235.55573 255.744
220.87389 235.55374 255.744
220.84868 235.53955 255.744
220.85788 235.54475 255.744
220.87038 235.55176 255.744
220.87741 235.55573 255.744
220.88058 235.55751 255.744
220.88507 235.56003 255.744
220.88342 235.55907 255.744
220.88965 235.5626 255.744
220.87114 235.55217 255.744
220.86646 235.54956 255.744
220.87567 235.55478 255.744
220.87997 235.55717 255.744
220.87665 235.55528 255.744
220.88472 235.55983 255.744
220.89105 235.56339 255.744
220.8854 235.56024 255.744
220.86893 235.55095 255.744
220.88586 235.56049 255.744
220.87683 235.5554 255.744
220.86098 235.5465 255.744
220.8636 235.54794 255.744
220.8953 235.5658 255.744
220.88634 235.56075 255.744
220.86163 235.54684 255.744
220.8718 235.55257 255.744
220.88095 235.5577 255.744
220.8688 235.55089 255.744
220.8782 235.55617 255.744
220.88214 235.5584 255.744
220.88661 235.56091 255.744
220.87927 235.55675 255.744
220.88354 235.55919 255.744
220.88849 235.56197 255.744
220.8826 235.55865 255.744
220.88214 235.55841 255.744
220.87808 235.55609 255.744
220.86406 235.54823 255.744
220.90265 235.56993 255.744
220.87604 235.55495 255.744
220.8736 235.55359 255.744
220.88889 235.56215 255.744
220.86467 235.54855 255.744
220.88983 235.56271 255.744
220.88197 235.55832 255.744
220.88213 235.55833 255.744
220.89064 235.56314 255.744
220.85931 235.54555 255.744
220.88666 235.56093 255.744
220.89555 235.56595 255.744
220.8793 235.55678 255.744
220.88298 235.55884 255.744
220.86668 235.54971 255.744
220.86584 235.54924 255.744
220.89131 235.56354 255.744
220.8803 235.55734 255.744
220.86018 235.54604 255.744
220.8956 235.56595 255.744
220.88972 235.56262 255.744
220.85373 235.54239 255.744
220.89648 235.56645 255.744
220.89864 235.56767 255.744
220.87567 235.55472 255.744
220.89488 235.56557 255.744
220.87936 235.55681 255.744
220.87907 235.55666 255.744
220.89046 235.56306 255.744
220.88377 235.55931 255.744
220.8816 235.55807 255.744
220.8708 235.55203 255.744
220.879 235.55663 255.744
220.88658 235.56088 255.744
220.89137 235.56357 255.744
220.89484 235.5655 255.744
220.89458 235.5654 255.744
220.87616 235.55502 255.744
220.9035 235.5704 255.744
220.85628 235.54384 255.744
220.89784 235.56721 255.744
220.89099 235.56339 255.744
220.90309 235.57016 255.744
220.89728 235.56685 255.744
220.88608 235.5606 255.744
220.88681 235.56102 255.744
220.8994 235.5681 255.744
220.88469 235.55983 255.744
220.89021 235.56293 255.744
220.92223 235.58092 255.744
220.91275 235.57562 255.744
220.91333 235.57591 255.744
220.90942 235.57373 255.744
220.91637 235.57767 255.744
220.92929 235.58492 255.744
220.92819 235.58429 255.744
220.93642 235.58893 255.744
220.91452 235.57658 255.744
220.91533 235.57709 255.744
220.90562 235.5716 255.744
220.9295 235.58504 255.744
220.92532 235.58269 255.744
220.92847 235.58446 255.744
220.90718 235.57248 255.744
220.92067 235.5801 255.744
220.91922 235.57927 255.744
220.90356 235.57042 255.744
220.9042 235.5708 255.744
220.89824 235.56743 255.744
220.93864 235.59018 255.744
220.92879 235.58461 255.744
220.90361 235.57047 255.744
220.91946 235.57936 255.744
220.9078 235.5728 255.744
220.9083 235.57312 255.744
220.92928 235.58492 255.744
220.89624 235.5663 255.744
220.91855 235.57886 255.744
220.92708 235.58365 255.744
220.92068 235.58008 255.744
220.91766 235.57835 255.744
220.91898 235.57912 255.744
220.92374 235.58179 255.744
220.92432 235.5821 255.744
220.90952 235.57375 255.744
220.91243 235.57542 255.744
220.91501 235.57686 255.744
220.91254 235.57549 255.744
220.91832 235.57872 255.744
220.90802 235.57294 255.744
220.91502 235.57689 255.744
220.92265 235.58118 255.744
220.91731 235.57817 255.744
220.90443 235.57092 255.744
220.91797 235.5785 255.744
220.90636 235.57198 255.744
220.91705 235.57803 255.744
220.91365 235.57613 255.744
220.9093 235.57367 255.744
220.909 235.57352 255.744
220.90189 235.56949 255.744
220.92204 235.58083 255.744
220.92595 235.58304 255.744
220.90678 235.57225 255.744
220.91852 235.57884 255.744
220.90576 235.5717 255.744
220.88889 235.5622 255.744
220.93181 235.58633 255.744
220.90388 235.57063 255.744
220.89243 235.56418 255.744
220.9307 235.58572 255.744
220.90018 235.56854 255.744
220.89922 235.56802 255.744
220.90079 235.56886 255.744
220.91069 235.57443 255.744
220.9059 235.57176 255.744
220.92743 235.58385 255.744
220.91455 235.57663 255.744
220.91064 235.57443 255.744
220.9088 235.57335 255.744
220.90454 235.57098 255.744
220.93295 235.58698 255.744
220.88951 235.56253 255.744
220.91125 235.57477 255.744
220.89847 235.56757 255.744
220.91527 235.577 255.744
220.91019 235.57417 255.744
220.90779 235.57281 255.744
220.89435 235.56525 255.744
220.88658 235.56088 255.744
220.87956 235.55693 255.744
220.91817 235.57867 255.744
220.90277 235.56999 255.744
220.91396 235.5763 255.744
220.90602 235.57181 255.744
220.91176 235.57503 255.744
220.89635 235.56639 255.744
220.9017 235.5694 255.744
220.91983 235.57959 255.744
220.91469 235.57668 255.744
220.89821 235.56744 255.744
220.91603 235.57745 255.744
220.90952 235.5738 255.744
220.91875 235.57896 255.744
220.89711 235.56679 255.744
220.92448 235.58221 255.744
220.91232 235.57538 255.744
220.90158 235.5693 255.744
220.91571 235.57727 255.744
220.9388 235.59027 255.744
220.89336 235.56468 255.744
220.9065 235.5721 255.744
220.89662 235.56651 255.744
220.89604 235.56621 255.744
220.9162 235.57755 255.744
220.91121 235.57477 255.744
220.90561 235.57161 255.744
220.92967 235.58511 255.744
220.91148 235.57489 255.744
220.894 235.56505 255.744
220.90451 235.57097 255.744
220.89685 235.56665 255.744
220.90697 235.57237 255.744
220.90483 235.57117 255.744
220.93323 235.58714 255.744
220.9121 235.57523 255.744
220.89192 235.56389 255.744
220.89256 235.56425 255.744
220.92249 235.58109 255.744
220.88988 235.56274 255.744
220.89926 235.56801 255.744
220.90483 235.57117 255.744
220.8934 235.56474 255.744
220.90125 235.56915 255.744
220.9135 235.57602 255.744
220.8955 235.5659 255.744
220.89923 235.56801 255.744
220.8835 235.55914 255.744
220.90918 235.57358 255.744
220.905 235.57124 255.744
220.90248 235.56982 255.744
220.91936 235.57933 255.744
220.90445 235.57092 255.744
220.90514 235.57133 255.744
220.8949 235.56555 255.744
220.89917 235.56796 255.744
220.92091 235.58018 255.744
220.893 235.56447 255.744
220.89236 235.56415 255.744
220.92104 235.58028 255.744
220.90508 235.57126 255.744
220.89526 235.56577 255.744
220.92064 235.58005 255.744
220.92639 235.5833 255.744
220.88303 235.55888 255.744
220.89784 235.56723 255.744
220.91599 235.57741 255.744
220.90082 235.5689 255.744
220.905 235.57123 255.744
220.90373 235.57053 255.744
220.8974 235.56699 255.744
220.8899 235.56274 255.744
220.8996 235.56818 255.744
220.9067 235.57217 255.744
220.88628 235.56073 255.744
220.90422 235.57079 255.744
220.88881 235.56215 255.744
220.89609 235.56624 255.744
220.90341 235.57031 255.744
220.90051 235.56871 255.744
220.8954 235.56584 255.744
220.9015 235.56927 255.744
220.89088 235.56331 255.744
220.90067 235.56879 255.744
220.90875 235.57335 255.744
220.8977 235.56715 255.744
220.90242 235.5698 255.744
220.89722 235.56683 255.744
220.89377 235.56491 255.744
220.9089 235.57347 255.744
220.90631 235.57199 255.744
220.89125 235.56349 255.744
220.8893 235.56241 255.744
220.90329 235.57028 255.744
220.88986 235.56271 255.744
220.9101 235.57413 255.744
220.90913 235.57356 255.744
220.89517 235.56573 255.744
220.90208 235.56961 255.744
220.89128 235.56355 255.744
220.88605 235.56058 255.744
220.90227 235.56969 255.744
220.88817 235.56178 255.744
220.88083 235.55765 255.744
220.90231 235.56972 255.744
220.89433 235.56525 255.744
220.9018 235.56943 255.744
220.91673 235.57782 255.744
220.88148 235.55801 255.744
220.88245 235.55855 255.744
220.91084 235.57452 255.744
220.89615 235.56627 255.744
220.88652 235.5608 255.744
220.8983 235.56749 255.744
220.90082 235.5689 255.744
220.90851 235.5732 255.744
220.87787 235.55598 255.744
220.90039 235.56865 255.744
220.88994 235.56277 255.744
220.89104 235.5634 255.744
220.8989 235.56781 255.744
220.89018 235.56293 255.744
220.88776 235.56155 255.744
220.87952 235.55692 255.744
220.88799 235.56166 255.744
220.89053 235.56311 255.744
220.90085 235.56892 255.744
220.90733 235.57256 255.744
220.91559 235.57726 255.744
220.88431 235.5596 255.744
220.8787 235.55644 255.744
220.89522 235.56573 255.744
220.8937 235.56488 255.744
220.90506 235.57129 255.744
220.88882 235.56215 255.744
220.88399 235.5594 255.744
220.88292 235.55884 255.744
220.8996 235.5682 255.744
220.89061 235.56314 255.744
220.89423 235.5652 255.744
220.89967 235.56827 255.744
220.90515 235.57135 255.744
220.892 235.5639 255.744
220.87975 235.55704 255.744
220.91377 235.57619 255.744
220.90935 235.57367 255.744
220.87584 235.55484 255.744
220.88556 235.5603 255.744
220.89333 235.56468 255.744
220.88289 235.5588 255.744
220.8933 235.56464 255.744
220.89398 235.56503 255.744
220.91096 235.57462 255.744
220.8867 235.56097 255.744
220.89859 235.56767 255.744
220.89995 235.56842 255.744
220.89938 235.56808 255.744
220.87625 235.55508 255.744
220.89209 235.56398 255.744
220.89099 235.56335 255.744
220.90108 235.56905 255.744
220.8776 235.55586 255.744
220.90482 235.57114 255.744
220.90085 235.5689 255.744
220.89561 235.56598 255.744
220.90387 235.57063 255.744
220.89442 235.56528 255.744
220.8857 235.56038 255.744
220.89186 235.56387 255.744
220.87854 235.55637 255.744
220.8922 235.56406 255.744
220.88292 235.55884 255.744
220.89796 235.5673 255.744
220.87376 235.55363 255.744
220.88486 235.55994 255.744
220.90154 235.56929 255.744
220.88185 235.55823 255.744
220.87045 235.5518 255.744
220.892 235.56393 255.744
220.88899 235.56224 255.744
220.88403 235.55943 255.744
220.89726 235.5669 255.744
220.90208 235.56961 255.744
220.8924 235.56415 255.744
220.89496 235.5656 255.744
220.88977 235.56267 255.744
220.90668 235.57219 255.744
220.89171 235.5638 255.744
220.88431 235.5596 255.744
220.87927 235.55678 255.744
220.88939 235.56244 255.744
220.88554 235.56033 255.744
220.91237 235.57538 255.744
220.88837 235.56187 255.744
220.8903 235.56296 255.744
220.90468 235.57108 255.744
220.89714 235.56683 255.744
220.90584 235.5717 255.744
220.90863 235.57329 255.744
220.9085 235.5732 255.744
220.89333 235.56467 255.744
220.88936 235.56244 255.744
220.89227 235.56409 255.744
220.9113 235.5748 255.744
220.90816 235.57303 255.744
220.91196 235.5752 255.744
220.90579 235.5717 255.744
220.88377 235.5593 255.744
220.89435 235.56526 255.744
220.90318 235.57019 255.744
220.91417 235.57643 255.744
220.89714 235.56683 255.744
220.89503 235.56563 255.744
220.8834 235.55908 255.744
220.90457 235.57098 255.744
220.86426 235.54831 255.744
220.90286 235.57002 255.744
220.88977 235.56265 255.744
220.8816 235.55807 255.744
220.89438 235.56529 255.744
220.88824 235.56183 255.744
220.91368 235.57613 255.744
220.87152 235.55241 255.744
220.90685 235.57228 255.744
220.8892 235.56236 255.744
220.88466 235.55981 255.744
220.9086 235.57327 255.744
220.88553 235.56029 255.744
220.89192 235.56392 255.744
220.8752 235.55449 255.744
220.86964 235.55136 255.744
220.90341 235.57036 255.744
220.87354 235.55354 255.744
220.87273 235.55309 255.744
220.89008 235.56284 255.744
220.88844 235.56194 255.744
220.89905 235.5679 255.744
220.88983 235.5627 255.744
220.89272 235.56435 255.744
220.89034 235.563 255.744
220.87987 235.55708 255.744
220.88953 235.56252 255.744
220.88326 235.55899 255.744
220.88272 235.55875 255.744
220.8863 235.56071 255.744
220.89671 235.56657 255.744
220.90572 235.57164 255.744
220.90073 235.56883 255.744
220.90321 235.57027 255.744
220.8965 235.56645 255.744
220.88698 235.56108 255.744
220.8978 235.5672 255.744
220.8932 235.56458 255.744
220.86002 235.5459 255.744
220.88776 235.56152 255.744
220.892 235.56392 255.744
220.90524 235.57138 255.744
220.89642 235.56639 255.744
220.91403 235.57634 255.744
220.91682 235.57791 255.744
220.88776 235.56152 255.744
220.89302 235.56453 255.744
220.89218 235.56403 255.744
220.9147 235.57668 255.744
220.91629 235.57759 255.744
220.90474 235.57114 255.744
220.88083 235.55765 255.744
220.91293 235.57571 255.744
220.9055 235.57153 255.744
220.88588 235.56047 255.744
220.91008 235.57408 255.744
220.9033 235.57031 255.744
220.89021 235.56294 255.744
220.88026 235.55733 255.744
220.8777 235.5559 255.744
220.90634 235.57199 255.744
220.8994 235.5681 255.744
220.90341 235.57036 255.744
220.88885 235.56215 255.744
220.88959 235.56256 255.744
220.87492 235.5543 255.744
220.90204 235.56956 255.744
220.88501 235.56 255.744
220.88452 235.55975 255.744
220.90591 235.57175 255.744
220.89397 235.56502 255.744
220.88148 235.55804 255.744
220.902 235.56955 255.744
220.89839 235.56755 255.744
220.87497 235.55434 255.744
220.892 235.56393 255.744
220.88737 235.56131 255.744
220.8788 235.55653 255.744
220.89488 235.56557 255.744
220.89479 235.5655 255.744
220.87471 235.55423 255.744
220.88445 235.55968 255.744
220.90363 235.57047 255.744
220.91147 235.57489 255.744
220.89722 235.56688 255.744
220.89642 235.56642 255.744
220.90549 235.57153 255.744
220.89157 235.56369 255.744
220.88268 235.55869 255.744
220.89037 235.56299 255.744
220.90627 235.57198 255.744
220.88844 235.56192 255.744
220.89423 235.56519 255.744
220.89868 235.56769 255.744
220.8865 235.56085 255.744
220.89075 235.56323 255.744
220.8985 235.56757 255.744
220.88324 235.559 255.744
220.88739 235.56134 255.744
220.91998 235.57967 255.744
220.89322 235.56462 255.744
220.90845 235.5732 255.744
220.90244 235.56975 255.744
220.90172 235.56943 255.744
220.88678 235.561 255.744
220.90582 235.5717 255.744
220.90038 235.56865 255.744
220.88936 235.56245 255.744
220.89891 235.56781 255.744
220.89444 235.5653 255.744
220.90602 235.57182 255.744
220.90744 235.57263 255.744
220.89822 235.56741 255.744
220.88039 235.5574 255.744
220.90117 235.56909 255.744
220.89973 235.5683 255.744
220.92096 235.58023 255.744
220.89075 235.56323 255.744
220.89023 235.56296 255.744
220.9023 235.56973 255.744
220.89235 235.56415 255.744
220.89952 235.56816 255.744
220.90112 235.56905 255.744
220.88828 235.56181 255.744
220.88264 235.55865 255.744
220.89243 235.56413 255.744
220.90523 235.57138 255.744
220.89848 235.56758 255.744
220.89568 235.566 255.744
220.89322 235.5646 255.744
220.89139 235.56358 255.744
220.91956 235.57945 255.744
220.90062 235.56877 255.744
220.89417 235.56519 255.744
220.90384 235.57059 255.744
220.91145 235.57486 255.744
220.8978 235.56721 255.744
220.91077 235.57451 255.744
220.90323 235.57025 255.744
220.90157 235.5693 255.744
220.90163 235.56934 255.744
220.88313 235.55894 255.744
220.88295 235.55882 255.744
220.90485 235.57117 255.744
220.914 235.57631 255.744
220.89969 235.56828 255.744
220.90605 235.57185 255.744
220.89351 235.56477 255.744
220.8912 235.56345 255.744
220.89078 235.56323 255.744
220.8738 235.5537 255.744
220.8966 235.56651 255.744
220.89507 235.56567 255.744
220.8924 235.56413 255.744
220.87794 235.556 255.744
220.9 235.56844 255.744
220.90352 235.5704 255.744
220.89125 235.56348 255.744
220.90381 235.57056 255.744
220.92142 235.58049 255.744
220.90709 235.5724 255.744
220.89963 235.5682 255.744
220.89359 235.56485 255.744
220.89076 235.56322 255.744
220.88275 235.55875 255.744
220.90466 235.57106 255.744
220.91803 235.57855 255.744
220.90508 235.57132 255.744
220.92142 235.58046 255.744
220.90973 235.5739 255.744
220.88832 235.56186 255.744
220.89395 235.56505 255.744
220.88443 235.55966 255.744
220.88286 235.55882 255.744
220.90836 235.57315 255.744
220.8985 235.56761 255.744
220.9045 235.57097 255.744
220.896 235.56618 255.744
220.90001 235.56844 255.744
220.91331 235.57593 255.744
220.8803 235.55736 255.744
220.88599 235.56055 255.744
220.89706 235.56677 255.744
220.91048 235.57434 255.744
220.90347 235.57037 255.744
220.89447 235.56534 255.744
220.91205 235.5752 255.744
220.9133 235.57591 255.744
220.90831 235.57312 255.744
220.896 235.56618 255.744
220.91208 235.57524 255.744
220.89877 235.5677 255.744
220.91495 235.57683 255.744
220.89883 235.56778 255.744
220.89375 235.56493 255.744
220.92224 235.58093 255.744
220.89742 235.567 255.744
220.90244 235.5698 255.744
220.9001 235.56848 255.744
220.89406 235.5651 255.744
220.9176 235.57834 255.744
220.90987 235.57399 255.744
220.90445 235.57095 255.744
220.90907 235.57355 255.744
220.89767 235.56714 255.744
220.89435 235.56523 255.744
220.9003 235.5686 255.744
220.90395 235.57068 255.744
220.91678 235.57788 255.744
220.90921 235.57364 255.744
220.90633 235.57198 255.744
220.90105 235.56902 255.744
220.89435 235.56526 255.744
220.90332 235.57028 255.744
220.92957 235.58507 255.744
220.88353 235.55917 255.744
220.88998 235.56277 255.744
220.90985 235.57399 255.744
220.89314 235.56456 255.744
220.8877 235.56152 255.744
220.8943 235.56525 255.744
220.90312 235.57019 255.744
220.91246 235.57542 255.744
220.8935 235.56482 255.744
220.90317 235.57025 255.744
220.88898 235.56224 255.744
220.89134 235.56358 255.744
220.90775 235.57277 255.744
220.90877 235.57338 255.744
220.91272 235.57562 255.744
220.90926 235.57364 255.744
220.90466 235.57104 255.744
220.90494 235.57121 255.744
220.9146 235.57666 255.744
220.90585 235.57173 255.744
220.92894 235.5847 255.744
220.90294 235.5701 255.744
220.9128 235.57562 255.744
220.90012 235.5685 255.744
220.89629 235.56636 255.744
220.94092 235.59146 255.744
220.90486 235.57115 255.744
220.91776 235.57843 255.744
220.91579 235.57732 255.744
220.93793 235.58978 255.744
220.91219 235.57529 255.744
220.90851 235.5732 255.744
220.90373 235.5705 255.744
220.89993 235.56837 255.744
220.93585 235.5886 255.744
220.93098 235.58586 255.744
220.91464 235.5767 255.744
220.91977 235.57956 255.744
220.90173 235.5694 255.744
220.90985 235.57399 255.744
220.91017 235.57417 255.744
220.89651 235.56648 255.744
220.9202 235.57977 255.744
220.90454 235.57097 255.744
220.9076 235.5727 255.744
220.90425 235.57082 255.744
220.90666 235.57217 255.744
220.92122 235.58035 255.744
220.89087 235.5633 255.744
220.91492 235.57681 255.744
220.90878 235.57338 255.744
220.89499 235.56561 255.744
220.91031 235.57425 255.744
220.9161 235.57753 255.744
220.90996 235.57402 255.744
220.91911 235.57918 255.744
220.90126 235.56912 255.744
220.91978 235.57957 255.744
220.92397 235.58194 255.744
220.92886 235.58466 255.744
220.908 235.57292 255.744
220.92273 235.58122 255.744
220.89906 235.56792 255.744
220.92503 235.58252 255.744
220.91 235.57407 255.744
220.92126 235.58043 255.744
220.92357 235.58167 255.744
220.90056 235.56873 255.744
220.90173 235.5694 255.744
220.9326 235.58678 255.744
220.91147 235.57487 255.744
220.90749 235.57265 255.744
220.91402 235.57634 255.744
220.90988 235.57399 255.744
220.93079 235.58575 255.744
220.9383 235.59 255.744
220.90926 235.57364 255.744
220.91797 235.57854 255.744
220.90193 235.56953 255.744
220.92685 235.58356 255.744
220.93193 235.5864 255.744
220.95027 235.5967 255.744
220.92099 235.58023 255.744
220.92146 235.5805 255.744
220.9186 235.5789 255.744
220.91693 235.57796 255.744
220.90709 235.5724 255.744
220.93637 235.58887 255.744
220.91661 235.5778 255.744
220.96332 235.60405 255.744
220.95306 235.59828 255.744
220.94861 235.59576 255.744
220.94008 235.59096 255.744
220.93765 235.58961 255.744
220.9464 235.59454 255.744
220.94312 235.59267 255.744
220.94615 235.5944 255.744
220.93843 235.59007 255.744
220.94167 235.59187 255.744
220.95297 235.59827 255.744
220.95645 235.60022 255.744
220.94833 235.59563 255.744
220.9244 235.58212 255.744
220.96132 235.60294 255.744
220.93188 235.58633 255.744
220.92021 235.57982 255.744
220.9544 235.59906 255.744
220.97191 235.60886 255.744
220.94183 235.59196 255.744
220.9548 235.59926 255.744
220.92265 235.58115 255.744
220.93736 235.58946 255.744
220.95787 235.60101 255.744
220.9287 235.58458 255.744
220.94818 235.59554 255.744
220.93318 235.58711 255.744
220.9385 235.59012 255.744
220.93074 235.58572 255.744
220.95811 235.6011 255.744
220.93982 235.59079 255.744
220.94852 235.59572 255.744
220.94191 235.592 255.744
220.93394 235.5875 255.744
220.93602 235.58871 255.744
220.95058 235.5969 255.744
220.94418 235.5933 255.744
220.94069 235.59131 255.744
220.95183 235.5976 255.744
220.93866 235.59016 255.744
220.95883 235.60155 255.744
220.94054 235.59123 255.744
220.96254 235.60362 255.744
220.94028 235.59111 255.744
220.92584 235.583 255.744
220.93317 235.58708 255.744
220.93677 235.58911 255.744
220.93102 235.58586 255.744
220.93217 235.58652 255.744
220.92612 235.58311 255.744
220.94473 235.59363 255.744
220.95299 235.59822 255.744
220.91666 235.5778 255.744
220.9505 235.59685 255.744
220.93123 235.58601 255.744
220.95941 235.60185 255.744
220.94025 235.59108 255.744
220.92769 235.584 255.744
220.9495 235.59628 255.744
220.9264 235.5833 255.744
220.9581 235.60112 255.744
220.93417 235.58769 255.744
220.929 235.58476 255.744
220.94368 235.59302 255.744
220.91972 235.57954 255.744
220.95491 235.59932 255.744
220.94164 235.59186 255.744
220.95554 235.59969 255.744
220.9242 235.58206 255.744
220.9353 235.58829 255.744
220.9349 235.58809 255.744
220.94955 235.5963 255.744
220.94025 235.59108 255.744
220.94653 235.5946 255.744
220.93858 235.59015 255.744
220.9366 235.58904 255.744
220.94162 235.59189 255.744
220.92435 235.58214 255.744
220.9452 235.59387 255.744
220.94821 235.59555 255.744
220.91443 235.57658 255.744
220.93185 235.58635 255.744
220.92444 235.58218 255.744
220.92368 235.58177 255.744
220.93948 235.59064 255.744
220.96382 235.60432 255.744
220.92532 235.58269 255.744
220.9433 235.59279 255.744
220.94298 235.5926 255.744
220.94347 235.59293 255.744
220.94542 235.59398 255.744
220.94035 235.59113 255.744
220.92738 235.58385 255.744
220.94339 235.59285 255.744
220.94704 235.59486 255.744
220.94308 235.59267 255.744
220.94075 235.59134 255.744
220.94601 235.59431 255.744
220.93062 235.58566 255.744
220.92432 235.58209 255.744
220.93665 235.58905 255.744
220.94225 235.59218 255.744
220.93886 235.59029 255.744
220.93852 235.59013 255.744
220.92479 235.58237 255.744
220.95718 235.60059 255.744
220.92981 235.58522 255.744
220.94989 235.59651 255.744
220.92159 235.58058 255.744
220.94006 235.59097 255.744
220.93993 235.59091 255.744
220.94298 235.5926 255.744
220.94312 235.5927 255.744
220.93097 235.58585 255.744
220.91048 235.57436 255.744
220.9333 235.58717 255.744
220.92432 235.5821 255.744
220.92494 235.58249 255.744
220.93936 235.59058 255.744
220.92459 235.58226 255.744
220.92618 235.58316 255.744
220.93016 235.58539 255.744
220.93886 235.59027 255.744
220.94856 235.59575 255.744
220.9565 235.6002 255.744
220.94632 235.5945 255.744
220.9168 235.57788 255.744
220.91847 235.5788 255.744
220.92625 235.58319 255.744
220.94904 235.59604 255.744
220.95602 235.59995 255.744
220.93791 235.58977 255.744
220.91293 235.57573 255.744
220.92426 235.58208 255.744
220.921 235.58026 255.744
220.94476 235.59363 255.744
220.91972 235.57953 255.744
220.93861 235.59016 255.744
220.9368 235.58914 255.744
220.93076 235.58572 255.744
220.89166 235.56375 255.744
220.94121 235.59161 255.744
220.94528 235.59392 255.744
220.93925 235.59053 255.744
220.95242 235.59792 255.744
220.93834 235.59003 255.744
220.94571 235.59415 255.744
220.93326 235.58716 255.744
220.9389 235.59029 255.744
220.93336 235.5872 255.744
220.94304 235.59267 255.744
220.92744 235.58388 255.744
220.925 235.58249 255.744
220.93707 235.5893 255.744
220.9272 235.58371 255.744
220.91592 235.5774 255.744
220.92174 235.58064 255.744
220.93028 235.58546 255.744
220.92719 235.58374 255.744
220.93907 235.59041 255.744
220.94308 235.59268 255.744
220.9342 235.58768 255.744
220.93796 235.58981 255.744
220.94559 235.59404 255.744
220.92143 235.58047 255.744
220.92609 235.5831 255.744
220.91493 235.57683 255.744
220.93227 235.5866 255.744
220.93826 235.58997 255.744
220.92752 235.5839 255.744
220.9416 235.59184 255.744
220.91794 235.57854 255.744
220.94789 235.59538 255.744
220.93207 235.58646 255.744
220.93607 235.58871 255.744
220.91866 235.57892 255.744
220.92786 235.58409 255.744
220.9256 235.58282 255.744
220.91362 235.5761 255.744
220.91841 235.57878 255.744
220.9192 235.57922 255.744
220.91705 235.57797 255.744
220.91682 235.5779 255.744
220.93968 235.59076 255.744
220.90553 235.57155 255.744
220.92351 235.58163 255.744
220.93596 235.58865 255.744
220.94429 235.59335 255.744
220.91203 235.57523 255.744
220.94162 235.59186 255.744
220.93002 235.58533 255.744
220.94098 235.5915 255.744
220.92726 235.5838 255.744
220.92867 235.58458 255.744
220.91803 235.57857 255.744
220.92947 235.585 255.744
220.92714 235.5837 255.744
220.923 235.58138 255.744
220.92915 235.58484 255.744
220.92912 235.58481 255.744
220.9458 235.59421 255.744
220.93285 235.58693 255.744
220.92607 235.5831 255.744
220.92757 235.58398 255.744
220.94191 235.59203 255.744
220.94861 235.59581 255.744
220.91 235.57407 255.744
220.9288 235.58466 255.744
220.93474 235.58798 255.744
220.92563 235.58284 255.744
220.92538 235.5827 255.744
220.9266 235.58339 255.744
220.92981 235.58522 255.744
220.91554 235.57715 255.744
220.94995 235.59656 255.744
220.9273 235.58377 255.744
220.9409 235.59146 255.744
220.9218 235.5807 255.744
220.92842 235.58443 255.744
220.91878 235.57898 255.744
220.91396 235.5763 255.744
220.92307 235.58139 255.744
220.94264 235.5924 255.744
220.92256 235.58116 255.744
220.9185 235.57883 255.744
220.92537 235.5827 255.744
220.93646 235.58893 255.744
220.95349 235.59851 255.744
220.9205 235.57999 255.744
220.9403 235.59111 255.744
220.92311 235.58144 255.744
220.95627 235.60008 255.744
220.91357 235.57608 255.744
220.91437 235.57652 255.744
220.93011 235.58536 255.744
220.90962 235.5739 255.744
220.9228 235.58127 255.744
220.93951 235.59065 255.744
220.94519 235.59387 255.744
220.93097 235.58588 255.744
220.92839 235.58441 255.744
220.92186 235.58073 255.744
220.93579 235.58856 255.744
220.91982 235.57956 255.744
220.92697 235.5836 255.744
220.91605 235.57747 255.744
220.9248 235.58238 255.744
220.94362 235.59299 255.744
220.92165 235.58063 255.744
220.94165 235.59186 255.744
220.92178 235.58072 255.744
220.91393 235.57628 255.744
220.89362 235.56487 255.744
220.95074 235.59697 255.744
220.91916 235.57921 255.744
220.91597 235.57741 255.744
220.9236 235.58174 255.744
220.92264 235.58118 255.744
220.94029 235.59111 255.744
220.92674 235.58347 255.744
220.93431 235.58774 255.744
220.9176 235.57834 255.744
220.9251 235.58253 255.744
220.92778 235.58406 255.744
220.93114 235.58594 255.744
220.92735 235.58382 255.744
220.93031 235.5855 255.744
220.92691 235.58356 255.744
220.92471 235.58232 255.744
220.92784 235.58409 255.744
220.93112 235.58594 255.744
220.93593 235.58864 255.744
220.94716 235.59499 255.744
220.91113 235.57469 255.744
220.93239 235.58665 255.744
220.91098 235.57458 255.744
220.93246 235.58673 255.744
220.92819 235.58429 255.744
220.91806 235.5786 255.744
220.92339 235.5816 255.744
220.93407 235.58762 255.744
220.90274 235.56998 255.744
220.92535 235.5827 255.744
220.93256 235.58678 255.744
220.93289 235.58693 255.744
220.94238 235.59227 255.744
220.9303 235.58551 255.744
220.9275 235.5839 255.744
220.92102 235.58028 255.744
220.93578 235.58856 255.744
220.92699 235.58363 255.744
220.91476 235.57672 255.744
220.9338 235.58745 255.744
220.92732 235.5838 255.744
220.92627 235.5832 255.744
220.91086 235.57451 255.744
220.93646 235.58893 255.744
220.92813 235.58427 255.744
220.92003 235.57968 255.744
220.91574 235.5773 255.744
220.92194 235.58081 255.744
220.91373 235.57619 255.744
220.90742 235.5726 255.744
220.89854 235.56763 255.744
220.90968 235.57387 255.744
220.92325 235.58151 255.744
220.91972 235.57953 255.744
220.91176 235.57503 255.744
220.91656 235.57774 255.744
220.9156 235.57721 255.744
220.91725 235.57816 255.744
220.93658 235.58904 255.744
220.94263 235.5924 255.744
220.93042 235.58556 255.744
220.90077 235.56888 255.744
220.92563 235.58284 255.744
220.92615 235.58318 255.744
220.91946 235.57938 255.744
220.92126 235.58038 255.744
220.92726 235.58379 255.744
220.93529 235.58827 255.744
220.93417 235.58766 255.744
220.94371 235.59303 255.744
220.93723 235.58939 255.744
220.92494 235.58246 255.744
220.92665 235.58342 255.744
220.92682 235.58353 255.744
220.93771 235.58968 255.744
220.93239 235.58667 255.744
220.90363 235.57047 255.744
220.91159 235.57497 255.744
220.91454 235.57661 255.744
220.9142 235.57642 255.744
220.92053 235.57997 255.744
220.91919 235.57921 255.744
220.93567 235.58852 255.744
220.92683 235.58356 255.744
220.91104 235.57463 255.744
220.93773 235.58961 255.744
220.92873 235.5846 255.744
220.92761 235.58395 255.744
220.93051 235.58557 255.744
220.9135 235.57603 255.744
220.91037 235.57426 255.744
220.90039 235.56865 255.744
220.92729 235.58376 255.744
220.9303 235.5855 255.744
220.93283 235.58691 255.744
220.91237 235.57538 255.744
220.9475 235.59518 255.744
220.92216 235.5809 255.744
220.90746 235.57265 255.744
220.9103 235.57423 255.744
220.93681 235.58914 255.744
220.91699 235.57796 255.744
220.90361 235.57047 255.744
220.92538 235.58272 255.744
220.93575 235.58853 255.744
220.92842 235.58444 255.744
220.94572 235.59416 255.744
220.91751 235.57828 255.744
220.93109 235.58589 255.744
220.91733 235.57816 255.744
220.90445 235.57095 255.744
220.92708 235.58365 255.744
220.93198 235.58643 255.744
220.93495 235.5881 255.744
220.93736 235.58945 255.744
220.91353 235.57607 255.744
220.89746 235.56705 255.744
220.91531 235.57704 255.744
220.9163 235.57762 255.744
220.9209 235.58018 255.744
220.92206 235.58083 255.744
220.92694 235.58359 255.744
220.92038 235.57991 255.744
220.9315 235.58615 255.744
220.93558 235.58844 255.744
220.94183 235.59195 255.744
220.93875 235.59026 255.744
220.92151 235.58054 255.744
220.93745 235.58951 255.744
220.92291 235.58131 255.744
220.94608 235.59433 255.744
220.9384 235.59003 255.744
220.9206 235.58003 255.744
220.92094 235.58018 255.744
220.94537 235.59395 255.744
220.9349 235.58806 255.744
220.92926 235.58492 255.744
220.92229 235.58098 255.744
220.92418 235.58203 255.744
220.91861 235.57892 255.744
220.9232 235.58148 255.744
220.91473 235.57674 255.744
220.91544 235.57712 255.744
220.93318 235.58711 255.744
220.91853 235.57886 255.744
220.93413 235.58766 255.744
220.93225 235.58658 255.744
220.90794 235.57289 255.744
220.93893 235.59035 255.744
220.92067 235.58006 255.744
220.91273 235.5756 255.744
220.933 235.58699 255.744
220.92093 235.58022 255.744
220.9376 235.5896 255.744
220.94264 235.5924 255.744
220.91246 235.57542 255.744
220.9386 235.59015 255.744
220.93208 235.5865 255.744
220.92368 235.58176 255.744
220.93141 235.5861 255.744
220.92328 235.58151 255.744
220.93547 235.5884 255.744
220.9398 235.59084 255.744
220.93008 235.58539 255.744
220.93224 235.58656 255.744
220.93874 235.59024 255.744
220.92981 235.5852 255.744
220.94235 235.59222 255.744
220.92351 235.58167 255.744
220.95105 235.59717 255.744
220.93663 235.58904 255.744
220.92491 235.58246 255.744
220.93889 235.5903 255.744
220.92493 235.58246 255.744
220.9464 235.59453 255.744
220.93825 235.58997 255.744
220.92465 235.5823 255.744
220.92516 235.58261 255.744
220.92505 235.58257 255.744
220.93285 235.5869 255.744
220.96266 235.60371 255.744
220.91866 235.57892 255.744
220.94211 235.59213 255.744
220.91885 235.57904 255.744
220.925 235.58249 255.744
220.93475 235.588 255.744
220.92094 235.58023 255.744
220.9281 235.58426 255.744
220.9368 235.58914 255.744
220.9371 235.58931 255.744
220.94656 235.59462 255.744
220.9366 235.58904 255.744
220.92218 235.5809 255.744
220.93742 235.5895 255.744
220.94331 235.59282 255.744
220.91942 235.57935 255.744
220.94054 235.59123 255.744
220.93254 235.58676 255.744
220.94794 235.59541 255.744
220.94055 235.59125 255.744
220.93402 235.5876 255.744
220.94337 235.59285 255.744
220.9443 235.59337 255.744
220.92166 235.58063 255.744
220.93558 235.58849 255.744
220.93987 235.59085 255.744
220.90962 235.57384 255.744
220.93077 235.58572 255.744
220.92232 235.581 255.744
220.9423 235.59221 255.744
220.92929 235.58492 255.744
220.94868 235.59584 255.744
220.95045 235.59682 255.744
220.92766 235.584 255.744
220.9244 235.58215 255.744
220.93738 235.58948 255.744
220.94344 235.5929 255.744
220.93973 235.59079 255.744
220.94533 235.59395 255.744
220.9299 235.58524 255.744
220.95337 235.59848 255.744
220.94954 235.5963 255.744
220.93037 235.58553 255.744
220.93501 235.58809 255.744
220.94849 235.59573 255.744
220.94617 235.59439 255.744
220.95119 235.5972 255.744
220.92043 235.57994 255.744
220.93192 235.5864 255.744
220.94505 235.5938 255.744
220.95644 235.60017 255.744
220.92935 235.58495 255.744
220.9337 235.58737 255.744
220.92801 235.58417 255.744
220.93518 235.58821 255.744
220.96368 235.60428 255.744
220.94092 235.59146 255.744
220.93587 235.5886 255.744
220.92293 235.58131 255.744
220.93445 235.58781 255.744
220.92792 235.58414 255.744
220.96613 235.60565 255.744
220.92494 235.58247 255.744
220.92488 235.58243 255.744
220.91718 235.5781 255.744
220.93161 235.58621 255.744
220.92093 235.58022 255.744
220.94312 235.59271 255.744
220.91586 235.57736 255.744
220.93732 235.58942 255.744
220.94739 235.5951 255.744
220.93909 235.5904 255.744
220.94312 235.59271 255.744
220.93356 235.58731 255.744
220.92986 235.58522 255.744
220.92703 235.58363 255.744
220.93839 235.58998 255.744
220.9233 235.58154 255.744
220.93637 235.58888 255.744
220.92308 235.58142 255.744
220.94476 235.59363 255.744
220.9471 235.59494 255.744
220.94449 235.59344 255.744
220.94104 235.5915 255.744
220.94798 235.59543 255.744
220.92906 235.58473 255.744
220.93896 235.59036 255.744
220.94144 235.59177 255.744
220.93947 235.59067 255.744
220.94203 235.59209 255.744
220.93752 235.58955 255.744
220.91685 235.57791 255.744
220.92957 235.5851 255.744
220.93947 235.59064 255.744
220.92688 235.58357 255.744
220.93597 235.58867 255.744
220.92825 235.58434 255.744
220.94322 235.59274 255.744
220.92778 235.58408 255.744
220.94405 235.59322 255.744
220.95946 235.6019 255.744
220.94202 235.59204 255.744
220.93993 235.5909 255.744
220.94228 235.5922 255.744
220.93442 235.58781 255.744
220.93881 235.59024 255.744
220.94197 235.59203 255.744
220.94164 235.59187 255.744
220.94724 235.595 255.744
220.95012 235.59663 255.744
220.95523 235.5995 255.744
220.93147 235.58614 255.744
220.94049 235.59122 255.744
220.95592 235.59987 255.744
220.95377 235.59868 255.744
220.94046 235.5912 255.744
220.93152 235.58618 255.744
220.9368 235.58913 255.744
220.95195 235.59769 255.744
220.94405 235.59322 255.744
220.94183 235.59196 255.744
220.94197 235.59207 255.744
220.94072 235.59134 255.744
220.94978 235.59644 255.744
220.93498 235.58815 255.744
220.96127 235.6029 255.744
220.93616 235.58878 255.744
220.94641 235.59453 255.744
220.9581 235.60112 255.744
220.94386 235.59306 255.744
220.9574 235.60074 255.744
220.93846 235.59003 255.744
220.93687 235.58919 255.744
220.93098 235.58585 255.744
220.9413 235.59166 255.744
220.94933 235.59618 255.744
220.94719 235.59499 255.744
220.93713 235.58931 255.744
220.94804 235.59547 255.744
220.9466 235.59465 255.744
220.9567 235.60034 255.744
220.94733 235.59506 255.744
220.9461 235.59439 255.744
220.95631 235.60013 255.744
220.96413 235.6045 255.744
220.94035 235.59114 255.744
220.9451 235.5938 255.744
220.91962 235.57948 255.744
220.95174 235.59755 255.744
220.91757 235.5783 255.744
220.95686 235.60043 255.744
220.93365 235.58734 255.744
220.94885 235.5959 255.744
220.93208 235.58647 255.744
220.95909 235.60165 255.744
220.94643 235.59454 255.744
220.9561 235.6 255.744
220.93953 235.59067 255.744
220.95593 235.59991 255.744
220.95625 235.60013 255.744
220.95244 235.59793 255.744
220.93706 235.5893 255.744
220.96808 235.60674 255.744
220.94415 235.59328 255.744
220.96333 235.60403 255.744
220.96233 235.6035 255.744
220.95668 235.60033 255.744
220.98988 235.61897 255.744
220.97491 235.61058 255.744
220.97583 235.61108 255.744
220.96797 235.60667 255.744
221.00015 235.62477 255.744
220.98549 235.61653 255.744
220.98924 235.6186 255.744
220.97485 235.61057 255.744
220.97205 235.60901 255.744
220.96082 235.60265 255.744
220.97937 235.61308 255.744
220.97978 235.6133 255.744
220.97107 235.60841 255.744
220.97665 235.61157 255.744
220.98268 235.61496 255.744
220.96309 235.60391 255.744
220.97557 235.61095 255.744
220.97766 235.61212 255.744
220.98273 235.61497 255.744
220.97307 235.60954 255.744
220.9834 235.61536 255.744
220.95741 235.60075 255.744
220.97119 235.60847 255.744
220.9689 235.6072 255.744
220.97118 235.60849 255.744
220.98022 235.61357 255.744
220.98067 235.6138 255.744
220.96791 235.60663 255.744
220.9896 235.61882 255.744
220.99461 235.62166 255.744
220.98921 235.61864 255.744
220.97531 235.6108 255.744
220.98589 235.61678 255.744
220.9821 235.61462 255.744
220.96819 235.60681 255.744
220.97937 235.61311 255.744
220.96658 235.60591 255.744
220.96329 235.60405 255.744
220.97057 235.60814 255.744
220.99251 235.62051 255.744
220.97432 235.61026 255.744
220.98398 235.6157 255.744
220.97961 235.61324 255.744
220.96143 235.603 255.744
220.97583 235.61113 255.744
220.95433 235.59903 255.744
220.96883 235.60713 255.744
220.95807 235.60107 255.744
220.98175 235.61443 255.744
220.99 235.61908 255.744
220.99112 235.6197 255.744
220.97643 235.61143 255.744
220.9685 235.60696 255.744
220.97328 235.60968 255.744
220.97176 235.60881 255.744
220.97537 235.61087 255.744
220.98155 235.61432 255.744
220.96204 235.60336 255.744
220.98183 235.61447 255.744
220.9699 235.60776 255.744
220.9773 235.61194 255.744
220.9539 235.59877 255.744
220.99074 235.61948 255.744
220.97157 235.60872 255.744
220.98174 235.61441 255.744
220.96667 235.60594 255.744
220.9792 235.61299 255.744
220.96198 235.60329 255.744
220.98065 235.6138 255.744
220.97122 235.6085 255.744
220.98459 235.61604 255.744
220.9766 235.61151 255.744
220.97913 235.61292 255.744
220.97037 235.60803 255.744
220.97665 235.61157 255.744
220.96326 235.60399 255.744
220.98206 235.6146 255.744
220.95967 235.60204 255.744
220.99945 235.6244 255.744
220.99005 235.61911 255.744
220.97119 235.60849 255.744
220.97374 235.60991 255.744
220.96419 235.60452 255.744
220.97232 235.60915 255.744
220.95857 235.60138 255.744
220.95424 235.59892 255.744
220.96599 235.60555 255.744
220.97392 235.61002 255.744
220.96323 235.60399 255.744
220.94756 235.59517 255.744
220.95737 235.60074 255.744
220.98209 235.61461 255.744
220.96463 235.6048 255.744
220.96684 235.60602 255.744
220.96817 235.6068 255.744
220.96646 235.60585 255.744
220.96565 235.60541 255.744
220.98073 235.61389 255.744
220.9644 235.6047 255.744
220.96039 235.6024 255.744
220.97044 235.6081 255.744
220.98006 235.61348 255.744
220.97641 235.61142 255.744
220.9625 235.60359 255.744
220.96992 235.6078 255.744
220.96819 235.60678 255.744
220.98499 235.61626 255.744
220.95395 235.59877 255.744
220.9864 235.61707 255.744
220.97443 235.61034 255.744
220.97647 235.61145 255.744
220.97092 235.6083 255.744
220.94856 235.59576 255.744
220.9611 235.60281 255.744
220.94493 235.5937 255.744
220.97365 235.60988 255.744
220.96147 235.603 255.744
220.96518 235.60509 255.744
220.95631 235.60013 255.744
220.98213 235.61464 255.744
220.9807 235.61382 255.744
220.95871 235.60147 255.744
220.98827 235.6181 255.744
220.967 235.60614 255.744
220.95451 235.59912 255.744
220.99019 235.61919 255.744
220.95094 235.59708 255.744
220.98157 235.6143 255.744
220.97917 235.61299 255.744
220.95367 235.59863 255.744
220.97173 235.60878 255.744
220.9648 235.60489 255.744
220.94772 235.59529 255.744
220.94781 235.59534 255.744
220.99551 235.62218 255.744
220.95044 235.5968 255.744
220.96654 235.60588 255.744
220.96558 235.60535 255.744
220.9735 235.60979 255.744
220.93755 235.58957 255.744
220.95401 235.5988 255.744
220.97293 235.6095 255.744
220.95961 235.60196 255.744
220.95364 235.59865 255.744
220.94113 235.59158 255.744
220.95227 235.59784 255.744
220.94855 235.59576 255.744
220.95238 235.59792 255.744
220.96457 235.60474 255.744
220.9853 235.61644 255.744
220.98216 235.61469 255.744
220.9558 235.59984 255.744
220.98242 235.61482 255.744
220.9501 235.59663 255.744
220.9431 235.59271 255.744
220.94386 235.59311 255.744
220.9777 235.61217 255.744
220.95074 235.59698 255.744
220.96587 235.60548 255.744
220.97708 235.6118 255.744
220.9609 235.60272 255.744
220.99295 235.62074 255.744
220.9474 235.59515 255.744
220.96884 235.60716 255.744
220.95375 235.59868 255.744
220.95575 235.59982 255.744
220.98714 235.61745 255.744
220.93987 235.59084 255.744
220.95842 235.6013 255.744
220.96951 235.60753 255.744
220.95358 235.59859 255.744
220.96353 235.60419 255.744
220.97185 235.60886 255.744
220.96982 235.60774 255.744
220.96524 235.60515 255.744
220.95482 235.59927 255.744
220.97127 235.60854 255.744
220.96477 235.60489 255.744
220.95654 235.60023 255.744
220.97969 235.61327 255.744
220.96185 235.60321 255.744
220.95886 235.60158 255.744
220.95572 235.5998 255.744
220.95982 235.60207 255.744
220.9523 235.59785 255.744
220.97041 235.60803 255.744
220.95744 235.60075 255.744
220.94167 235.59187 255.744
220.96962 235.6076 255.744
220.9652 235.60512 255.744
220.924 235.58194 255.744
220.94884 235.5959 255.744
220.9741 235.61012 255.744
220.95268 235.59807 255.744
220.94556 235.59404 255.744
220.96278 235.60376 255.744
220.9539 235.59879 255.744
220.9727 235.60928 255.744
220.94211 235.5921 255.744
220.94083 235.59142 255.744
220.95744 235.60077 255.744
220.97162 235.60873 255.744
220.96762 235.60645 255.744
220.9655 235.6053 255.744
220.96596 235.60551 255.744
220.95314 235.59833 255.744
220.97466 235.61044 255.744
220.96266 235.6037 255.744
220.97098 235.60837 255.744
220.96992 235.60777 255.744
220.93932 235.59053 255.744
220.96356 235.60422 255.744
220.95314 235.59831 255.744
220.9607 235.60257 255.744
220.95453 235.5991 255.744
220.9548 235.59927 255.744
220.93512 235.58818 255.744
220.96043 235.60245 255.744
220.9671 235.60617 255.744
220.96254 235.60362 255.744
220.94661 235.59467 255.744
220.95836 235.60126 255.744
220.94348 235.59288 255.744
220.9587 235.60146 255.744
220.94739 235.5951 255.744
220.95508 235.5994 255.744
220.9549 235.59932 255.744
220.96391 235.60437 255.744
220.957 235.60051 255.744
220.9533 235.5984 255.744
220.96902 235.60728 255.744
220.95876 235.60149 255.744
220.94235 235.59225 255.744
220.95526 235.59953 255.744
220.95694 235.60045 255.744
220.94077 235.59134 255.744
220.94093 235.59148 255.744
220.96773 235.60652 255.744
220.9498 235.59648 255.744
220.96535 235.6052 255.744
220.9467 235.59471 255.744
220.96634 235.60577 255.744
220.9463 235.59447 255.744
220.9396 235.59073 255.744
220.95277 235.59813 255.744
220.95695 235.60046 255.744
220.9567 235.60034 255.744
220.96083 235.60263 255.744
220.9674 235.60635 255.744
220.95837 235.60132 255.744
220.95862 235.60143 255.744
220.95169 235.5975 255.744
220.95486 235.59935 255.744
220.94354 235.59291 255.744
220.95534 235.59956 255.744
220.95627 235.6001 255.744
220.94522 235.59389 255.744
220.96928 235.6074 255.744
220.94821 235.59555 255.744
220.96657 235.60587 255.744
220.95866 235.60144 255.744
220.97319 235.60962 255.744
220.95421 235.59892 255.744
220.95712 235.60056 255.744
220.94888 235.59595 255.744
220.96736 235.60634 255.744
220.95406 235.59883 255.744
220.96481 235.6049 255.744
220.94879 235.59587 255.744
220.95476 235.5992 255.744
220.95389 235.59875 255.744
220.95932 235.6018 255.744
220.9558 235.59984 255.744
220.93297 235.587 255.744
220.95131 235.59727 255.744
220.9639 235.60442 255.744
220.96054 235.60251 255.744
220.97308 235.60957 255.744
220.96443 235.60469 255.744
220.9625 235.60359 255.744
220.97527 235.61076 255.744
220.93324 235.58716 255.744
220.95332 235.59843 255.744
220.96043 235.60243 255.744
220.94673 235.59471 255.744
220.93974 235.59079 255.744
220.98064 235.61383 255.744
220.97493 235.61061 255.744
220.95386 235.59872 255.744
220.95639 235.60017 255.744
220.95543 235.59964 255.744
220.93546 235.58836 255.744
220.96957 235.60759 255.744
220.94933 235.59618 255.744
220.96378 235.60431 255.744
220.96468 235.60481 255.744
220.93869 235.59021 255.744
220.96272 235.60373 255.744
220.95195 235.59763 255.744
220.96758 235.60648 255.744
220.96036 235.60239 255.744
220.95944 235.60188 255.744
220.9856 235.61664 255.744
220.9544 235.59903 255.744
220.95792 235.60103 255.744
220.94595 235.5943 255.744
220.9569 235.60043 255.744
220.97426 235.61021 255.744
220.96628 235.60571 255.744
220.94818 235.59554 255.744
220.9626 235.60367 255.744
220.98473 235.61607 255.744
220.93417 235.58768 255.744
220.93756 235.58957 255.744
220.97478 235.61052 255.744
220.96698 235.60614 255.744
220.95346 235.5985 255.744
220.96223 235.60345 255.744
220.96817 235.6068 255.744
220.96288 235.60379 255.744
220.9717 235.60876 255.744
220.9517 235.5975 255.744
220.94844 235.59567 255.744
220.9605 235.60246 255.744
220.95982 235.60208 255.744
220.9574 235.60074 255.744
220.97134 235.60857 255.744
220.95334 235.59845 255.744
220.96715 235.60623 255.744
220.9532 235.59834 255.744
220.94458 235.59352 255.744
220.9583 235.60124 255.744
220.95131 235.59727 255.744
220.95743 235.60075 255.744
220.9535 235.59854 255.744
220.9506 235.5969 255.744
220.94476 235.59363 255.744
220.95277 235.59813 255.744
220.94902 235.59602 255.744
220.95702 235.60051 255.744
220.97229 235.60907 255.744
220.949 235.59602 255.744
220.94664 235.59465 255.744
220.96077 235.60262 255.744
220.95992 235.60213 255.744
220.95377 235.59868 255.744
220.9467 235.5947 255.744
220.956 235.59993 255.744
220.95193 235.59764 255.744
220.96326 235.60405 255.744
220.9627 235.60371 255.744
220.94977 235.59647 255.744
220.95398 235.5988 255.744
220.966 235.60558 255.744
220.96608 235.60559 255.744
220.95413 235.59888 255.744
220.9547 235.5992 255.744
220.97783 235.61221 255.744
220.96637 235.60579 255.744
220.96405 235.60446 255.744
220.95074 235.597 255.744
220.9389 235.59036 255.744
220.95226 235.59782 255.744
220.96931 235.60739 255.744
220.95457 235.59914 255.744
220.96272 235.60371 255.744
220.95297 235.59824 255.744
220.97644 235.61147 255.744
220.93927 235.59053 255.744
220.95007 235.5966 255.744
220.96527 235.60515 255.744
220.94514 235.59383 255.744
220.94678 235.59474 255.744
220.95319 235.59836 255.744
220.9452 235.59386 255.744
220.95619 235.60005 255.744
220.97029 235.608 255.744
220.9702 235.60793 255.744
220.95139 235.59734 255.744
220.95451 235.59912 255.744
220.95442 235.59906 255.744
220.96881 235.60716 255.744
220.94858 235.59576 255.744
220.98425 235.61584 255.744
220.96706 235.60616 255.744
220.9567 235.60033 255.744
220.9739 235.61002 255.744
220.98663 235.61719 255.744
220.95078 235.597 255.744
220.9712 235.6085 255.744
220.95766 235.6009 255.744
220.9777 235.61218 255.744
220.93378 235.58745 255.744
220.9601 235.60225 255.744
220.95212 235.59772 255.744
220.95724 235.60065 255.744
220.96487 235.60493 255.744
220.94301 235.59265 255.744
220.96947 235.60751 255.744
220.96165 235.60312 255.744
220.95657 235.60027 255.744
220.95523 235.5995 255.744
220.97377 235.60991 255.744
220.96109 235.60281 255.744
220.95367 235.59863 255.744
220.97131 235.60857 255.744
220.96494 235.60497 255.744
220.94823 235.59557 255.744
220.95891 235.60158 255.744
220.95328 235.5984 255.744
220.96555 235.60529 255.744
220.96216 235.60341 255.744
220.96826 235.60687 255.744
220.9565 235.60025 255.744
220.94687 235.59482 255.744
220.95073 235.59698 255.744
220.97021 235.60794 255.744
220.95717 235.60062 255.744
220.96828 235.60687 255.744
220.96284 235.60379 255.744
220.96762 235.60648 255.744
220.9517 235.59749 255.744
220.94536 235.59393 255.744
220.96294 235.60385 255.744
220.97969 235.61331 255.744
220.98038 235.61368 255.744
220.96767 235.6065 255.744
220.96193 235.60327 255.744
220.93524 235.58824 255.744
220.95665 235.60033 255.744
220.9737 235.60991 255.744
220.92928 235.58488 255.744
220.94887 235.59593 255.744
220.95409 235.59886 255.744
220.95914 235.60173 255.744
220.95839 235.60129 255.744
220.95827 235.6012 255.744
220.9597 235.60204 255.744
220.9539 235.59877 255.744
220.95267 235.59804 255.744
220.96745 235.60637 255.744
220.9464 235.59453 255.744
220.95766 235.60088 255.744
220.97308 235.60954 255.744
220.96178 235.60318 255.744
220.98413 235.61577 255.744
220.96349 235.60416 255.744
220.95662 235.60025 255.744
220.95715 235.60057 255.744
220.95119 235.59727 255.744
220.96014 235.60226 255.744
220.96724 235.60628 255.744
220.96632 235.60577 255.744
220.96034 235.60239 255.744
220.97285 235.60942 255.744
220.96227 235.60347 255.744
220.96031 235.60237 255.744
220.96338 235.60408 255.744
220.9767 235.61159 255.744
220.97415 235.61017 255.744
220.97417 235.61017 255.744
220.96843 235.60692 255.744
220.95744 235.60075 255.744
220.94598 235.59428 255.744
220.97604 235.61125 255.744
220.95844 235.60129 255.744
220.96312 235.60397 255.744
220.97505 235.61064 255.744
220.98218 235.61467 255.744
220.96822 235.60681 255.744
220.95775 235.6009 255.744
220.97856 235.61261 255.744
220.95432 235.59898 255.744
220.98425 235.61583 255.744
220.96338 235.60406 255.744
220.95831 235.60124 255.744
220.95403 235.59883 255.744
220.97357 235.60982 255.744
220.96715 235.60622 255.744
220.96774 235.60655 255.744
220.95134 235.5973 255.744
220.96394 235.60443 255.744
220.95802 235.60107 255.744
220.98093 235.61395 255.744
220.96008 235.60223 255.744
220.96118 235.60283 255.744
220.96254 235.60362 255.744
220.97394 235.61003 255.744
220.96469 235.60484 255.744
220.94121 235.59164 255.744
220.93587 235.58861 255.744
220.97533 235.61084 255.744
220.98073 235.61385 255.744
220.96428 235.60458 255.744
220.98138 235.61423 255.744
220.9488 235.5959 255.744
220.97314 235.6096 255.744
220.96182 235.60321 255.744
220.95798 235.60103 255.744
220.97348 235.60979 255.744
220.95897 235.60161 255.744
220.98071 235.61385 255.744
220.94762 235.59523 255.744
220.97995 235.61342 255.744
220.96393 235.60439 255.744
220.97502 235.61066 255.744
220.98181 235.61444 255.744
220.97195 235.60889 255.744
220.96791 235.60664 255.744
220.96573 235.60544 255.744
220.96548 235.60529 255.744
220.96857 235.60704 255.744
220.98262 235.61493 255.744
220.96463 235.60477 255.744
220.97554 235.61092 255.744
220.97218 235.60904 255.744
220.95613 235.60002 255.744
220.95316 235.59833 255.744
220.98888 235.61844 255.744
220.96413 235.6045 255.744
220.95607 235.59999 255.744
220.96959 235.60757 255.744
220.95876 235.6015 255.744
220.99094 235.61958 255.744
220.95738 235.60072 255.744
220.97661 235.61154 255.744
220.94621 235.5944 255.744
220.96758 235.60649 255.744
220.96501 235.60501 255.744
220.9525 235.59793 255.744
220.97495 235.61061 255.744
220.96442 235.60468 255.744
220.97185 235.60887 255.744
220.98024 235.61362 255.744
220.9644 235.60468 255.744
220.97614 235.61127 255.744
220.98541 235.61652 255.744
220.97977 235.6133 255.744
220.96255 235.60362 255.744
220.96329 235.60403 255.744
220.97331 235.60968 255.744
220.96983 235.60771 255.744
220.96536 235.60521 255.744
220.96838 235.60692 255.744
220.97733 235.61194 255.744
220.97221 235.60907 255.744
220.97499 235.61066 255.744
220.9663 235.60571 255.744
220.98718 235.6175 255.744
220.95573 235.5998 255.744
220.98743 235.61765 255.744
220.97069 235.6082 255.744
220.94843 235.59569 255.744
220.9824 235.6148 255.744
220.98271 235.61493 255.744
220.97592 235.61118 255.744
220.95732 235.6007 255.744
220.98169 235.61441 255.744
220.97678 235.61163 255.744
220.97655 235.61148 255.744
220.98535 235.61647 255.744
220.98904 235.61856 255.744
220.99107 235.6197 255.744
220.96503 235.60503 255.744
220.97733 235.61194 255.744
220.97897 235.6129 255.744
220.97403 235.6101 255.744
220.96979 235.60771 255.744
220.97554 235.61095 255.744
220.9791 235.61292 255.744
220.9528 235.59816 255.744
220.96558 235.60535 255.744
220.97266 235.60931 255.744
220.96494 235.60495 255.744
220.9896 235.61882 255.744
220.97531 235.61081 255.744
220.97086 235.6083 255.744
220.97069 235.6082 255.744
220.99239 235.62039 255.744
220.97757 235.61209 255.744
220.98436 235.6159 255.744
220.97903 235.6129 255.744
220.98306 235.61517 255.744
220.98593 235.6168 255.744
220.97308 235.60953 255.744
220.99887 235.62402 255.744
220.99164 235.62 255.744
220.99269 235.6206 255.744
220.99767 235.6234 255.744
220.9736 235.60982 255.744
220.97202 235.60895 255.744
220.98228 235.61473 255.744
220.97462 235.6104 255.744
220.96248 235.6036 255.744
220.97026 235.60796 255.744
220.9868 235.61728 255.744
220.98938 235.61873 255.744
220.97493 235.61058 255.744
220.95921 235.60175 255.744
220.96788 235.60663 255.744
221.01274 235.63187 255.744
220.99953 235.62444 255.744
221.0092 235.62988 255.744
221.03465 235.64421 255.744
220.99666 235.62283 255.744
220.99788 235.6235 255.744
221.01558 235.63347 255.744
221.00069 235.62508 255.744
221.01375 235.63245 255.744
220.99385 235.62123 255.744
221.01068 235.63072 255.744
221.00986 235.63025 255.744
220.99574 235.6223 255.744
221.0258 235.63924 255.744
221.00058 235.62505 255.744
221.00087 235.62517 255.744
220.99797 235.62358 255.744
221.0132 235.6321 255.744
220.9892 235.61862 255.744
221.00237 235.62602 255.744
221.018 235.63483 255.744
221.01297 235.63203 255.744
221.01077 235.63077 255.744
221.01947 235.63567 255.744
221.01497 235.6331 255.744
221.00879 235.62962 255.744
221.01453 235.63287 255.744
221.0238 235.63812 255.744
221.0305 235.64186 255.744
221.01526 235.63327 255.744
220.99414 235.6214 255.744
221.016 235.6337 255.744
221.00392 235.6269 255.744
221.02547 235.63902 255.744
221.0042 235.62704 255.744
221.00587 235.62804 255.744
221.00218 235.62592 255.744
221.02089 235.63644 255.744
221.00446 235.62723 255.744
220.97717 235.61185 255.744
220.99802 235.62361 255.744
220.9945 235.62158 255.744
220.99463 235.62166 255.744
220.9972 235.62312 255.744
221.02965 235.64136 255.744
220.99998 235.62471 255.744
221.0015 235.62553 255.744
221.00304 235.62643 255.744
221.01498 235.63313 255.744
221.01826 235.63498 255.744
221.00146 235.62552 255.744
221.0143 235.63275 255.744
220.99884 235.62407 255.744
221.01201 235.63145 255.744
221.0078 235.6291 255.744
220.99869 235.62396 255.744
221.01903 235.63544 255.744
221.00204 235.62582 255.744
221.01364 235.63237 255.744
221.00902 235.62976 255.744
221.00058 235.62505 255.744
221.00716 235.62871 255.744
221.02359 235.63797 255.744
221.0038 235.62685 255.744
220.99352 235.62103 255.744
220.99126 235.61978 255.744
220.98563 235.61664 255.744
220.99992 235.6247 255.744
221.00787 235.62915 255.744
221.00314 235.62643 255.744
220.99818 235.6237 255.744
221.00325 235.62657 255.744
220.99663 235.62282 255.744
220.99606 235.62247 255.744
220.99893 235.6241 255.744
221.00978 235.6302 255.744
221.00832 235.6294 255.744
220.9997 235.62451 255.744
221.00375 235.62679 255.744
220.99428 235.62146 255.744
220.98805 235.61803 255.744
221.00534 235.62772 255.744
221.0009 235.6252 255.744
221.01598 235.6337 255.744
221.0114 235.63112 255.744
221.01524 235.6333 255.744
220.99263 235.62056 255.744
220.992 235.62022 255.744
220.99869 235.62398 255.744
220.991 235.61963 255.744
220.98491 235.61621 255.744
221.00201 235.62581 255.744
221.00066 235.62508 255.744
220.99672 235.62285 255.744
220.98503 235.6163 255.744
221.02208 235.63713 255.744
221.01776 235.6347 255.744
220.99936 235.62433 255.744
220.99763 235.6234 255.744
220.97737 235.61197 255.744
220.99747 235.62326 255.744
221.00294 235.62637 255.744
221.01086 235.63081 255.744
221.02386 235.63815 255.744
221.0109 235.63086 255.744
221.01118 235.63098 255.744
220.99457 235.62167 255.744
220.99022 235.61922 255.744
221.00284 235.62628 255.744
221.00102 235.62529 255.744
220.99709 235.62306 255.744
220.98398 235.61566 255.744
220.99837 235.62378 255.744
220.9973 235.62315 255.744
221.00464 235.62732 255.744
220.98972 235.61893 255.744
220.99896 235.62411 255.744
221.00476 235.62738 255.744
221.01215 235.63152 255.744
220.98825 235.61812 255.744
220.97517 235.61073 255.744
220.99486 235.62178 255.744
221.00221 235.62595 255.744
220.99492 235.62186 255.744
221.00732 235.62881 255.744
220.98468 235.61606 255.744
221.0021 235.62589 255.744
221.00159 235.62561 255.744
221.00424 235.62712 255.744
221.01163 235.63124 255.744
221.00766 235.629 255.744
221.0004 235.62492 255.744
220.99513 235.62196 255.744
220.9822 235.61469 255.744
220.9946 235.62166 255.744
220.99924 235.62425 255.744
220.99168 235.62004 255.744
220.99654 235.62274 255.744
220.99896 235.6241 255.744
220.99301 235.62077 255.744
220.99289 235.62071 255.744
220.98352 235.61543 255.744
220.97115 235.60847 255.744
220.98218 235.61467 255.744
220.98419 235.61578 255.744
220.99088 235.61957 255.744
220.98163 235.61438 255.744
220.9954 235.6221 255.744
220.99155 235.61996 255.744
221.00237 235.62604 255.744
220.98422 235.61583 255.744
221.00914 235.62984 255.744
220.98848 235.61824 255.744
220.9844 235.61592 255.744
220.97769 235.61214 255.744
220.9911 235.61967 255.744
220.994 235.62132 255.744
220.9936 235.6211 255.744
220.99004 235.6191 255.744
220.99261 235.62056 255.744
220.97859 235.61269 255.744
220.98903 235.61855 255.744
220.98386 235.61562 255.744
220.99268 235.6206 255.744
220.99544 235.6221 255.744
221.00589 235.62802 255.744
220.9947 235.62175 255.744
221.00204 235.62582 255.744
220.99843 235.62384 255.744
220.99434 235.6215 255.744
220.99353 235.6211 255.744
221.00227 235.62599 255.744
220.96771 235.60654 255.744
220.98999 235.61906 255.744
220.95883 235.60152 255.744
220.99232 235.62038 255.744
220.99925 235.62428 255.744
220.99745 235.62326 255.744
220.98535 235.61644 255.744
221.00946 235.63 255.744
221.01712 235.63432 255.744
220.98482 235.61617 255.744
220.98344 235.61537 255.744
220.98553 235.61655 255.744
220.98875 235.61836 255.744
221.00072 235.62514 255.744
220.99031 235.61926 255.744
220.98494 235.61623 255.744
220.99783 235.62349 255.744
220.99731 235.62317 255.744
220.9959 235.62239 255.744
220.97905 235.61292 255.744
220.97853 235.61258 255.744
220.98802 235.61797 255.744
220.98119 235.6141 255.744
220.99464 235.62167 255.744
220.98534 235.61642 255.744
220.97173 235.60878 255.744
220.99704 235.62303 255.744
221.01053 235.63063 255.744
221.0025 235.6261 255.744
221.00304 235.6264 255.744
220.99606 235.62245 255.744
221.00047 235.62495 255.744
220.9895 235.61882 255.744
221.00739 235.62888 255.744
220.9709 235.60834 255.744
220.9752 235.61075 255.744
221.00531 235.62767 255.744
220.98781 235.61784 255.744
221.00014 235.62479 255.744
220.99774 235.62343 255.744
221.00795 235.62915 255.744
221.0085 235.62947 255.744
220.9867 235.61725 255.744
220.99359 235.62111 255.744
220.99098 235.61964 255.744
220.98016 235.61354 255.744
220.99849 235.62387 255.744
220.99469 235.6217 255.744
220.98717 235.61748 255.744
220.97469 235.61044 255.744
220.98524 235.61641 255.744
220.98518 235.61636 255.744
221.001 235.62527 255.744
220.98824 235.61812 255.744
220.99203 235.62024 255.744
220.97845 235.61255 255.744
220.99449 235.6216 255.744
220.9959 235.6224 255.744
220.98671 235.61723 255.744
220.98898 235.6185 255.744
220.99817 235.62369 255.744
220.99123 235.61977 255.744
220.9802 235.61354 255.744
220.9841 235.61577 255.744
220.99355 235.62111 255.744
220.98085 235.6139 255.744
220.99423 235.62143 255.744
220.99297 235.62073 255.744
220.97685 235.61166 255.744
221.00253 235.62614 255.744
220.9906 235.6194 255.744
220.99257 235.62051 255.744
221.00099 235.62526 255.744
220.98997 235.61905 255.744
220.98698 235.61739 255.744
220.9882 235.61806 255.744
220.99088 235.61958 255.744
220.99106 235.61964 255.744
221.00305 235.62642 255.744
220.98026 235.61359 255.744
220.9921 235.62024 255.744
220.99184 235.6201 255.744
220.9879 235.61789 255.744
221.00548 235.6278 255.744
220.99557 235.62224 255.744
220.9938 235.62123 255.744
220.97818 235.61241 255.744
220.97371 235.60992 255.744
220.98468 235.61606 255.744
220.98157 235.61433 255.744
220.95961 235.60199 255.744
220.99728 235.62315 255.744
220.9867 235.61725 255.744
220.99304 235.6208 255.744
220.98935 235.61871 255.744
220.98788 235.61786 255.744
220.99681 235.62292 255.744
220.98676 235.61726 255.744
220.99239 235.62042 255.744
220.99127 235.6198 255.744
220.98755 235.61768 255.744
220.9827 235.61496 255.744
220.98793 235.6179 255.744
220.9877 235.61777 255.744
220.98776 235.61781 255.744
221.00354 235.62671 255.744
220.9885 235.61821 255.744
220.98845 235.61821 255.744
220.98416 235.61581 255.744
220.98508 235.6163 255.744
220.98477 235.61612 255.744
221.00047 235.62497 255.744
220.98251 235.61485 255.744
221.00047 235.62494 255.744
220.99345 235.62102 255.744
220.985 235.61629 255.744
220.99153 235.61995 255.744
221.02254 235.63739 255.744
220.97676 235.61163 255.744
220.9755 235.61089 255.744
220.99535 235.6221 255.744
220.98305 235.61514 255.744
220.98212 235.61467 255.744
220.98032 235.61365 255.744
220.99066 235.61946 255.744
220.97856 235.61264 255.744
220.99698 235.62299 255.744
221.01285 235.63193 255.744
220.98883 235.61844 255.744
221.00429 235.62709 255.744
220.96075 235.60258 255.744
220.99324 235.6209 255.744
220.97298 235.60951 255.744
220.99832 235.62373 255.744
220.99817 235.62367 255.744
220.98938 235.61874 255.744
220.9877 235.61778 255.744
220.97676 235.61162 255.744
220.99422 235.62148 255.744
220.97969 235.61325 255.744
220.99524 235.622 255.744
220.99251 235.62047 255.744
220.9912 235.61975 255.744
220.98993 235.61902 255.744
220.98416 235.61581 255.744
220.98688 235.61732 255.744
220.9902 235.61917 255.744
220.97739 235.61195 255.744
220.97264 235.60931 255.744
220.99524 235.62201 255.744
220.99266 235.62056 255.744
220.97958 235.6132 255.744
220.99008 235.6191 255.744
220.99884 235.62405 255.744
220.98248 235.61485 255.744
220.98615 235.61693 255.744
220.98427 235.61586 255.744
220.99747 235.62329 255.744
221.00421 235.62708 255.744
220.976 235.61119 255.744
220.9753 235.6108 255.744
220.98254 235.61488 255.744
221.00513 235.6276 255.744
220.99896 235.62408 255.744
220.99445 235.62158 255.744
220.98364 235.6155 255.744
220.99927 235.62428 255.744
220.99268 235.6206 255.744
220.98367 235.6155 255.744
221.00201 235.62582 255.744
220.97937 235.61308 255.744
221.00339 235.6266 255.744
220.98857 235.61826 255.744
220.98123 235.61414 255.744
220.98953 235.61882 255.744
220.97768 235.61212 255.744
220.99446 235.62158 255.744
220.98488 235.6162 255.744
220.99022 235.61919 255.744
220.99239 235.62042 255.744
220.99345 235.62102 255.744
220.96828 235.60684 255.744
220.98418 235.61583 255.744
220.98177 235.61443 255.744
220.98796 235.61794 255.744
220.99702 235.62303 255.744
221.00594 235.62802 255.744
220.98604 235.61684 255.744
220.98982 235.61897 255.744
221.00319 235.6265 255.744
220.9895 235.61876 255.744
220.97795 235.61227 255.744
221.00421 235.62706 255.744
220.989 235.61852 255.744
220.99677 235.62286 255.744
220.9619 235.60327 255.744
220.98933 235.6187 255.744
220.98619 235.61696 255.744
220.98021 235.61356 255.744
221.00194 235.6258 255.744
220.98315 235.6152 255.744
220.99687 235.62292 255.744
220.99147 235.61989 255.744
220.98965 235.61887 255.744
220.99391 235.62126 255.744
220.99355 235.62108 255.744
220.99092 235.6196 255.744
220.97833 235.61249 255.744
220.98193 235.61452 255.744
220.97945 235.61314 255.744
220.9985 235.62387 255.744
220.99585 235.62238 255.744
220.9826 235.61491 255.744
220.98827 235.61812 255.744
220.97531 235.6108 255.744
220.99277 235.6206 255.744
220.99144 235.61987 255.744
221.01353 235.63232 255.744
221.00119 235.62534 255.744
220.9934 235.62099 255.744
220.99963 235.62448 255.744
221.00203 235.62584 255.744
221.00456 235.62726 255.744
221.00148 235.62553 255.744
220.97672 235.61156 255.744
220.99126 235.61978 255.744
221.00446 235.62723 255.744
220.98972 235.61891 255.744
221.00969 235.63016 255.744
220.99841 235.6238 255.744
220.98708 235.61743 255.744
221.0006 235.62505 255.744
220.98827 235.61809 255.744
220.99155 235.61995 255.744
220.98933 235.6187 255.744
220.97823 235.61244 255.744
221.0096 235.63011 255.744
220.98871 235.61836 255.744
220.9866 235.61714 255.744
220.98586 235.61674 255.744
221.01028 235.63051 255.744
220.99489 235.62183 255.744
220.98805 235.61798 255.744
221.01465 235.63295 255.744
220.98862 235.6183 255.744
220.9863 235.617 255.744
220.99968 235.62454 255.744
220.98972 235.6189 255.744
220.98453 235.61598 255.744
220.99873 235.62398 255.744
221.0085 235.62952 255.744
220.98393 235.61566 255.744
221.00519 235.62758 255.744
220.99321 235.62085 255.744
221.00221 235.62593 255.744
220.99629 235.62263 255.744
220.9972 235.62315 255.744
220.99557 235.62218 255.744
220.99469 235.62172 255.744
220.99104 235.61966 255.744
220.98413 235.6158 255.744
220.99196 235.62016 255.744
221.00902 235.62975 255.744
220.99854 235.62389 255.744
220.98592 235.61679 255.744
221.01274 235.63184 255.744
220.99893 235.62413 255.744
221.00264 235.6262 255.744
220.98903 235.61852 255.744
221.008 235.6292 255.744
220.98758 235.61774 255.744
220.9761 235.61125 255.744
221.00159 235.62563 255.744
220.97466 235.61043 255.744
220.98473 235.61609 255.744
220.98901 235.61855 255.744
220.9857 235.61665 255.744
220.99057 235.61938 255.744
221.00902 235.62978 255.744
221.01285 235.63193 255.744
220.99257 235.62053 255.744
221.00446 235.62723 255.744
220.9927 235.6206 255.744
220.98462 235.61603 255.744
220.99185 235.62013 255.744
220.98596 235.6168 255.744
220.99974 235.62456 255.744
220.99767 235.62338 255.744
220.99359 235.62111 255.744
220.99571 235.62228 255.744
220.99017 235.61919 255.744
220.99968 235.6245 255.744
220.98212 235.61462 255.744
221.01146 235.63113 255.744
221.00273 235.62625 255.744
221.01065 235.63069 255.744
220.98761 235.61774 255.744
220.9827 235.61496 255.744
221.014 235.63257 255.744
220.99948 235.62442 255.744
220.97372 235.6099 255.744
220.99675 235.62286 255.744
220.9939 235.62125 255.744
220.98645 235.61707 255.744
220.99452 235.62161 255.744
220.99652 235.62274 255.744
220.99646 235.62271 255.744
220.98183 235.61447 255.744
221.00604 235.62808 255.744
221.009 235.62978 255.744
221.00125 235.62541 255.744
220.99551 235.6222 255.744
220.99138 235.61986 255.744
221.00966 235.63014 255.744
221.00089 235.6252 255.744
221.00624 235.62823 255.744
220.99152 235.61992 255.744
220.99277 235.62064 255.744
221.0231 235.63771 255.744
221.01822 235.63496 255.744
221.01501 235.63316 255.744
220.98257 235.61491 255.744
221.01894 235.63538 255.744
221.00478 235.62738 255.744
221.02611 235.63937 255.744
220.98924 235.61865 255.744
221.01395 235.63254 255.744
221.01457 235.63289 255.744
221.00063 235.62506 255.744
220.98982 235.61896 255.744
220.99515 235.62196 255.744
220.98523 235.61641 255.744
221.01128 235.63103 255.744
221.00354 235.6267 255.744
220.98573 235.61668 255.744
221.01106 235.6309 255.744
220.98976 235.61891 255.744
220.98921 235.61862 255.744
221.00114 235.62534 255.744
220.99365 235.62111 255.744
221.00903 235.6298 255.744
221.00165 235.62566 255.744
221.01822 235.63493 255.744
221.00168 235.62564 255.744
221.00345 235.62662 255.744
220.99928 235.6243 255.744
220.99117 235.6197 255.744
220.99579 235.62233 255.744
220.9982 235.6237 255.744
220.99419 235.62141 255.744
220.9884 235.61813 255.744
220.99738 235.62323 255.744
221.00908 235.62984 255.744
221.0065 235.62836 255.744
221.0047 235.62735 255.744
220.98071 235.61383 255.744
221.00584 235.62798 255.744
221.01003 235.63034 255.744
220.98116 235.6141 255.744
220.99722 235.62311 255.744
221.00131 235.62546 255.744
220.99472 235.62177 255.744
221.0037 235.62677 255.744
221.00723 235.62877 255.744
220.99873 235.624 255.744
221.00803 235.62921 255.744
220.98471 235.61609 255.744
221.0006 235.62502 255.744
221.00188 235.62581 255.744
221.01625 235.63385 255.744
221.00508 235.62755 255.744
220.99857 235.62389 255.744
220.9996 235.6245 255.744
220.98393 235.61565 255.744
221.01286 235.63193 255.744
221.01193 235.63141 255.744
220.9946 235.62167 255.744
221.01648 235.63399 255.744
220.99002 235.6191 255.744
221.0061 235.62813 255.744
221.01414 235.63266 255.744
221.0002 235.62482 255.744
220.99762 235.62341 255.744
221.00958 235.63011 255.744
220.99045 235.61934 255.744
221.01308 235.63202 255.744
221.01819 235.63493 255.744
220.9953 235.62209 255.744
221.00674 235.62851 255.744
220.99849 235.62386 255.744
221.00873 235.62961 255.744
221.0133 235.63217 255.744
221.01718 235.63437 255.744
220.99329 235.6209 255.744
220.99193 235.62015 255.744
220.99222 235.62033 255.744
221.00012 235.62476 255.744
221.01918 235.63548 255.744
220.99968 235.62453 255.744
220.9994 235.62439 255.744
221.00958 235.63008 255.744
221.00272 235.62622 255.744
221.00914 235.62985 255.744
221.00677 235.62854 255.744
221.01193 235.63144 255.744
221.0044 235.62714 255.744
221.00832 235.62936 255.744
221.0002 235.6248 255.744
221.0083 235.6294 255.744
221.00961 235.6301 255.744
221.0134 235.63223 255.744
221.02075 235.6364 255.744
221.01097 235.63086 255.744
221.03189 235.64268 255.744
220.98471 235.61609 255.744
221.02219 235.63718 255.744
221.00832 235.6294 255.744
221.01651 235.63397 255.744
221.01515 235.63324 255.744
221.01024 235.63043 255.744
221.01839 235.63506 255.744
221.01994 235.63594 255.744
221.01088 235.63084 255.744
221.0153 235.63329 255.744
221.00586 235.62802 255.744
220.99228 235.62035 255.744
221.02324 235.63776 255.744
221.03648 235.64526 255.744
221.04282 235.6488 255.744
221.05997 235.65846 255.744
221.0569 235.65671 255.744
221.04568 235.65039 255.744
221.04465 235.64983 255.744
221.06169 235.65941 255.744
221.04718 235.65126 255.744
221.057 235.65681 255.744
221.03728 235.64568 255.744
221.03648 235.64525 255.744
221.05634 235.6564 255.744
221.03502 235.64438 255.744
221.05688 235.6567 255.744
221.02348 235.6379 255.744
221.02603 235.63933 255.744
221.03621 235.64505 255.744
221.04588 235.65051 255.744
221.03532 235.64456 255.744
221.03302 235.64326 255.744
221.03673 235.64536 255.744
221.01997 235.63593 255.744
221.0322 235.6428 255.744
221.04916 235.65236 255.744
221.03293 235.64326 255.744
221.02234 235.63725 255.744
221.03511 235.64445 255.744
221.03485 235.64433 255.744
221.04245 235.64857 255.744
221.03455 235.64415 255.744
221.04648 235.65088 255.744
221.03935 235.64688 255.744
221.05956 235.65823 255.744
221.02509 235.6388 255.744
221.03548 235.64468 255.744
221.03682 235.6454 255.744
221.0447 235.64983 255.744
221.04823 235.65187 255.744
221.04285 235.6488 255.744
221.03984 235.64713 255.744
221.03839 235.6463 255.744
221.01865 235.6352 255.744
221.04361 235.64923 255.744
221.02739 235.64012 255.744
221.03189 235.64262 255.744
221.04396 235.64943 255.744
221.05386 235.65506 255.744
221.04248 235.6486 255.744
221.03201 235.6427 255.744
221.02565 235.63914 255.744
221.05443 235.65533 255.744
221.03682 235.64542 255.744
221.03172 235.64258 255.744
221.02095 235.63647 255.744
221.03644 235.64519 255.744
221.04669 235.65097 255.744
221.02325 235.6378 255.744
221.05794 235.6573 255.744
221.05112 235.65347 255.744
221.04362 235.64925 255.744
221.0476 235.65152 255.744
221.03044 235.64183 255.744
221.03268 235.6431 255.744
221.02684 235.6398 255.744
221.03705 235.64554 255.744
221.03894 235.64664 255.744
221.03981 235.6471 255.744
221.03458 235.64413 255.744
221.0474 235.65138 255.744
221.01768 235.63464 255.744
221.04732 235.65134 255.744
221.02841 235.64067 255.744
221.03693 235.64551 255.744
221.02727 235.64003 255.744
221.05482 235.65555 255.744
221.0219 235.63704 255.744
221.0468 235.65102 255.744
221.02629 235.6395 255.744
221.03615 235.64505 255.744
221.03519 235.64452 255.744
221.03767 235.64592 255.744
221.03712 235.64558 255.744
221.03838 235.64627 255.744
221.02792 235.64041 255.744
221.04689 235.65111 255.744
221.0308 235.64206 255.744
221.05357 235.65486 255.744
221.02379 235.63808 255.744
221.04234 235.64853 255.744
221.03896 235.64665 255.744
221.0232 235.63776 255.744
221.03313 235.64334 255.744
221.02159 235.63687 255.744
221.04181 235.64824 255.744
221.03384 235.64375 255.744
221.01929 235.63554 255.744
221.02858 235.64078 255.744
221.02701 235.63994 255.744
221.02475 235.63866 255.744
221.02577 235.63922 255.744
221.03818 235.64618 255.744
221.03064 235.64194 255.744
221.0291 235.64108 255.744
221.04723 235.65129 255.744
221.03424 235.64397 255.744
221.03151 235.64243 255.744
221.00868 235.6296 255.744
221.03397 235.64383 255.744
221.02292 235.6376 255.744
221.02069 235.63632 255.744
221.02643 235.63957 255.744
221.02121 235.63664 255.744
221.03813 235.64616 255.744
221.03577 235.64482 255.744
221.04877 235.65215 255.744
221.02905 235.64105 255.744
221.03606 235.64499 255.744
221.02405 235.63823 255.744
221.03348 235.64355 255.744
221.04045 235.64746 255.744
221.03058 235.6419 255.744
221.02895 235.64095 255.744
221.03139 235.64236 255.744
221.03123 235.64227 255.744
221.04005 235.64726 255.744
221.02441 235.63846 255.744
221.02466 235.63855 255.744
221.0263 235.63953 255.744
221.0362 235.64507 255.744
221.01396 235.63257 255.744
221.00711 235.6287 255.744
221.01938 235.63562 255.744
221.03148 235.6424 255.744
221.03583 235.64487 255.744
221.05107 235.65347 255.744
221.00713 235.62872 255.744
221.04285 235.6488 255.744
221.02092 235.63649 255.744
221.01697 235.63425 255.744
221.03677 235.6454 255.744
221.03734 235.64574 255.744
221.03424 235.64397 255.744
221.03711 235.64561 255.744
221.0162 235.63385 255.744
221.01785 235.63474 255.744
221.03188 235.64264 255.744
221.03186 235.6426 255.744
221.02687 235.63979 255.744
221.02388 235.63815 255.744
221.0318 235.64258 255.744
221.02748 235.64017 255.744
221.03772 235.64589 255.744
221.01503 235.63315 255.744
221.04045 235.64748 255.744
221.016 235.63371 255.744
221.02379 235.6381 255.744
221.0321 235.64279 255.744
221.027 235.63991 255.744
221.01974 235.6358 255.744
221.01012 235.6304 255.744
221.0281 235.64052 255.744
221.04366 235.64929 255.744
221.02934 235.6412 255.744
221.03123 235.6423 255.744
221.01872 235.63522 255.744
221.04544 235.6503 255.744
221.0228 235.63754 255.744
221.00687 235.62857 255.744
221.01996 235.63593 255.744
221.03069 235.64198 255.744
221.02055 235.63625 255.744
221.02246 235.63733 255.744
221.00146 235.62553 255.744
221.02724 235.64005 255.744
221.02058 235.63629 255.744
221.03831 235.64626 255.744
221.01991 235.6359 255.744
221.03522 235.64452 255.744
221.0188 235.63525 255.744
221.00378 235.62685 255.744
221.0153 235.63329 255.744
221.02397 235.63821 255.744
221.02818 235.64058 255.744
221.0375 235.6458 255.744
221.02206 235.63713 255.744
221.00697 235.62863 255.744
221.0309 235.64209 255.744
221.0305 235.64189 255.744
221.0271 235.63997 255.744
221.02805 235.64047 255.744
221.01733 235.63448 255.744
221.0135 235.63234 255.744
221.01811 235.63489 255.744
221.01834 235.63501 255.744
221.01212 235.63153 255.744
221.01395 235.63257 255.744
221.03673 235.64537 255.744
221.0095 235.63004 255.744
221.02309 235.6377 255.744
221.0135 235.63231 255.744
221.02184 235.63702 255.744
221.0241 235.63826 255.744
221.02673 235.63976 255.744
221.0155 235.63342 255.744
221.01567 235.63348 255.744
221.0229 235.6376 255.744
221.02042 235.63622 255.744
221.0274 235.64014 255.744
221.02931 235.64119 255.744
221.03206 235.64273 255.744
221.0117 235.63126 255.744
221.03044 235.64185 255.744
221.03062 235.64194 255.744
221.01494 235.63312 255.744
221.00798 235.6292 255.744
221.02304 235.63765 255.744
221.0069 235.62857 255.744
221.01881 235.63528 255.744
221.02231 235.63725 255.744
221.02577 235.63922 255.744
221.02121 235.63664 255.744
221.0384 235.6463 255.744
221.01703 235.63428 255.744
221.02057 235.63625 255.744
221.03159 235.64247 255.744
221.01389 235.63252 255.744
221.03596 235.64496 255.744
221.02525 235.6389 255.744
221.02534 235.63899 255.744
221.03741 235.64574 255.744
221.01114 235.63097 255.744
221.04642 235.65083 255.744
221.00389 235.62689 255.744
221.02344 235.6379 255.744
221.03749 235.6458 255.744
221.02794 235.64043 255.744
221.03503 235.64442 255.744
221.02007 235.63599 255.744
221.0186 235.63518 255.744
221.01836 235.63503 255.744
221.02547 235.63904 255.744
221.01794 235.63481 255.744
221.01947 235.63565 255.744
221.02916 235.64111 255.744
221.0354 235.64464 255.744
221.04321 235.64902 255.744
221.0228 235.63754 255.744
221.02649 235.6396 255.744
221.016 235.63371 255.744
221.01028 235.63051 255.744
221.01834 235.63504 255.744
221.02634 235.63953 255.744
221.01065 235.63072 255.744
221.01778 235.6347 255.744
221.0294 235.64124 255.744
221.01744 235.63452 255.744
221.04843 235.65196 255.744
221.03726 235.64568 255.744
221.0221 235.63713 255.744
221.02278 235.63751 255.744
221.03325 235.64345 255.744
220.99794 235.62355 255.744
221.0052 235.62761 255.744
220.9964 235.6227 255.744
221.01398 235.63258 255.744
221.02814 235.64055 255.744
221.0122 235.63156 255.744
221.02829 235.64064 255.744
221.03798 235.64604 255.744
221.03381 235.64372 255.744
221.0174 235.63452 255.744
221.00072 235.6251 255.744
221.00612 235.62814 255.744
221.03056 235.64192 255.744
221.02638 235.63954 255.744
221.02872 235.64085 255.744
221.00797 235.62918 255.744
221.01492 235.6331 255.744
221.00696 235.62865 255.744
221.0326 235.64307 255.744
221.01556 235.63347 255.744
221.02432 235.63837 255.744
221.03696 235.64551 255.744
221.01726 235.63441 255.744
221.03932 235.6468 255.744
221.02582 235.63925 255.744
221.0266 235.6397 255.744
221.01695 235.63423 255.744
221.03004 235.64163 255.744
221.01996 235.63594 255.744
221.01689 235.63422 255.744
221.01234 235.63165 255.744
221.01314 235.63214 255.744
221.02773 235.64032 255.744
221.00694 235.6286 255.744
221.02942 235.64128 255.744
221.02405 235.63821 255.744
221.02196 235.63707 255.744
221.00517 235.62764 255.744
221.0215 235.63678 255.744
221.02693 235.63988 255.744
221.02667 235.6397 255.744
220.99706 235.62303 255.744
221.00995 235.63026 255.744
221.02411 235.63828 255.744
221.036 235.64496 255.744
221.0261 235.63939 255.744
221.02524 235.63892 255.744
221.0113 235.63106 255.744
221.0171 235.63434 255.744
221.0009 235.62521 255.744
221.03003 235.64163 255.744
221.02847 235.64076 255.744
221.01744 235.6345 255.744
221.01909 235.63544 255.744
221.02739 235.64012 255.744
221.03038 235.6418 255.744
221.01588 235.63362 255.744
221.01357 235.63234 255.744
221.02452 235.6385 255.744
221.03201 235.64268 255.744
221.01807 235.63489 255.744
221.01984 235.63586 255.744
221.03238 235.6429 255.744
221.02141 235.63676 255.744
221.01733 235.63445 255.744
221.02742 235.64014 255.744
221.01309 235.63206 255.744
221.01349 235.63228 255.744
221.01079 235.63077 255.744
221.03743 235.64575 255.744
221.01068 235.63072 255.744
221.01788 235.6348 255.744
221.02647 235.6396 255.744
221.02173 235.63695 255.744
221.02945 235.64128 255.744
221.03317 235.64337 255.744
221.01372 235.63243 255.744
221.01717 235.63438 255.744
221.02423 235.63837 255.744
221.03728 235.64565 255.744
221.01492 235.63312 255.744
221.0284 235.64073 255.744
221.00613 235.62817 255.744
221.02829 235.64067 255.744
221.01991 235.63591 255.744
221.00935 235.62994 255.744
220.99799 235.62357 255.744
221.01598 235.6337 255.744
221.03679 235.64539 255.744
221.00618 235.62817 255.744
221.00487 235.62743 255.744
221.03001 235.6416 255.744
221.02586 235.63925 255.744
221.02563 235.6391 255.744
221.01062 235.63069 255.744
221.00545 235.62776 255.744
221.0256 235.63911 255.744
221.02837 235.64064 255.744
221.0032 235.62651 255.744
221.03453 235.64413 255.744
221.02466 235.63858 255.744
221.02737 235.64014 255.744
221.01755 235.63457 255.744
221.00406 235.627 255.744
221.0058 235.62796 255.744
221.02966 235.64139 255.744
221.0218 235.63698 255.744
221.02554 235.63904 255.744
221.02382 235.6381 255.744
221.01782 235.63474 255.744
221.03317 235.64339 255.744
221.01663 235.63403 255.744
221.02766 235.64029 255.744
221.02408 235.63826 255.744
221.01796 235.6348 255.744
221.02084 235.63643 255.744
221.01999 235.636 255.744
221.03989 235.64713 255.744
221.01692 235.63422 255.744
221.0338 235.64374 255.744
221.01851 235.63512 255.744
221.03632 235.64516 255.744
221.01993 235.6359 255.744
221.02933 235.64119 255.744
221.01642 235.63394 255.744
221.01917 235.6355 255.744
221.00461 235.62733 255.744
221.02641 235.63957 255.744
221.03297 235.64323 255.744
221.02078 235.63638 255.744
221.00847 235.62949 255.744
221.01222 235.63158 255.744
221.01743 235.6345 255.744
221.02542 235.63902 255.744
221.03758 235.64589 255.744
221.02069 235.63635 255.744
221.03522 235.64453 255.744
221.01819 235.63493 255.744
221.03131 235.64232 255.744
221.0209 235.63647 255.744
221.01765 235.63463 255.744
221.03094 235.64212 255.744
221.02414 235.63829 255.744
221.00343 235.62663 255.744
221.01974 235.63579 255.744
221.01201 235.63145 255.744
221.01917 235.6355 255.744
221.01437 235.6328 255.744
221.02089 235.63644 255.744
221.01602 235.63373 255.744
221.02003 235.63597 255.744
220.99905 235.6242 255.744
221.01381 235.63249 255.744
221.04095 235.64775 255.744
221.00958 235.63011 255.744
221.01482 235.63306 255.744
221.02509 235.63884 255.744
221.0121 235.63155 255.744
221.01967 235.63577 255.744
221.0178 235.63474 255.744
221.01761 235.6346 255.744
221.02477 235.63861 255.744
221.03798 235.64609 255.744
221.01427 235.63275 255.744
221.03447 235.64412 255.744
221.03798 235.64607 255.744
221.02228 235.63722 255.744
221.03584 235.64488 255.744
221.02592 235.6393 255.744
221.01694 235.63423 255.744
221.03021 235.64171 255.744
221.0227 235.63751 255.744
221.00948 235.63005 255.744
221.03233 235.64288 255.744
221.0266 235.63968 255.744
221.04828 235.65189 255.744
221.02452 235.6385 255.744
221.02203 235.63712 255.744
221.04468 235.64987 255.744
221.04153 235.64809 255.744
221.0051 235.62756 255.744
221.01163 235.63127 255.744
221.034 235.6438 255.744
221.03954 235.64697 255.744
221.02586 235.63925 255.744
221.01993 235.6359 255.744
221.02466 235.63858 255.744
221.0213 235.63667 255.744
221.01772 235.63466 255.744
221.03154 235.64244 255.744
221.00523 235.62766 255.744
221.03082 235.64204 255.744
221.0304 235.64182 255.744
221.02765 235.64027 255.744
221.03304 235.64328 255.744
221.02306 235.6377 255.744
221.0385 235.64636 255.744
221.02794 235.64047 255.744
221.02803 235.64049 255.744
221.02512 235.63884 255.744
221.06825 235.66313 255.744
221.03998 235.64719 255.744
221.03653 235.64525 255.744
221.03195 235.64268 255.744
221.02995 235.64156 255.744
221.04674 235.651 255.744
221.00948 235.63005 255.744
221.036 235.64497 255.744
221.0285 235.6407 255.744
221.03812 235.64615 255.744
221.02449 235.63849 255.744
221.04047 235.64748 255.744
221.01453 235.63289 255.744
221.02301 235.63765 255.744
221.0433 235.64906 255.744
221.02277 235.63751 255.744
221.0227 235.63748 255.744
221.00998 235.63033 255.744
221.01881 235.63528 255.744
221.0172 235.63438 255.744
221.01721 235.63438 255.744
221.03152 235.64244 255.744
221.03749 235.64584 255.744
221.02814 235.64053 255.744
221.02322 235.63777 255.744
221.04208 235.64838 255.744
221.0331 235.64333 255.744
221.03456 235.64415 255.744
221.02411 235.63828 255.744
221.03989 235.64717 255.744
221.02116 235.63664 255.744
221.01848 235.6351 255.744
221.01762 235.63461 255.744
221.00005 235.62473 255.744
221.02438 235.63838 255.744
221.04137 235.64796 255.744
221.04614 235.65068 255.744
221.04936 235.6525 255.744
221.03336 235.64346 255.744
221.02766 235.64027 255.744
221.04007 235.64723 255.744
221.0198 235.63582 255.744
221.02362 235.63797 255.744
221.02577 235.63919 255.744
221.02065 235.63634 255.744
221.04643 235.65085 255.744
221.02298 235.63765 255.744
221.03871 235.6465 255.744
221.0222 235.6372 255.744
221.03314 235.64336 255.744
221.02966 235.64137 255.744
221.0074 235.62889 255.744
221.0257 235.63916 255.744
221.0429 235.64885 255.744
221.03778 235.64597 255.744
221.02716 235.63998 255.744
221.03917 235.64673 255.744
221.01974 235.6358 255.744
221.02176 235.63695 255.744
221.03069 235.64197 255.744
221.02324 235.63779 255.744
221.0277 235.64026 255.744
221.0315 235.64244 255.744
221.03185 235.6426 255.744
221.03494 235.64438 255.744
221.0505 235.65314 255.744
221.05077 235.65326 255.744
221.02676 235.63977 255.744
221.05496 235.65564 255.744
221.02899 235.64104 255.744
221.04634 235.65077 255.744
221.03682 235.64542 255.744
221.0345 235.64412 255.744
221.02629 235.63953 255.744
221.04507 235.65007 255.744
221.04495 235.65002 255.744
221.03069 235.64195 255.744
221.03317 235.64337 255.744
221.04831 235.6519 255.744
221.02838 235.64067 255.744
221.03761 235.64587 255.744
221.02573 235.63916 255.744
221.03697 235.64551 255.744
221.03627 235.64513 255.744
221.03775 235.64589 255.744
221.04068 235.64758 255.744
221.02084 235.63643 255.744
221.04948 235.65254 255.744
221.04185 235.64825 255.744
221.04124 235.64793 255.744
221.01651 235.63399 255.744
221.02467 235.63858 255.744
221.0238 235.63809 255.744
221.04478 235.64989 255.744
221.03145 235.6424 255.744
221.0519 235.6539 255.744
221.03172 235.64258 255.744
221.049 235.6523 255.744
221.04993 235.65277 255.744
221.0266 235.63966 255.744
221.03822 235.64621 255.744
221.03784 235.646 255.744
221.06607 235.6619 255.744
221.06299 235.66014 255.744
221.02829 235.64064 255.744
221.01952 235.6357 255.744
221.03685 235.64542 255.744
221.03917 235.64674 255.744
221.04134 235.648 255.744
221.0787 235.66902 255.744
221.04732 235.65135 255.744
221.0389 235.6466 255.744
221.04689 235.6511 255.744
221.04036 235.6474 255.744
221.03757 235.64584 255.744
221.02164 235.63687 255.744
221.02235 235.63731 255.744
221.04341 235.64911 255.744
221.02878 235.64088 255.744
221.04576 235.65045 255.744
221.03183 235.64261 255.744
221.03973 235.6471 255.744
221.02776 235.64034 255.744
221.02863 235.64084 255.744
221.03261 235.64305 255.744
221.03815 235.64618 255.744
221.05544 235.65587 255.744
221.04993 235.6528 255.744
221.0405 235.64748 255.744
221.05528 235.65582 255.744
221.02861 235.6408 255.744
221.03438 235.64404 255.744
221.05287 235.65446 255.744
221.04059 235.64754 255.744
221.03673 235.64537 255.744
221.02655 235.63965 255.744
221.03484 235.6443 255.744
221.04437 235.64969 255.744
221.04964 235.65262 255.744
221.03323 235.64339 255.744
221.06917 235.66364 255.744
221.07433 235.66652 255.744
221.08372 235.67181 255.744
221.06879 235.66344 255.744
221.05324 235.65468 255.744
221.06668 235.66225 255.744
221.08635 235.67331 255.744
221.08484 235.67244 255.744
221.08461 235.6723 255.744
221.07196 235.66519 255.744
221.06812 235.66307 255.744
221.09238 235.6767 255.744
221.05222 235.65408 255.744
221.06783 235.66287 255.744
221.06293 235.66016 255.744
221.05934 235.65811 255.744
221.08394 235.67194 255.744
221.06462 235.66109 255.744
221.07729 235.66818 255.744
221.07755 235.66833 255.744
221.0553 235.65582 255.744
221.06232 235.65976 255.744
221.06375 235.66055 255.744
221.08958 235.67513 255.744
221.07042 235.66432 255.744
221.06975 235.66399 255.744
221.07256 235.66553 255.744
221.04765 235.65154 255.744
221.07683 235.66795 255.744
221.07188 235.66516 255.744
221.06471 235.66113 255.744
221.07191 235.66518 255.744
221.06265 235.65996 255.744
221.06303 235.66017 255.744
221.0751 235.66696 255.744
221.07059 235.66443 255.744
221.0785 235.66888 255.744
221.06696 235.6624 255.744
221.07114 235.66472 255.744
221.07397 235.66634 255.744
221.08041 235.66994 255.744
221.0484 235.65195 255.744
221.0721 235.66528 255.744
221.07176 235.6651 255.744
221.06123 235.65918 255.744
221.0585 235.65761 255.744
221.073 235.6658 255.744
221.07991 235.66966 255.744
221.07193 235.66519 255.744
221.08115 235.67036 255.744
221.08391 235.67197 255.744
221.0835 235.67169 255.744
221.07791 235.66853 255.744
221.07323 235.66591 255.744
221.07222 235.66534 255.744
221.07759 235.66838 255.744
221.08751 235.67397 255.744
221.08298 235.6714 255.744
221.04669 235.65096 255.744
221.06387 235.66064 255.744
221.05359 235.65486 255.744
221.08752 235.67393 255.744
221.05768 235.65717 255.744
221.06024 235.65862 255.744
221.07483 235.66681 255.744
221.05798 235.65732 255.744
221.07153 235.66496 255.744
221.07175 235.66508 255.744
221.09029 235.67552 255.744
221.05826 235.65749 255.744
221.08183 235.67076 255.744
221.06459 235.66101 255.744
221.0666 235.66219 255.744
221.07082 235.66457 255.744
221.07375 235.66621 255.744
221.06851 235.66327 255.744
221.06667 235.66223 255.744
221.05588 235.65614 255.744
221.05367 235.6549 255.744
221.048 235.65172 255.744
221.05252 235.65425 255.744
221.05534 235.65584 255.744
221.06776 235.66284 255.744
221.05531 235.65584 255.744
221.0704 235.66434 255.744
221.06828 235.66313 255.744
221.05957 235.65823 255.744
221.08064 235.6701 255.744
221.06213 235.65967 255.744
221.06783 235.66286 255.744
221.05756 235.65709 255.744
221.07666 235.66785 255.744
221.04782 235.65163 255.744
221.06944 235.6638 255.744
221.07414 235.66643 255.744
221.05199 235.65393 255.744
221.07123 235.66481 255.744
221.057 235.65678 255.744
221.06094 235.65901 255.744
221.04468 235.64984 255.744
221.05994 235.65843 255.744
221.06134 235.65923 255.744
221.07365 235.6662 255.744
221.04158 235.6481 255.744
221.06886 235.66347 255.744
221.05678 235.65665 255.744
221.0556 235.656 255.744
221.06833 235.66315 255.744
221.07222 235.66537 255.744
221.0505 235.65312 255.744
221.05275 235.65439 255.744
221.0601 235.6585 255.744
221.06708 235.66245 255.744
221.04887 235.65222 255.744
221.05315 235.65465 255.744
221.05829 235.65749 255.744
221.05638 235.65643 255.744
221.04355 235.6492 255.744
221.071 235.66466 255.744
221.05809 235.65738 255.744
221.06128 235.65918 255.744
221.0443 235.6496 255.744
221.055 235.65567 255.744
221.06602 235.66185 255.744
221.05782 235.65726 255.744
221.0432 235.64903 255.744
221.06146 235.65929 255.744
221.05655 235.6565 255.744
221.0593 235.65807 255.744
221.06224 235.65974 255.744
221.06442 235.66096 255.744
221.04767 235.65155 255.744
221.04868 235.65207 255.744
221.06204 235.65959 255.744
221.05469 235.65544 255.744
221.05583 235.65613 255.744
221.06354 235.66046 255.744
221.05382 235.65498 255.744
221.05455 235.65538 255.744
221.05952 235.65822 255.744
221.05545 235.65593 255.744
221.05171 235.65382 255.744
221.04716 235.65128 255.744
221.05403 235.6551 255.744
221.0698 235.66397 255.744
221.06232 235.65977 255.744
221.04976 235.6527 255.744
221.05629 235.6564 255.744
221.05466 235.65547 255.744
221.0599 235.65843 255.744
221.046 235.65059 255.744
221.06473 235.66112 255.744
221.07076 235.66452 255.744
221.05048 235.65312 255.744
221.07234 235.66542 255.744
221.0558 235.6561 255.744
221.04495 235.65001 255.744
221.06248 235.65987 255.744
221.06818 235.66306 255.744
221.07076 235.66454 255.744
221.06075 235.6589 255.744
221.05089 235.65335 255.744
221.05191 235.65393 255.744
221.0649 235.6612 255.744
221.0515 235.65364 255.744
221.07202 235.66525 255.744
221.0608 235.6589 255.744
221.07056 235.66443 255.744
221.05035 235.65305 255.744
221.05634 235.65642 255.744
221.05943 235.65814 255.744
221.0733 235.66595 255.744
221.06778 235.66283 255.744
221.05641 235.65643 255.744
221.06761 235.66277 255.744
221.04813 235.6518 255.744
221.0662 235.66194 255.744
221.06892 235.66347 255.744
221.04846 235.65195 255.744
221.05754 235.65707 255.744
221.05957 235.65826 255.744
221.07196 235.6652 255.744
221.04002 235.64723 255.744
221.07425 235.66649 255.744
221.05246 235.65424 255.744
221.04808 235.65175 255.744
221.04225 235.64851 255.744
221.0669 235.66235 255.744
221.04935 235.65248 255.744
221.05435 235.65527 255.744
221.05424 235.65524 255.744
221.06604 235.66187 255.744
221.06343 235.66042 255.744
221.05734 235.65698 255.744
221.06477 235.66115 255.744
221.05017 235.6529 255.744
221.0682 235.66309 255.744
221.05745 235.65703 255.744
221.05063 235.6532 255.744
221.0477 235.65154 255.744
221.04742 235.65138 255.744
221.04955 235.6526 255.744
221.07317 235.66591 255.744
221.06583 235.66174 255.744
221.07153 235.66498 255.744
221.0484 235.65198 255.744
221.04837 235.65192 255.744
221.04538 235.65024 255.744
221.05527 235.65578 255.744
221.05637 235.65642 255.744
221.04614 235.65068 255.744
221.05287 235.65446 255.744
221.0565 235.6565 255.744
221.06496 235.66124 255.744
221.07411 235.66641 255.744
221.05486 235.65556 255.744
221.057 235.65683 255.744
221.05263 235.65436 255.744
221.04846 235.65198 255.744
221.06439 235.66093 255.744
221.06668 235.66222 255.744
221.0543 235.65524 255.744
221.04202 235.64836 255.744
221.04825 235.65187 255.744
221.05423 235.65524 255.744
221.04968 235.65265 255.744
221.05135 235.65364 255.744
221.06056 235.6588 255.744
221.04387 235.6494 255.744
221.04706 235.65117 255.744
221.0663 235.66202 255.744
221.07071 235.66447 255.744
221.06706 235.66243 255.744
221.05565 235.65602 255.744
221.06007 235.65854 255.744
221.04929 235.65242 255.744
221.05882 235.65784 255.744
221.03067 235.64195 255.744
221.0543 235.65526 255.744
221.03838 235.6463 255.744
221.04576 235.65047 255.744
221.04503 235.65002 255.744
221.06425 235.66086 255.744
221.05518 235.65573 255.744
221.04295 235.64886 255.744
221.06366 235.66054 255.744
221.04938 235.65251 255.744
221.05858 235.65768 255.744
221.0523 235.65413 255.744
221.05736 235.65697 255.744
221.06789 235.66293 255.744
221.0519 235.6539 255.744
221.06023 235.65862 255.744
221.06857 235.6633 255.744
221.0445 235.64973 255.744
221.04706 235.65117 255.744
221.05388 235.65501 255.744
221.04243 235.64857 255.744
221.06085 235.65895 255.744
221.03685 235.64545 255.744
221.0399 235.64714 255.744
221.05402 235.65512 255.744
221.05139 235.65361 255.744
221.05049 235.65312 255.744
221.04471 235.64986 255.744
221.07135 235.66487 255.744
221.04274 235.64876 255.744
221.04465 235.64983 255.744
221.0427 235.64873 255.744
221.06003 235.6585 255.744
221.05792 235.6573 255.744
221.0585 235.65764 255.744
221.0554 235.6559 255.744
221.02565 235.63911 255.744
221.05083 235.65332 255.744
221.04616 235.65067 255.744
221.04784 235.65163 255.744
221.05727 235.65694 255.744
221.05453 235.65536 255.744
221.04965 235.65266 255.744
221.05237 235.65419 255.744
221.06561 235.66162 255.744
221.05838 235.65756 255.744
221.04353 235.6492 255.744
221.06717 235.66249 255.744
221.06583 235.66177 255.744
221.03807 235.64613 255.744
221.04382 235.64938 255.744
221.06377 235.66057 255.744
221.02805 235.6405 255.744
221.06427 235.66087 255.744
221.03865 235.64644 255.744
221.05396 235.65504 255.744
221.03705 235.64557 255.744
221.04907 235.65231 255.744
221.0615 235.6593 255.744
221.03801 235.6461 255.744
221.02722 235.64005 255.744
221.05632 235.6564 255.744
221.0299 235.64154 255.744
221.04457 235.6498 255.744
221.05463 235.65543 255.744
221.04968 235.65268 255.744
221.06114 235.65912 255.744
221.05028 235.653 255.744
221.05498 235.65565 255.744
221.04898 235.65227 255.744
221.05974 235.65834 255.744
221.06595 235.6618 255.744
221.0636 235.66048 255.744
221.0733 235.66594 255.744
221.06735 235.6626 255.744
221.05016 235.65291 255.744
221.0676 235.66273 255.744
221.06647 235.66211 255.744
221.05765 235.65714 255.744
221.0498 235.65274 255.744
221.04184 235.64827 255.744
221.04723 235.65126 255.744
221.06047 235.6587 255.744
221.05406 235.65514 255.744
221.05084 235.65332 255.744
221.0474 235.65137 255.744
221.05757 235.65707 255.744
221.05515 235.65573 255.744
221.05879 235.65779 255.744
221.06125 235.65921 255.744
221.04373 235.64934 255.744
221.04189 235.6483 255.744
221.06432 235.66087 255.744
221.04196 235.6483 255.744
221.027 235.63991 255.744
221.05275 235.65437 255.744
221.05983 235.65836 255.744
221.0457 235.65045 255.744
221.05162 235.65375 255.744
221.0578 235.65724 255.744
221.06671 235.66225 255.744
221.03748 235.64581 255.744
221.04016 235.6473 255.744
221.03798 235.64609 255.744
221.04703 235.6512 255.744
221.06985 235.664 255.744
221.0484 235.65192 255.744
221.05638 235.65643 255.744
221.06683 235.66231 255.744
221.0399 235.64713 255.744
221.0822 235.67097 255.744
221.03732 235.6457 255.744
221.05402 235.65509 255.744
221.03777 235.64594 255.744
221.03297 235.64328 255.744
221.06447 235.66096 255.744
221.06113 235.65913 255.744
221.05197 235.65393 255.744
221.0558 235.6561 255.744
221.06635 235.662 255.744
221.04517 235.65013 255.744
221.06427 235.66092 255.744
221.04726 235.65126 255.744
221.05392 235.65503 255.744
221.05278 235.6544 255.744
221.05022 235.65297 255.744
221.05125 235.65352 255.744
221.0363 235.64514 255.744
221.04611 235.65067 255.744
221.0559 235.6562 255.744
221.0643 235.6609 255.744
221.07867 235.66898 255.744
221.06477 235.66115 255.744
221.05385 235.655 255.744
221.0497 235.65266 255.744
221.06497 235.66125 255.744
221.05186 235.65388 255.744
221.05472 235.65552 255.744
221.04768 235.65154 255.744
221.04875 235.65215 255.744
221.0616 235.6594 255.744
221.06805 235.66301 255.744
221.05666 235.65657 255.744
221.02597 235.63931 255.744
221.04294 235.64885 255.744
221.0317 235.64255 255.744
221.03357 235.64363 255.744
221.06883 235.66345 255.744
221.03189 235.64265 255.744
221.0651 235.66133 255.744
221.06873 235.66338 255.744
221.05211 235.654 255.744
221.06003 235.65848 255.744
221.047 235.65115 255.744
221.06284 235.66006 255.744
221.0549 235.6556 255.744
221.07132 235.66487 255.744
221.04463 235.64981 255.744
221.03229 235.64287 255.744
221.05835 235.65756 255.744
221.05235 235.65419 255.744
221.0468 235.65105 255.744
221.07365 235.66614 255.744
221.05338 235.65475 255.744
221.04782 235.65161 255.744
221.05217 235.65405 255.744
221.04716 235.65125 255.744
221.04335 235.64906 255.744
221.05565 235.65602 255.744
221.05644 235.65648 255.744
221.07639 235.66771 255.744
221.05154 235.65373 255.744
221.04561 235.65039 255.744
221.05481 235.65552 255.744
221.06313 235.66023 255.744
221.0459 235.65057 255.744
221.05864 235.6577 255.744
221.04333 235.64908 255.744
221.05997 235.65848 255.744
221.04863 235.65207 255.744
221.03622 235.6451 255.744
221.04678 235.65102 255.744
221.06462 235.66109 255.744
221.06223 235.6597 255.744
221.05768 235.65717 255.744
221.05891 235.65785 255.744
221.05534 235.65584 255.744
221.06033 235.65865 255.744
221.05948 235.65816 255.744
221.04617 235.6507 255.744
221.05196 235.65393 255.744
221.06348 235.66042 255.744
221.0444 235.64969 255.744
221.04593 235.65054 255.744
221.04138 235.648 255.744
221.05869 235.65771 255.744
221.0555 235.65594 255.744
221.05768 235.65718 255.744
221.06941 235.66376 255.744
221.06645 235.6621 255.744
221.06094 235.65901 255.744
221.05391 235.65506 255.744
221.08342 235.67166 255.744
221.05632 235.6564 255.744
221.05276 235.65434 255.744
221.052 235.65395 255.744
221.06844 235.66324 255.744
221.06538 235.66148 255.744
221.05365 235.65488 255.744
221.05531 235.65584 255.744
221.06808 235.66301 255.744
221.06862 235.6633 255.744
221.06912 235.66356 255.744
221.0593 235.6581 255.744
221.06631 235.66202 255.744
221.06177 235.65947 255.744
221.05646 235.65646 255.744
221.06635 235.66202 255.744
221.04138 235.64798 255.744
221.05609 235.6563 255.744
221.03587 235.6449 255.744
221.06538 235.6615 255.744
221.05049 235.65306 255.744
221.04108 235.64781 255.744
221.05156 235.65372 255.744
221.06117 235.65909 255.744
221.07198 235.66519 255.744
221.08032 235.6699 255.744
221.06824 235.66307 255.744
221.05467 235.65546 255.744
221.05037 235.65305 255.744
221.06454 235.66103 255.744
221.0561 235.65628 255.744
221.06018 235.65858 255.744
221.0532 235.65468 255.744
221.04315 235.64899 255.744
221.03415 235.64388 255.744
221.04073 235.6476 255.744
221.03458 235.64417 255.744
221.0733 235.66594 255.744
221.05487 235.65558 255.744
221.05148 235.65366 255.744
221.03357 235.64359 255.744
221.07152 235.66495 255.744
221.04665 235.65096 255.744
221.07278 235.66563 255.744
221.04837 235.65192 255.744
221.05276 235.65439 255.744
221.06085 235.65894 255.744
221.06476 235.66112 255.744
221.0632 235.66026 255.744
221.05453 235.65543 255.744
221.05107 235.65344 255.744
221.0681 235.66304 255.744
221.05203 235.65395 255.744
221.07402 235.66638 255.744
221.0572 235.65689 255.744
221.04688 235.6511 255.744
221.08763 235.67401 255.744
221.08116 235.67038 255.744
221.05428 235.65524 255.744
221.06583 235.66173 255.744
221.05875 235.65773 255.744
221.07056 235.66438 255.744
221.06757 235.66275 255.744
221.06372 235.66055 255.744
221.07083 235.66457 255.744
221.05386 235.65504 255.744
221.06604 235.66187 255.744
221.04675 235.65102 255.744
221.06375 235.66057 255.744
221.06807 235.66302 255.744
221.05908 235.65793 255.744
221.07431 235.66652 255.744
221.06847 235.66321 255.744
221.06773 235.66284 255.744
221.06075 235.65889 255.744
221.05922 235.65802 255.744
221.0486 235.65207 255.744
221.0437 235.64932 255.744
221.06354 235.66046 255.744
221.05536 235.65584 255.744
221.06557 235.6616 255.744
221.04866 235.65208 255.744
221.06075 235.6589 255.744
221.07193 235.66516 255.744
221.05957 235.65823 255.744
221.07442 235.66661 255.744
221.0811 235.67035 255.744
221.06593 235.66179 255.744
221.07495 235.66687 255.744
221.05983 235.65837 255.744
221.07239 235.66544 255.744
221.06636 235.66205 255.744
221.07741 235.66829 255.744
221.0443 235.64961 255.744
221.06187 235.6595 255.744
221.05617 235.65631 255.744
221.067 235.6624 255.744
221.06552 235.66159 255.744
221.06322 235.6603 255.744
221.06529 235.66145 255.744
221.0548 235.65553 255.744
221.06436 235.66092 255.744
221.07187 235.66515 255.744
221.07063 235.66446 255.744
221.07756 235.66833 255.744
221.06783 235.6629 255.744
221.06075 235.65889 255.744
221.04999 235.65283 255.744
221.06934 235.66373 255.744
221.04106 235.6478 255.744
221.05827 235.65749 255.744
221.04854 235.65201 255.744
221.08685 235.67355 255.744
221.06819 235.66309 255.744
221.05455 235.6554 255.744
221.06644 235.66206 255.744
221.06868 235.66333 255.744
221.05783 235.65723 255.744
221.07484 235.66685 255.744
221.04884 235.65216 255.744
221.06319 235.66023 255.744
221.07707 235.66809 255.744
221.04326 235.64908 255.744
221.06589 235.66179 255.744
221.0755 235.66718 255.744
221.07886 235.66908 255.744
221.07387 235.66628 255.744
221.07883 235.66904 255.744
221.07326 235.66595 255.744
221.05865 235.6577 255.744
221.07405 235.6664 255.744
221.06223 235.6597 255.744
221.04576 235.65047 255.744
221.06627 235.662 255.744
221.1013 235.68173 255.744
221.0731 235.66585 255.744
221.068 235.66295 255.744
221.0716 235.665 255.744
221.07068 235.66447 255.744
221.05989 235.65843 255.744
221.08206 235.67091 255.744
221.06439 235.66098 255.744
221.05911 235.65796 255.744
221.08101 235.67029 255.744
221.1013 235.68175 255.744
221.07617 235.66757 255.744
221.07805 235.66866 255.744
221.06133 235.6592 255.744
221.06145 235.6593 255.744
221.06752 235.66273 255.744
221.07597 235.66747 255.744
221.07216 235.66528 255.744
221.06897 235.66351 255.744
221.05115 235.65352 255.744
221.08278 235.67131 255.744
221.08841 235.67444 255.744
221.07158 235.66498 255.744
221.08417 235.67209 255.744
221.08273 235.67126 255.744
221.06044 235.65872 255.744
221.07535 235.66711 255.744
221.09825 235.68 255.744
221.10153 235.68185 255.744
221.10124 235.68169 255.744
221.104 235.68323 255.744
221.12106 235.69284 255.744
221.08835 235.67444 255.744
221.07932 235.66937 255.744
221.11517 235.68953 255.744
221.09468 235.678 255.744
221.09729 235.67946 255.744
221.10655 235.6847 255.744
221.10332 235.68286 255.744
221.0767 235.66786 255.744
221.09856 235.68018 255.744
221.11786 235.69106 255.744
221.08641 235.67336 255.744
221.09132 235.67612 255.744
221.11449 235.68912 255.744
221.1059 235.68431 255.744
221.10704 235.68495 255.744
221.1014 235.68175 255.744
221.10118 235.68161 255.744
221.09358 235.67737 255.744
221.10075 235.68143 255.744
221.10086 235.68144 255.744
221.09764 235.67966 255.744
221.06885 235.66344 255.744
221.1179 235.69107 255.744
221.09804 235.67986 255.744
221.09633 235.67892 255.744
221.07964 235.66951 255.744
221.09581 235.67862 255.744
221.10045 235.68124 255.744
221.10573 235.6842 255.744
221.10909 235.68611 255.744
221.0925 235.67676 255.744
221.08304 235.67143 255.744
221.0862 235.67322 255.744
221.10027 235.68114 255.744
221.10861 235.68584 255.744
221.0895 235.67505 255.744
221.09631 235.67891 255.744
221.1159 235.68994 255.744
221.06894 235.66347 255.744
221.08961 235.67513 255.744
221.08345 235.67166 255.744
221.11725 235.69069 255.744
221.11008 235.68666 255.744
221.07112 235.66475 255.744
221.10345 235.68292 255.744
221.10226 235.68227 255.744
221.10391 235.68318 255.744
221.09882 235.68033 255.744
221.08594 235.67308 255.744
221.08658 235.6734 255.744
221.08878 235.67465 255.744
221.12216 235.69348 255.744
221.0918 235.67638 255.744
221.09291 235.67699 255.744
221.10704 235.68494 255.744
221.0974 235.6795 255.744
221.0802 235.66985 255.744
221.11758 235.6909 255.744
221.1153 235.68959 255.744
221.08528 235.67271 255.744
221.10416 235.68332 255.744
221.0814 235.67053 255.744
221.11206 235.68777 255.744
221.10193 235.68205 255.744
221.10631 235.68454 255.744
221.09647 235.67902 255.744
221.1067 235.68477 255.744
221.08832 235.67441 255.744
221.10638 235.6846 255.744
221.08961 235.67514 255.744
221.07422 235.66644 255.744
221.10597 235.68434 255.744
221.10043 235.68123 255.744
221.1118 235.68762 255.744
221.0977 235.67969 255.744
221.07013 235.66417 255.744
221.07997 235.66971 255.744
221.08713 235.67372 255.744
221.09903 235.68044 255.744
221.10767 235.68532 255.744
221.10141 235.68178 255.744
221.09953 235.68073 255.744
221.0901 235.67542 255.744
221.09558 235.6785 255.744
221.10231 235.68228 255.744
221.09183 235.67636 255.744
221.09624 235.67886 255.744
221.09595 235.6787 255.744
221.0962 235.67886 255.744
221.10526 235.68391 255.744
221.09358 235.67737 255.744
221.09172 235.67633 255.744
221.08913 235.67487 255.744
221.07181 235.66515 255.744
221.08969 235.67517 255.744
221.08331 235.67159 255.744
221.08328 235.67157 255.744
221.11247 235.688 255.744
221.08223 235.67097 255.744
221.092 235.67648 255.744
221.07819 235.6687 255.744
221.08582 235.673 255.744
221.0775 235.6683 255.744
221.10977 235.68648 255.744
221.1006 235.68132 255.744
221.09424 235.67775 255.744
221.08815 235.6743 255.744
221.07498 235.6669 255.744
221.09415 235.67772 255.744
221.0961 235.67882 255.744
221.09818 235.67992 255.744
221.09647 235.67899 255.744
221.08888 235.67471 255.744
221.10156 235.68187 255.744
221.08868 235.67462 255.744
221.08939 235.67503 255.744
221.08192 235.67079 255.744
221.09161 235.67625 255.744
221.08855 235.67453 255.744
221.10269 235.68248 255.744
221.08702 235.67366 255.744
221.08029 235.66988 255.744
221.10364 235.68301 255.744
221.08272 235.67125 255.744
221.09474 235.67804 255.744
221.07306 235.66583 255.744
221.11157 235.68752 255.744
221.08893 235.67476 255.744
221.10614 235.68445 255.744
221.08792 235.6742 255.744
221.09734 235.67949 255.744
221.08853 235.67453 255.744
221.07158 235.66498 255.744
221.08804 235.67426 255.744
221.09439 235.67783 255.744
221.08078 235.67018 255.744
221.09187 235.6764 255.744
221.09755 235.67961 255.744
221.09845 235.68011 255.744
221.06776 235.66283 255.744
221.08064 235.6701 255.744
221.11073 235.68704 255.744
221.10495 235.68376 255.744
221.07866 235.66896 255.744
221.08214 235.67091 255.744
221.09627 235.67883 255.744
221.07445 235.66658 255.744
221.08989 235.6753 255.744
221.06818 235.66306 255.744
221.09647 235.67902 255.744
221.09105 235.67593 255.744
221.09854 235.68016 255.744
221.07404 235.66637 255.744
221.08405 235.672 255.744
221.09708 235.67934 255.744
221.08507 235.67258 255.744
221.11104 235.68723 255.744
221.07457 235.66666 255.744
221.06747 235.66267 255.744
221.08063 235.6701 255.744
221.11815 235.6912 255.744
221.09738 235.67952 255.744
221.07986 235.66966 255.744
221.0951 235.67822 255.744
221.08629 235.67325 255.744
221.07928 235.6693 255.744
221.10495 235.68378 255.744
221.09569 235.67854 255.744
221.08658 235.67343 255.744
221.09416 235.67772 255.744
221.116 235.68999 255.744
221.09972 235.68085 255.744
221.09688 235.67924 255.744
221.0779 235.66852 255.744
221.09435 235.6778 255.744
221.068 235.66296 255.744
221.0876 235.674 255.744
221.04996 235.65282 255.744
221.08267 235.67123 255.744
221.09201 235.67647 255.744
221.08226 235.67099 255.744
221.08365 235.6718 255.744
221.0956 235.6785 255.744
221.08849 235.67451 255.744
221.08806 235.67427 255.744
221.06886 235.66347 255.744
221.06197 235.65959 255.744
221.07669 235.66786 255.744
221.09364 235.6774 255.744
221.08575 235.67296 255.744
221.09016 235.67545 255.744
221.08553 235.67285 255.744
221.08685 235.67363 255.744
221.09326 235.67719 255.744
221.07004 235.66411 255.744
221.08438 235.6722 255.744
221.09338 235.67726 255.744
221.0876 235.67401 255.744
221.0882 235.67436 255.744
221.08507 235.67258 255.744
221.06744 235.66267 255.744
221.08751 235.67392 255.744
221.09795 235.67984 255.744
221.09431 235.67778 255.744
221.07942 235.66939 255.744
221.07462 235.6667 255.744
221.08818 235.67427 255.744
221.08221 235.67099 255.744
221.07768 235.66844 255.744
221.07846 235.66887 255.744
221.09087 235.67583 255.744
221.08063 235.67009 255.744
221.09566 235.67851 255.744
221.07912 235.6692 255.744
221.08844 235.67447 255.744
221.08455 235.67226 255.744
221.09279 235.67694 255.744
221.09381 235.67749 255.744
221.1058 235.68423 255.744
221.10005 235.68102 255.744
221.07858 235.66891 255.744
221.0961 235.67879 255.744
221.07097 235.66464 255.744
221.0838 235.67186 255.744
221.08188 235.67078 255.744
221.07523 235.66702 255.744
221.07965 235.66956 255.744
221.07904 235.66919 255.744
221.0865 235.67337 255.744
221.09062 235.67572 255.744
221.07619 235.66759 255.744
221.07271 235.66562 255.744
221.09576 235.6786 255.744
221.07619 235.66757 255.744
221.0928 235.67696 255.744
221.1038 235.6831 255.744
221.09467 235.67796 255.744
221.08911 235.67488 255.744
221.08188 235.6708 255.744
221.09633 235.67894 255.744
221.07928 235.66931 255.744
221.08194 235.67082 255.744
221.07292 235.66574 255.744
221.09373 235.67746 255.744
221.09268 235.67688 255.744
221.07674 235.66791 255.744
221.0739 235.66629 255.744
221.09355 235.67735 255.744
221.07378 235.66621 255.744
221.07697 235.66803 255.744
221.07867 235.66896 255.744
221.0878 235.6741 255.744
221.05733 235.65694 255.744
221.0685 235.66325 255.744
221.06697 235.6624 255.744
221.0878 235.6741 255.744
221.07501 235.66692 255.744
221.0844 235.6722 255.744
221.07774 235.66844 255.744
221.08482 235.67244 255.744
221.07687 235.66797 255.744
221.09425 235.67776 255.744
221.08748 235.67393 255.744
221.07622 235.66762 255.744
221.05968 235.65828 255.744
221.09839 235.68007 255.744
221.09552 235.67845 255.744
221.09598 235.67871 255.744
221.08006 235.66975 255.744
221.07814 235.6687 255.744
221.07414 235.66643 255.744
221.08601 235.67311 255.744
221.09917 235.68053 255.744
221.08734 235.67387 255.744
221.06557 235.6616 255.744
221.08815 235.6743 255.744
221.0921 235.67654 255.744
221.0952 235.67825 255.744
221.0628 235.66005 255.744
221.05873 235.65773 255.744
221.0723 235.6654 255.744
221.09303 235.67708 255.744
221.10179 235.682 255.744
221.0651 235.66136 255.744
221.0685 235.66325 255.744
221.08054 235.67003 255.744
221.07222 235.66534 255.744
221.07094 235.66463 255.744
221.08586 235.67302 255.744
221.07367 235.6662 255.744
221.06902 235.66354 255.744
221.07294 235.66574 255.744
221.07378 235.66621 255.744
221.08844 235.67445 255.744
221.08441 235.67223 255.744
221.08612 235.67319 255.744
221.0825 235.67114 255.744
221.07506 235.66695 255.744
221.07935 235.66933 255.744
221.0751 235.667 255.744
221.08415 235.67206 255.744
221.09245 235.67673 255.744
221.08131 235.67046 255.744
221.06163 235.6594 255.744
221.10341 235.68288 255.744
221.09036 235.67555 255.744
221.09045 235.67561 255.744
221.08849 235.67451 255.744
221.0877 235.67407 255.744
221.08742 235.67392 255.744
221.07297 235.66576 255.744
221.09222 235.67662 255.744
221.0827 235.67126 255.744
221.08606 235.67313 255.744
221.074 235.66638 255.744
221.086 235.67313 255.744
221.06973 235.66394 255.744
221.0898 235.67523 255.744
221.08315 235.67146 255.744
221.08545 235.6728 255.744
221.08781 235.67412 255.744
221.07803 235.66861 255.744
221.07014 235.66418 255.744
221.08385 235.67188 255.744
221.07294 235.66576 255.744
221.08043 235.66997 255.744
221.09738 235.6795 255.744
221.0789 235.66911 255.744
221.08334 235.6716 255.744
221.09093 235.67586 255.744
221.06747 235.66267 255.744
221.08232 235.67104 255.744
221.0857 235.67294 255.744
221.07399 235.66634 255.744
221.0768 235.66791 255.744
221.07596 235.66745 255.744
221.06285 235.66006 255.744
221.08221 235.67094 255.744
221.08238 235.67108 255.744
221.0874 235.67389 255.744
221.0783 235.6688 255.744
221.09015 235.67543 255.744
221.08205 235.67087 255.744
221.10298 235.68266 255.744
221.07474 235.66676 255.744
221.06473 235.66118 255.744
221.08522 235.67265 255.744
221.08911 235.67487 255.744
221.08235 235.67108 255.744
221.08359 235.67178 255.744
221.09569 235.67854 255.744
221.08273 235.67126 255.744
221.07527 235.66707 255.744
221.0833 235.67157 255.744
221.08807 235.67429 255.744
221.07416 235.66643 255.744
221.09586 235.67867 255.744
221.09247 235.67674 255.744
221.07768 235.66843 255.744
221.07831 235.66878 255.744
221.07288 235.66571 255.744
221.07571 235.66733 255.744
221.09462 235.67798 255.744
221.09761 235.67964 255.744
221.0679 235.66292 255.744
221.09357 235.67737 255.744
221.09222 235.67657 255.744
221.07852 235.6689 255.744
221.08058 235.67006 255.744
221.07475 235.66675 255.744
221.08302 235.67146 255.744
221.09418 235.67772 255.744
221.0995 235.68071 255.744
221.05453 235.6554 255.744
221.07634 235.66766 255.744
221.09758 235.67963 255.744
221.0987 235.68025 255.744
221.09998 235.68095 255.744
221.09145 235.67613 255.744
221.08295 235.67139 255.744
221.07933 235.66934 255.744
221.09778 235.67973 255.744
221.07982 235.66963 255.744
221.08475 235.67242 255.744
221.08412 235.67206 255.744
221.07887 235.66908 255.744
221.09108 235.67595 255.744
221.084 235.672 255.744
221.09648 235.67902 255.744
221.0802 235.66983 255.744
221.08911 235.67485 255.744
221.10889 235.68597 255.744
221.08348 235.67166 255.744
221.09291 235.677 255.744
221.06982 235.66399 255.744
221.0967 235.67914 255.744
221.08714 235.67374 255.744
221.08583 235.67302 255.744
221.06857 235.66331 255.744
221.08394 235.67197 255.744
221.08548 235.6728 255.744
221.05951 235.65819 255.744
221.08865 235.67459 255.744
221.08511 235.67264 255.744
221.0979 235.6798 255.744
221.06442 235.66095 255.744
221.09587 235.67867 255.744
221.08177 235.67072 255.744
221.10133 235.68173 255.744
221.1076 235.68527 255.744
221.07289 235.66571 255.744
221.1171 235.69061 255.744
221.0718 235.6651 255.744
221.09033 235.67552 255.744
221.0842 235.67209 255.744
221.09052 235.67564 255.744
221.09334 235.67723 255.744
221.0748 235.6668 255.744
221.09872 235.68025 255.744
221.11081 235.68707 255.744
221.0845 235.67224 255.744
221.06822 235.66307 255.744
221.08508 235.67258 255.744
221.09196 235.67647 255.744
221.0851 235.67258 255.744
221.06787 235.66289 255.744
221.07867 235.66898 255.744
221.10313 235.68275 255.744
221.0805 235.67003 255.744
221.09648 235.67902 255.744
221.09576 235.67859 255.744
221.07884 235.66908 255.744
221.08073 235.67015 255.744
221.09467 235.67798 255.744
221.09303 235.67703 255.744
221.10172 235.68195 255.744
221.08255 235.67113 255.744
221.10483 235.68372 255.744
221.09053 235.67566 255.744
221.07076 235.66454 255.744
221.09032 235.67554 255.744
221.09006 235.67537 255.744
221.09485 235.67807 255.744
221.11343 235.68855 255.744
221.08966 235.67519 255.744
221.10266 235.68248 255.744
221.08751 235.67393 255.744
221.08102 235.6703 255.744
221.1017 235.68195 255.744
221.0728 235.66566 255.744
221.08798 235.6742 255.744
221.09415 235.6777 255.744
221.0996 235.68077 255.744
221.08798 235.67424 255.744
221.08932 235.67497 255.744
221.08415 235.67206 255.744
221.08365 235.67178 255.744
221.10431 235.6834 255.744
221.10852 235.68578 255.744
221.10016 235.68106 255.744
221.085 235.67255 255.744
221.10414 235.68332 255.744
221.10109 235.6816 255.744
221.10303 235.68268 255.744
221.10551 235.68408 255.744
221.09366 235.67744 255.744
221.09424 235.67773 255.744
221.09744 235.67957 255.744
221.0952 235.67827 255.744
221.09264 235.67685 255.744
221.0918 235.67639 255.744
221.10597 235.68431 255.744
221.09944 235.6807 255.744
221.07654 235.66777 255.744
221.0952 235.6783 255.744
221.09312 235.67712 255.744
221.09837 235.68008 255.744
221.10019 235.68109 255.744
221.09323 235.67717 255.744
221.0882 235.67435 255.744
221.07831 235.6688 255.744
221.10396 235.68321 255.744
221.1179 235.69107 255.744
221.08646 235.67332 255.744
221.0989 235.68037 255.744
221.09732 235.67947 255.744
221.1038 235.68312 255.744
221.09961 235.68079 255.744
221.07497 235.66689 255.744
221.10355 235.683 255.744
221.07018 235.66414 255.744
221.08374 235.67181 255.744
221.0975 235.67958 255.744
221.08954 235.6751 255.744
221.10678 235.68478 255.744
221.08005 235.66975 255.744
221.11053 235.6869 255.744
221.10675 235.6848 255.744
221.09665 235.67908 255.744
221.11317 235.6884 255.744
221.09134 235.67612 255.744
221.08827 235.67438 255.744
221.09807 235.67987 255.744
221.08519 235.67265 255.744
221.09161 235.67628 255.744
221.10812 235.68555 255.744
221.09431 235.67778 255.744
221.09898 235.6804 255.744
221.11531 235.68959 255.744
221.07372 235.66618 255.744
221.10103 235.68155 255.744
221.07869 235.669 255.744
221.09515 235.67825 255.744
221.10023 235.68112 255.744
221.10036 235.68121 255.744
221.07465 235.66669 255.744
221.10687 235.68486 255.744
221.09296 235.67699 255.744
221.1106 235.68694 255.744
221.10388 235.68318 255.744
221.08838 235.67444 255.744
221.10477 235.68365 255.744
221.08237 235.67108 255.744
221.09958 235.68074 255.744
221.07153 235.66498 255.744
221.09445 235.67787 255.744
221.0746 235.66667 255.744
221.0912 235.67604 255.744
221.08757 235.67395 255.744
221.08905 235.67482 255.744
221.09985 235.68094 255.744
221.10764 235.68527 255.744
221.08688 235.6736 255.744
221.10843 235.6857 255.744
221.09087 235.67586 255.744
221.10759 235.68524 255.744
221.09596 235.67873 255.744
221.09842 235.68007 255.744
221.08179 235.67073 255.744
221.10622 235.6845 255.744
221.08385 235.6719 255.744
221.0854 235.67278 255.744
221.10442 235.68346 255.744
221.10388 235.68318 255.744
221.09938 235.68063 255.744
221.10278 235.68256 255.744
221.09624 235.67888 255.744
221.09688 235.6792 255.744
221.11243 235.68796 255.744
221.10835 235.68568 255.744
221.10023 235.68114 255.744
221.0971 235.67937 255.744
221.0926 235.67682 255.744
221.10724 235.68504 255.744
221.1121 235.68779 255.744
221.09976 235.68088 255.744
221.1014 235.68175 255.744
221.10764 235.68527 255.744
221.10176 235.68196 255.744
221.09474 235.67802 255.744
221.09349 235.67732 255.744
221.08417 235.67207 255.744
221.09647 235.67896 255.744
221.10164 235.68188 255.744
221.09389 235.67754 255.744
221.09694 235.67926 255.744
221.09608 235.6788 255.744
221.10464 235.68358 255.744
221.09189 235.6764 255.744
221.0884 235.67444 255.744
221.09923 235.68056 255.744
221.0996 235.68076 255.744
221.08684 235.67358 255.744
221.13153 235.69872 255.744
221.09511 235.67824 255.744
221.10818 235.68558 255.744
221.0755 235.6672 255.744
221.09792 235.67982 255.744
221.09174 235.67633 255.744
221.09187 235.67639 255.744
221.0808 235.6702 255.744
221.09514 235.67825 255.744
221.11172 235.68759 255.744
221.09087 235.67586 255.744
221.10486 235.68372 255.744
221.10641 235.68462 255.744
221.10747 235.68517 255.744
221.10364 235.68303 255.744
221.09251 235.67677 255.744
221.12276 235.6938 255.744
221.11792 235.69106 255.744
221.10774 235.68535 255.744
221.09708 235.67932 255.744
221.10307 235.68271 255.744
221.1198 235.6921 255.744
221.13374 235.69997 255.744
221.13197 235.69897 255.744
221.12074 235.69267 255.744
221.15913 235.71426 255.744
221.13799 235.70236 255.744
221.12738 235.6964 255.744
221.12381 235.6944 255.744
221.15007 235.70915 255.744
221.13905 235.70296 255.744
221.14233 235.7048 255.744
221.1322 235.69911 255.744
221.12897 235.69733 255.744
221.15144 235.70996 255.744
221.13315 235.69963 255.744
221.15039 235.70935 255.744
221.12923 235.69745 255.744
221.13435 235.70032 255.744
221.14056 235.70381 255.744
221.14067 235.70389 255.744
221.11926 235.6918 255.744
221.12843 235.697 255.744
221.13524 235.70084 255.744
221.128 235.69672 255.744
221.14143 235.70432 255.744
221.12288 235.69386 255.744
221.12805 235.69678 255.744
221.13641 235.70148 255.744
221.1094 235.6863 255.744
221.12689 235.69612 255.744
221.12845 235.69705 255.744
221.12166 235.69316 255.744
221.12694 235.69618 255.744
221.13173 235.69884 255.744
221.12286 235.69386 255.744
221.13687 235.70175 255.744
221.1111 235.68726 255.744
221.14673 235.7073 255.744
221.13025 235.69801 255.744
221.13069 235.69826 255.744
221.12863 235.69713 255.744
221.12506 235.6951 255.744
221.11906 235.69171 255.744
221.14723 235.70757 255.744
221.11703 235.69055 255.744
221.12418 235.6946 255.744
221.13655 235.70155 255.744
221.12843 235.69698 255.744
221.13141 235.69868 255.744
221.12398 235.69447 255.744
221.13223 235.6991 255.744
221.13759 235.70213 255.744
221.13997 235.70349 255.744
221.11009 235.68668 255.744
221.13643 235.70146 255.744
221.13007 235.6979 255.744
221.12396 235.69446 255.744
221.1509 235.70964 255.744
221.13254 235.69933 255.744
221.11166 235.68756 255.744
221.13579 235.70114 255.744
221.13998 235.70349 255.744
221.11115 235.68726 255.744
221.14508 235.70638 255.744
221.12038 235.69246 255.744
221.1321 235.69905 255.744
221.10248 235.68237 255.744
221.12962 235.69766 255.744
221.11458 235.68921 255.744
221.1288 235.69719 255.744
221.13673 235.70166 255.744
221.12276 235.6938 255.744
221.10953 235.68636 255.744
221.11931 235.69188 255.744
221.11536 235.6896 255.744
221.10358 235.68298 255.744
221.11049 235.6869 255.744
221.12506 235.6951 255.744
221.10847 235.68575 255.744
221.12196 235.69336 255.744
221.13004 235.69788 255.744
221.12766 235.69655 255.744
221.09941 235.68065 255.744
221.12672 235.69604 255.744
221.11765 235.69092 255.744
221.14021 235.70361 255.744
221.1547 235.71178 255.744
221.12062 235.69258 255.744
221.13231 235.69914 255.744
221.12737 235.69641 255.744
221.12476 235.69489 255.744
221.11961 235.69202 255.744
221.14865 235.70837 255.744
221.12643 235.69586 255.744
221.12987 235.6978 255.744
221.12128 235.69296 255.744
221.13539 235.70088 255.744
221.1219 235.69331 255.744
221.14754 235.70772 255.744
221.11284 235.6882 255.744
221.12161 235.69318 255.744
221.12999 235.69785 255.744
221.13452 235.70041 255.744
221.1093 235.68623 255.744
221.11417 235.68898 255.744
221.11551 235.6897 255.744
221.13002 235.69788 255.744
221.13803 235.7024 255.744
221.12537 235.69528 255.744
221.14407 235.70576 255.744
221.11809 235.6912 255.744
221.12108 235.69284 255.744
221.1354 235.70093 255.744
221.10147 235.68184 255.744
221.12907 235.69737 255.744
221.13669 235.70163 255.744
221.1155 235.6897 255.744
221.15347 235.71109 255.744
221.14336 235.70537 255.744
221.12303 235.69395 255.744
221.1277 235.6966 255.744
221.11496 235.6894 255.744
221.12497 235.69507 255.744
221.10283 235.68257 255.744
221.11395 235.68884 255.744
221.12688 235.6961 255.744
221.11824 235.69124 255.744
221.0986 235.68022 255.744
221.13249 235.69928 255.744
221.11174 235.68758 255.744
221.11443 235.68912 255.744
221.1323 235.69919 255.744
221.11627 235.69017 255.744
221.12639 235.69583 255.744
221.12628 235.69579 255.744
221.13158 235.69876 255.744
221.11871 235.6915 255.744
221.13773 235.70224 255.744
221.10939 235.68628 255.744
221.10976 235.68646 255.744
221.11751 235.69086 255.744
221.13783 235.70229 255.744
221.12038 235.69243 255.744
221.12183 235.69328 255.744
221.11076 235.68704 255.744
221.10449 235.68352 255.744
221.12286 235.69383 255.744
221.11037 235.68681 255.744
221.12274 235.69377 255.744
221.12807 235.69678 255.744
221.12756 235.6965 255.744
221.11494 235.68938 255.744
221.12866 235.69713 255.744
221.11386 235.6888 255.744
221.10722 235.68506 255.744
221.10812 235.68556 255.744
221.12888 235.69722 255.744
221.1185 235.69138 255.744
221.1409 235.704 255.744
221.14374 235.70561 255.744
221.09789 235.67984 255.744
221.11691 235.6905 255.744
221.11981 235.69211 255.744
221.11496 235.6894 255.744
221.11937 235.69191 255.744
221.12823 235.69685 255.744
221.12683 235.69609 255.744
221.122 235.69334 255.744
221.13734 235.70204 255.744
221.121 235.69283 255.744
221.10681 235.68483 255.744
221.12085 235.69273 255.744
221.11235 235.68793 255.744
221.11736 235.69075 255.744
221.13506 235.70071 255.744
221.10982 235.68654 255.744
221.11606 235.69005 255.744
221.11052 235.6869 255.744
221.12624 235.69579 255.744
221.11662 235.69034 255.744
221.10489 235.68373 255.744
221.12804 235.69675 255.744
221.12639 235.69582 255.744
221.09367 235.67743 255.744
221.13136 235.69865 255.744
221.11992 235.69218 255.744
221.10497 235.68378 255.744
221.12428 235.69466 255.744
221.11623 235.69012 255.744
221.10052 235.6813 255.744
221.09897 235.68039 255.744
221.10335 235.68285 255.744
221.11613 235.69006 255.744
221.10748 235.68523 255.744
221.13312 235.6996 255.744
221.12637 235.69583 255.744
221.1171 235.69061 255.744
221.11438 235.68907 255.744
221.11426 235.68898 255.744
221.1158 235.68988 255.744
221.13033 235.69806 255.744
221.11092 235.68713 255.744
221.14038 235.70374 255.744
221.11119 235.68729 255.744
221.10416 235.68329 255.744
221.14763 235.70781 255.744
221.12875 235.69719 255.744
221.13092 235.6984 255.744
221.12282 235.69382 255.744
221.11012 235.68666 255.744
221.12022 235.69237 255.744
221.09825 235.68 255.744
221.1088 235.68593 255.744
221.12042 235.69247 255.744
221.11479 235.68929 255.744
221.11623 235.69012 255.744
221.12823 235.69684 255.744
221.12373 235.69432 255.744
221.12079 235.69269 255.744
221.12155 235.6931 255.744
221.1143 235.68903 255.744
221.1252 235.69518 255.744
221.12804 235.6968 255.744
221.11633 235.69019 255.744
221.12737 235.69637 255.744
221.13478 235.70055 255.744
221.12445 235.69475 255.744
221.103 235.68266 255.744
221.13237 235.6992 255.744
221.13113 235.69853 255.744
221.11633 235.69016 255.744
221.12097 235.69281 255.744
221.11597 235.68999 255.744
221.1195 235.69197 255.744
221.12279 235.69377 255.744
221.10413 235.68332 255.744
221.12752 235.69649 255.744
221.10643 235.6846 255.744
221.09805 235.67989 255.744
221.11287 235.68823 255.744
221.11646 235.69026 255.744
221.10338 235.68288 255.744
221.12027 235.69237 255.744
221.12387 235.6944 255.744
221.11337 235.68849 255.744
221.12213 235.69344 255.744
221.10129 235.68169 255.744
221.10919 235.68613 255.744
221.10912 235.6861 255.744
221.11609 235.69005 255.744
221.11325 235.68843 255.744
221.15224 235.71039 255.744
221.12352 235.69421 255.744
221.10085 235.68147 255.744
221.11525 235.68956 255.744
221.12424 235.6946 255.744
221.13173 235.69884 255.744
221.12912 235.69737 255.744
221.11336 235.68852 255.744
221.12614 235.6957 255.744
221.11078 235.68706 255.744
221.12486 235.69496 255.744
221.13197 235.69897 255.744
221.13124 235.69858 255.744
221.10927 235.6862 255.744
221.13728 235.70198 255.744
221.11732 235.69073 255.744
221.09793 235.67984 255.744
221.11237 235.68793 255.744
221.12222 235.6935 255.744
221.10538 235.68399 255.744
221.11923 235.6918 255.744
221.10829 235.68564 255.744
221.10226 235.68225 255.744
221.13237 235.69922 255.744
221.1323 235.69917 255.744
221.1 235.681 255.744
221.12581 235.69548 255.744
221.13322 235.69969 255.744
221.0986 235.6802 255.744
221.10497 235.68382 255.744
221.11162 235.68748 255.744
221.12361 235.69424 255.744
221.12201 235.69336 255.744
221.1168 235.69044 255.744
221.11249 235.68803 255.744
221.12622 235.69574 255.744
221.10657 235.68468 255.744
221.11848 235.69139 255.744
221.1393 235.7031 255.744
221.09827 235.68001 255.744
221.12003 235.69226 255.744
221.10791 235.68542 255.744
221.10994 235.68661 255.744
221.1127 235.68814 255.744
221.12201 235.69337 255.744
221.12129 235.69296 255.744
221.09412 235.67767 255.744
221.13203 235.69899 255.744
221.13023 235.69798 255.744
221.10426 235.68341 255.744
221.12044 235.69252 255.744
221.11612 235.69005 255.744
221.10667 235.68474 255.744
221.14436 235.70595 255.744
221.11258 235.68806 255.744
221.12073 235.69266 255.744
221.11046 235.68687 255.744
221.13301 235.69955 255.744
221.10902 235.68608 255.744
221.14171 235.70447 255.744
221.11919 235.6918 255.744
221.11417 235.68895 255.744
221.11864 235.69148 255.744
221.11008 235.68665 255.744
221.10974 235.6865 255.744
221.11911 235.69173 255.744
221.12436 235.69469 255.744
221.15062 235.7095 255.744
221.12129 235.693 255.744
221.12755 235.69652 255.744
221.11592 235.68993 255.744
221.12384 235.69441 255.744
221.11293 235.68828 255.744
221.09702 235.67932 255.744
221.12477 235.69492 255.744
221.12633 235.6958 255.744
221.10248 235.68236 255.744
221.12483 235.69498 255.744
221.1126 235.68806 255.744
221.11182 235.68765 255.744
221.11461 235.68921 255.744
221.11107 235.68721 255.744
221.10722 235.68506 255.744
221.11009 235.68665 255.744
221.11555 235.68977 255.744
221.122 235.69337 255.744
221.10939 235.68628 255.744
221.09816 235.67995 255.744
221.11424 235.68898 255.744
221.11475 235.6893 255.744
221.10794 235.68544 255.744
221.12407 235.69453 255.744
221.11665 235.69037 255.744
221.1129 235.68823 255.744
221.11136 235.68738 255.744
221.11748 235.6908 255.744
221.11359 235.68866 255.744
221.10689 235.68484 255.744
221.09634 235.67892 255.744
221.10953 235.68636 255.744
221.12195 235.69336 255.744
221.11931 235.69186 255.744
221.10902 235.68607 255.744
221.11821 235.69122 255.744
221.10312 235.68272 255.744
221.12587 235.69556 255.744
221.1017 235.68195 255.744
221.10103 235.68156 255.744
221.11003 235.68665 255.744
221.12662 235.69598 255.744
221.11147 235.68744 255.744
221.12529 235.6952 255.744
221.1234 235.69415 255.744
221.1227 235.69377 255.744
221.11595 235.68997 255.744
221.1202 235.69235 255.744
221.12514 235.69511 255.744
221.11194 235.68773 255.744
221.10959 235.68637 255.744
221.11275 235.6882 255.744
221.1241 235.69458 255.744
221.09193 235.67645 255.744
221.12294 235.69392 255.744
221.08046 235.66998 255.744
221.13106 235.69846 255.744
221.11751 235.69084 255.744
221.09657 235.67903 255.744
221.09213 235.67657 255.744
221.11331 235.68849 255.744
221.13583 235.70114 255.744
221.11392 235.68884 255.744
221.10904 235.6861 255.744
221.10585 235.68428 255.744
221.10736 235.68513 255.744
221.09726 235.67946 255.744
221.1126 235.68808 255.744
221.10768 235.68527 255.744
221.12144 235.69305 255.744
221.13272 235.6994 255.744
221.12949 235.6976 255.744
221.10085 235.68146 255.744
221.11072 235.68701 255.744
221.09901 235.68045 255.744
221.1298 235.69775 255.744
221.13513 235.70074 255.744
221.12215 235.69345 255.744
221.11812 235.69118 255.744
221.09315 235.6771 255.744
221.12991 235.69781 255.744
221.0972 235.6794 255.744
221.12514 235.69516 255.744
221.12077 235.69269 255.744
221.12799 235.69672 255.744
221.12682 235.69608 255.744
221.1174 235.69075 255.744
221.109 235.68607 255.744
221.1289 235.69725 255.744
221.11293 235.68825 255.744
221.13025 235.69803 255.744
221.11456 235.68916 255.744
221.11343 235.68857 255.744
221.10391 235.6832 255.744
221.12341 235.69414 255.744
221.1179 235.69106 255.744
221.12128 235.69293 255.744
221.14465 235.70615 255.744
221.13562 235.70102 255.744
221.12129 235.693 255.744
221.12921 235.69742 255.744
221.12622 235.69574 255.744
221.11232 235.6879 255.744
221.1074 235.68517 255.744
221.13936 235.70313 255.744
221.10434 235.68343 255.744
221.11775 235.69096 255.744
221.1242 235.6946 255.744
221.10818 235.6856 255.744
221.11865 235.69151 255.744
221.11081 235.68709 255.744
221.12068 235.69264 255.744
221.13646 235.70152 255.744
221.12779 235.6966 255.744
221.13254 235.69928 255.744
221.1032 235.68282 255.744
221.0959 235.67868 255.744
221.11113 235.68724 255.744
221.1117 235.68755 255.744
221.10509 235.68384 255.744
221.1247 235.69489 255.744
221.11555 235.68973 255.744
221.11955 235.69197 255.744
221.11983 235.69214 255.744
221.0982 235.68 255.744
221.11159 235.68753 255.744
221.12682 235.69609 255.744
221.11069 235.68703 255.744
221.11679 235.69044 255.744
221.10956 235.68634 255.744
221.1201 235.69228 255.744
221.13573 235.7011 255.744
221.12563 235.6954 255.744
221.12743 235.69643 255.744
221.12346 235.69417 255.744
221.09946 235.6807 255.744
221.11804 235.69113 255.744
221.11607 235.69003 255.744
221.11407 235.68892 255.744
221.12094 235.69276 255.744
221.13763 235.7022 255.744
221.11089 235.68713 255.744
221.12401 235.6945 255.744
221.13539 235.70088 255.744
221.12688 235.6961 255.744
221.12903 235.69733 255.744
221.13313 235.69965 255.744
221.10126 235.6817 255.744
221.11707 235.69055 255.744
221.12479 235.69495 255.744
221.12193 235.69331 255.744
221.11458 235.6892 255.744
221.13829 235.70255 255.744
221.13725 235.70192 255.744
221.11333 235.68849 255.744
221.13481 235.70056 255.744
221.12334 235.69415 255.744
221.12059 235.69257 255.744
221.11987 235.69217 255.744
221.13182 235.69891 255.744
221.12543 235.69531 255.744
221.11243 235.68797 255.744
221.14267 235.70497 255.744
221.11691 235.6905 255.744
221.11375 235.68872 255.744
221.11667 235.69035 255.744
221.13376 235.69998 255.744
221.13092 235.6984 255.744
221.12096 235.6928 255.744
221.10655 235.68468 255.744
221.1238 235.69437 255.744
221.10881 235.68593 255.744
221.11713 235.69064 255.744
221.11116 235.68727 255.744
221.10336 235.68288 255.744
221.13847 235.70262 255.744
221.10492 235.68376 255.744
221.13126 235.69858 255.744
221.11002 235.68665 255.744
221.11429 235.68904 255.744
221.11058 235.68695 255.744
221.11792 235.69106 255.744
221.11133 235.68736 255.744
221.1172 235.69064 255.744
221.13142 235.69865 255.744
221.1475 235.7077 255.744
221.11978 235.6921 255.744
221.14314 235.70528 255.744
221.13034 235.6981 255.744
221.12766 235.69656 255.744
221.13867 235.70276 255.744
221.14291 235.70514 255.744
221.11852 235.6914 255.744
221.1224 235.6936 255.744
221.13272 235.69942 255.744
221.1145 235.68912 255.744
221.12651 235.69589 255.744
221.11938 235.69188 255.744
221.10715 235.68503 255.744
221.12018 235.69235 255.744
221.127 235.69618 255.744
221.12012 235.69229 255.744
221.11574 235.68985 255.744
221.12025 235.69238 255.744
221.12599 235.69563 255.744
221.12936 235.69751 255.744
221.11874 235.69153 255.744
221.14206 235.70464 255.744
221.12775 235.69666 255.744
221.13565 235.70103 255.744
221.12614 235.69571 255.744
221.13474 235.70053 255.744
221.13235 235.69919 255.744
221.11646 235.69025 255.744
221.13885 235.70287 255.744
221.13933 235.70314 255.744
221.13231 235.69916 255.744
221.12895 235.69728 255.744
221.13982 235.70338 255.744
221.12276 235.6938 255.744
221.11531 235.68959 255.744
221.12692 235.69617 255.744
221.10487 235.68375 255.744
221.14351 235.70544 255.744
221.13728 235.70195 255.744
221.1078 235.68541 255.744
221.13162 235.69878 255.744
221.11859 235.69145 255.744
221.12134 235.693 255.744
221.12096 235.69275 255.744
221.1257 235.69543 255.744
221.14697 235.70741 255.744
221.13277 235.69942 255.744
221.1043 235.68336 255.744
221.1447 235.70615 255.744
221.1229 235.69386 255.744
221.12373 235.69434 255.744
221.12753 235.69649 255.744
221.14781 235.70787 255.744
221.12544 235.69533 255.744
221.13736 235.70201 255.744
221.11868 235.69151 255.744
221.12747 235.69646 255.744
221.13602 235.70126 255.744
221.1442 235.70589 255.744
221.11986 235.69217 255.744
221.12054 235.69254 255.744
221.1249 235.69498 255.744
221.13129 235.6986 255.744
221.13266 235.69937 255.744
221.1364 235.70149 255.744
221.14989 235.70903 255.744
221.11082 235.68709 255.744
221.13747 235.70206 255.744
221.14569 235.7067 255.744
221.13962 235.7033 255.744
221.1247 235.69487 255.744
221.12247 235.69363 255.744
221.1298 235.69777 255.744
221.12393 235.69441 255.744
221.14066 235.70386 255.744
221.12589 235.69556 255.744
221.13968 235.70332 255.744
221.13434 235.70033 255.744
221.14514 235.7064 255.744
221.13675 235.70168 255.744
221.15366 235.71118 255.744
221.14119 235.70416 255.744
221.14604 235.70688 255.744
221.12453 235.69484 255.744
221.12393 235.69449 255.744
221.14081 235.70398 255.744
221.12238 235.6936 255.744
221.10544 235.68407 255.744
221.13669 235.70163 255.744
221.14296 235.70515 255.744
221.12718 235.69627 255.744
221.11534 235.6896 255.744
221.12666 235.696 255.744
221.12996 235.69786 255.744
221.14021 235.70363 255.744
221.14273 235.705 255.744
221.15753 235.71335 255.744
221.15727 235.71321 255.744
221.1708 235.72086 255.744
221.17485 235.72313 255.744
221.16826 235.71942 255.744
221.15494 235.71191 255.744
221.15749 235.71333 255.744
221.16638 235.71832 255.744
221.18097 235.7266 255.744
221.1421 235.70467 255.744
221.18398 235.72826 255.744
221.16844 235.7195 255.744
221.15758 235.71336 255.744
221.1605 235.71504 255.744
221.16478 235.71748 255.744
221.16797 235.71927 255.744
221.14268 235.70502 255.744
221.1669 235.71866 255.744
221.1537 235.71121 255.744
221.15773 235.71352 255.744
221.15953 235.71448 255.744
221.16637 235.71835 255.744
221.13866 235.70274 255.744
221.17386 235.72255 255.744
221.12883 235.69722 255.744
221.16599 235.71814 255.744
221.1466 235.70718 255.744
221.16452 235.7173 255.744
221.18144 235.72684 255.744
221.15814 235.7137 255.744
221.16661 235.71846 255.744
221.1587 235.71404 255.744
221.17142 235.72119 255.744
221.15231 235.71042 255.744
221.1575 235.71333 255.744
221.1597 235.71457 255.744
221.14941 235.70882 255.744
221.17761 235.72467 255.744
221.17033 235.7206 255.744
221.15668 235.7129 255.744
221.17276 235.72197 255.744
221.16066 235.71513 255.744
221.16554 235.71788 255.744
221.16978 235.72028 255.744
221.16907 235.71988 255.744
221.16512 235.71764 255.744
221.15755 235.71336 255.744
221.16211 235.71596 255.744
221.14862 235.70834 255.744
221.16228 235.71606 255.744
221.17154 235.72125 255.744
221.14894 235.70854 255.744
221.15457 235.71172 255.744
221.17244 235.72177 255.744
221.1728 235.72194 255.744
221.1706 235.72073 255.744
221.16373 235.71686 255.744
221.16003 235.71478 255.744
221.15546 235.71219 255.744
221.14642 235.70714 255.744
221.1756 235.72354 255.744
221.16986 235.72029 255.744
221.15384 235.71129 255.744
221.13376 235.69998 255.744
221.19548 235.73473 255.744
221.16544 235.71782 255.744
221.18285 235.72765 255.744
221.17097 235.72093 255.744
221.1518 235.71013 255.744
221.15833 235.71379 255.744
221.15231 235.71045 255.744
221.16553 235.71785 255.744
221.14967 235.70897 255.744
221.16151 235.71564 255.744
221.14447 235.70602 255.744
221.15028 235.70932 255.744
221.17438 235.72284 255.744
221.15764 235.71344 255.744
221.167 235.7187 255.744
221.15295 235.71077 255.744
221.13426 235.70029 255.744
221.14262 235.70496 255.744
221.14772 235.70786 255.744
221.17139 235.72116 255.744
221.1564 235.71272 255.744
221.16212 235.71593 255.744
221.14615 235.70697 255.744
221.13864 235.70274 255.744
221.15353 235.7111 255.744
221.16353 235.71674 255.744
221.14902 235.70856 255.744
221.15326 235.71095 255.744
221.15073 235.70955 255.744
221.16147 235.71559 255.744
221.16156 235.71564 255.744
221.14613 235.70697 255.744
221.15747 235.71335 255.744
221.14963 235.70891 255.744
221.14594 235.70685 255.744
221.15468 235.71175 255.744
221.16136 235.71555 255.744
221.1648 235.71744 255.744
221.16173 235.71574 255.744
221.17722 235.72446 255.744
221.17162 235.72128 255.744
221.14731 235.70763 255.744
221.1525 235.71056 255.744
221.16014 235.71484 255.744
221.15573 235.71237 255.744
221.15012 235.70918 255.744
221.14848 235.70827 255.744
221.16502 235.71756 255.744
221.15489 235.7119 255.744
221.16525 235.71773 255.744
221.16953 235.72014 255.744
221.16934 235.72002 255.744
221.15689 235.71301 255.744
221.14633 235.70706 255.744
221.1539 235.71133 255.744
221.1516 235.71004 255.744
221.15373 235.7112 255.744
221.18263 235.72751 255.744
221.16054 235.71507 255.744
221.16493 235.71751 255.744
221.17905 235.72552 255.744
221.1522 235.71039 255.744
221.15424 235.71153 255.744
221.15092 235.70966 255.744
221.16147 235.71558 255.744
221.15872 235.71402 255.744
221.14915 235.70865 255.744
221.14925 235.70871 255.744
221.16144 235.71555 255.744
221.15092 235.70964 255.744
221.15573 235.71236 255.744
221.1549 235.71188 255.744
221.1514 235.70992 255.744
221.15312 235.71089 255.744
221.15431 235.71156 255.744
221.14131 235.70424 255.744
221.1643 235.71721 255.744
221.14941 235.7088 255.744
221.1615 235.7156 255.744
221.15363 235.71118 255.744
221.15065 235.70949 255.744
221.14731 235.70763 255.744
221.14603 235.70688 255.744
221.16086 235.71526 255.744
221.1633 235.71661 255.744
221.15282 235.71074 255.744
221.15746 235.71333 255.744
221.13675 235.70168 255.744
221.15863 235.71397 255.744
221.15993 235.7147 255.744
221.13837 235.70258 255.744
221.15761 235.71341 255.744
221.16045 235.71498 255.744
221.1577 235.7135 255.744
221.14766 235.7078 255.744
221.15274 235.71066 255.744
221.15926 235.71432 255.744
221.13991 235.70345 255.744
221.15547 235.71222 255.744
221.1495 235.70882 255.744
221.15854 235.71396 255.744
221.15436 235.7116 255.744
221.15332 235.711 255.744
221.15045 235.7094 255.744
221.16129 235.71552 255.744
221.15831 235.7138 255.744
221.17293 235.72203 255.744
221.15843 235.71388 255.744
221.14848 235.7083 255.744
221.15013 235.70921 255.744
221.15508 235.71199 255.744
221.14561 235.70667 255.744
221.13774 235.70222 255.744
221.16492 235.71754 255.744
221.14618 235.707 255.744
221.15436 235.71158 255.744
221.13074 235.69829 255.744
221.15018 235.70923 255.744
221.13399 235.70013 255.744
221.15817 235.71375 255.744
221.14459 235.70609 255.744
221.14217 235.70473 255.744
221.15321 235.71095 255.744
221.17542 235.72343 255.744
221.14786 235.70796 255.744
221.1414 235.70428 255.744
221.16461 235.71736 255.744
221.14714 235.70752 255.744
221.1506 235.70946 255.744
221.16846 235.71951 255.744
221.13779 235.70224 255.744
221.13843 235.70262 255.744
221.14612 235.70697 255.744
221.14236 235.70483 255.744
221.16122 235.71545 255.744
221.15923 235.71432 255.744
221.14453 235.70602 255.744
221.16336 235.71667 255.744
221.15504 235.71198 255.744
221.13666 235.70161 255.744
221.1617 235.7157 255.744
221.13078 235.69833 255.744
221.13333 235.69974 255.744
221.14548 235.70657 255.744
221.12024 235.69235 255.744
221.13809 235.70242 255.744
221.14647 235.70715 255.744
221.1397 235.70332 255.744
221.16081 235.7152 255.744
221.14465 235.70615 255.744
221.15189 235.71019 255.744
221.16057 235.71506 255.744
221.14743 235.70766 255.744
221.14531 235.70651 255.744
221.13663 235.7016 255.744
221.15141 235.7099 255.744
221.17654 235.72409 255.744
221.14699 235.70744 255.744
221.14822 235.70811 255.744
221.16185 235.7158 255.744
221.16089 235.71524 255.744
221.13876 235.7028 255.744
221.16052 235.71507 255.744
221.14479 235.70622 255.744
221.1546 235.71175 255.744
221.13806 235.7024 255.744
221.15765 235.71346 255.744
221.15424 235.71153 255.744
221.13652 235.70155 255.744
221.13976 235.70335 255.744
221.15564 235.7123 255.744
221.16699 235.7187 255.744
221.16437 235.71724 255.744
221.15927 235.71437 255.744
221.15659 235.71283 255.744
221.15883 235.7141 255.744
221.1481 235.70805 255.744
221.14526 235.70644 255.744
221.16006 235.7148 255.744
221.15224 235.7104 255.744
221.15617 235.71263 255.744
221.14638 235.7071 255.744
221.14566 235.70671 255.744
221.15334 235.71103 255.744
221.13829 235.70256 255.744
221.14922 235.70868 255.744
221.15514 235.71202 255.744
221.17146 235.72122 255.744
221.1453 235.70647 255.744
221.1394 235.70317 255.744
221.17395 235.72261 255.744
221.15234 235.71043 255.744
221.14848 235.70827 255.744
221.1409 235.70403 255.744
221.15982 235.71466 255.744
221.14828 235.70815 255.744
221.14508 235.70634 255.744
221.15489 235.71187 255.744
221.1674 235.71892 255.744
221.15993 235.71474 255.744
221.14612 235.70694 255.744
221.14784 235.70789 255.744
221.14499 235.70631 255.744
221.14908 235.7086 255.744
221.13574 235.7011 255.744
221.1315 235.6987 255.744
221.14615 235.70697 255.744
221.14206 235.70468 255.744
221.14874 235.7084 255.744
221.15602 235.71252 255.744
221.16614 235.71819 255.744
221.139 235.70294 255.744
221.13911 235.70299 255.744
221.15614 235.71259 255.744
221.17033 235.72057 255.744
221.14958 235.7089 255.744
221.14107 235.70413 255.744
221.12793 235.6967 255.744
221.13753 235.70212 255.744
221.14613 235.70695 255.744
221.14908 235.70862 255.744
221.15111 235.70978 255.744
221.13715 235.70189 255.744
221.13718 235.70192 255.744
221.14136 235.7043 255.744
221.13704 235.70181 255.744
221.14793 235.70796 255.744
221.13745 235.70206 255.744
221.1571 235.71312 255.744
221.15836 235.71384 255.744
221.14613 235.70694 255.744
221.15778 235.71352 255.744
221.14812 235.70807 255.744
221.15378 235.71127 255.744
221.15457 235.7117 255.744
221.15457 235.7117 255.744
221.14491 235.70625 255.744
221.13606 235.70128 255.744
221.13876 235.70277 255.744
221.14624 235.707 255.744
221.14928 235.70874 255.744
221.1429 235.70512 255.744
221.15532 235.71214 255.744
221.1456 235.70663 255.744
221.16447 235.7173 255.744
221.13206 235.69905 255.744
221.16756 235.719 255.744
221.17102 235.72095 255.744
221.15094 235.70966 255.744
221.14018 235.7036 255.744
221.14589 235.70683 255.744
221.13554 235.70096 255.744
221.13516 235.70076 255.744
221.14944 235.70882 255.744
221.13869 235.70277 255.744
221.15738 235.71329 255.744
221.1527 235.71065 255.744
221.16335 235.71664 255.744
221.157 235.71309 255.744
221.15184 235.71014 255.744
221.13914 235.70303 255.744
221.13643 235.70149 255.744
221.16211 235.71596 255.744
221.16112 235.7154 255.744
221.12903 235.69734 255.744
221.16167 235.71571 255.744
221.13664 235.7016 255.744
221.1514 235.7099 255.744
221.15208 235.71031 255.744
221.14018 235.70358 255.744
221.13028 235.69803 255.744
221.14574 235.70673 255.744
221.15285 235.71071 255.744
221.13075 235.69829 255.744
221.18062 235.72636 255.744
221.1337 235.69997 255.744
221.15114 235.70976 255.744
221.15382 235.71129 255.744
221.16635 235.71832 255.744
221.14275 235.70506 255.744
221.14816 235.70811 255.744
221.14407 235.7058 255.744
221.17258 235.72183 255.744
221.13066 235.69823 255.744
221.14949 235.70883 255.744
221.14754 235.70772 255.744
221.1579 235.71358 255.744
221.13863 235.70271 255.744
221.16011 235.7148 255.744
221.14914 235.70865 255.744
221.1328 235.69946 255.744
221.15227 235.71042 255.744
221.15488 235.71188 255.744
221.15413 235.71146 255.744
221.142 235.7046 255.744
221.13948 235.7032 255.744
221.1469 235.70737 255.744
221.13123 235.69855 255.744
221.15404 235.7114 255.744
221.13289 235.6995 255.744
221.15443 235.71162 255.744
221.16393 235.71695 255.744
221.1554 235.71216 255.744
221.15408 235.71147 255.744
221.14374 235.7056 255.744
221.13779 235.70222 255.744
221.16368 235.71687 255.744
221.16068 235.71515 255.744
221.1577 235.71346 255.744
221.14043 235.70377 255.744
221.14632 235.70706 255.744
221.15999 235.71474 255.744
221.15639 235.71274 255.744
221.15614 235.7126 255.744
221.13647 235.7015 255.744
221.14706 235.70746 255.744
221.1401 235.70357 255.744
221.15231 235.71043 255.744
221.1606 235.71509 255.744
221.14049 235.70378 255.744
221.15894 235.71414 255.744
221.15318 235.7109 255.744
221.14192 235.70459 255.744
221.1479 235.70795 255.744
221.17296 235.72205 255.744
221.14476 235.7062 255.744
221.13861 235.70273 255.744
221.15198 235.71025 255.744
221.15213 235.71033 255.744
221.16258 235.71622 255.744
221.14566 235.70668 255.744
221.14944 235.70885 255.744
221.15306 235.71085 255.744
221.14587 235.70679 255.744
221.15424 235.7115 255.744
221.14485 235.7062 255.744
221.1363 235.7014 255.744
221.14647 235.70715 255.744
221.14145 235.7043 255.744
221.16576 235.71799 255.744
221.14699 235.70746 255.744
221.15765 235.71344 255.744
221.15565 235.71231 255.744
221.16472 235.7174 255.744
221.14362 235.70554 255.744
221.16455 235.71732 255.744
221.1479 235.70795 255.744
221.14665 235.70723 255.744
221.15903 235.71422 255.744
221.16002 235.71477 255.744
221.18411 235.72835 255.744
221.15494 235.71193 255.744
221.1616 235.71567 255.744
221.14513 235.70634 255.744
221.15454 235.71169 255.744
221.15854 235.71391 255.744
221.1541 235.71146 255.744
221.13922 235.70305 255.744
221.1541 235.71143 255.744
221.16006 235.7148 255.744
221.14047 235.70377 255.744
221.15753 235.7134 255.744
221.1516 235.71002 255.744
221.1615 235.71559 255.744
221.1447 235.70615 255.744
221.15404 235.71135 255.744
221.13055 235.69818 255.744
221.16454 235.71732 255.744
221.15526 235.7121 255.744
221.14468 235.70619 255.744
221.15439 235.71158 255.744
221.16386 235.71692 255.744
221.15323 235.71094 255.744
221.13538 235.70093 255.744
221.15334 235.71101 255.744
221.16841 235.7195 255.744
221.15126 235.70982 255.744
221.15012 235.70918 255.744
221.15196 235.71022 255.744
221.15974 235.71465 255.744
221.13371 235.69994 255.744
221.14146 235.70435 255.744
221.16273 235.71628 255.744
221.15344 235.71103 255.744
221.15512 235.71207 255.744
221.15399 235.71138 255.744
221.15617 235.71263 255.744
221.13034 235.69809 255.744
221.15341 235.71106 255.744
221.15025 235.70927 255.744
221.14798 235.70801 255.744
221.14328 235.70535 255.744
221.16135 235.71552 255.744
221.14543 235.70656 255.744
221.1518 235.71014 255.744
221.16379 235.71687 255.744
221.17274 235.72194 255.744
221.13457 235.70042 255.744
221.14821 235.70813 255.744
221.13658 235.70158 255.744
221.14694 235.70741 255.744
221.15996 235.7147 255.744
221.14336 235.70538 255.744
221.16806 235.71928 255.744
221.16245 235.71613 255.744
221.16753 235.71901 255.744
221.15158 235.71 255.744
221.1552 235.71207 255.744
221.14342 235.70541 255.744
221.14577 235.70674 255.744
221.15607 235.71255 255.744
221.16559 235.71793 255.744
221.1423 235.70479 255.744
221.14609 235.70695 255.744
221.15344 235.71109 255.744
221.1554 235.71217 255.744
221.1731 235.72214 255.744
221.16412 235.71709 255.744
221.17137 235.72118 255.744
221.16197 235.71587 255.744
221.14818 235.70808 255.744
221.15796 235.71361 255.744
221.15543 235.71219 255.744
221.14743 235.70767 255.744
221.16385 235.71693 255.744
221.15338 235.71104 255.744
221.16599 235.71812 255.744
221.15837 235.71382 255.744
221.16354 235.71675 255.744
221.16954 235.72015 255.744
221.14833 235.70819 255.744
221.18013 235.72607 255.744
221.17793 235.72485 255.744
221.1533 235.71095 255.744
221.16478 235.71744 255.744
221.16272 235.71628 255.744
221.14233 235.7048 255.744
221.14745 235.7077 255.744
221.13408 235.70015 255.744
221.16275 235.71631 255.744
221.1434 235.70541 255.744
221.14117 235.70418 255.744
221.15695 235.71304 255.744
221.15984 235.71466 255.744
221.15384 235.7113 255.744
221.15619 235.7126 255.744
221.14078 235.70392 255.744
221.14664 235.70724 255.744
221.15619 235.71263 255.744
221.1705 235.72067 255.744
221.1518 235.71017 255.744
221.1592 235.71431 255.744
221.15897 235.71419 255.744
221.15735 235.71326 255.744
221.15726 235.71324 255.744
221.15613 235.71257 255.744
221.15836 235.71384 255.744
221.16568 235.71793 255.744
221.14865 235.70837 255.744
221.16466 235.71739 255.744
221.14163 235.70442 255.744
221.1563 235.71265 255.744
221.16771 235.7191 255.744
221.16252 235.71619 255.744
221.1638 235.7169 255.744
221.16377 235.71687 255.744
221.15678 235.71295 255.744
221.16626 235.71828 255.744
221.16263 235.71625 255.744
221.16574 235.71797 255.744
221.16699 235.7187 255.744
221.16531 235.71774 255.744
221.1623 235.71602 255.744
221.17188 235.72144 255.744
221.15678 235.71295 255.744
221.15486 235.71187 255.744
221.15976 235.71465 255.744
221.15779 235.71352 255.744
221.15244 235.71048 255.744
221.16737 235.71889 255.744
221.18086 235.7265 255.744
221.17082 235.72084 255.744
221.1739 235.7226 255.744
221.16663 235.7185 255.744
221.16928 235.71999 255.744
221.14355 235.7055 255.744
221.1526 235.71057 255.744
221.13611 235.7013 255.744
221.15518 235.71204 255.744
221.16301 235.71648 255.744
221.15546 235.7122 255.744
221.15979 235.71463 255.744
221.14804 235.70804 255.744
221.16283 235.71634 255.744
221.15945 235.71446 255.744
221.17598 235.72374 255.744
221.1737 235.72247 255.744
221.16971 235.72025 255.744
221.16087 235.71526 255.744
221.1563 235.71268 255.744
221.17876 235.72536 255.744
221.1603 235.71494 255.744
221.1493 235.70872 255.744
221.14885 235.70848 255.744
221.17963 235.72578 255.744
221.17021 235.72055 255.744
221.15794 235.7136 255.744
221.17465 235.723 255.744
221.18039 235.72624 255.744
221.16211 235.71597 255.744
221.15866 235.71402 255.744
221.15483 235.71185 255.744
221.16554 235.7179 255.744
221.15622 235.71263 255.744
221.17331 235.72223 255.744
221.16151 235.71562 255.744
221.17105 235.72098 255.744
221.1666 235.71844 255.744
221.1545 235.71164 255.744
221.16869 235.71962 255.744
221.17288 235.72203 255.744
221.17065 235.72075 255.744
221.1512 235.7098 255.744
221.17859 235.72522 255.744
221.17485 235.7231 255.744
221.17381 235.72253 255.744
221.17836 235.72508 255.744
221.15019 235.70926 255.744
221.1674 235.71893 255.744
221.16765 235.71907 255.744
221.15892 235.71414 255.744
221.16093 235.71526 255.744
221.17462 235.723 255.744
221.17944 235.7257 255.744
221.17873 235.7253 255.744
221.17122 235.7211 255.744
221.19283 235.73325 255.744
221.19147 235.73244 255.744
221.19923 235.73683 255.744
221.19353 235.73363 255.744
221.18805 235.73055 255.744
221.20935 235.74252 255.744
221.18172 235.727 255.744
221.19627 235.73517 255.744
221.19667 235.7354 255.744
221.19193 235.73271 255.744
221.18301 235.72769 255.744
221.21643 235.7465 255.744
221.20291 235.7389 255.744
221.2049 235.74004 255.744
221.19386 235.73383 255.744
221.19069 235.73206 255.744
221.19855 235.73648 255.744
221.19017 235.73175 255.744
221.20348 235.73926 255.744
221.20508 235.74016 255.744
221.19197 235.73273 255.744
221.20499 235.74008 255.744
221.18399 235.72827 255.744
221.18855 235.73083 255.744
221.17778 235.72473 255.744
221.18604 235.72945 255.744
221.18721 235.73009 255.744
221.2143 235.74533 255.744
221.19324 235.73346 255.744
221.19426 235.73404 255.744
221.19186 235.7327 255.744
221.18199 235.72714 255.744
221.18565 235.7292 255.744
221.19035 235.73183 255.744
221.18889 235.73103 255.744
221.2008 235.73772 255.744
221.19794 235.7361 255.744
221.19655 235.73534 255.744
221.18782 235.73041 255.744
221.18538 235.72903 255.744
221.21077 235.74333 255.744
221.21237 235.74426 255.744
221.18703 235.72998 255.744
221.1998 235.73715 255.744
221.1876 235.7303 255.744
221.18552 235.72914 255.744
221.19836 235.73637 255.744
221.18784 235.73041 255.744
221.1842 235.72836 255.744
221.18489 235.72878 255.744
221.18024 235.72614 255.744
221.18367 235.72806 255.744
221.19359 235.73369 255.744
221.19461 235.73422 255.744
221.18661 235.72972 255.744
221.19005 235.73167 255.744
221.18608 235.72946 255.744
221.18571 235.72926 255.744
221.19374 235.73373 255.744
221.17754 235.72461 255.744
221.18307 235.72772 255.744
221.19737 235.73581 255.744
221.19542 235.73471 255.744
221.19374 235.73375 255.744
221.1762 235.7239 255.744
221.18362 235.72806 255.744
221.1689 235.71977 255.744
221.19464 235.73427 255.744
221.21037 235.7431 255.744
221.196 235.735 255.744
221.17001 235.7204 255.744
221.17407 235.7227 255.744
221.17442 235.72287 255.744
221.18892 235.73103 255.744
221.18347 235.728 255.744
221.18779 235.7304 255.744
221.17526 235.72333 255.744
221.19781 235.73605 255.744
221.18895 235.73106 255.744
221.18697 235.72993 255.744
221.19106 235.73224 255.744
221.19891 235.73668 255.744
221.20477 235.73996 255.744
221.1889 235.73105 255.744
221.18132 235.72679 255.744
221.18556 235.72913 255.744
221.17169 235.72131 255.744
221.18413 235.72836 255.744
221.18591 235.72934 255.744
221.20049 235.73755 255.744
221.19232 235.73296 255.744
221.18512 235.7289 255.744
221.1849 235.72876 255.744
221.16376 235.71687 255.744
221.17928 235.72563 255.744
221.20009 235.73732 255.744
221.18611 235.72943 255.744
221.2027 235.73878 255.744
221.20433 235.73972 255.744
221.18147 235.72688 255.744
221.18047 235.72627 255.744
221.18661 235.72972 255.744
221.19464 235.73424 255.744
221.19408 235.7339 255.744
221.1977 235.73598 255.744
221.16031 235.71492 255.744
221.17465 235.72299 255.744
221.19797 235.73613 255.744
221.17125 235.7211 255.744
221.19092 235.73216 255.744
221.18985 235.73155 255.744
221.19975 235.73712 255.744
221.19426 235.73405 255.744
221.1724 235.72171 255.744
221.1835 235.72798 255.744
221.18639 235.72963 255.744
221.17659 235.72409 255.744
221.19667 235.73543 255.744
221.16267 235.71625 255.744
221.17079 235.72083 255.744
221.17618 235.72386 255.744
221.16914 235.71991 255.744
221.17778 235.72478 255.744
221.17535 235.72342 255.744
221.18243 235.72739 255.744
221.19182 235.73267 255.744
221.18896 235.7311 255.744
221.19301 235.7333 255.744
221.17021 235.7205 255.744
221.17891 235.72539 255.744
221.20107 235.73787 255.744
221.179 235.72545 255.744
221.1846 235.72859 255.744
221.2016 235.73816 255.744
221.17183 235.72144 255.744
221.18758 235.73027 255.744
221.1863 235.72957 255.744
221.18399 235.72826 255.744
221.19498 235.73444 255.744
221.1832 235.72783 255.744
221.20192 235.73836 255.744
221.1683 235.7194 255.744
221.2043 235.73969 255.744
221.19635 235.7352 255.744
221.18343 235.72797 255.744
221.18234 235.72736 255.744
221.18271 235.72755 255.744
221.18611 235.72943 255.744
221.19705 235.73561 255.744
221.19528 235.73463 255.744
221.19414 235.734 255.744
221.18982 235.73154 255.744
221.1856 235.72917 255.744
221.19359 235.73367 255.744
221.17038 235.72061 255.744
221.17642 235.72403 255.744
221.18231 235.72733 255.744
221.18494 235.72879 255.744
221.18349 235.728 255.744
221.18007 235.72606 255.744
221.18686 235.72987 255.744
221.18692 235.72993 255.744
221.18724 235.73012 255.744
221.18053 235.72632 255.744
221.18091 235.72652 255.744
221.17148 235.72124 255.744
221.21347 235.74487 255.744
221.18246 235.7274 255.744
221.1763 235.72394 255.744
221.19125 235.73235 255.744
221.18614 235.7295 255.744
221.18423 235.72841 255.744
221.17877 235.72531 255.744
221.18336 235.7279 255.744
221.18929 235.73122 255.744
221.18456 235.7286 255.744
221.18987 235.73157 255.744
221.18826 235.73068 255.744
221.17665 235.72415 255.744
221.19147 235.73248 255.744
221.20038 235.73752 255.744
221.16666 235.71852 255.744
221.17194 235.72148 255.744
221.17133 235.72115 255.744
221.19795 235.73615 255.744
221.16861 235.71959 255.744
221.18166 235.72694 255.744
221.1813 235.72675 255.744
221.19958 235.73701 255.744
221.1716 235.7213 255.744
221.16673 235.71855 255.744
221.18048 235.72626 255.744
221.21008 235.74295 255.744
221.18361 235.72806 255.744
221.17331 235.72223 255.744
221.18059 235.72633 255.744
221.18542 235.72905 255.744
221.18103 235.72656 255.744
221.17058 235.72072 255.744
221.18495 235.7288 255.744
221.17332 235.72224 255.744
221.18912 235.73114 255.744
221.1792 235.72557 255.744
221.1875 235.73027 255.744
221.18274 235.72757 255.744
221.17719 235.72444 255.744
221.18042 235.72627 255.744
221.18114 235.72668 255.744
221.17404 235.72267 255.744
221.18736 235.73016 255.744
221.19072 235.73206 255.744
221.1831 235.72775 255.744
221.18016 235.72612 255.744
221.19109 235.73225 255.744
221.18939 235.73131 255.744
221.17578 235.72365 255.744
221.17496 235.72318 255.744
221.17664 235.72414 255.744
221.1902 235.73177 255.744
221.16295 235.71642 255.744
221.17618 235.72388 255.744
221.2007 235.7377 255.744
221.1815 235.72684 255.744
221.19167 235.73257 255.744
221.18651 235.72968 255.744
221.18925 235.7312 255.744
221.17169 235.72136 255.744
221.19258 235.7331 255.744
221.1898 235.73154 255.744
221.16048 235.71504 255.744
221.18535 235.72903 255.744
221.19836 235.73636 255.744
221.17361 235.7224 255.744
221.179 235.72545 255.744
221.16867 235.71965 255.744
221.17278 235.72192 255.744
221.16843 235.7195 255.744
221.19489 235.73439 255.744
221.1916 235.73254 255.744
221.1782 235.725 255.744
221.19492 235.7344 255.744
221.1969 235.73553 255.744
221.19542 235.73473 255.744
221.16885 235.71973 255.744
221.19063 235.73201 255.744
221.19699 235.73561 255.744
221.17131 235.72112 255.744
221.17957 235.72577 255.744
221.21004 235.74294 255.744
221.18814 235.73056 255.744
221.17767 235.7247 255.744
221.18944 235.73132 255.744
221.19092 235.73216 255.744
221.17845 235.72514 255.744
221.20111 235.7379 255.744
221.19331 235.73347 255.744
221.20006 235.73732 255.744
221.17435 235.72281 255.744
221.1862 235.7295 255.744
221.17351 235.72235 255.744
221.1822 235.72725 255.744
221.19907 235.73677 255.744
221.17366 235.72246 255.744
221.17563 235.72357 255.744
221.18785 235.73045 255.744
221.16798 235.71925 255.744
221.18224 235.72726 255.744
221.17603 235.72377 255.744
221.18585 235.7293 255.744
221.17796 235.72488 255.744
221.19229 235.73296 255.744
221.18645 235.72966 255.744
221.17798 235.7249 255.744
221.18954 235.73138 255.744
221.18674 235.72978 255.744
221.18407 235.72829 255.744
221.1825 235.72743 255.744
221.1809 235.7265 255.744
221.18707 235.73001 255.744
221.18018 235.72612 255.744
221.17609 235.72383 255.744
221.17691 235.72429 255.744
221.17325 235.72223 255.744
221.15744 235.71332 255.744
221.19656 235.73532 255.744
221.1997 235.73714 255.744
221.18483 235.72874 255.744
221.17775 235.72473 255.744
221.19966 235.73709 255.744
221.18883 235.73099 255.744
221.16954 235.72014 255.744
221.16917 235.71994 255.744
221.18599 235.7294 255.744
221.17647 235.72401 255.744
221.17363 235.72246 255.744
221.16235 235.71606 255.744
221.18434 235.72844 255.744
221.18051 235.72633 255.744
221.18008 235.72609 255.744
221.18437 235.72849 255.744
221.16867 235.71965 255.744
221.18018 235.72612 255.744
221.18697 235.72995 255.744
221.17258 235.72182 255.744
221.17215 235.72159 255.744
221.19133 235.73238 255.744
221.16379 235.71687 255.744
221.19919 235.73685 255.744
221.18127 235.72675 255.744
221.17111 235.72104 255.744
221.17834 235.72508 255.744
221.18051 235.7263 255.744
221.18222 235.72725 255.744
221.15292 235.7108 255.744
221.17546 235.72346 255.744
221.17844 235.72516 255.744
221.18535 235.72903 255.744
221.16927 235.71997 255.744
221.191 235.73221 255.744
221.17459 235.72298 255.744
221.18529 235.729 255.744
221.19183 235.73268 255.744
221.1533 235.71103 255.744
221.1905 235.73195 255.744
221.17378 235.72252 255.744
221.16544 235.71783 255.744
221.18462 235.72862 255.744
221.17807 235.72496 255.744
221.191 235.7322 255.744
221.18993 235.73163 255.744
221.179 235.72546 255.744
221.17053 235.72073 255.744
221.19397 235.73392 255.744
221.17975 235.72588 255.744
221.18263 235.72751 255.744
221.1926 235.7331 255.744
221.18518 235.72894 255.744
221.18753 235.73024 255.744
221.16711 235.7188 255.744
221.17319 235.72218 255.744
221.18753 235.73026 255.744
221.1687 235.71965 255.744
221.18867 235.73093 255.744
221.17787 235.72482 255.744
221.17369 235.72246 255.744
221.1821 235.72719 255.744
221.1902 235.7318 255.744
221.18086 235.72652 255.744
221.18102 235.72661 255.744
221.19858 235.73648 255.744
221.17902 235.72548 255.744
221.17715 235.72443 255.744
221.1659 235.71808 255.744
221.16548 235.71783 255.744
221.16785 235.71915 255.744
221.18073 235.72644 255.744
221.18332 235.7279 255.744
221.19044 235.7319 255.744
221.17686 235.72424 255.744
221.1758 235.72365 255.744
221.18927 235.73122 255.744
221.19077 235.73207 255.744
221.15569 235.71233 255.744
221.18008 235.72607 255.744
221.17245 235.72179 255.744
221.16937 235.72003 255.744
221.18715 235.73003 255.744
221.20181 235.73828 255.744
221.18135 235.72676 255.744
221.19379 235.73376 255.744
221.18083 235.7265 255.744
221.1921 235.7328 255.744
221.16357 235.71674 255.744
221.16414 235.71707 255.744
221.17204 235.72153 255.744
221.16399 235.71698 255.744
221.18314 235.72777 255.744
221.18764 235.7303 255.744
221.17354 235.72237 255.744
221.16988 235.72034 255.744
221.19952 235.73701 255.744
221.16905 235.71983 255.744
221.18916 235.73119 255.744
221.18765 235.73032 255.744
221.18845 235.73077 255.744
221.18277 235.72758 255.744
221.17642 235.72403 255.744
221.18257 235.72748 255.744
221.16559 235.71793 255.744
221.17958 235.72578 255.744
221.1794 235.72566 255.744
221.17818 235.725 255.744
221.17453 235.72296 255.744
221.18886 235.73102 255.744
221.17853 235.72519 255.744
221.16722 235.71883 255.744
221.1694 235.72008 255.744
221.18758 235.73027 255.744
221.20471 235.73994 255.744
221.15544 235.71219 255.744
221.19771 235.73598 255.744
221.16646 235.7184 255.744
221.1763 235.72394 255.744
221.181 235.7266 255.744
221.18034 235.72621 255.744
221.17635 235.72395 255.744
221.175 235.72319 255.744
221.1682 235.71938 255.744
221.18578 235.72926 255.744
221.18456 235.72856 255.744
221.19574 235.73486 255.744
221.18103 235.7266 255.744
221.17183 235.72142 255.744
221.17725 235.72447 255.744
221.19116 235.73232 255.744
221.17827 235.72505 255.744
221.18947 235.73135 255.744
221.18936 235.73128 255.744
221.18962 235.73143 255.744
221.16492 235.71754 255.744
221.18404 235.72829 255.744
221.18527 235.72897 255.744
221.17522 235.72331 255.744
221.18317 235.7278 255.744
221.19841 235.73636 255.744
221.1922 235.73286 255.744
221.17645 235.72404 255.744
221.16818 235.71936 255.744
221.18228 235.7273 255.744
221.17764 235.72467 255.744
221.19243 235.733 255.744
221.19553 235.73476 255.744
221.18216 235.72723 255.744
221.16872 235.71967 255.744
221.19237 235.73299 255.744
221.16942 235.72006 255.744
221.17891 235.7254 255.744
221.19463 235.73424 255.744
221.16014 235.71484 255.744
221.16579 235.71802 255.744
221.19095 235.73216 255.744
221.18742 235.73021 255.744
221.17516 235.72328 255.744
221.16937 235.72003 255.744
221.17497 235.72322 255.744
221.18625 235.7295 255.744
221.18596 235.72935 255.744
221.19286 235.73325 255.744
221.17834 235.72508 255.744
221.19858 235.73645 255.744
221.18945 235.73132 255.744
221.19038 235.73186 255.744
221.19495 235.73442 255.744
221.15964 235.71457 255.744
221.17752 235.72464 255.744
221.18393 235.72826 255.744
221.18661 235.72977 255.744
221.19112 235.73225 255.744
221.17368 235.72246 255.744
221.19077 235.73206 255.744
221.17783 235.72478 255.744
221.16675 235.71855 255.744
221.19315 235.73343 255.744
221.17944 235.7257 255.744
221.17462 235.723 255.744
221.166 235.71817 255.744
221.20007 235.73732 255.744
221.18558 235.72916 255.744
221.18222 235.72728 255.744
221.18336 235.7279 255.744
221.18036 235.72624 255.744
221.19093 235.73218 255.744
221.17775 235.72473 255.744
221.18617 235.72949 255.744
221.18642 235.72964 255.744
221.18347 235.72798 255.744
221.19952 235.73701 255.744
221.17268 235.72191 255.744
221.17995 235.72597 255.744
221.18631 235.72957 255.744
221.18806 235.73056 255.744
221.17664 235.72415 255.744
221.17975 235.72588 255.744
221.18112 235.72664 255.744
221.18443 235.72853 255.744
221.17636 235.724 255.744
221.2104 235.74313 255.744
221.1839 235.7282 255.744
221.15047 235.70941 255.744
221.20212 235.73848 255.744
221.17244 235.72177 255.744
221.18147 235.72682 255.744
221.18794 235.73048 255.744
221.16548 235.71783 255.744
221.18968 235.73148 255.744
221.17941 235.72571 255.744
221.17957 235.72575 255.744
221.18933 235.73128 255.744
221.17052 235.72069 255.744
221.19875 235.73656 255.744
221.19112 235.73228 255.744
221.17613 235.7238 255.744
221.19267 235.73314 255.744
221.18039 235.72626 255.744
221.19952 235.73701 255.744
221.1762 235.7239 255.744
221.18182 235.72704 255.744
221.16542 235.7178 255.744
221.1758 235.72366 255.744
221.2069 235.74117 255.744
221.19446 235.73416 255.744
221.20221 235.73856 255.744
221.18489 235.72878 255.744
221.19173 235.7326 255.744
221.20442 235.73976 255.744
221.16158 235.71565 255.744
221.17368 235.72244 255.744
221.1928 235.7332 255.744
221.213 235.74457 255.744
221.17955 235.72578 255.744
221.18991 235.73161 255.744
221.18079 235.72647 255.744
221.19034 235.73183 255.744
221.18588 235.72934 255.744
221.17068 235.72076 255.744
221.19876 235.73659 255.744
221.17932 235.72565 255.744
221.18477 235.72871 255.744
221.19106 235.73222 255.744
221.1712 235.72105 255.744
221.18822 235.73065 255.744
221.18303 235.72775 255.744
221.20724 235.74135 255.744
221.19489 235.73439 255.744
221.19443 235.73413 255.744
221.1762 235.72388 255.744
221.17531 235.72339 255.744
221.18484 235.72873 255.744
221.18477 235.72868 255.744
221.18555 235.72914 255.744
221.1915 235.73248 255.744
221.21031 235.7431 255.744
221.17812 235.72496 255.744
221.19505 235.7345 255.744
221.19685 235.73553 255.744
221.20943 235.74258 255.744
221.19197 235.73276 255.744
221.20178 235.73828 255.744
221.19992 235.73724 255.744
221.18034 235.72623 255.744
221.19514 235.73454 255.744
221.20027 235.73746 255.744
221.1905 235.73193 255.744
221.17543 235.72346 255.744
221.19533 235.73465 255.744
221.18622 235.7295 255.744
221.18987 235.73155 255.744
221.17221 235.72165 255.744
221.20679 235.74109 255.744
221.17914 235.72552 255.744
221.19832 235.73634 255.744
221.1979 235.7361 255.744
221.18156 235.7269 255.744
221.17839 235.72508 255.744
221.2125 235.74431 255.744
221.18832 235.7307 255.744
221.20235 235.73859 255.744
221.19131 235.73239 255.744
221.19981 235.73717 255.744
221.18733 235.73016 255.744
221.18436 235.72849 255.744
221.20393 235.7395 255.744
221.19727 235.73572 255.744
221.18294 235.72768 255.744
221.1935 235.73363 255.744
221.20233 235.73857 255.744
221.19661 235.73535 255.744
221.17267 235.72186 255.744
221.19803 235.73616 255.744
221.18272 235.72755 255.744
221.18588 235.72932 255.744
221.18741 235.73021 255.744
221.1872 235.73007 255.744
221.19263 235.73314 255.744
221.19835 235.73634 255.744
221.18547 235.72913 255.744
221.19987 235.7372 255.744
221.18486 235.72873 255.744
221.17776 235.72473 255.744
221.19745 235.73584 255.744
221.2014 235.73808 255.744
221.19943 235.73697 255.744
221.21486 235.7456 255.744
221.19513 235.73451 255.744
221.18153 235.72688 255.744
221.19537 235.73465 255.744
221.18878 235.73094 255.744
221.18394 235.72823 255.744
221.18211 235.7272 255.744
221.20905 235.74237 255.744
221.2235 235.75052 255.744
221.23752 235.7584 255.744
221.20576 235.74052 255.744
221.22192 235.74962 255.744
221.22034 235.74873 255.744
221.24503 235.76262 255.744
221.21788 235.74736 255.744
221.21056 235.74323 255.744
221.21564 235.7461 255.744
221.24124 235.76053 255.744
221.21542 235.74596 255.744
221.21452 235.74545 255.744
221.21628 235.74646 255.744
221.2241 235.75087 255.744
221.21718 235.74696 255.744
221.20682 235.74115 255.744
221.215 235.74576 255.744
221.23225 235.75542 255.744
221.20702 235.74126 255.744
221.21335 235.74478 255.744
221.20454 235.73984 255.744
221.2353 235.75716 255.744
221.23183 235.75519 255.744
221.21138 235.74368 255.744
221.22995 235.75417 255.744
221.21425 235.74529 255.744
221.23465 235.75677 255.744
221.23827 235.75883 255.744
221.2201 235.7486 255.744
221.22836 235.75327 255.744
221.20601 235.74063 255.744
221.25694 235.76935 255.744
221.2134 235.74484 255.744
221.21072 235.74332 255.744
221.23 235.75417 255.744
221.2276 235.75282 255.744
221.22192 235.74962 255.744
221.24048 235.76004 255.744
221.22449 235.75107 255.744
221.225 235.75136 255.744
221.21985 235.74843 255.744
221.23389 235.75635 255.744
221.21765 235.74724 255.744
221.22072 235.74896 255.744
221.22485 235.75127 255.744
221.20876 235.74223 255.744
221.21375 235.74501 255.744
221.2359 235.75749 255.744
221.23874 235.75908 255.744
221.21964 235.74835 255.744
221.20195 235.73837 255.744
221.23537 235.75719 255.744
221.21268 235.74438 255.744
221.20848 235.74203 255.744
221.21518 235.74583 255.744
221.22948 235.75389 255.744
221.21127 235.74362 255.744
221.2238 235.75066 255.744
221.223 235.75023 255.744
221.22952 235.7539 255.744
221.23874 235.7591 255.744
221.25325 235.76724 255.744
221.21046 235.74315 255.744
221.22177 235.74954 255.744
221.2232 235.75037 255.744
221.23265 235.75565 255.744
221.20752 235.74153 255.744
221.20885 235.74225 255.744
221.22514 235.75142 255.744
221.22754 235.75275 255.744
221.22513 235.7514 255.744
221.2404 235.76003 255.744
221.2385 235.75894 255.744
221.23457 235.75673 255.744
221.19963 235.73709 255.744
221.22327 235.75038 255.744
221.23456 235.75671 255.744
221.21735 235.74704 255.744
221.22273 235.75006 255.744
221.21283 235.7445 255.744
221.19969 235.73709 255.744
221.22395 235.75075 255.744
221.2269 235.7524 255.744
221.21907 235.74802 255.744
221.22682 235.75238 255.744
221.21765 235.74724 255.744
221.23251 235.7556 255.744
221.2001 235.73738 255.744
221.21205 235.74408 255.744
221.21577 235.74617 255.744
221.20877 235.74223 255.744
221.22617 235.752 255.744
221.23108 235.75476 255.744
221.2212 235.7492 255.744
221.23895 235.7592 255.744
221.2105 235.74316 255.744
221.2009 235.73776 255.744
221.2232 235.75032 255.744
221.21114 235.74358 255.744
221.23784 235.75859 255.744
221.23079 235.75461 255.744
221.21774 235.74727 255.744
221.21283 235.74449 255.744
221.22336 235.75044 255.744
221.22961 235.75394 255.744
221.21388 235.74512 255.744
221.21275 235.74448 255.744
221.20943 235.74258 255.744
221.2229 235.75021 255.744
221.20526 235.74023 255.744
221.21542 235.74596 255.744
221.20987 235.74283 255.744
221.23216 235.75539 255.744
221.2307 235.75456 255.744
221.21785 235.74731 255.744
221.20923 235.7425 255.744
221.21042 235.74312 255.744
221.21385 235.74507 255.744
221.21574 235.74615 255.744
221.19785 235.73608 255.744
221.20996 235.74287 255.744
221.21457 235.74545 255.744
221.22687 235.7524 255.744
221.19992 235.73726 255.744
221.22221 235.74976 255.744
221.22908 235.75365 255.744
221.19757 235.73592 255.744
221.21524 235.74583 255.744
221.20695 235.7412 255.744
221.21307 235.74461 255.744
221.20605 235.74066 255.744
221.21872 235.74782 255.744
221.21799 235.74738 255.744
221.22704 235.75249 255.744
221.20357 235.73929 255.744
221.23059 235.7545 255.744
221.22095 235.74905 255.744
221.22406 235.75081 255.744
221.21587 235.74622 255.744
221.20618 235.74077 255.744
221.21773 235.74725 255.744
221.21793 235.74736 255.744
221.22774 235.7529 255.744
221.23172 235.75516 255.744
221.21306 235.74463 255.744
221.22693 235.75246 255.744
221.20656 235.74097 255.744
221.20894 235.74232 255.744
221.2239 235.75075 255.744
221.21147 235.74373 255.744
221.21779 235.74731 255.744
221.2201 235.74858 255.744
221.21898 235.74799 255.744
221.23366 235.75623 255.744
221.21425 235.74532 255.744
221.236 235.75755 255.744
221.2219 235.7496 255.744
221.22258 235.74998 255.744
221.21146 235.74374 255.744
221.21121 235.74359 255.744
221.2081 235.74184 255.744
221.19937 235.73694 255.744
221.20906 235.74237 255.744
221.19943 235.73695 255.744
221.19325 235.73347 255.744
221.21568 235.74611 255.744
221.19887 235.73666 255.744
221.22632 235.7521 255.744
221.21999 235.74854 255.744
221.22704 235.75249 255.744
221.22165 235.74947 255.744
221.21033 235.74309 255.744
221.2116 235.74379 255.744
221.23018 235.75426 255.744
221.20828 235.74194 255.744
221.2121 235.74408 255.744
221.2323 235.75545 255.744
221.20105 235.73788 255.744
221.2109 235.74341 255.744
221.20847 235.74202 255.744
221.22856 235.75339 255.744
221.20268 235.73878 255.744
221.21114 235.74356 255.744
221.19638 235.73523 255.744
221.21832 235.74757 255.744
221.22707 235.75255 255.744
221.19821 235.73627 255.744
221.21194 235.744 255.744
221.21823 235.74757 255.744
221.21681 235.74675 255.744
221.20695 235.7412 255.744
221.20474 235.73996 255.744
221.214 235.74515 255.744
221.20457 235.73984 255.744
221.23071 235.75458 255.744
221.20113 235.7379 255.744
221.2109 235.74342 255.744
221.20787 235.7417 255.744
221.19939 235.73692 255.744
221.23141 235.75496 255.744
221.20398 235.73953 255.744
221.2116 235.7438 255.744
221.20763 235.74155 255.744
221.22644 235.75215 255.744
221.20401 235.73953 255.744
221.22246 235.74992 255.744
221.22377 235.75064 255.744
221.19917 235.73682 255.744
221.20845 235.74207 255.744
221.21944 235.74821 255.744
221.21336 235.74484 255.744
221.22514 235.75143 255.744
221.21901 235.748 255.744
221.21275 235.74446 255.744
221.19846 235.73639 255.744
221.19534 235.73465 255.744
221.19989 235.7372 255.744
221.21254 235.74432 255.744
221.22153 235.7494 255.744
221.21442 235.7454 255.744
221.20708 235.74127 255.744
221.21738 235.74707 255.744
221.19699 235.73555 255.744
221.22757 235.7528 255.744
221.2217 235.7495 255.744
221.20909 235.74237 255.744
221.22644 235.75215 255.744
221.20059 235.73761 255.744
221.20473 235.73996 255.744
221.21469 235.74557 255.744
221.21974 235.7484 255.744
221.21109 235.74352 255.744
221.22298 235.7502 255.744
221.20972 235.74275 255.744
221.20724 235.74135 255.744
221.21404 235.74521 255.744
221.18858 235.73088 255.744
221.20886 235.74226 255.744
221.21835 235.7476 255.744
221.19258 235.7331 255.744
221.22136 235.74928 255.744
221.22385 235.75072 255.744
221.20514 235.74017 255.744
221.20093 235.73781 255.744
221.21632 235.74646 255.744
221.18515 235.7289 255.744
221.21478 235.74559 255.744
221.2095 235.74263 255.744
221.2117 235.74387 255.744
221.2042 235.73964 255.744
221.20973 235.74275 255.744
221.22597 235.75188 255.744
221.20412 235.73956 255.744
221.20204 235.7384 255.744
221.19455 235.7342 255.744
221.1968 235.73546 255.744
221.23582 235.75746 255.744
221.1942 235.73402 255.744
221.23067 235.75455 255.744
221.20323 235.73912 255.744
221.21652 235.74657 255.744
221.20938 235.74255 255.744
221.20656 235.74095 255.744
221.22096 235.74907 255.744
221.21207 235.74408 255.744
221.2125 235.7443 255.744
221.20355 235.73926 255.744
221.20593 235.74063 255.744
221.18881 235.73097 255.744
221.22252 235.74994 255.744
221.22046 235.74881 255.744
221.23312 235.75594 255.744
221.21437 235.74538 255.744
221.21144 235.74371 255.744
221.23325 235.75601 255.744
221.21848 235.7477 255.744
221.21783 235.74731 255.744
221.20287 235.73888 255.744
221.21992 235.74849 255.744
221.20439 235.73976 255.744
221.23857 235.759 255.744
221.21588 235.74622 255.744
221.20132 235.738 255.744
221.21211 235.74413 255.744
221.21584 235.7462 255.744
221.20549 235.74037 255.744
221.2015 235.73813 255.744
221.22139 235.7493 255.744
221.2201 235.74861 255.744
221.22879 235.75348 255.744
221.212 235.74405 255.744
221.20166 235.73822 255.744
221.19818 235.73625 255.744
221.21153 235.74374 255.744
221.1986 235.73648 255.744
221.20653 235.74092 255.744
221.2032 235.73907 255.744
221.23863 235.75902 255.744
221.2081 235.74187 255.744
221.21432 235.74533 255.744
221.19936 235.73692 255.744
221.21672 235.74667 255.744
221.20998 235.74292 255.744
221.21596 235.74623 255.744
221.2088 235.74223 255.744
221.2215 235.74937 255.744
221.20155 235.73817 255.744
221.21925 235.74811 255.744
221.19812 235.73624 255.744
221.22797 235.75302 255.744
221.21423 235.74529 255.744
221.21922 235.74808 255.744
221.20787 235.74171 255.744
221.19032 235.73183 255.744
221.21019 235.74301 255.744
221.22075 235.74895 255.744
221.22131 235.74927 255.744
221.18962 235.73143 255.744
221.20409 235.73956 255.744
221.22414 235.7509 255.744
221.20988 235.74283 255.744
221.20796 235.74178 255.744
221.21014 235.74301 255.744
221.20822 235.74191 255.744
221.22458 235.7511 255.744
221.20848 235.74208 255.744
221.2038 235.73941 255.744
221.19348 235.7336 255.744
221.20049 235.73756 255.744
221.20251 235.73871 255.744
221.2108 235.74333 255.744
221.2239 235.75075 255.744
221.21147 235.74374 255.744
221.20575 235.74048 255.744
221.21358 235.74493 255.744
221.21178 235.74391 255.744
221.21924 235.74812 255.744
221.19931 235.73691 255.744
221.21678 235.74673 255.744
221.20685 235.74112 255.744
221.19699 235.7356 255.744
221.20357 235.73927 255.744
221.2072 235.74133 255.744
221.22443 235.75104 255.744
221.17975 235.72588 255.744
221.2156 235.74608 255.744
221.21503 235.74573 255.744
221.21486 235.74562 255.744
221.19475 235.73431 255.744
221.22162 235.74947 255.744
221.21573 235.74612 255.744
221.19913 235.7368 255.744
221.21187 235.74396 255.744
221.20422 235.73967 255.744
221.21123 235.74359 255.744
221.19409 235.73396 255.744
221.21739 235.74709 255.744
221.20207 235.73842 255.744
221.21552 235.746 255.744
221.2306 235.7545 255.744
221.21352 235.74489 255.744
221.20392 235.73949 255.744
221.20364 235.73933 255.744
221.20618 235.74075 255.744
221.18185 235.7271 255.744
221.20396 235.7395 255.744
221.2007 235.73764 255.744
221.22632 235.7521 255.744
221.21887 235.7479 255.744
221.2127 235.74445 255.744
221.21953 235.74828 255.744
221.21179 235.74391 255.744
221.19016 235.73172 255.744
221.20715 235.74129 255.744
221.19618 235.73515 255.744
221.21205 235.74408 255.744
221.18776 235.7304 255.744
221.21635 235.74648 255.744
221.20296 235.73894 255.744
221.18518 235.72897 255.744
221.21747 235.74712 255.744
221.22345 235.75047 255.744
221.21114 235.74355 255.744
221.18988 235.73161 255.744
221.20488 235.74004 255.744
221.22372 235.75061 255.744
221.213 235.74458 255.744
221.2089 235.7423 255.744
221.2249 235.7513 255.744
221.22606 235.75195 255.744
221.1886 235.73087 255.744
221.20735 235.74141 255.744
221.2087 235.74217 255.744
221.21123 235.7436 255.744
221.21849 235.74771 255.744
221.2144 235.74538 255.744
221.21664 235.74666 255.744
221.19412 235.734 255.744
221.2037 235.73936 255.744
221.22432 235.75099 255.744
221.22403 235.75084 255.744
221.21338 235.7448 255.744
221.22777 235.75293 255.744
221.2039 235.73947 255.744
221.21442 235.74539 255.744
221.23215 235.75539 255.744
221.21446 235.7454 255.744
221.22992 235.7541 255.744
221.21617 235.74638 255.744
221.21976 235.74841 255.744
221.21103 235.74348 255.744
221.20137 235.73804 255.744
221.22072 235.74896 255.744
221.20656 235.74097 255.744
221.23495 235.75699 255.744
221.20514 235.7402 255.744
221.21329 235.74477 255.744
221.21127 235.74362 255.744
221.20352 235.73923 255.744
221.22299 235.75023 255.744
221.21384 235.74506 255.744
221.21718 235.74696 255.744
221.19331 235.73354 255.744
221.20892 235.7423 255.744
221.20786 235.74168 255.744
221.20195 235.73834 255.744
221.1902 235.73175 255.744
221.21664 235.74666 255.744
221.22614 235.75198 255.744
221.21935 235.7482 255.744
221.21828 235.74757 255.744
221.22038 235.74875 255.744
221.21677 235.74669 255.744
221.21541 235.74594 255.744
221.2253 235.75151 255.744
221.20609 235.74069 255.744
221.2157 235.7461 255.744
221.217 235.74686 255.744
221.19972 235.73712 255.744
221.21715 235.74695 255.744
221.19267 235.73315 255.744
221.22081 235.749 255.744
221.22476 235.75125 255.744
221.21484 235.7456 255.744
221.21318 235.74472 255.744
221.21838 235.74762 255.744
221.22731 235.75266 255.744
221.20319 235.73909 255.744
221.23033 235.75435 255.744
221.23299 235.75586 255.744
221.22374 235.75063 255.744
221.19727 235.73575 255.744
221.23119 235.75487 255.744
221.22755 235.75279 255.744
221.21857 235.74776 255.744
221.22627 235.75204 255.744
221.2226 235.74995 255.744
221.21126 235.74362 255.744
221.22327 235.75037 255.744
221.24133 235.76056 255.744
221.23418 235.75655 255.744
221.21474 235.74559 255.744
221.21638 235.74649 255.744
221.22614 235.752 255.744
221.20262 235.73875 255.744
221.22226 235.74983 255.744
221.23213 235.75536 255.744
221.21278 235.74448 255.744
221.21819 235.7475 255.744
221.20505 235.74011 255.744
221.19987 235.73723 255.744
221.21542 235.74596 255.744
221.22066 235.74893 255.744
221.21165 235.74382 255.744
221.22525 235.75151 255.744
221.22867 235.7534 255.744
221.22144 235.74934 255.744
221.21817 235.74751 255.744
221.22678 235.75235 255.744
221.21443 235.7454 255.744
221.2234 235.75044 255.744
221.23361 235.75621 255.744
221.21228 235.74417 255.744
221.21222 235.74416 255.744
221.21844 235.74763 255.744
221.20923 235.74246 255.744
221.2176 235.7472 255.744
221.22844 235.75328 255.744
221.22807 235.7531 255.744
221.22801 235.75305 255.744
221.22476 235.75119 255.744
221.22464 235.75113 255.744
221.22623 235.75206 255.744
221.21619 235.7464 255.744
221.18304 235.72772 255.744
221.21779 235.7473 255.744
221.2147 235.74559 255.744
221.22183 235.74956 255.744
221.2097 235.74274 255.744
221.21751 235.74713 255.744
221.23561 235.75732 255.744
221.20514 235.74016 255.744
221.2223 235.74985 255.744
221.22043 235.7488 255.744
221.21716 235.74693 255.744
221.2281 235.75311 255.744
221.21739 235.74707 255.744
221.21866 235.74777 255.744
221.23598 235.75754 255.744
221.21799 235.74736 255.744
221.21974 235.74841 255.744
221.23851 235.75896 255.744
221.2128 235.74449 255.744
221.20654 235.74097 255.744
221.22119 235.74924 255.744
221.2111 235.74356 255.744
221.24121 235.76047 255.744
221.22499 235.75136 255.744
221.2227 235.75006 255.744
221.22101 235.7491 255.744
221.21019 235.743 255.744
221.2356 235.75734 255.744
221.21867 235.7478 255.744
221.22327 235.7504 255.744
221.2028 235.73888 255.744
221.21947 235.74823 255.744
221.229 235.75363 255.744
221.20425 235.73965 255.744
221.21664 235.74666 255.744
221.22679 235.75235 255.744
221.24837 235.7645 255.744
221.21942 235.74821 255.744
221.24931 235.76505 255.744
221.2209 235.7491 255.744
221.2143 235.74533 255.744
221.23503 235.75702 255.744
221.20766 235.7416 255.744
221.22517 235.75148 255.744
221.22559 235.7517 255.744
221.21956 235.74829 255.744
221.2245 235.75107 255.744
221.23608 235.7576 255.744
221.21443 235.74536 255.744
221.23563 235.75734 255.744
221.22159 235.7494 255.744
221.19846 235.73642 255.744
221.21591 235.74626 255.744
221.22922 235.75375 255.744
221.20786 235.74173 255.744
221.23288 235.7558 255.744
221.21106 235.74348 255.744
221.21872 235.74783 255.744
221.22641 235.75214 255.744
221.22252 235.74995 255.744
221.22467 235.75116 255.744
221.21936 235.74817 255.744
221.22467 235.75117 255.744
221.21402 235.7452 255.744
221.22163 235.74947 255.744
221.22504 235.75136 255.744
221.22069 235.74892 255.744
221.21971 235.74835 255.744
221.21947 235.74821 255.744
221.23843 235.75893 255.744
221.22025 235.74869 255.744
221.24478 235.76251 255.744
221.22583 235.75185 255.744
221.22226 235.74979 255.744
221.22255 235.74997 255.744
221.23174 235.75517 255.744
221.22643 235.75215 255.744
221.21692 235.74681 255.744
221.22226 235.74983 255.744
221.22429 235.75095 255.744
221.23698 235.75812 255.744
221.23007 235.75423 255.744
221.23064 235.75455 255.744
221.22368 235.75061 255.744
221.23135 235.75496 255.744
221.223 235.75023 255.744
221.22337 235.75043 255.744
221.22473 235.7512 255.744
221.22427 235.75098 255.744
221.22823 235.75317 255.744
221.23694 235.75809 255.744
221.22137 235.7493 255.744
221.22151 235.74939 255.744
221.229 235.7536 255.744
221.22128 235.74925 255.744
221.22403 235.75082 255.744
221.22475 235.7512 255.744
221.23988 235.75972 255.744
221.20729 235.74136 255.744
221.2161 235.74635 255.744
221.24036 235.76001 255.744
221.2129 235.74454 255.744
221.20361 235.73929 255.744
221.23215 235.75537 255.744
221.24329 235.76164 255.744
221.21538 235.74594 255.744
221.25719 235.76947 255.744
221.26564 235.77422 255.744
221.24617 235.76328 255.744
221.23206 235.75533 255.744
221.25368 235.7675 255.744
221.25745 235.7696 255.744
221.24088 235.76027 255.744
221.25943 235.77077 255.744
221.27272 235.77823 255.744
221.2581 235.76997 255.744
221.24382 235.76193 255.744
221.25914 235.77058 255.744
221.25812 235.77 255.744
221.25658 235.76913 255.744
221.25807 235.76996 255.744
221.27449 235.77922 255.744
221.25061 235.76576 255.744
221.27322 235.7785 255.744
221.23921 235.75932 255.744
221.27754 235.78093 255.744
221.25862 235.77028 255.744
221.24733 235.76395 255.744
221.26805 235.7756 255.744
221.23477 235.75685 255.744
221.25452 235.76797 255.744
221.25424 235.76782 255.744
221.25272 235.76695 255.744
221.26971 235.77655 255.744
221.25966 235.77087 255.744
221.24544 235.76288 255.744
221.27448 235.7792 255.744
221.2438 235.76193 255.744
221.25562 235.7686 255.744
221.2409 235.76031 255.744
221.23228 235.75546 255.744
221.24794 235.76427 255.744
221.23158 235.75507 255.744
221.25548 235.76854 255.744
221.24338 235.7617 255.744
221.25526 235.76839 255.744
221.27097 235.77722 255.744
221.25726 235.76953 255.744
221.256 235.7688 255.744
221.25923 235.77065 255.744
221.25476 235.76813 255.744
221.24756 235.76404 255.744
221.26782 235.77545 255.744
221.25703 235.76941 255.744
221.25418 235.7678 255.744
221.25618 235.7689 255.744
221.25613 235.76889 255.744
221.25989 235.77098 255.744
221.25131 235.76617 255.744
221.26373 235.7732 255.744
221.26929 235.7763 255.744
221.24629 235.76334 255.744
221.25839 235.77014 255.744
221.28168 235.78325 255.744
221.257 235.76936 255.744
221.2744 235.77919 255.744
221.23642 235.7578 255.744
221.2692 235.77626 255.744
221.24521 235.76273 255.744
221.25772 235.7698 255.744
221.2494 235.7651 255.744
221.2629 235.77266 255.744
221.24895 235.76485 255.744
221.2769 235.78056 255.744
221.27057 235.77702 255.744
221.26407 235.77338 255.744
221.24307 235.76154 255.744
221.22603 235.75194 255.744
221.24832 235.76447 255.744
221.24352 235.76176 255.744
221.26544 235.77414 255.744
221.25546 235.7685 255.744
221.26004 235.77107 255.744
221.2497 235.76526 255.744
221.26808 235.77559 255.744
221.25076 235.76587 255.744
221.25546 235.7685 255.744
221.26097 235.77159 255.744
221.2517 235.76637 255.744
221.23338 235.75606 255.744
221.2529 235.76704 255.744
221.26137 235.77184 255.744
221.26564 235.77422 255.744
221.26366 235.7731 255.744
221.24083 235.76024 255.744
221.241 235.76035 255.744
221.23787 235.7586 255.744
221.23672 235.75793 255.744
221.25476 235.76811 255.744
221.24379 235.76192 255.744
221.25693 235.76935 255.744
221.25732 235.76959 255.744
221.27177 235.77768 255.744
221.24905 235.76491 255.744
221.24489 235.76253 255.744
221.27776 235.78105 255.744
221.27702 235.78062 255.744
221.25073 235.76588 255.744
221.25891 235.77048 255.744
221.25996 235.77103 255.744
221.24734 235.76393 255.744
221.25491 235.76816 255.744
221.24115 235.76044 255.744
221.25362 235.76746 255.744
221.22775 235.75288 255.744
221.24925 235.76498 255.744
221.26468 235.7737 255.744
221.25462 235.76804 255.744
221.2425 235.76117 255.744
221.249 235.76485 255.744
221.24449 235.7623 255.744
221.2274 235.7527 255.744
221.22017 235.74863 255.744
221.26318 235.77283 255.744
221.24129 235.76054 255.744
221.26181 235.77211 255.744
221.26828 235.77573 255.744
221.26274 235.77263 255.744
221.23659 235.75787 255.744
221.26427 235.77344 255.744
221.23247 235.75557 255.744
221.25175 235.76642 255.744
221.24821 235.76445 255.744
221.22716 235.75258 255.744
221.27129 235.77742 255.744
221.25623 235.76894 255.744
221.23712 235.75816 255.744
221.24762 235.76408 255.744
221.23036 235.75436 255.744
221.2434 235.76169 255.744
221.24579 235.76305 255.744
221.26228 235.77237 255.744
221.23009 235.75423 255.744
221.23816 235.75876 255.744
221.23466 235.7568 255.744
221.2504 235.76566 255.744
221.26611 235.7745 255.744
221.2569 235.76933 255.744
221.25905 235.77051 255.744
221.26532 235.77406 255.744
221.25159 235.76634 255.744
221.26482 235.77379 255.744
221.23573 235.75737 255.744
221.26534 235.77406 255.744
221.24005 235.75983 255.744
221.25383 235.76756 255.744
221.22372 235.75066 255.744
221.22968 235.754 255.744
221.24031 235.75998 255.744
221.24583 235.76309 255.744
221.23532 235.75716 255.744
221.23114 235.7548 255.744
221.25424 235.7678 255.744
221.24124 235.76048 255.744
221.2547 235.76808 255.744
221.2356 235.75728 255.744
221.23943 235.7595 255.744
221.25455 235.76799 255.744
221.25775 235.7698 255.744
221.23953 235.75954 255.744
221.24591 235.7631 255.744
221.25168 235.76637 255.744
221.25735 235.76958 255.744
221.25552 235.76854 255.744
221.24553 235.7629 255.744
221.24115 235.76047 255.744
221.25778 235.7698 255.744
221.25786 235.76987 255.744
221.23318 235.75594 255.744
221.23592 235.7575 255.744
221.23692 235.75807 255.744
221.24226 235.76106 255.744
221.23785 235.75858 255.744
221.24332 235.76167 255.744
221.2424 235.76114 255.744
221.26845 235.77583 255.744
221.25014 235.76549 255.744
221.2397 235.75963 255.744
221.22708 235.75252 255.744
221.23497 235.75699 255.744
221.24861 235.76463 255.744
221.24812 235.76437 255.744
221.24615 235.76326 255.744
221.24437 235.76227 255.744
221.24843 235.76453 255.744
221.25626 235.76894 255.744
221.22948 235.75385 255.744
221.22989 235.75412 255.744
221.255 235.76823 255.744
221.26184 235.7721 255.744
221.26167 235.77199 255.744
221.23956 235.75954 255.744
221.25117 235.76607 255.744
221.25566 235.76862 255.744
221.26259 235.77252 255.744
221.25694 235.76935 255.744
221.2665 235.77473 255.744
221.22954 235.75392 255.744
221.24164 235.76074 255.744
221.24591 235.76314 255.744
221.26282 235.77263 255.744
221.25377 235.76752 255.744
221.2319 235.75523 255.744
221.23213 235.75539 255.744
221.24585 235.76309 255.744
221.26437 235.77353 255.744
221.25749 235.76968 255.744
221.2255 235.75162 255.744
221.2607 235.77148 255.744
221.24086 235.76025 255.744
221.23552 235.75731 255.744
221.24066 235.76018 255.744
221.24286 235.76141 255.744
221.24672 235.76355 255.744
221.24101 235.76039 255.744
221.26239 235.77242 255.744
221.2652 235.77399 255.744
221.25412 235.76775 255.744
221.2267 235.7523 255.744
221.23622 235.75766 255.744
221.22269 235.75006 255.744
221.23534 235.75717 255.744
221.24274 235.76135 255.744
221.25813 235.77002 255.744
221.24278 235.76137 255.744
221.25352 235.76741 255.744
221.25084 235.76591 255.744
221.24379 235.76195 255.744
221.24861 235.76466 255.744
221.23737 235.75832 255.744
221.25462 235.76804 255.744
221.24332 235.76169 255.744
221.2414 235.76056 255.744
221.25392 235.76764 255.744
221.22134 235.7493 255.744
221.25403 235.7677 255.744
221.23997 235.75978 255.744
221.22855 235.75336 255.744
221.24751 235.764 255.744
221.24257 235.76123 255.744
221.23131 235.75491 255.744
221.2394 235.75948 255.744
221.24117 235.76045 255.744
221.26233 235.77237 255.744
221.24263 235.76126 255.744
221.23814 235.75874 255.744
221.24323 235.76161 255.744
221.24411 235.76212 255.744
221.24113 235.76044 255.744
221.22552 235.75165 255.744
221.23154 235.75504 255.744
221.23639 235.7578 255.744
221.23553 235.75728 255.744
221.25331 235.7673 255.744
221.24042 235.76007 255.744
221.23227 235.75546 255.744
221.2488 235.76474 255.744
221.2406 235.76018 255.744
221.22374 235.75067 255.744
221.24368 235.7619 255.744
221.2395 235.75952 255.744
221.24013 235.75989 255.744
221.21754 235.74718 255.744
221.22952 235.75389 255.744
221.25162 235.76633 255.744
221.25166 235.76636 255.744
221.22612 235.752 255.744
221.24358 235.76178 255.744
221.21384 235.74506 255.744
221.24066 235.76015 255.744
221.25233 235.76674 255.744
221.2683 235.77573 255.744
221.2323 235.75545 255.744
221.256 235.76881 255.744
221.2612 235.77174 255.744
221.2481 235.76433 255.744
221.25513 235.7683 255.744
221.2378 235.75856 255.744
221.23865 235.75903 255.744
221.25105 235.766 255.744
221.24448 235.76236 255.744
221.26823 235.77573 255.744
221.2486 235.76468 255.744
221.25273 235.76694 255.744
221.25035 235.76564 255.744
221.23643 235.75778 255.744
221.2487 235.7647 255.744
221.22876 235.7535 255.744
221.2397 235.75963 255.744
221.23935 235.75945 255.744
221.24353 235.7618 255.744
221.24547 235.76288 255.744
221.25723 235.76952 255.744
221.22383 235.7507 255.744
221.25893 235.77045 255.744
221.23396 235.75641 255.744
221.24138 235.76059 255.744
221.26016 235.77113 255.744
221.24727 235.7639 255.744
221.2361 235.7576 255.744
221.23557 235.75731 255.744
221.2434 235.7617 255.744
221.25533 235.76843 255.744
221.23521 235.75708 255.744
221.24368 235.76187 255.744
221.21274 235.74443 255.744
221.23784 235.75859 255.744
221.25095 235.76596 255.744
221.2214 235.7493 255.744
221.24467 235.76242 255.744
221.2498 235.76532 255.744
221.23552 235.75731 255.744
221.2373 235.75827 255.744
221.25993 235.77101 255.744
221.24568 235.76303 255.744
221.23509 235.75702 255.744
221.25163 235.76636 255.744
221.23854 235.75899 255.744
221.26144 235.77187 255.744
221.24611 235.76326 255.744
221.24107 235.76039 255.744
221.2444 235.7623 255.744
221.25087 235.7659 255.744
221.2428 235.76135 255.744
221.24655 235.76349 255.744
221.24582 235.76306 255.744
221.25952 235.7708 255.744
221.25185 235.76646 255.744
221.25087 235.7659 255.744
221.24931 235.76506 255.744
221.23906 235.7593 255.744
221.24777 235.76416 255.744
221.24081 235.76024 255.744
221.24503 235.7626 255.744
221.2547 235.76808 255.744
221.248 235.7643 255.744
221.2438 235.76195 255.744
221.23334 235.75601 255.744
221.2552 235.76836 255.744
221.2168 235.74677 255.744
221.22636 235.7521 255.744
221.24327 235.76166 255.744
221.25122 235.76608 255.744
221.23878 235.75911 255.744
221.25359 235.76744 255.744
221.239 235.75923 255.744
221.24893 235.76483 255.744
221.24297 235.76147 255.744
221.24538 235.7628 255.744
221.22594 235.75189 255.744
221.24254 235.76123 255.744
221.24554 235.76291 255.744
221.24571 235.76302 255.744
221.25175 235.76645 255.744
221.25087 235.76591 255.744
221.23918 235.75934 255.744
221.23871 235.75908 255.744
221.23424 235.75655 255.744
221.23192 235.75522 255.744
221.25291 235.76706 255.744
221.24886 235.76479 255.744
221.23196 235.75525 255.744
221.23065 235.75456 255.744
221.23619 235.75766 255.744
221.2439 235.76201 255.744
221.2401 235.75983 255.744
221.26785 235.7755 255.744
221.23013 235.75423 255.744
221.2243 235.75095 255.744
221.24728 235.76387 255.744
221.24615 235.76326 255.744
221.25664 235.76917 255.744
221.23361 235.7562 255.744
221.23872 235.75906 255.744
221.24936 235.76508 255.744
221.24193 235.76088 255.744
221.24562 235.76295 255.744
221.22617 235.752 255.744
221.26451 235.77362 255.744
221.24828 235.76443 255.744
221.23705 235.75815 255.744
221.24483 235.76251 255.744
221.24753 235.76405 255.744
221.2211 235.74913 255.744
221.24324 235.76163 255.744
221.26212 235.77228 255.744
221.23933 235.75943 255.744
221.22005 235.74854 255.744
221.24294 235.76143 255.744
221.25053 235.76572 255.744
221.22986 235.7541 255.744
221.24892 235.7648 255.744
221.2393 235.75943 255.744
221.2262 235.75203 255.744
221.23805 235.7587 255.744
221.24464 235.76244 255.744
221.24251 235.76123 255.744
221.26161 235.77196 255.744
221.25558 235.76859 255.744
221.24306 235.76149 255.744
221.22087 235.74904 255.744
221.23184 235.75522 255.744
221.24734 235.76393 255.744
221.2365 235.75786 255.744
221.26805 235.7756 255.744
221.25385 235.76758 255.744
221.24767 235.76414 255.744
221.25264 235.76692 255.744
221.24281 235.76138 255.744
221.25072 235.76582 255.744
221.25038 235.76564 255.744
221.26544 235.77414 255.744
221.25305 235.76715 255.744
221.24513 235.76268 255.744
221.24634 235.76337 255.744
221.24767 235.76413 255.744
221.24464 235.76237 255.744
221.23868 235.75903 255.744
221.2427 235.7613 255.744
221.22435 235.75098 255.744
221.24684 235.76364 255.744
221.25093 235.76598 255.744
221.23009 235.7542 255.744
221.23894 235.75919 255.744
221.25555 235.76859 255.744
221.24925 235.76501 255.744
221.24892 235.76482 255.744
221.2533 235.76727 255.744
221.2543 235.76782 255.744
221.26985 235.77663 255.744
221.25452 235.768 255.744
221.24434 235.76222 255.744
221.25055 235.76575 255.744
221.24474 235.76245 255.744
221.2517 235.7664 255.744
221.21706 235.74687 255.744
221.23491 235.7569 255.744
221.23415 235.75647 255.744
221.21672 235.74666 255.744
221.2488 235.76477 255.744
221.24222 235.76103 255.744
221.25067 235.76582 255.744
221.2488 235.76477 255.744
221.24263 235.76128 255.744
221.24838 235.76454 255.744
221.2547 235.7681 255.744
221.25323 235.76726 255.744
221.2482 235.7644 255.744
221.24214 235.76099 255.744
221.27003 235.77669 255.744
221.25072 235.76581 255.744
221.23306 235.7559 255.744
221.23221 235.7554 255.744
221.24608 235.76326 255.744
221.26671 235.77481 255.744
221.2493 235.76505 255.744
221.24352 235.76178 255.744
221.24548 235.76291 255.744
221.22984 235.75407 255.744
221.24611 235.76326 255.744
221.26176 235.77202 255.744
221.25465 235.76807 255.744
221.25525 235.76839 255.744
221.22243 235.74992 255.744
221.2498 235.7653 255.744
221.2364 235.75778 255.744
221.22697 235.75244 255.744
221.25803 235.76994 255.744
221.24377 235.76193 255.744
221.2602 235.77115 255.744
221.23776 235.75854 255.744
221.244 235.76204 255.744
221.26347 235.77304 255.744
221.23447 235.7567 255.744
221.2551 235.7683 255.744
221.23422 235.75653 255.744
221.25003 235.76541 255.744
221.26314 235.77281 255.744
221.25687 235.76927 255.744
221.23753 235.7584 255.744
221.25476 235.76811 255.744
221.2704 235.77692 255.744
221.24869 235.7647 255.744
221.2325 235.75557 255.744
221.24323 235.76161 255.744
221.23224 235.75542 255.744
221.25287 235.76703 255.744
221.25093 235.76596 255.744
221.24663 235.76353 255.744
221.24152 235.76067 255.744
221.25693 235.76932 255.744
221.2677 235.7754 255.744
221.2335 235.75612 255.744
221.26648 235.77469 255.744
221.23456 235.75671 255.744
221.2506 235.76578 255.744
221.23366 235.75624 255.744
221.26207 235.77223 255.744
221.25862 235.77031 255.744
221.24646 235.76344 255.744
221.25261 235.76688 255.744
221.26636 235.77464 255.744
221.23906 235.7593 255.744
221.25851 235.77022 255.744
221.27426 235.77908 255.744
221.2487 235.7647 255.744
221.24608 235.76323 255.744
221.27786 235.78111 255.744
221.25139 235.76619 255.744
221.25513 235.7683 255.744
221.25952 235.77078 255.744
221.24014 235.75989 255.744
221.2512 235.7661 255.744
221.27048 235.77696 255.744
221.2515 235.76627 255.744
221.25983 235.77098 255.744
221.25082 235.7659 255.744
221.23619 235.75766 255.744
221.23816 235.75874 255.744
221.24739 235.76396 255.744
221.2325 235.75555 255.744
221.2479 235.76425 255.744
221.24785 235.7642 255.744
221.25882 235.7704 255.744
221.22578 235.7518 255.744
221.26491 235.7738 255.744
221.25154 235.76628 255.744
221.27269 235.77821 255.744
221.27016 235.77678 255.744
221.24669 235.76355 255.744
221.27556 235.7798 255.744
221.25597 235.76878 255.744
221.237 235.75812 255.744
221.24266 235.76126 255.744
221.23605 235.75757 255.744
221.24698 235.76372 255.744
221.22844 235.75328 255.744
221.25334 235.7673 255.744
221.2393 235.7594 255.744
221.24942 235.7651 255.744
221.24216 235.76102 255.744
221.26372 235.77315 255.744
221.24979 235.7653 255.744
221.26213 235.77226 255.744
221.24727 235.7639 255.744
221.25473 235.7681 255.744
221.25076 235.76584 255.744
221.25285 235.76703 255.744
221.25145 235.76627 255.744
221.24223 235.76106 255.744
221.2594 235.77072 255.744
221.26959 235.77647 255.744
221.24995 235.7654 255.744
221.2719 235.77776 255.744
221.25804 235.76996 255.744
221.2589 235.77043 255.744
221.24529 235.7628 255.744
221.2618 235.77206 255.744
221.26381 235.77322 255.744
221.26949 235.77638 255.744
221.2543 235.76787 255.744
221.23842 235.75893 255.744
221.24304 235.76154 255.744
221.26793 235.77554 255.744
221.26244 235.77243 255.744
221.27705 235.78067 255.744
221.2502 235.76555 255.744
221.25803 235.76993 255.744
221.25478 235.76811 255.744
221.25317 235.76721 255.744
221.25822 235.77008 255.744
221.27852 235.78151 255.744
221.2535 235.76741 255.744
221.25418 235.76779 255.744
221.2648 235.77377 255.744
221.26927 235.77628 255.744
221.26408 235.77336 255.744
221.26031 235.77126 255.744
221.26001 235.77107 255.744
221.24217 235.76102 255.744
221.25804 235.76997 255.744
221.25507 235.76828 255.744
221.24017 235.75989 255.744
221.25162 235.76634 255.744
221.26645 235.77467 255.744
221.24869 235.76468 255.744
221.25078 235.76584 255.744
221.2543 235.76784 255.744
221.24919 235.765 255.744
221.25555 235.76857 255.744
221.24481 235.76251 255.744
221.26984 235.77661 255.744
221.24043 235.76004 255.744
221.25717 235.76947 255.744
221.25319 235.76723 255.744
221.27025 235.77684 255.744
221.30553 235.79669 255.744
221.29211 235.78915 255.744
221.28409 235.7846 255.744
221.29793 235.79242 255.744
221.29745 235.79213 255.744
221.29727 235.79202 255.744
221.28888 235.78732 255.744
221.2853 235.7853 255.744
221.28775 235.7867 255.744
221.28674 235.78615 255.744
221.28455 235.78488 255.744
221.279 235.78174 255.744
221.27872 235.7816 255.744
221.29576 235.79121 255.744
221.28964 235.78775 255.744
221.27562 235.77986 255.744
221.29012 235.788 255.744
221.29361 235.78998 255.744
221.29997 235.79356 255.744
221.29066 235.78833 255.744
221.29555 235.79109 255.744
221.27377 235.77881 255.744
221.29164 235.78888 255.744
221.28798 235.7868 255.744
221.28023 235.78244 255.744
221.28645 235.78596 255.744
221.27518 235.7796 255.744
221.2996 235.79337 255.744
221.28575 235.78558 255.744
221.2763 235.78024 255.744
221.268 235.77556 255.744
221.27419 235.77908 255.744
221.30151 235.79443 255.744
221.28748 235.78651 255.744
221.2974 235.79211 255.744
221.29114 235.78857 255.744
221.2857 235.78554 255.744
221.28716 235.78636 255.744
221.3032 235.79536 255.744
221.27762 235.78096 255.744
221.27736 235.78085 255.744
221.29103 235.78854 255.744
221.28137 235.78308 255.744
221.28647 235.78596 255.744
221.28484 235.78506 255.744
221.2758 235.77997 255.744
221.28136 235.78308 255.744
221.27257 235.77814 255.744
221.2922 235.78917 255.744
221.26216 235.77225 255.744
221.29936 235.79323 255.744
221.28691 235.78621 255.744
221.28354 235.7843 255.744
221.27841 235.7814 255.744
221.29143 235.78876 255.744
221.29121 235.78865 255.744
221.28891 235.78734 255.744
221.27031 235.77687 255.744
221.2889 235.78732 255.744
221.28714 235.78639 255.744
221.30685 235.79745 255.744
221.29199 235.78906 255.744
221.29677 235.79176 255.744
221.29729 235.79207 255.744
221.2813 235.78305 255.744
221.2871 235.78632 255.744
221.27586 235.78 255.744
221.25735 235.76956 255.744
221.26958 235.77641 255.744
221.27478 235.77937 255.744
221.28813 235.78691 255.744
221.29694 235.79187 255.744
221.2673 235.77516 255.744
221.285 235.78511 255.744
221.27278 235.77826 255.744
221.2791 235.7818 255.744
221.2659 235.77438 255.744
221.29477 235.79066 255.744
221.27335 235.77856 255.744
221.29352 235.78993 255.744
221.26993 235.77663 255.744
221.29411 235.79028 255.744
221.28764 235.78662 255.744
221.27638 235.78029 255.744
221.2679 235.77551 255.744
221.28625 235.78584 255.744
221.28325 235.78416 255.744
221.26997 235.77667 255.744
221.26865 235.77594 255.744
221.28311 235.78407 255.744
221.28838 235.78706 255.744
221.2742 235.77905 255.744
221.27898 235.78174 255.744
221.28287 235.78394 255.744
221.29068 235.78835 255.744
221.27681 235.78053 255.744
221.2873 235.78644 255.744
221.26898 235.77611 255.744
221.27399 235.77892 255.744
221.28508 235.78519 255.744
221.27489 235.77943 255.744
221.28403 235.78458 255.744
221.2716 235.7776 255.744
221.28911 235.78743 255.744
221.2629 235.77274 255.744
221.2872 235.78638 255.744
221.29073 235.78835 255.744
221.29047 235.78822 255.744
221.27731 235.78078 255.744
221.27681 235.78055 255.744
221.28232 235.78362 255.744
221.2886 235.78716 255.744
221.2755 235.77979 255.744
221.28224 235.7836 255.744
221.26758 235.7753 255.744
221.28548 235.78542 255.744
221.27618 235.78017 255.744
221.30684 235.79744 255.744
221.27678 235.78052 255.744
221.29047 235.78821 255.744
221.30446 235.79605 255.744
221.27457 235.77927 255.744
221.28673 235.78613 255.744
221.28732 235.78645 255.744
221.26387 235.77324 255.744
221.28375 235.78444 255.744
221.29655 235.79163 255.744
221.27805 235.78122 255.744
221.27205 235.77785 255.744
221.2875 235.78654 255.744
221.29082 235.78842 255.744
221.29486 235.7907 255.744
221.29193 235.78905 255.744
221.27731 235.78082 255.744
221.28513 235.78519 255.744
221.29327 235.78975 255.744
221.28621 235.78586 255.744
221.26477 235.77377 255.744
221.28156 235.7832 255.744
221.27582 235.77994 255.744
221.27026 235.77687 255.744
221.29546 235.791 255.744
221.2584 235.77016 255.744
221.26929 235.77626 255.744
221.27371 235.77878 255.744
221.27832 235.7814 255.744
221.27715 235.7807 255.744
221.28023 235.78246 255.744
221.27684 235.78053 255.744
221.27933 235.78194 255.744
221.25217 235.76665 255.744
221.28055 235.78265 255.744
221.2805 235.78261 255.744
221.27333 235.77855 255.744
221.29114 235.78859 255.744
221.30113 235.79424 255.744
221.27686 235.78055 255.744
221.2955 235.79102 255.744
221.28777 235.78671 255.744
221.2829 235.78395 255.744
221.2977 235.7923 255.744
221.28682 235.78618 255.744
221.27545 235.77979 255.744
221.28178 235.78333 255.744
221.26375 235.7732 255.744
221.29889 235.79294 255.744
221.279 235.78175 255.744
221.27809 235.78123 255.744
221.26433 235.77351 255.744
221.26355 235.77307 255.744
221.29642 235.79156 255.744
221.26447 235.77356 255.744
221.28842 235.7871 255.744
221.2598 235.77094 255.744
221.27539 235.77972 255.744
221.28137 235.7831 255.744
221.263 235.77272 255.744
221.2877 235.78665 255.744
221.28766 235.78667 255.744
221.26627 235.77457 255.744
221.2607 235.77144 255.744
221.26404 235.77332 255.744
221.2657 235.77426 255.744
221.27605 235.7801 255.744
221.26462 235.77368 255.744
221.28653 235.78603 255.744
221.28181 235.78337 255.744
221.26637 235.77464 255.744
221.28539 235.78535 255.744
221.28375 235.78444 255.744
221.2813 235.78307 255.744
221.26216 235.7723 255.744
221.26888 235.77606 255.744
221.27803 235.78122 255.744
221.2859 235.78564 255.744
221.2637 235.77313 255.744
221.25064 235.7658 255.744
221.27753 235.78093 255.744
221.28879 235.7873 255.744
221.28699 235.78627 255.744
221.29211 235.78914 255.744
221.28017 235.7824 255.744
221.26646 235.77469 255.744
221.27565 235.77988 255.744
221.28314 235.7841 255.744
221.28381 235.78447 255.744
221.27032 235.77689 255.744
221.29012 235.78801 255.744
221.27979 235.78218 255.744
221.28401 235.78459 255.744
221.26405 235.77338 255.744
221.26741 235.77522 255.744
221.28433 235.78477 255.744
221.28171 235.78328 255.744
221.26828 235.7757 255.744
221.29214 235.78914 255.744
221.28398 235.78456 255.744
221.283 235.784 255.744
221.26785 235.77551 255.744
221.2758 235.77995 255.744
221.26886 235.77606 255.744
221.267 235.775 255.744
221.27565 235.77988 255.744
221.27553 235.77979 255.744
221.29031 235.78818 255.744
221.27089 235.7772 255.744
221.28947 235.78766 255.744
221.28946 235.78767 255.744
221.26274 235.77261 255.744
221.26973 235.77655 255.744
221.2774 235.78085 255.744
221.26807 235.7756 255.744
221.27821 235.7813 255.744
221.27672 235.78047 255.744
221.28719 235.78638 255.744
221.26157 235.77197 255.744
221.27866 235.78157 255.744
221.2793 235.78192 255.744
221.27365 235.77875 255.744
221.28163 235.78325 255.744
221.28084 235.7828 255.744
221.28032 235.78252 255.744
221.26604 235.77448 255.744
221.29137 235.78874 255.744
221.26944 235.77638 255.744
221.28206 235.7835 255.744
221.29568 235.79114 255.744
221.2747 235.77933 255.744
221.29094 235.7885 255.744
221.2774 235.78087 255.744
221.27176 235.7777 255.744
221.2648 235.77377 255.744
221.27351 235.77867 255.744
221.27629 235.78024 255.744
221.27753 235.78093 255.744
221.27856 235.78151 255.744
221.27206 235.77785 255.744
221.28334 235.7842 255.744
221.271 235.77725 255.744
221.27977 235.78221 255.744
221.26738 235.77522 255.744
221.28532 235.78531 255.744
221.28572 235.78554 255.744
221.2681 235.77563 255.744
221.25156 235.76628 255.744
221.25974 235.7709 255.744
221.27803 235.7812 255.744
221.26752 235.77531 255.744
221.28632 235.78587 255.744
221.26479 235.77376 255.744
221.27774 235.78105 255.744
221.27322 235.77849 255.744
221.26434 235.77351 255.744
221.24913 235.76492 255.744
221.27481 235.77942 255.744
221.25867 235.77031 255.744
221.26546 235.77412 255.744
221.28267 235.78384 255.744
221.28568 235.78549 255.744
221.28 235.78235 255.744
221.27177 235.77768 255.744
221.28355 235.78436 255.744
221.26796 235.77556 255.744
221.29686 235.79181 255.744
221.28865 235.78722 255.744
221.29732 235.79205 255.744
221.2833 235.7842 255.744
221.28229 235.78358 255.744
221.27846 235.78146 255.744
221.26698 235.77498 255.744
221.2589 235.77046 255.744
221.26735 235.7752 255.744
221.26903 235.77612 255.744
221.29666 235.7917 255.744
221.2837 235.7844 255.744
221.27652 235.78036 255.744
221.28773 235.78668 255.744
221.26424 235.77345 255.744
221.2743 235.77911 255.744
221.2853 235.78528 255.744
221.27046 235.77695 255.744
221.27084 235.77718 255.744
221.28435 235.78479 255.744
221.26372 235.77316 255.744
221.27036 235.7769 255.744
221.27892 235.78171 255.744
221.28603 235.7857 255.744
221.2899 235.78792 255.744
221.29605 235.79137 255.744
221.26418 235.7734 255.744
221.27184 235.77774 255.744
221.27487 235.77942 255.744
221.29362 235.79001 255.744
221.27043 235.7769 255.744
221.29163 235.78888 255.744
221.26616 235.7745 255.744
221.28275 235.78386 255.744
221.28041 235.78256 255.744
221.27393 235.7789 255.744
221.24956 235.76517 255.744
221.28905 235.78741 255.744
221.26216 235.77228 255.744
221.27556 235.7798 255.744
221.27194 235.77776 255.744
221.30043 235.79382 255.744
221.289 235.7874 255.744
221.26944 235.77638 255.744
221.29585 235.79124 255.744
221.28409 235.78462 255.744
221.26546 235.77414 255.744
221.27412 235.77902 255.744
221.27707 235.78069 255.744
221.26363 235.77312 255.744
221.28711 235.78633 255.744
221.2614 235.77185 255.744
221.26398 235.77332 255.744
221.26387 235.77324 255.744
221.27774 235.78107 255.744
221.26624 235.77458 255.744
221.28339 235.78424 255.744
221.25107 235.76605 255.744
221.2598 235.77095 255.744
221.28528 235.78528 255.744
221.27655 235.78036 255.744
221.27635 235.78027 255.744
221.2809 235.78284 255.744
221.28616 235.78578 255.744
221.27118 235.77736 255.744
221.29266 235.78941 255.744
221.27081 235.77713 255.744
221.27727 235.78078 255.744
221.27547 235.77977 255.744
221.27606 235.78008 255.744
221.26994 235.77667 255.744
221.2991 235.79309 255.744
221.27635 235.78026 255.744
221.3006 235.79393 255.744
221.29247 235.78934 255.744
221.27608 235.78009 255.744
221.27054 235.77698 255.744
221.26543 235.77411 255.744
221.27295 235.77835 255.744
221.30292 235.79521 255.744
221.27374 235.77878 255.744
221.26654 235.77475 255.744
221.26717 235.7751 255.744
221.26918 235.77621 255.744
221.256 235.7688 255.744
221.29213 235.78914 255.744
221.27583 235.77995 255.744
221.27081 235.77715 255.744
221.26447 235.77359 255.744
221.28049 235.7826 255.744
221.28564 235.78552 255.744
221.29121 235.78865 255.744
221.27 235.77669 255.744
221.28174 235.78331 255.744
221.27562 235.77986 255.744
221.28107 235.78291 255.744
221.27306 235.7784 255.744
221.26486 235.77377 255.744
221.27539 235.77971 255.744
221.28084 235.78279 255.744
221.25932 235.77069 255.744
221.27528 235.77968 255.744
221.27434 235.77911 255.744
221.27336 235.77861 255.744
221.27849 235.7815 255.744
221.26749 235.77527 255.744
221.27573 235.77995 255.744
221.25626 235.76892 255.744
221.2863 235.78592 255.744
221.2649 235.7738 255.744
221.27922 235.78185 255.744
221.26599 235.7744 255.744
221.25407 235.76775 255.744
221.28928 235.78754 255.744
221.28235 235.78366 255.744
221.26712 235.77509 255.744
221.28731 235.78644 255.744
221.253 235.76714 255.744
221.28122 235.783 255.744
221.28094 235.78287 255.744
221.2867 235.78607 255.744
221.29483 235.79068 255.744
221.28477 235.785 255.744
221.27759 235.78098 255.744
221.2704 235.7769 255.744
221.3028 235.79518 255.744
221.25943 235.77075 255.744
221.2728 235.77827 255.744
221.29147 235.7888 255.744
221.2799 235.78227 255.744
221.28876 235.78726 255.744
221.27483 235.7794 255.744
221.27701 235.78062 255.744
221.29388 235.79012 255.744
221.2647 235.77373 255.744
221.26973 235.77652 255.744
221.27438 235.77916 255.744
221.2762 235.78018 255.744
221.28192 235.78339 255.744
221.27896 235.78171 255.744
221.2581 235.77 255.744
221.2747 235.77933 255.744
221.27771 235.78105 255.744
221.27808 235.78127 255.744
221.27202 235.77783 255.744
221.27461 235.77927 255.744
221.27618 235.78017 255.744
221.2669 235.77496 255.744
221.28418 235.7847 255.744
221.2856 235.78546 255.744
221.28658 235.78604 255.744
221.257 235.76936 255.744
221.27747 235.7809 255.744
221.29102 235.78853 255.744
221.27284 235.77829 255.744
221.25519 235.76837 255.744
221.28665 235.78607 255.744
221.28932 235.78752 255.744
221.26166 235.77199 255.744
221.27737 235.78085 255.744
221.24773 235.76418 255.744
221.27988 235.78224 255.744
221.28369 235.7844 255.744
221.27606 235.78009 255.744
221.29454 235.7905 255.744
221.29106 235.78856 255.744
221.2827 235.78381 255.744
221.27646 235.78032 255.744
221.25008 235.76547 255.744
221.27846 235.78148 255.744
221.28085 235.7828 255.744
221.28204 235.78346 255.744
221.29002 235.78796 255.744
221.2905 235.7882 255.744
221.27802 235.78122 255.744
221.28642 235.78592 255.744
221.27477 235.77939 255.744
221.26305 235.7728 255.744
221.27167 235.7776 255.744
221.28758 235.7866 255.744
221.29231 235.78925 255.744
221.26047 235.77133 255.744
221.28531 235.78531 255.744
221.30083 235.79404 255.744
221.30037 235.79376 255.744
221.25763 235.7697 255.744
221.26958 235.77643 255.744
221.28522 235.78526 255.744
221.25739 235.76958 255.744
221.26999 235.77666 255.744
221.27945 235.78201 255.744
221.29988 235.7935 255.744
221.27939 235.782 255.744
221.28738 235.78645 255.744
221.29187 235.789 255.744
221.28465 235.78493 255.744
221.288 235.78682 255.744
221.26527 235.774 255.744
221.28352 235.78432 255.744
221.27441 235.77917 255.744
221.27016 235.77678 255.744
221.27838 235.78142 255.744
221.28859 235.78716 255.744
221.2824 235.78369 255.744
221.2873 235.78642 255.744
221.29324 235.78978 255.744
221.27806 235.78123 255.744
221.2808 235.78279 255.744
221.26102 235.77162 255.744
221.28189 235.7834 255.744
221.28325 235.78416 255.744
221.29588 235.79126 255.744
221.27487 235.77943 255.744
221.2714 235.77748 255.744
221.25726 235.76955 255.744
221.29732 235.79208 255.744
221.29001 235.78796 255.744
221.26547 235.77415 255.744
221.28041 235.78253 255.744
221.30174 235.79456 255.744
221.27122 235.77739 255.744
221.27696 235.78061 255.744
221.25793 235.76987 255.744
221.27136 235.77748 255.744
221.28004 235.78232 255.744
221.2631 235.77281 255.744
221.27565 235.77986 255.744
221.27065 235.77705 255.744
221.26228 235.77235 255.744
221.28334 235.7842 255.744
221.27933 235.78194 255.744
221.27147 235.77753 255.744
221.27658 235.78043 255.744
221.29956 235.79332 255.744
221.26501 235.77386 255.744
221.29149 235.7888 255.744
221.29543 235.791 255.744
221.27052 235.77696 255.744
221.28952 235.78769 255.744
221.29 235.78795 255.744
221.30696 235.7975 255.744
221.26631 235.77461 255.744
221.28444 235.78482 255.744
221.26895 235.7761 255.744
221.28816 235.78694 255.744
221.2866 235.78606 255.744
221.29007 235.78801 255.744
221.27896 235.78174 255.744
221.30724 235.79764 255.744
221.28706 235.78632 255.744
221.27754 235.78094 255.744
221.30368 235.79567 255.744
221.27467 235.77934 255.744
221.28142 235.78313 255.744
221.28165 235.78325 255.744
221.28235 235.78368 255.744
221.29971 235.79341 255.744
221.27394 235.7789 255.744
221.29823 235.79259 255.744
221.27722 235.78073 255.744
221.28807 235.78685 255.744
221.27632 235.78024 255.744
221.26996 235.77663 255.744
221.28893 235.78734 255.744
221.27292 235.77834 255.744
221.28282 235.78392 255.744
221.2998 235.79349 255.744
221.2922 235.78918 255.744
221.27695 235.78061 255.744
221.28372 235.78442 255.744
221.29572 235.79118 255.744
221.26697 235.77498 255.744
221.26694 235.77496 255.744
221.30093 235.7941 255.744
221.2795 235.78203 255.744
221.27585 235.77998 255.744
221.28477 235.78503 255.744
221.28816 235.78691 255.744
221.28012 235.78238 255.744
221.27646 235.78032 255.744
221.2966 235.79167 255.744
221.28699 235.78625 255.744
221.2757 235.77994 255.744
221.27492 235.77946 255.744
221.2974 235.79208 255.744
221.29503 235.79079 255.744
221.28021 235.78246 255.744
221.2982 235.79254 255.744
221.28912 235.78748 255.744
221.28479 235.78502 255.744
221.29729 235.79205 255.744
221.27797 235.78117 255.744
221.28134 235.78307 255.744
221.28221 235.78354 255.744
221.29399 235.79022 255.744
221.28772 235.7867 255.744
221.2635 235.77303 255.744
221.28758 235.78659 255.744
221.28491 235.78508 255.744
221.27509 235.77956 255.744
221.28432 235.78473 255.744
221.28032 235.78249 255.744
221.29225 235.78923 255.744
221.29161 235.78885 255.744
221.29846 235.79272 255.744
221.2989 235.79298 255.744
221.29518 235.79086 255.744
221.28459 235.7849 255.744
221.28021 235.78244 255.744
221.30153 235.79446 255.744
221.28587 235.78563 255.744
221.2656 235.77426 255.744
221.28595 235.78568 255.744
221.29112 235.78857 255.744
221.30302 235.7953 255.744
221.2844 235.7848 255.744
221.27795 235.78116 255.744
221.31764 235.80356 255.744
221.3116 235.80011 255.744
221.32098 235.8054 255.744
221.30864 235.79843 255.744
221.3234 235.80675 255.744
221.34378 235.81825 255.744
221.31981 235.80473 255.744
221.30295 235.79518 255.744
221.31772 235.80356 255.744
221.31017 235.79932 255.744
221.3163 235.80276 255.744
221.31471 235.80188 255.744
221.3353 235.81345 255.744
221.32483 235.80757 255.744
221.32542 235.80789 255.744
221.31476 235.8019 255.744
221.33043 235.81071 255.744
221.32588 235.80818 255.744
221.30656 235.79729 255.744
221.32278 235.80641 255.744
221.32452 235.80743 255.744
221.3327 235.81203 255.744
221.31361 235.80125 255.744
221.3344 235.81296 255.744
221.30739 235.79774 255.744
221.31273 235.80077 255.744
221.32768 235.80917 255.744
221.31096 235.79974 255.744
221.32188 235.8059 255.744
221.32085 235.80531 255.744
221.30994 235.79922 255.744
221.31647 235.80287 255.744
221.30933 235.79884 255.744
221.30676 235.79742 255.744
221.31253 235.80063 255.744
221.31483 235.80196 255.744
221.31454 235.8018 255.744
221.31017 235.7993 255.744
221.32211 235.80603 255.744
221.31349 235.80116 255.744
221.3222 235.80609 255.744
221.3294 235.81017 255.744
221.31302 235.8009 255.744
221.31601 235.80258 255.744
221.32173 235.8058 255.744
221.31981 235.80473 255.744
221.31563 235.80235 255.744
221.3109 235.79973 255.744
221.33145 235.81131 255.744
221.28365 235.78438 255.744
221.31892 235.80428 255.744
221.31581 235.80247 255.744
221.31082 235.7997 255.744
221.3302 235.81061 255.744
221.30086 235.79408 255.744
221.30362 235.79562 255.744
221.33266 235.81197 255.744
221.31822 235.80385 255.744
221.33792 235.81496 255.744
221.32008 235.80489 255.744
221.31274 235.80077 255.744
221.29372 235.79004 255.744
221.30444 235.7961 255.744
221.3226 235.80634 255.744
221.30115 235.79424 255.744
221.33646 235.81413 255.744
221.31801 235.80373 255.744
221.29958 235.79337 255.744
221.32536 235.80786 255.744
221.30261 235.79506 255.744
221.30493 235.79634 255.744
221.31451 235.80176 255.744
221.30937 235.79886 255.744
221.3239 235.80705 255.744
221.30171 235.79453 255.744
221.31831 235.80388 255.744
221.31693 235.80309 255.744
221.31845 235.80396 255.744
221.30348 235.79555 255.744
221.31781 235.80362 255.744
221.30998 235.79918 255.744
221.31284 235.80081 255.744
221.32124 235.80556 255.744
221.3105 235.79947 255.744
221.32106 235.80542 255.744
221.30083 235.79405 255.744
221.31111 235.79982 255.744
221.29912 235.7931 255.744
221.31453 235.80179 255.744
221.3008 235.79405 255.744
221.31021 235.79932 255.744
221.32172 235.80583 255.744
221.31316 235.80101 255.744
221.31046 235.79953 255.744
221.30339 235.79547 255.744
221.31995 235.80481 255.744
221.32683 235.8087 255.744
221.31866 235.8041 255.744
221.31297 235.80087 255.744
221.31581 235.80246 255.744
221.31227 235.80049 255.744
221.31529 235.8022 255.744
221.3304 235.81073 255.744
221.32013 235.80492 255.744
221.30347 235.79555 255.744
221.30005 235.79361 255.744
221.29852 235.79276 255.744
221.31395 235.80145 255.744
221.30661 235.79729 255.744
221.3024 235.79495 255.744
221.31903 235.8043 255.744
221.30853 235.7984 255.744
221.27742 235.78087 255.744
221.31866 235.8041 255.744
221.29622 235.79144 255.744
221.3306 235.8108 255.744
221.3127 235.80077 255.744
221.30617 235.79709 255.744
221.31078 235.79967 255.744
221.31381 235.80135 255.744
221.33191 235.81158 255.744
221.31917 235.80435 255.744
221.31851 235.80399 255.744
221.30687 235.79749 255.744
221.30368 235.79565 255.744
221.30617 235.79706 255.744
221.32518 235.80775 255.744
221.31778 235.80359 255.744
221.32913 235.81 255.744
221.3148 235.80193 255.744
221.30609 235.79701 255.744
221.31996 235.80484 255.744
221.32297 235.80653 255.744
221.29024 235.78809 255.744
221.31584 235.80255 255.744
221.2883 235.78696 255.744
221.30429 235.79599 255.744
221.31735 235.80336 255.744
221.30797 235.79805 255.744
221.3093 235.79881 255.744
221.30313 235.79533 255.744
221.3056 235.79672 255.744
221.31555 235.80232 255.744
221.32507 235.80772 255.744
221.31354 235.80121 255.744
221.30658 235.79729 255.744
221.32037 235.80502 255.744
221.32286 235.80647 255.744
221.29698 235.79185 255.744
221.30176 235.79456 255.744
221.29672 235.79173 255.744
221.30553 235.79669 255.744
221.30612 235.79704 255.744
221.30894 235.79861 255.744
221.30745 235.79776 255.744
221.30461 235.79619 255.744
221.32011 235.80492 255.744
221.31264 235.80074 255.744
221.31488 235.80194 255.744
221.31409 235.80153 255.744
221.29875 235.7929 255.744
221.315 235.80203 255.744
221.30385 235.79575 255.744
221.31232 235.8005 255.744
221.32918 235.80997 255.744
221.32109 235.80545 255.744
221.29149 235.78879 255.744
221.29713 235.79198 255.744
221.3224 235.8062 255.744
221.30435 235.796 255.744
221.28 235.78233 255.744
221.31686 235.80305 255.744
221.305 235.79639 255.744
221.31442 235.80173 255.744
221.29924 235.79317 255.744
221.30318 235.79536 255.744
221.30779 235.798 255.744
221.32071 235.80525 255.744
221.30771 235.79791 255.744
221.31792 235.80368 255.744
221.29544 235.79102 255.744
221.29095 235.78847 255.744
221.33836 235.81519 255.744
221.30235 235.79492 255.744
221.28806 235.78683 255.744
221.32281 235.80643 255.744
221.28635 235.78589 255.744
221.30238 235.79494 255.744
221.28647 235.78596 255.744
221.29303 235.78966 255.744
221.29549 235.79102 255.744
221.31812 235.8038 255.744
221.32925 235.81006 255.744
221.31114 235.79985 255.744
221.324 235.8071 255.744
221.3043 235.79599 255.744
221.31042 235.79947 255.744
221.32793 235.80933 255.744
221.3044 235.79604 255.744
221.3034 235.79552 255.744
221.32307 235.8066 255.744
221.30228 235.79489 255.744
221.32666 235.80861 255.744
221.2992 235.79312 255.744
221.3231 235.80663 255.744
221.31364 235.80127 255.744
221.31288 235.80081 255.744
221.30054 235.79387 255.744
221.30455 235.79613 255.744
221.30914 235.79877 255.744
221.31586 235.80254 255.744
221.29565 235.79112 255.744
221.3234 235.80676 255.744
221.30661 235.79729 255.744
221.31146 235.80003 255.744
221.32216 235.80603 255.744
221.29944 235.79327 255.744
221.30176 235.79456 255.744
221.30392 235.79578 255.744
221.29689 235.79178 255.744
221.29655 235.79169 255.744
221.31471 235.80188 255.744
221.32234 235.80615 255.744
221.31445 235.80173 255.744
221.28883 235.78731 255.744
221.29532 235.79092 255.744
221.3015 235.79443 255.744
221.30844 235.79834 255.744
221.30989 235.79915 255.744
221.3082 235.79822 255.744
221.30424 235.79596 255.744
221.31158 235.80011 255.744
221.30757 235.79787 255.744
221.30249 235.79498 255.744
221.2836 235.78432 255.744
221.30577 235.79681 255.744
221.30144 235.7944 255.744
221.3162 235.8027 255.744
221.31784 235.80359 255.744
221.33359 235.81253 255.744
221.33276 235.81204 255.744
221.29868 235.79285 255.744
221.31154 235.8001 255.744
221.30809 235.79814 255.744
221.31676 235.80302 255.744
221.30255 235.79498 255.744
221.31012 235.79929 255.744
221.30446 235.7961 255.744
221.28865 235.7872 255.744
221.30595 235.79694 255.744
221.30017 235.79367 255.744
221.28966 235.78777 255.744
221.29819 235.79256 255.744
221.29507 235.79079 255.744
221.26874 235.77597 255.744
221.30528 235.79654 255.744
221.30704 235.79756 255.744
221.3107 235.7996 255.744
221.29683 235.7918 255.744
221.31381 235.80135 255.744
221.31462 235.8018 255.744
221.29991 235.79353 255.744
221.3146 235.80179 255.744
221.31532 235.80223 255.744
221.31544 235.80228 255.744
221.32362 235.80687 255.744
221.30424 235.79599 255.744
221.31224 235.80048 255.744
221.31561 235.80235 255.744
221.32509 235.80774 255.744
221.29343 235.78987 255.744
221.30327 235.79541 255.744
221.31638 235.80278 255.744
221.3025 235.79498 255.744
221.29115 235.78859 255.744
221.29108 235.78856 255.744
221.3251 235.80771 255.744
221.30414 235.79591 255.744
221.29768 235.79227 255.744
221.30385 235.79573 255.744
221.29836 235.79265 255.744
221.2939 235.79015 255.744
221.29237 235.78928 255.744
221.28807 235.78687 255.744
221.30104 235.79417 255.744
221.31714 235.80324 255.744
221.30627 235.7971 255.744
221.31328 235.80106 255.744
221.31097 235.79977 255.744
221.28966 235.7878 255.744
221.30219 235.79482 255.744
221.28929 235.78752 255.744
221.3287 235.80977 255.744
221.30466 235.7962 255.744
221.31139 235.79999 255.744
221.31613 235.80266 255.744
221.30978 235.79907 255.744
221.30234 235.79492 255.744
221.30646 235.79721 255.744
221.33257 235.81194 255.744
221.30527 235.79655 255.744
221.30618 235.7971 255.744
221.32199 235.80595 255.744
221.3278 235.80927 255.744
221.30565 235.79675 255.744
221.30556 235.7967 255.744
221.31073 235.79964 255.744
221.3216 235.80574 255.744
221.31284 235.80081 255.744
221.30235 235.79489 255.744
221.30121 235.79427 255.744
221.30539 235.79665 255.744
221.31802 235.80371 255.744
221.30818 235.79819 255.744
221.2958 235.7912 255.744
221.30179 235.79459 255.744
221.29597 235.79132 255.744
221.2909 235.78847 255.744
221.33072 235.81088 255.744
221.28326 235.78415 255.744
221.29152 235.78882 255.744
221.29492 235.79071 255.744
221.30696 235.79749 255.744
221.29951 235.79327 255.744
221.29623 235.79146 255.744
221.30725 235.79767 255.744
221.31038 235.79942 255.744
221.31403 235.80147 255.744
221.29083 235.78839 255.744
221.31218 235.80046 255.744
221.29585 235.79124 255.744
221.31671 235.80304 255.744
221.3064 235.79718 255.744
221.31801 235.80374 255.744
221.33093 235.811 255.744
221.30222 235.79483 255.744
221.31003 235.79924 255.744
221.3269 235.80875 255.744
221.2991 235.79308 255.744
221.31206 235.80037 255.744
221.29886 235.79292 255.744
221.31558 235.80237 255.744
221.31834 235.80392 255.744
221.30331 235.79547 255.744
221.3104 235.79944 255.744
221.30005 235.79362 255.744
221.31647 235.80284 255.744
221.30894 235.79861 255.744
221.29698 235.79192 255.744
221.2961 235.79143 255.744
221.30443 235.7961 255.744
221.3082 235.79817 255.744
221.31718 235.80328 255.744
221.33296 235.81213 255.744
221.3082 235.7982 255.744
221.3137 235.8013 255.744
221.31725 235.80327 255.744
221.31255 235.80063 255.744
221.29576 235.79118 255.744
221.30559 235.79674 255.744
221.29193 235.78903 255.744
221.2991 235.79308 255.744
221.29535 235.79099 255.744
221.31268 235.80072 255.744
221.32323 235.80669 255.744
221.31158 235.80008 255.744
221.31827 235.80386 255.744
221.30688 235.79747 255.744
221.30621 235.7971 255.744
221.32037 235.8051 255.744
221.29736 235.79208 255.744
221.30827 235.79825 255.744
221.3239 235.80704 255.744
221.31499 235.80202 255.744
221.31497 235.80199 255.744
221.32692 235.80875 255.744
221.29488 235.7907 255.744
221.29674 235.79175 255.744
221.29941 235.79329 255.744
221.32356 235.80682 255.744
221.30388 235.79576 255.744
221.32542 235.80789 255.744
221.33534 235.8135 255.744
221.31297 235.8009 255.744
221.31125 235.79994 255.744
221.29964 235.79337 255.744
221.30339 235.79546 255.744
221.32341 235.80676 255.744
221.29689 235.79185 255.744
221.30128 235.79431 255.744
221.3226 235.80632 255.744
221.30984 235.79912 255.744
221.29794 235.79242 255.744
221.29802 235.79248 255.744
221.30579 235.79684 255.744
221.31958 235.80461 255.744
221.27995 235.7823 255.744
221.29866 235.79283 255.744
221.30426 235.79597 255.744
221.30772 235.79793 255.744
221.30397 235.7958 255.744
221.30185 235.79463 255.744
221.31445 235.80174 255.744
221.2984 235.7927 255.744
221.29675 235.79176 255.744
221.30447 235.79611 255.744
221.30424 235.79599 255.744
221.33083 235.81093 255.744
221.29988 235.79352 255.744
221.30455 235.79614 255.744
221.31744 235.80339 255.744
221.29892 235.79297 255.744
221.32925 235.81004 255.744
221.31389 235.80144 255.744
221.31099 235.79977 255.744
221.31575 235.80246 255.744
221.30714 235.7976 255.744
221.31833 235.80388 255.744
221.29424 235.79033 255.744
221.32231 235.80615 255.744
221.31003 235.79924 255.744
221.31412 235.80156 255.744
221.30876 235.79851 255.744
221.31708 235.80319 255.744
221.32735 235.80898 255.744
221.32458 235.80745 255.744
221.32234 235.80617 255.744
221.31416 235.80156 255.744
221.34123 235.81682 255.744
221.30443 235.79608 255.744
221.31502 235.80203 255.744
221.31158 235.80011 255.744
221.32082 235.80531 255.744
221.3119 235.80028 255.744
221.32352 235.80682 255.744
221.32541 235.80788 255.744
221.33136 235.81122 255.744
221.30392 235.79578 255.744
221.2964 235.79155 255.744
221.31516 235.8021 255.744
221.27954 235.78206 255.744
221.32909 235.80994 255.744
221.28896 235.78737 255.744
221.31294 235.80086 255.744
221.32411 235.80716 255.744
221.3097 235.79904 255.744
221.3136 235.80124 255.744
221.29259 235.78941 255.744
221.31293 235.80086 255.744
221.29529 235.79094 255.744
221.31042 235.79947 255.744
221.30705 235.79756 255.744
221.30415 235.79593 255.744
221.31741 235.80339 255.744
221.313 235.8009 255.744
221.31752 235.80345 255.744
221.30827 235.79823 255.744
221.32253 235.80627 255.744
221.30673 235.7974 255.744
221.30983 235.7991 255.744
221.3066 235.79729 255.744
221.32187 235.80586 255.744
221.32114 235.8055 255.744
221.33252 235.8119 255.744
221.31953 235.80458 255.744
221.30513 235.79646 255.744
221.31741 235.80339 255.744
221.30183 235.79459 255.744
221.31395 235.80147 255.744
221.29851 235.79274 255.744
221.30443 235.79608 255.744
221.30284 235.79517 255.744
221.31096 235.79976 255.744
221.30688 235.79745 255.744
221.29863 235.79282 255.744
221.31744 235.80339 255.744
221.31207 235.80037 255.744
221.3042 235.79594 255.744
221.32411 235.80714 255.744
221.31561 235.80238 255.744
221.32007 235.80489 255.744
221.30405 235.79588 255.744
221.31854 235.804 255.744
221.31497 235.80203 255.744
221.3165 235.80287 255.744
221.32121 235.80556 255.744
221.31886 235.8042 255.744
221.306 235.79698 255.744
221.31886 235.80421 255.744
221.31282 235.80086 255.744
221.32709 235.80885 255.744
221.30249 235.795 255.744
221.31868 235.80411 255.744
221.31308 235.80096 255.744
221.28618 235.7858 255.744
221.29977 235.79349 255.744
221.29785 235.7924 255.744
221.30002 235.79358 255.744
221.3065 235.79724 255.744
221.30121 235.79427 255.744
221.30904 235.79866 255.744
221.30049 235.79382 255.744
221.31241 235.80057 255.744
221.30081 235.79402 255.744
221.3083 235.79823 255.744
221.3076 235.79788 255.744
221.31396 235.80147 255.744
221.32022 235.80498 255.744
221.32573 235.80807 255.744
221.31035 235.79942 255.744
221.30876 235.79851 255.744
221.31488 235.80196 255.744
221.32239 235.8062 255.744
221.30989 235.79918 255.744
221.30353 235.79555 255.744
221.29929 235.7932 255.744
221.31715 235.80324 255.744
221.31845 235.80397 255.744
221.29472 235.7906 255.744
221.33096 235.811 255.744
221.33357 235.81247 255.744
221.327 235.80878 255.744
221.31148 235.80005 255.744
221.32106 235.80544 255.744
221.30644 235.79721 255.744
221.30385 235.79578 255.744
221.32033 235.80502 255.744
221.32639 235.80846 255.744
221.3105 235.7995 255.744
221.33348 235.81244 255.744
221.3148 235.80193 255.744
221.29704 235.79193 255.744
221.32397 235.8071 255.744
221.31554 235.80235 255.744
221.29182 235.78897 255.744
221.32153 235.80573 255.744
221.31598 235.80258 255.744
221.32275 235.80638 255.744
221.31798 235.80368 255.744
221.31534 235.80223 255.744
221.30592 235.79692 255.744
221.32628 235.80838 255.744
221.31146 235.80003 255.744
221.31699 235.80313 255.744
221.31711 235.8032 255.744
221.32898 235.8099 255.744
221.31233 235.80054 255.744
221.30394 235.7958 255.744
221.31128 235.79994 255.744
221.31328 235.80107 255.744
221.32549 235.80792 255.744
221.29677 235.79173 255.744
221.31775 235.80357 255.744
221.32645 235.80849 255.744
221.29675 235.79173 255.744
221.3161 235.80266 255.744
221.3073 235.79768 255.744
221.33049 235.81073 255.744
221.31775 235.80357 255.744
221.33006 235.81049 255.744
221.32974 235.81033 255.744
221.32698 235.80876 255.744
221.324 235.80711 255.744
221.31006 235.79926 255.744
221.3123 235.80048 255.744
221.32474 235.80751 255.744
221.3057 235.79675 255.744
221.3393 235.81573 255.744
221.33145 235.81131 255.744
221.31465 235.80185 255.744
221.31017 235.79932 255.744
221.33911 235.81563 255.744
221.31693 235.80312 255.744
221.3228 235.80643 255.744
221.3237 235.80695 255.744
221.3023 235.79489 255.744
221.32219 235.80606 255.744
221.30647 235.79724 255.744
221.33179 235.8115 255.744
221.29903 235.79301 255.744
221.3213 235.8056 255.744
221.30444 235.79605 255.744
221.32115 235.8055 255.744
221.32166 235.80577 255.744
221.32826 235.80948 255.744
221.30357 235.79561 255.744
221.31009 235.7993 255.744
221.31197 235.80032 255.744
221.32678 235.80867 255.744
221.31992 235.8048 255.744
221.3138 235.80132 255.744
221.32019 235.80496 255.744
221.3305 235.81075 255.744
221.3355 235.81357 255.744
221.31262 235.80069 255.744
221.34009 235.81615 255.744
221.30629 235.79713 255.744
221.33148 235.81133 255.744
221.33134 235.81125 255.744
221.32867 235.80972 255.744
221.35439 235.8242 255.744
221.34674 235.81992 255.744
221.34897 235.82115 255.744
221.36427 235.82976 255.744
221.3643 235.82979 255.744
221.35313 235.82352 255.744
221.33603 235.81387 255.744
221.37085 235.83347 255.744
221.35667 235.82552 255.744
221.3702 235.8331 255.744
221.34537 235.8191 255.744
221.34521 235.81903 255.744
221.34344 235.81804 255.744
221.367 235.83134 255.744
221.36305 235.8291 255.744
221.36185 235.82838 255.744
221.33287 235.81207 255.744
221.34283 235.81773 255.744
221.34917 235.82126 255.744
221.3656 235.83055 255.744
221.35994 235.82735 255.744
221.36165 235.8283 255.744
221.36015 235.82744 255.744
221.34953 235.82149 255.744
221.35156 235.8226 255.744
221.34216 235.81734 255.744
221.34673 235.8199 255.744
221.35104 235.82233 255.744
221.33583 235.81378 255.744
221.34846 235.82085 255.744
221.3527 235.82329 255.744
221.34018 235.81621 255.744
221.33675 235.81429 255.744
221.3657 235.83058 255.744
221.36201 235.82852 255.744
221.33282 235.81207 255.744
221.34853 235.8209 255.744
221.34364 235.81815 255.744
221.34406 235.81839 255.744
221.34058 235.81645 255.744
221.35678 235.82555 255.744
221.33847 235.81523 255.744
221.34288 235.81776 255.744
221.35016 235.82182 255.744
221.3298 235.81036 255.744
221.34271 235.81764 255.744
221.3243 235.80728 255.744
221.34949 235.82144 255.744
221.35535 235.82475 255.744
221.33649 235.81413 255.744
221.37265 235.8345 255.744
221.3467 235.8199 255.744
221.36195 235.82846 255.744
221.34651 235.81978 255.744
221.3451 235.819 255.744
221.3534 235.82367 255.744
221.3339 235.81268 255.744
221.33601 235.81387 255.744
221.3311 235.81111 255.744
221.35338 235.82365 255.744
221.34499 235.81892 255.744
221.36314 235.82913 255.744
221.34268 235.81764 255.744
221.3435 235.81808 255.744
221.35123 235.82243 255.744
221.34982 235.82164 255.744
221.34909 235.82121 255.744
221.35373 235.82385 255.744
221.35619 235.82523 255.744
221.35692 235.82564 255.744
221.3471 235.82013 255.744
221.33673 235.81425 255.744
221.3402 235.81624 255.744
221.34248 235.81749 255.744
221.35771 235.82608 255.744
221.33504 235.81331 255.744
221.33856 235.8153 255.744
221.34491 235.81888 255.744
221.35333 235.8236 255.744
221.34807 235.82065 255.744
221.35023 235.82185 255.744
221.33736 235.8146 255.744
221.33649 235.81416 255.744
221.3362 235.81398 255.744
221.35184 235.8228 255.744
221.35333 235.82362 255.744
221.32957 235.8102 255.744
221.35455 235.8243 255.744
221.34651 235.81981 255.744
221.33717 235.81453 255.744
221.35037 235.82198 255.744
221.36258 235.82883 255.744
221.34222 235.81735 255.744
221.35638 235.82532 255.744
221.35268 235.82324 255.744
221.35655 235.82542 255.744
221.35439 235.82417 255.744
221.3475 235.82034 255.744
221.3563 235.82532 255.744
221.3482 235.82074 255.744
221.34813 235.82068 255.744
221.34175 235.8171 255.744
221.37228 235.83429 255.744
221.3246 235.80743 255.744
221.34518 235.81903 255.744
221.34573 235.81934 255.744
221.34962 235.82152 255.744
221.36188 235.82841 255.744
221.34935 235.82137 255.744
221.35388 235.82393 255.744
221.35457 235.82431 255.744
221.35591 235.82509 255.744
221.34924 235.82132 255.744
221.34227 235.81738 255.744
221.32954 235.8102 255.744
221.33826 235.81512 255.744
221.33745 235.81468 255.744
221.36 235.82736 255.744
221.35846 235.8265 255.744
221.35918 235.8269 255.744
221.3548 235.82445 255.744
221.34541 235.81915 255.744
221.348 235.8206 255.744
221.3481 235.82068 255.744
221.34059 235.81645 255.744
221.3193 235.80444 255.744
221.34874 235.82104 255.744
221.34306 235.81786 255.744
221.33089 235.81099 255.744
221.34065 235.81647 255.744
221.33405 235.81277 255.744
221.35498 235.82452 255.744
221.35403 235.82397 255.744
221.34552 235.81921 255.744
221.331 235.81105 255.744
221.32008 235.80489 255.744
221.3656 235.83049 255.744
221.3448 235.81883 255.744
221.34584 235.8194 255.744
221.32541 235.80788 255.744
221.33467 235.81313 255.744
221.34717 235.82016 255.744
221.34425 235.8185 255.744
221.33626 235.814 255.744
221.34525 235.81903 255.744
221.34808 235.82066 255.744
221.34216 235.81734 255.744
221.3482 235.82077 255.744
221.34601 235.81952 255.744
221.33989 235.81602 255.744
221.34514 235.819 255.744
221.34787 235.82053 255.744
221.33113 235.8111 255.744
221.34648 235.81976 255.744
221.34401 235.81839 255.744
221.36026 235.82755 255.744
221.32565 235.80806 255.744
221.34769 235.82043 255.744
221.35356 235.82373 255.744
221.35637 235.82535 255.744
221.33932 235.81575 255.744
221.33478 235.81316 255.744
221.36781 235.8318 255.744
221.36018 235.82747 255.744
221.35521 235.82469 255.744
221.35178 235.82272 255.744
221.33035 235.81065 255.744
221.35822 235.82639 255.744
221.33406 235.81274 255.744
221.32951 235.81021 255.744
221.33742 235.81467 255.744
221.34169 235.81708 255.744
221.35278 235.82329 255.744
221.3376 235.81474 255.744
221.3438 235.81827 255.744
221.33394 235.81268 255.744
221.34352 235.81808 255.744
221.35182 235.82277 255.744
221.35713 235.82578 255.744
221.33888 235.81548 255.744
221.32265 235.8063 255.744
221.33176 235.8115 255.744
221.35628 235.82529 255.744
221.34375 235.81824 255.744
221.3465 235.81976 255.744
221.33563 235.81367 255.744
221.36034 235.82756 255.744
221.3502 235.82187 255.744
221.33867 235.81538 255.744
221.3337 235.81255 255.744
221.33992 235.81609 255.744
221.34447 235.81865 255.744
221.36542 235.83043 255.744
221.33989 235.81602 255.744
221.35417 235.82408 255.744
221.33376 235.81258 255.744
221.3423 235.81738 255.744
221.3509 235.82225 255.744
221.34685 235.81998 255.744
221.3652 235.83029 255.744
221.32878 235.80978 255.744
221.3412 235.81679 255.744
221.33331 235.81232 255.744
221.34735 235.82025 255.744
221.34229 235.81741 255.744
221.32066 235.80524 255.744
221.3266 235.80855 255.744
221.34578 235.81935 255.744
221.36488 235.83017 255.744
221.34584 235.81937 255.744
221.34029 235.81628 255.744
221.33156 235.81134 255.744
221.32915 235.81 255.744
221.34396 235.81833 255.744
221.33731 235.81459 255.744
221.36913 235.83252 255.744
221.3199 235.8048 255.744
221.31392 235.80139 255.744
221.34906 235.8212 255.744
221.33153 235.81136 255.744
221.34227 235.81737 255.744
221.3464 235.81972 255.744
221.33347 235.81242 255.744
221.35733 235.8259 255.744
221.34053 235.8164 255.744
221.35959 235.82715 255.744
221.32645 235.8085 255.744
221.34818 235.8207 255.744
221.33238 235.81181 255.744
221.33673 235.81425 255.744
221.33392 235.81267 255.744
221.33408 235.81276 255.744
221.33525 235.81343 255.744
221.32135 235.80559 255.744
221.32965 235.81027 255.744
221.33945 235.81577 255.744
221.3465 235.8198 255.744
221.35748 235.82597 255.744
221.36143 235.82819 255.744
221.3356 235.81363 255.744
221.33865 235.81537 255.744
221.34319 235.81789 255.744
221.33968 235.81592 255.744
221.34708 235.8201 255.744
221.33582 235.81377 255.744
221.3425 235.81752 255.744
221.3426 235.81758 255.744
221.34709 235.82011 255.744
221.33812 235.81505 255.744
221.32797 235.80937 255.744
221.33926 235.81572 255.744
221.34367 235.81816 255.744
221.33665 235.81422 255.744
221.34204 235.81728 255.744
221.35457 235.82433 255.744
221.35004 235.82175 255.744
221.32983 235.81036 255.744
221.34096 235.81665 255.744
221.3506 235.8221 255.744
221.32832 235.80952 255.744
221.32542 235.80792 255.744
221.33087 235.81097 255.744
221.3471 235.82008 255.744
221.33414 235.81282 255.744
221.34396 235.81836 255.744
221.33897 235.81554 255.744
221.33163 235.8114 255.744
221.34837 235.82082 255.744
221.34503 235.81894 255.744
221.35565 235.82492 255.744
221.33003 235.81046 255.744
221.32974 235.81032 255.744
221.3371 235.81447 255.744
221.33247 235.81184 255.744
221.34561 235.81929 255.744
221.34631 235.81966 255.744
221.35953 235.8271 255.744
221.32764 235.80914 255.744
221.34216 235.81735 255.744
221.33946 235.81584 255.744
221.3271 235.80884 255.744
221.34497 235.81892 255.744
221.34694 235.81999 255.744
221.34064 235.81648 255.744
221.32712 235.80885 255.744
221.33443 235.81299 255.744
221.32024 235.80496 255.744
221.3497 235.82156 255.744
221.32399 235.8071 255.744
221.33737 235.8146 255.744
221.34023 235.81625 255.744
221.33496 235.81328 255.744
221.34628 235.81964 255.744
221.3389 235.81549 255.744
221.35066 235.82211 255.744
221.32622 235.80833 255.744
221.33421 235.81284 255.744
221.33757 235.81473 255.744
221.32434 235.80731 255.744
221.35106 235.82233 255.744
221.34132 235.81685 255.744
221.34294 235.81775 255.744
221.3399 235.81602 255.744
221.34511 235.81902 255.744
221.35402 235.82397 255.744
221.32762 235.80914 255.744
221.34436 235.81857 255.744
221.31378 235.80136 255.744
221.33633 235.81401 255.744
221.36154 235.82822 255.744
221.36232 235.82869 255.744
221.33702 235.81442 255.744
221.33383 235.81265 255.744
221.34456 235.81871 255.744
221.33365 235.81256 255.744
221.35484 235.8245 255.744
221.35995 235.82738 255.744
221.33792 235.8149 255.744
221.33545 235.81352 255.744
221.32524 235.80779 255.744
221.35454 235.82428 255.744
221.329 235.8099 255.744
221.33203 235.8116 255.744
221.33101 235.81107 255.744
221.35101 235.82231 255.744
221.33794 235.81497 255.744
221.33673 235.81427 255.744
221.3338 235.81265 255.744
221.33551 235.81358 255.744
221.35367 235.82379 255.744
221.33914 235.81561 255.744
221.34435 235.81857 255.744
221.33455 235.81303 255.744
221.3435 235.81808 255.744
221.33179 235.8115 255.744
221.3346 235.81305 255.744
221.34853 235.82089 255.744
221.3273 235.80896 255.744
221.3277 235.80917 255.744
221.34259 235.81758 255.744
221.3447 235.81873 255.744
221.35161 235.82265 255.744
221.34334 235.81796 255.744
221.3305 235.81079 255.744
221.336 235.81386 255.744
221.35696 235.82567 255.744
221.3421 235.81728 255.744
221.338 235.815 255.744
221.34618 235.81963 255.744
221.34216 235.81734 255.744
221.34837 235.82083 255.744
221.32881 235.8098 255.744
221.3505 235.822 255.744
221.3391 235.81558 255.744
221.33069 235.81087 255.744
221.35101 235.82231 255.744
221.3262 235.80832 255.744
221.34348 235.81807 255.744
221.33527 235.81345 255.744
221.34627 235.81966 255.744
221.34578 235.81935 255.744
221.32378 235.80696 255.744
221.34398 235.81836 255.744
221.34264 235.81758 255.744
221.33621 235.81398 255.744
221.32355 235.80684 255.744
221.34183 235.81712 255.744
221.34016 235.8162 255.744
221.34474 235.81876 255.744
221.33542 235.81354 255.744
221.3442 235.81848 255.744
221.33704 235.81445 255.744
221.34308 235.81783 255.744
221.33905 235.81557 255.744
221.33626 235.814 255.744
221.34407 235.81839 255.744
221.35027 235.8219 255.744
221.33832 235.81519 255.744
221.3473 235.82025 255.744
221.32472 235.80751 255.744
221.34622 235.81961 255.744
221.32765 235.80914 255.744
221.34792 235.8206 255.744
221.33704 235.8144 255.744
221.35149 235.8226 255.744
221.33417 235.81282 255.744
221.35347 235.8237 255.744
221.34267 235.81761 255.744
221.34525 235.81909 255.744
221.32741 235.80899 255.744
221.36691 235.83125 255.744
221.35959 235.82715 255.744
221.33986 235.81601 255.744
221.3391 235.8156 255.744
221.34761 235.8204 255.744
221.34456 235.81866 255.744
221.31792 235.80367 255.744
221.34454 235.81866 255.744
221.34052 235.81639 255.744
221.33473 235.81314 255.744
221.33304 235.81216 255.744
221.3271 235.80882 255.744
221.3609 235.82788 255.744
221.32208 235.80603 255.744
221.33842 235.81523 255.744
221.33266 235.81195 255.744
221.34723 235.82018 255.744
221.33449 235.81299 255.744
221.32143 235.80566 255.744
221.34697 235.82005 255.744
221.32713 235.80888 255.744
221.30669 235.79733 255.744
221.33736 235.81459 255.744
221.34203 235.81726 255.744
221.34215 235.8173 255.744
221.33395 235.81273 255.744
221.35623 235.82523 255.744
221.34837 235.82085 255.744
221.33044 235.81073 255.744
221.32994 235.81044 255.744
221.35233 235.82306 255.744
221.34723 235.82019 255.744
221.34781 235.82054 255.744
221.34227 235.81735 255.744
221.3398 235.81601 255.744
221.33862 235.81532 255.744
221.34276 235.81766 255.744
221.33325 235.8123 255.744
221.35083 235.8222 255.744
221.3301 235.81053 255.744
221.34221 235.81737 255.744
221.31517 235.80214 255.744
221.33974 235.81596 255.744
221.3496 235.82153 255.744
221.34761 235.82037 255.744
221.34383 235.81827 255.744
221.34119 235.81679 255.744
221.34625 235.81961 255.744
221.35901 235.82681 255.744
221.34067 235.81648 255.744
221.35706 235.8257 255.744
221.31723 235.80328 255.744
221.34123 235.8168 255.744
221.34476 235.81877 255.744
221.32014 235.80495 255.744
221.34322 235.81793 255.744
221.32983 235.81036 255.744
221.34573 235.81934 255.744
221.3562 235.82523 255.744
221.32916 235.81001 255.744
221.34084 235.81654 255.744
221.33276 235.81206 255.744
221.336 235.81386 255.744
221.36177 235.82838 255.744
221.34079 235.81654 255.744
221.35202 235.82285 255.744
221.34859 235.82095 255.744
221.35062 235.8221 255.744
221.34282 235.8177 255.744
221.34398 235.81834 255.744
221.34949 235.82144 255.744
221.3384 235.81519 255.744
221.34338 235.81804 255.744
221.348 235.8206 255.744
221.33714 235.81453 255.744
221.34471 235.81876 255.744
221.34424 235.81851 255.744
221.3487 235.82098 255.744
221.33061 235.8108 255.744
221.34407 235.81842 255.744
221.3497 235.82156 255.744
221.34407 235.81839 255.744
221.3471 235.8201 255.744
221.3447 235.81876 255.744
221.34753 235.82037 255.744
221.35779 235.82611 255.744
221.34894 235.82114 255.744
221.33095 235.81099 255.744
221.33856 235.81532 255.744
221.34943 235.82141 255.744
221.34459 235.81866 255.744
221.3498 235.82166 255.744
221.3347 235.81313 255.744
221.35342 235.8237 255.744
221.35388 235.82394 255.744
221.34828 235.82077 255.744
221.33871 235.81538 255.744
221.37056 235.8333 255.744
221.3552 235.82466 255.744
221.35078 235.82217 255.744
221.33376 235.81258 255.744
221.32414 235.80717 255.744
221.3395 235.81581 255.744
221.35486 235.82446 255.744
221.3425 235.81754 255.744
221.33835 235.81517 255.744
221.3483 235.82079 255.744
221.37582 235.83629 255.744
221.34485 235.81885 255.744
221.35072 235.82216 255.744
221.35283 235.82332 255.744
221.33958 235.81586 255.744
221.35094 235.82227 255.744
221.34416 235.81845 255.744
221.36528 235.83034 255.744
221.35332 235.82361 255.744
221.35721 235.8258 255.744
221.34462 235.81873 255.744
221.34831 235.82079 255.744
221.34453 235.81866 255.744
221.34161 235.817 255.744
221.33815 235.81508 255.744
221.34225 235.81737 255.744
221.33643 235.8141 255.744
221.35234 235.82304 255.744
221.34473 235.8188 255.744
221.34276 235.81769 255.744
221.3514 235.82253 255.744
221.34073 235.81651 255.744
221.34828 235.82076 255.744
221.34183 235.81712 255.744
221.33313 235.81226 255.744
221.36014 235.82745 255.744
221.34668 235.81989 255.744
221.33638 235.81407 255.744
221.33788 235.8149 255.744
221.35062 235.82207 255.744
221.35333 235.82362 255.744
221.34256 235.81755 255.744
221.34628 235.81963 255.744
221.343 235.8178 255.744
221.35275 235.8233 255.744
221.34987 235.82166 255.744
221.33066 235.81085 255.744
221.35316 235.82352 255.744
221.33842 235.81522 255.744
221.34003 235.81613 255.744
221.35233 235.82304 255.744
221.3451 235.81898 255.744
221.34763 235.82039 255.744
221.32886 235.80983 255.744
221.37756 235.83725 255.744
221.35446 235.82425 255.744
221.34903 235.82123 255.744
221.33826 235.81512 255.744
221.34262 235.81758 255.744
221.36893 235.83237 255.744
221.36172 235.82834 255.744
221.35567 235.82494 255.744
221.34842 235.82086 255.744
221.3535 235.82373 255.744
221.3377 235.81479 255.744
221.36115 235.82802 255.744
221.3522 235.82298 255.744
221.34451 235.81863 255.744
221.35457 235.82433 255.744
221.351 235.82234 255.744
221.36859 235.83224 255.744
221.35048 235.82202 255.744
221.32617 235.80832 255.744
221.36018 235.82748 255.744
221.34238 235.81744 255.744
221.34116 235.81673 255.744
221.35666 235.82549 255.744
221.34717 235.82014 255.744
221.33842 235.81522 255.744
221.33609 235.81389 255.744
221.3418 235.81712 255.744
221.36281 235.82896 255.744
221.34743 235.82028 255.744
221.34103 235.81671 255.744
221.35033 235.82193 255.744
221.35535 235.82474 255.744
221.35541 235.82477 255.744
221.33145 235.81133 255.744
221.35727 235.82582 255.744
221.34622 235.81958 255.744
221.34103 235.81668 255.744
221.32436 235.8073 255.744
221.33647 235.81413 255.744
221.34969 235.82155 255.744
221.35706 235.82573 255.744
221.35744 235.82593 255.744
221.36401 235.82964 255.744
221.35555 235.82487 255.744
221.36345 235.82932 255.744
221.34462 235.81871 255.744
221.34482 235.8188 255.744
221.35744 235.82593 255.744
221.35374 235.82384 255.744
221.34537 235.81912 255.744
221.36458 235.82996 255.744
221.35901 235.82683 255.744
221.3355 235.81358 255.744
221.34076 235.81654 255.744
221.35327 235.82358 255.744
221.33888 235.81548 255.744
221.36017 235.82747 255.744
221.3584 235.82645 255.744
221.36494 235.83014 255.744
221.38864 235.8435 255.744
221.37793 235.83748 255.744
221.38152 235.83946 255.744
221.37924 235.83821 255.744
221.36551 235.83049 255.744
221.39853 235.84908 255.744
221.39445 235.84679 255.744
221.3766 235.83672 255.744
221.3841 235.84093 255.744
221.3852 235.84155 255.744
221.41023 235.85567 255.744
221.38072 235.83904 255.744
221.39534 235.84729 255.744
221.38669 235.8424 255.744
221.38118 235.83931 255.744
221.38263 235.8401 255.744
221.37747 235.83723 255.744
221.37593 235.83633 255.744
221.37102 235.83357 255.744
221.37323 235.83482 255.744
221.38618 235.84215 255.744
221.3847 235.8413 255.744
221.37769 235.83733 255.744
221.3878 235.84302 255.744
221.38675 235.84244 255.744
221.37057 235.83334 255.744
221.38123 235.83931 255.744
221.40053 235.85022 255.744
221.3976 235.84854 255.744
221.39067 235.84464 255.744
221.37697 235.83693 255.744
221.38396 235.84085 255.744
221.37883 235.83795 255.744
221.40295 235.85158 255.744
221.37697 235.83693 255.744
221.37805 235.83757 255.744
221.37624 235.83649 255.744
221.37215 235.8342 255.744
221.39264 235.84576 255.744
221.38326 235.84042 255.744
221.36224 235.82863 255.744
221.39653 235.84796 255.744
221.39606 235.84769 255.744
221.39388 235.84645 255.744
221.39459 235.84688 255.744
221.38026 235.83878 255.744
221.37917 235.83818 255.744
221.37024 235.83313 255.744
221.39806 235.84879 255.744
221.376 235.8364 255.744
221.3694 235.83269 255.744
221.39067 235.84462 255.744
221.37332 235.83488 255.744
221.35402 235.82404 255.744
221.39821 235.84889 255.744
221.3813 235.83939 255.744
221.38393 235.84085 255.744
221.38432 235.84108 255.744
221.38808 235.8432 255.744
221.39778 235.84865 255.744
221.37634 235.8366 255.744
221.37701 235.83696 255.744
221.37239 235.83435 255.744
221.37956 235.83841 255.744
221.37306 235.8347 255.744
221.4242 235.86354 255.744
221.38054 235.83896 255.744
221.37718 235.83705 255.744
221.37779 235.83737 255.744
221.37585 235.8363 255.744
221.38069 235.83902 255.744
221.38113 235.83926 255.744
221.36897 235.83244 255.744
221.38963 235.84406 255.744
221.39308 235.846 255.744
221.38214 235.83986 255.744
221.37535 235.83601 255.744
221.36607 235.8308 255.744
221.37756 235.83725 255.744
221.381 235.83916 255.744
221.3753 235.836 255.744
221.37486 235.83574 255.744
221.36928 235.83261 255.744
221.35889 235.82675 255.744
221.38112 235.83925 255.744
221.38106 235.83923 255.744
221.38739 235.8428 255.744
221.36813 235.83194 255.744
221.38411 235.84096 255.744
221.38768 235.84297 255.744
221.36374 235.8295 255.744
221.37592 235.83635 255.744
221.3762 235.83649 255.744
221.38127 235.83939 255.744
221.38931 235.84387 255.744
221.36856 235.83218 255.744
221.36595 235.83073 255.744
221.38922 235.84383 255.744
221.37944 235.83833 255.744
221.38144 235.83943 255.744
221.3975 235.84851 255.744
221.38246 235.84003 255.744
221.38942 235.84395 255.744
221.36848 235.83214 255.744
221.37625 235.8365 255.744
221.36917 235.83253 255.744
221.39355 235.84627 255.744
221.3665 235.83102 255.744
221.36147 235.8282 255.744
221.3812 235.83931 255.744
221.38348 235.8406 255.744
221.38678 235.84245 255.744
221.36798 235.83191 255.744
221.38136 235.83942 255.744
221.38268 235.84013 255.744
221.37451 235.83553 255.744
221.38289 235.84027 255.744
221.35185 235.82278 255.744
221.36691 235.83125 255.744
221.3866 235.84238 255.744
221.38243 235.84003 255.744
221.39711 235.84827 255.744
221.37515 235.83594 255.744
221.37701 235.837 255.744
221.36943 235.83272 255.744
221.37947 235.83833 255.744
221.3736 235.83507 255.744
221.38564 235.8418 255.744
221.37741 235.83719 255.744
221.38252 235.84009 255.744
221.37907 235.8381 255.744
221.38423 235.841 255.744
221.36777 235.83177 255.744
221.37299 235.83469 255.744
221.36505 235.83023 255.744
221.37112 235.83365 255.744
221.37247 235.83437 255.744
221.36458 235.82996 255.744
221.39326 235.84612 255.744
221.37273 235.83455 255.744
221.36934 235.83261 255.744
221.38704 235.84262 255.744
221.38509 235.84149 255.744
221.35844 235.8265 255.744
221.34752 235.82034 255.744
221.36281 235.82895 255.744
221.38412 235.84097 255.744
221.35045 235.82199 255.744
221.37683 235.8369 255.744
221.36893 235.83238 255.744
221.40518 235.85281 255.744
221.39862 235.84912 255.744
221.36638 235.83095 255.744
221.38422 235.841 255.744
221.36299 235.82909 255.744
221.37071 235.83342 255.744
221.37823 235.83763 255.744
221.37271 235.83453 255.744
221.37367 235.83508 255.744
221.37756 235.83728 255.744
221.37886 235.838 255.744
221.35526 235.82469 255.744
221.3944 235.84671 255.744
221.3658 235.83063 255.744
221.37157 235.83386 255.744
221.37715 235.83702 255.744
221.37367 235.83508 255.744
221.3877 235.84296 255.744
221.39212 235.84547 255.744
221.37796 235.83746 255.744
221.3633 235.82927 255.744
221.3537 235.82384 255.744
221.40054 235.8502 255.744
221.38957 235.84402 255.744
221.37651 235.83669 255.744
221.37852 235.83783 255.744
221.34637 235.81967 255.744
221.39337 235.84616 255.744
221.38293 235.8403 255.744
221.3705 235.83327 255.744
221.38342 235.84056 255.744
221.38605 235.84204 255.744
221.36838 235.83209 255.744
221.36627 235.8309 255.744
221.37532 235.836 255.744
221.35382 235.82388 255.744
221.3689 235.83237 255.744
221.37689 235.83688 255.744
221.35878 235.8267 255.744
221.36848 235.83215 255.744
221.37454 235.83557 255.744
221.36787 235.83182 255.744
221.35146 235.82256 255.744
221.38441 235.84111 255.744
221.38785 235.84308 255.744
221.3769 235.8369 255.744
221.37808 235.83757 255.744
221.37592 235.83633 255.744
221.3624 235.82872 255.744
221.37674 235.8368 255.744
221.37389 235.83519 255.744
221.37257 235.83444 255.744
221.3685 235.83217 255.744
221.36714 235.83139 255.744
221.36646 235.83102 255.744
221.37775 235.83737 255.744
221.3709 235.83351 255.744
221.36624 235.83087 255.744
221.37285 235.83463 255.744
221.36789 235.83182 255.744
221.3695 235.83273 255.744
221.3658 235.83063 255.744
221.385 235.84143 255.744
221.36752 235.8316 255.744
221.3698 235.83289 255.744
221.34991 235.82167 255.744
221.36295 235.82904 255.744
221.3804 235.83885 255.744
221.35944 235.82706 255.744
221.37515 235.8359 255.744
221.3522 235.823 255.744
221.39227 235.84554 255.744
221.39607 235.84769 255.744
221.36807 235.83191 255.744
221.36824 235.83202 255.744
221.39946 235.84958 255.744
221.37202 235.83417 255.744
221.37761 235.8373 255.744
221.36678 235.83119 255.744
221.3759 235.83632 255.744
221.37514 235.8359 255.744
221.37404 235.83528 255.744
221.38214 235.83984 255.744
221.37631 235.83655 255.744
221.34914 235.82124 255.744
221.36139 235.82814 255.744
221.3599 235.82732 255.744
221.36353 235.82936 255.744
221.38252 235.84007 255.744
221.35405 235.82404 255.744
221.36633 235.83093 255.744
221.36382 235.8295 255.744
221.36343 235.8293 255.744
221.36813 235.83197 255.744
221.35446 235.82423 255.744
221.37276 235.83456 255.744
221.35786 235.82617 255.744
221.36313 235.82915 255.744
221.36594 235.83072 255.744
221.37485 235.83577 255.744
221.383 235.84033 255.744
221.37363 235.83508 255.744
221.38564 235.84181 255.744
221.35614 235.8252 255.744
221.38283 235.84024 255.744
221.35802 235.82626 255.744
221.37083 235.83347 255.744
221.37106 235.83359 255.744
221.35844 235.8265 255.744
221.38197 235.83974 255.744
221.38802 235.84314 255.744
221.36754 235.8316 255.744
221.36798 235.83188 255.744
221.36246 235.82875 255.744
221.35696 235.82565 255.744
221.37405 235.83527 255.744
221.37254 235.83446 255.744
221.36324 235.8292 255.744
221.37108 235.8336 255.744
221.37708 235.83699 255.744
221.36906 235.83247 255.744
221.38248 235.84006 255.744
221.38458 235.84125 255.744
221.3742 235.83537 255.744
221.36475 235.83003 255.744
221.37596 235.83638 255.744
221.37228 235.8343 255.744
221.37227 235.83423 255.744
221.37198 235.8341 255.744
221.38269 235.84016 255.744
221.351 235.82228 255.744
221.36565 235.83055 255.744
221.37886 235.83801 255.744
221.36392 235.82959 255.744
221.36313 235.82913 255.744
221.37436 235.83546 255.744
221.38242 235.84001 255.744
221.35669 235.82552 255.744
221.3606 235.82771 255.744
221.36827 235.832 255.744
221.35072 235.82216 255.744
221.36142 235.82817 255.744
221.38701 235.84258 255.744
221.37186 235.83403 255.744
221.36029 235.82753 255.744
221.37537 235.83604 255.744
221.3689 235.83237 255.744
221.37007 235.83302 255.744
221.37244 235.8344 255.744
221.37949 235.83836 255.744
221.37729 235.83711 255.744
221.35147 235.82254 255.744
221.36972 235.83284 255.744
221.3692 235.83255 255.744
221.37762 235.83728 255.744
221.3694 235.83267 255.744
221.3626 235.82884 255.744
221.35747 235.82593 255.744
221.38399 235.84087 255.744
221.36212 235.82858 255.744
221.36815 235.832 255.744
221.35838 235.82645 255.744
221.36034 235.82758 255.744
221.40344 235.85184 255.744
221.37227 235.8343 255.744
221.38322 235.84047 255.744
221.36429 235.82979 255.744
221.36157 235.82826 255.744
221.3791 235.83812 255.744
221.36287 235.82898 255.744
221.39299 235.84596 255.744
221.361 235.8279 255.744
221.37245 235.83435 255.744
221.37001 235.833 255.744
221.35204 235.82288 255.744
221.35844 235.82649 255.744
221.35632 235.8253 255.744
221.3691 235.83247 255.744
221.3848 235.84134 255.744
221.37012 235.83308 255.744
221.3765 235.83669 255.744
221.37614 235.83646 255.744
221.37106 235.83359 255.744
221.37265 235.83447 255.744
221.37643 235.83661 255.744
221.36699 235.83133 255.744
221.3672 235.83142 255.744
221.37924 235.8382 255.744
221.35997 235.82735 255.744
221.37297 235.83469 255.744
221.35101 235.82233 255.744
221.36066 235.82774 255.744
221.36668 235.83113 255.744
221.36392 235.82957 255.744
221.37204 235.83417 255.744
221.37053 235.83333 255.744
221.36307 235.82912 255.744
221.37244 235.83438 255.744
221.37201 235.83414 255.744
221.37923 235.8382 255.744
221.38872 235.84354 255.744
221.3771 235.83704 255.744
221.35117 235.82239 255.744
221.37135 235.83377 255.744
221.38925 235.84384 255.744
221.35709 235.8257 255.744
221.38194 235.83972 255.744
221.37825 235.83765 255.744
221.37445 235.83551 255.744
221.3818 235.83968 255.744
221.37828 235.83766 255.744
221.38766 235.84294 255.744
221.37166 235.83394 255.744
221.36075 235.8278 255.744
221.36021 235.8275 255.744
221.37222 235.83426 255.744
221.34569 235.81932 255.744
221.39694 235.84818 255.744
221.36302 235.82907 255.744
221.36784 235.83179 255.744
221.37361 235.83504 255.744
221.3578 235.82614 255.744
221.36975 235.83287 255.744
221.37488 235.83578 255.744
221.35732 235.82584 255.744
221.36743 235.83154 255.744
221.3649 235.83015 255.744
221.38963 235.84409 255.744
221.37283 235.8346 255.744
221.39583 235.84756 255.744
221.38077 235.83908 255.744
221.36208 235.82855 255.744
221.35799 235.82626 255.744
221.36429 235.82979 255.744
221.38153 235.83951 255.744
221.35759 235.82602 255.744
221.38684 235.8425 255.744
221.37689 235.83688 255.744
221.3738 235.83516 255.744
221.36984 235.83292 255.744
221.36824 235.83203 255.744
221.35509 235.82462 255.744
221.37645 235.83662 255.744
221.34842 235.82086 255.744
221.35986 235.82729 255.744
221.37727 235.8371 255.744
221.38396 235.84084 255.744
221.38202 235.83981 255.744
221.3669 235.83124 255.744
221.35979 235.82724 255.744
221.3665 235.83102 255.744
221.3778 235.83739 255.744
221.3754 235.83604 255.744
221.38348 235.84058 255.744
221.35576 235.82503 255.744
221.36359 235.82939 255.744
221.37144 235.83383 255.744
221.37784 235.83743 255.744
221.35522 235.82466 255.744
221.3762 235.83649 255.744
221.3642 235.82971 255.744
221.36913 235.83252 255.744
221.35106 235.82231 255.744
221.37335 235.83488 255.744
221.37294 235.83469 255.744
221.37851 235.83778 255.744
221.37206 235.83417 255.744
221.3801 235.83871 255.744
221.36707 235.83136 255.744
221.38632 235.8422 255.744
221.38942 235.84395 255.744
221.37416 235.83534 255.744
221.37498 235.8358 255.744
221.34999 235.82175 255.744
221.38206 235.83978 255.744
221.37321 235.83482 255.744
221.36458 235.82994 255.744
221.36932 235.83263 255.744
221.39566 235.84743 255.744
221.37209 235.83418 255.744
221.38387 235.84082 255.744
221.35466 235.82437 255.744
221.3703 235.83316 255.744
221.38135 235.8394 255.744
221.3789 235.83801 255.744
221.38298 235.84032 255.744
221.37727 235.83711 255.744
221.39629 235.84781 255.744
221.37175 235.83397 255.744
221.36957 235.83278 255.744
221.39055 235.84457 255.744
221.37112 235.83362 255.744
221.38826 235.8433 255.744
221.38393 235.84084 255.744
221.38264 235.84012 255.744
221.3701 235.83307 255.744
221.3837 235.84074 255.744
221.38927 235.84386 255.744
221.3773 235.83711 255.744
221.36382 235.82953 255.744
221.38467 235.84123 255.744
221.37102 235.83359 255.744
221.37645 235.83665 255.744
221.37772 235.83739 255.744
221.36945 235.83269 255.744
221.35751 235.82597 255.744
221.3568 235.82556 255.744
221.37598 235.83635 255.744
221.38393 235.84084 255.744
221.37756 235.83728 255.744
221.37419 235.83537 255.744
221.3896 235.84402 255.744
221.3789 235.83801 255.744
221.37595 235.83636 255.744
221.35307 235.82347 255.744
221.37694 235.83691 255.744
221.37186 235.83405 255.744
221.3655 235.83044 255.744
221.36638 235.83098 255.744
221.37093 235.83351 255.744
221.38802 235.84317 255.744
221.37679 235.83685 255.744
221.40015 235.84999 255.744
221.37515 235.83594 255.744
221.37726 235.83708 255.744
221.35828 235.82642 255.744
221.37662 235.83673 255.744
221.37083 235.83348 255.744
221.35907 235.82687 255.744
221.3792 235.83817 255.744
221.37682 235.83684 255.744
221.37909 235.83812 255.744
221.36642 235.83098 255.744
221.3778 235.83742 255.744
221.37285 235.83463 255.744
221.35664 235.82545 255.744
221.38274 235.84016 255.744
221.38367 235.84071 255.744
221.36955 235.83275 255.744
221.35558 235.82486 255.744
221.38293 235.8403 255.744
221.3728 235.8346 255.744
221.38551 235.84172 255.744
221.37749 235.83722 255.744
221.3702 235.83315 255.744
221.38232 235.83995 255.744
221.38072 235.839 255.744
221.36005 235.82741 255.744
221.3841 235.84094 255.744
221.36578 235.83063 255.744
221.39037 235.84448 255.744
221.35863 235.82661 255.744
221.36438 235.82985 255.744
221.37483 235.83577 255.744
221.3801 235.83867 255.744
221.3711 235.83362 255.744
221.36967 235.83284 255.744
221.37189 235.8341 255.744
221.37856 235.83784 255.744
221.38155 235.83951 255.744
221.38197 235.83977 255.744
221.36528 235.83035 255.744
221.37611 235.83644 255.744
221.38913 235.84375 255.744
221.36514 235.83028 255.744
221.37836 235.83772 255.744
221.3821 235.83981 255.744
221.3845 235.8412 255.744
221.38214 235.83986 255.744
221.38344 235.84055 255.744
221.3702 235.83311 255.744
221.37915 235.83817 255.744
221.38855 235.84344 255.744
221.39262 235.84575 255.744
221.36572 235.83058 255.744
221.39087 235.84474 255.744
221.37384 235.83517 255.744
221.3824 235.83998 255.744
221.36583 235.83064 255.744
221.35942 235.82704 255.744
221.38423 235.84102 255.744
221.35417 235.82407 255.744
221.38023 235.83875 255.744
221.38158 235.83952 255.744
221.37837 235.83772 255.744
221.37767 235.83731 255.744
221.36838 235.83209 255.744
221.3694 235.83266 255.744
221.38554 235.84175 255.744
221.35535 235.82474 255.744
221.36832 235.83203 255.744
221.36081 235.82779 255.744
221.35535 235.82477 255.744
221.39076 235.8447 255.744
221.38564 235.84183 255.744
221.36177 235.82838 255.744
221.38289 235.84027 255.744
221.37837 235.83774 255.744
221.38916 235.84381 255.744
221.38033 235.83882 255.744
221.38057 235.83897 255.744
221.3974 235.8484 255.744
221.38246 235.84003 255.744
221.37569 235.83618 255.744
221.37039 235.83324 255.744
221.38669 235.8424 255.744
221.38367 235.8407 255.744
221.38953 235.84401 255.744
221.37129 235.83374 255.744
221.3849 235.8414 255.744
221.38422 235.84102 255.744
221.36848 235.83212 255.744
221.37846 235.83775 255.744
221.37862 235.83784 255.744
221.38716 235.84265 255.744
221.40335 235.85178 255.744
221.36775 235.83173 255.744
221.38474 235.84128 255.744
221.37144 235.8338 255.744
221.39478 235.84694 255.744
221.37709 235.83698 255.744
221.37549 235.83614 255.744
221.38763 235.84294 255.744
221.37723 235.83705 255.744
221.3723 235.8343 255.744
221.38686 235.8425 255.744
221.35738 235.8259 255.744
221.3853 235.84161 255.744
221.36601 235.83076 255.744
221.37982 235.83858 255.744
221.36859 235.83221 255.744
221.38536 235.84166 255.744
221.38564 235.84181 255.744
221.36673 235.83116 255.744
221.38861 235.84348 255.744
221.37885 235.83798 255.744
221.37257 235.83444 255.744
221.37459 235.83562 255.744
221.37535 235.83601 255.744
221.36736 235.83151 255.744
221.37994 235.83861 255.744
221.37463 235.83562 255.744
221.38373 235.84074 255.744
221.38445 235.84113 255.744
221.38884 235.84364 255.744
221.38809 235.8432 255.744
221.3678 235.83177 255.744
221.38531 235.84161 255.744
221.40068 235.85031 255.744
221.38147 235.83946 255.744
221.40265 235.8514 255.744
221.40967 235.85536 255.744
221.43045 235.86707 255.744
221.40437 235.85234 255.744
221.40698 235.85387 255.744
221.39127 235.84499 255.744
221.40608 235.85335 255.744
221.40059 235.85022 255.744
221.42651 235.86485 255.744
221.3985 235.84903 255.744
221.40457 235.85248 255.744
221.39517 235.84718 255.744
221.4109 235.85608 255.744
221.42163 235.86209 255.744
221.41115 235.85617 255.744
221.40765 235.85422 255.744
221.40002 235.84991 255.744
221.41109 235.85616 255.744
221.41512 235.85838 255.744
221.40509 235.8528 255.744
221.40778 235.85428 255.744
221.43027 235.86696 255.744
221.41283 235.85713 255.744
221.41826 235.86021 255.744
221.41396 235.85776 255.744
221.42459 235.86372 255.744
221.41031 235.85571 255.744
221.42674 235.86497 255.744
221.40941 235.85521 255.744
221.41873 235.86046 255.744
221.40839 235.85461 255.744
221.4308 235.86725 255.744
221.40634 235.8535 255.744
221.43483 235.86954 255.744
221.394 235.84653 255.744
221.42398 235.86342 255.744
221.41568 235.85876 255.744
221.41916 235.86069 255.744
221.42561 235.86432 255.744
221.39017 235.84436 255.744
221.3931 235.846 255.744
221.42636 235.86476 255.744
221.41225 235.85681 255.744
221.41125 235.85623 255.744
221.41711 235.85951 255.744
221.4216 235.8621 255.744
221.40102 235.85046 255.744
221.4168 235.85936 255.744
221.43921 235.87198 255.744
221.39894 235.8493 255.744
221.41058 235.85585 255.744
221.40224 235.85115 255.744
221.39046 235.84451 255.744
221.41852 235.86032 255.744
221.41594 235.85886 255.744
221.40576 235.85313 255.744
221.4168 235.85939 255.744
221.41934 235.86081 255.744
221.3961 235.84772 255.744
221.40764 235.85422 255.744
221.41672 235.85931 255.744
221.4191 235.86066 255.744
221.41623 235.85905 255.744
221.39456 235.84683 255.744
221.40097 235.85043 255.744
221.40788 235.85432 255.744
221.39784 235.8487 255.744
221.3996 235.84969 255.744
221.41092 235.85603 255.744
221.3999 235.84984 255.744
221.42336 235.86305 255.744
221.41826 235.86018 255.744
221.38275 235.84018 255.744
221.41557 235.85867 255.744
221.39595 235.84761 255.744
221.41006 235.85556 255.744
221.40195 235.851 255.744
221.41273 235.85707 255.744
221.40414 235.85223 255.744
221.40027 235.85005 255.744
221.41655 235.8592 255.744
221.38919 235.84381 255.744
221.38882 235.8436 255.744
221.40062 235.85027 255.744
221.41856 235.86034 255.744
221.41806 235.86008 255.744
221.42273 235.86269 255.744
221.41241 235.8569 255.744
221.40215 235.8511 255.744
221.39857 235.84909 255.744
221.41551 235.85864 255.744
221.40916 235.85503 255.744
221.41255 235.85698 255.744
221.39403 235.84651 255.744
221.41458 235.85811 255.744
221.40034 235.8501 255.744
221.39578 235.84752 255.744
221.40373 235.85202 255.744
221.39386 235.84644 255.744
221.41359 235.85756 255.744
221.42223 235.86243 255.744
221.3992 235.84944 255.744
221.38437 235.8411 255.744
221.40562 235.85307 255.744
221.41245 235.85692 255.744
221.41255 235.85696 255.744
221.42386 235.86333 255.744
221.40303 235.85162 255.744
221.41269 235.85704 255.744
221.40778 235.85426 255.744
221.39798 235.84875 255.744
221.40562 235.85306 255.744
221.40317 235.8517 255.744
221.4104 235.85576 255.744
221.38857 235.84348 255.744
221.40479 235.85258 255.744
221.39862 235.84914 255.744
221.40979 235.85541 255.744
221.42145 235.86197 255.744
221.4039 235.85208 255.744
221.39307 235.846 255.744
221.40024 235.85004 255.744
221.39711 235.84827 255.744
221.39536 235.84729 255.744
221.40941 235.85521 255.744
221.38773 235.84299 255.744
221.39343 235.84622 255.744
221.4015 235.85074 255.744
221.3997 235.84975 255.744
221.3928 235.84584 255.744
221.3982 235.84888 255.744
221.40224 235.85118 255.744
221.39078 235.8447 255.744
221.40149 235.85072 255.744
221.39973 235.84975 255.744
221.4091 235.85503 255.744
221.3929 235.84589 255.744
221.41544 235.8586 255.744
221.405 235.8527 255.744
221.39798 235.84877 255.744
221.3933 235.84612 255.744
221.39288 235.84589 255.744
221.41594 235.85889 255.744
221.39716 235.84831 255.744
221.41649 235.85919 255.744
221.43433 235.86925 255.744
221.41322 235.85735 255.744
221.40529 235.85287 255.744
221.3971 235.84827 255.744
221.40791 235.85435 255.744
221.40997 235.85551 255.744
221.39743 235.84843 255.744
221.39923 235.84947 255.744
221.38823 235.84325 255.744
221.41182 235.85658 255.744
221.40169 235.85085 255.744
221.41212 235.85675 255.744
221.4009 235.8504 255.744
221.39417 235.84663 255.744
221.41885 235.86053 255.744
221.38712 235.84262 255.744
221.39845 235.84904 255.744
221.37715 235.83702 255.744
221.39525 235.84723 255.744
221.40901 235.855 255.744
221.40483 235.8526 255.744
221.4186 235.86037 255.744
221.39844 235.84904 255.744
221.4169 235.8594 255.744
221.39394 235.84651 255.744
221.40404 235.85217 255.744
221.41737 235.85968 255.744
221.4123 235.85681 255.744
221.37749 235.83722 255.744
221.40414 235.85225 255.744
221.39348 235.8462 255.744
221.3916 235.84517 255.744
221.41267 235.85706 255.744
221.41943 235.86081 255.744
221.4223 235.86247 255.744
221.39563 235.84743 255.744
221.41206 235.8567 255.744
221.41228 235.85681 255.744
221.38782 235.84303 255.744
221.39975 235.84976 255.744
221.41574 235.85875 255.744
221.40092 235.85042 255.744
221.401 235.85045 255.744
221.40596 235.85326 255.744
221.40428 235.85233 255.744
221.40741 235.85406 255.744
221.40442 235.85239 255.744
221.39755 235.84856 255.744
221.41849 235.86034 255.744
221.39229 235.84554 255.744
221.40901 235.85497 255.744
221.39798 235.84877 255.744
221.39926 235.8495 255.744
221.4159 235.85884 255.744
221.39708 235.84827 255.744
221.38957 235.84401 255.744
221.41144 235.85635 255.744
221.39922 235.84946 255.744
221.40105 235.85048 255.744
221.42451 235.86371 255.744
221.41577 235.85878 255.744
221.3943 235.84666 255.744
221.40286 235.8515 255.744
221.43117 235.86745 255.744
221.40483 235.8526 255.744
221.411 235.8561 255.744
221.40486 235.85265 255.744
221.39728 235.84842 255.744
221.37344 235.8349 255.744
221.40364 235.85196 255.744
221.4047 235.85254 255.744
221.40865 235.85475 255.744
221.40392 235.8521 255.744
221.40057 235.85023 255.744
221.42015 235.86125 255.744
221.4133 235.85742 255.744
221.39539 235.84729 255.744
221.38313 235.8404 255.744
221.40373 235.85204 255.744
221.38951 235.84395 255.744
221.40288 235.85152 255.744
221.41621 235.85904 255.744
221.39925 235.8495 255.744
221.41571 235.85875 255.744
221.40715 235.85393 255.744
221.40419 235.85226 255.744
221.4017 235.85088 255.744
221.42958 235.86655 255.744
221.40898 235.85495 255.744
221.41492 235.85828 255.744
221.38461 235.84123 255.744
221.42102 235.86174 255.744
221.40144 235.85071 255.744
221.41545 235.85858 255.744
221.40843 235.85466 255.744
221.40138 235.85065 255.744
221.42361 235.86319 255.744
221.40381 235.85207 255.744
221.43806 235.87137 255.744
221.3874 235.84279 255.744
221.40317 235.85167 255.744
221.41046 235.85583 255.744
221.40588 235.85321 255.744
221.41002 235.85555 255.744
221.3896 235.84406 255.744
221.39929 235.84949 255.744
221.40617 235.8534 255.744
221.41182 235.85655 255.744
221.39198 235.8454 255.744
221.39954 235.84966 255.744
221.40201 235.85106 255.744
221.40733 235.85402 255.744
221.40147 235.85072 255.744
221.4069 235.85382 255.744
221.3955 235.84737 255.744
221.38492 235.84142 255.744
221.41379 235.85767 255.744
221.41847 235.8603 255.744
221.40584 235.8532 255.744
221.40115 235.85054 255.744
221.41052 235.85585 255.744
221.39217 235.8455 255.744
221.40076 235.85031 255.744
221.39755 235.8485 255.744
221.3866 235.84236 255.744
221.37817 235.83759 255.744
221.42639 235.86476 255.744
221.41214 235.85674 255.744
221.40326 235.85175 255.744
221.39014 235.84438 255.744
221.4128 235.8571 255.744
221.41092 235.85605 255.744
221.39993 235.84988 255.744
221.40132 235.85066 255.744
221.41776 235.85991 255.744
221.39525 235.84721 255.744
221.39754 235.8485 255.744
221.42935 235.86644 255.744
221.38432 235.84103 255.744
221.4112 235.8562 255.744
221.39273 235.84583 255.744
221.39078 235.8447 255.744
221.3875 235.84286 255.744
221.40416 235.85225 255.744
221.38864 235.8435 255.744
221.41475 235.8582 255.744
221.40765 235.85419 255.744
221.40291 235.85155 255.744
221.39467 235.84691 255.744
221.4046 235.85251 255.744
221.40692 235.85379 255.744
221.40613 235.85335 255.744
221.41435 235.85799 255.744
221.37024 235.83316 255.744
221.40332 235.85176 255.744
221.42075 235.86157 255.744
221.3956 235.84741 255.744
221.3903 235.84442 255.744
221.39651 235.84792 255.744
221.41194 235.85661 255.744
221.42429 235.86359 255.744
221.40602 235.85329 255.744
221.4046 235.85246 255.744
221.4074 235.85406 255.744
221.41762 235.85983 255.744
221.4013 235.85063 255.744
221.40216 235.85112 255.744
221.38568 235.84183 255.744
221.39915 235.84944 255.744
221.37883 235.838 255.744
221.39816 235.84888 255.744
221.39389 235.84645 255.744
221.41216 235.85674 255.744
221.42313 235.86293 255.744
221.39967 235.84972 255.744
221.39221 235.84552 255.744
221.40627 235.85344 255.744
221.41508 235.85843 255.744
221.4029 235.85155 255.744
221.40749 235.85413 255.744
221.40443 235.8524 255.744
221.39659 235.84799 255.744
221.38875 235.84357 255.744
221.3946 235.8469 255.744
221.41515 235.85844 255.744
221.40773 235.85425 255.744
221.39742 235.84843 255.744
221.40279 235.85147 255.744
221.40042 235.85016 255.744
221.4032 235.85173 255.744
221.40814 235.85449 255.744
221.41159 235.85643 255.744
221.38557 235.84178 255.744
221.39212 235.84546 255.744
221.4011 235.85052 255.744
221.40416 235.85225 255.744
221.38126 235.83936 255.744
221.4105 235.8558 255.744
221.40184 235.85095 255.744
221.40506 235.85277 255.744
221.39697 235.84818 255.744
221.3929 235.84587 255.744
221.40826 235.85457 255.744
221.40338 235.8518 255.744
221.41277 235.85707 255.744
221.40471 235.85254 255.744
221.38626 235.84216 255.744
221.38693 235.84256 255.744
221.40382 235.85205 255.744
221.41173 235.8565 255.744
221.40857 235.85474 255.744
221.37508 235.83585 255.744
221.41031 235.85571 255.744
221.41272 235.85709 255.744
221.3796 235.83841 255.744
221.39337 235.84613 255.744
221.42029 235.86133 255.744
221.37813 235.83755 255.744
221.40504 235.85272 255.744
221.4091 235.85506 255.744
221.41022 235.85567 255.744
221.40881 235.8549 255.744
221.39474 235.84694 255.744
221.4137 235.85762 255.744
221.41464 235.85814 255.744
221.41652 235.8592 255.744
221.3933 235.84613 255.744
221.40462 235.85248 255.744
221.41234 235.85684 255.744
221.40916 235.85506 255.744
221.39047 235.84453 255.744
221.41286 235.85718 255.744
221.40373 235.85204 255.744
221.39398 235.84653 255.744
221.39706 235.84825 255.744
221.3971 235.84828 255.744
221.40811 235.85448 255.744
221.40102 235.85046 255.744
221.39157 235.84517 255.744
221.40015 235.84999 255.744
221.41727 235.85965 255.744
221.41261 235.85701 255.744
221.39615 235.84772 255.744
221.40681 235.85374 255.744
221.40088 235.85039 255.744
221.40578 235.85313 255.744
221.40875 235.85484 255.744
221.40448 235.85242 255.744
221.4183 235.86018 255.744
221.41838 235.86028 255.744
221.3998 235.84981 255.744
221.40633 235.85345 255.744
221.3824 235.83997 255.744
221.41754 235.85979 255.744
221.41058 235.85585 255.744
221.40274 235.85144 255.744
221.40263 235.8514 255.744
221.40694 235.85382 255.744
221.39796 235.84875 255.744
221.40005 235.84993 255.744
221.39798 235.84879 255.744
221.41716 235.85956 255.744
221.39708 235.84822 255.744
221.42046 235.86143 255.744
221.4143 235.85796 255.744
221.41046 235.85582 255.744
221.38432 235.84108 255.744
221.37936 235.8383 255.744
221.40007 235.84995 255.744
221.39197 235.84538 255.744
221.39975 235.84975 255.744
221.40462 235.8525 255.744
221.40825 235.85454 255.744
221.40112 235.85052 255.744
221.39804 235.84879 255.744
221.39871 235.84917 255.744
221.40099 235.85045 255.744
221.3963 235.84781 255.744
221.42273 235.86272 255.744
221.39957 235.84966 255.744
221.39355 235.84628 255.744
221.41391 235.85776 255.744
221.40935 235.85515 255.744
221.39307 235.846 255.744
221.39581 235.84755 255.744
221.41464 235.85815 255.744
221.39438 235.84671 255.744
221.39497 235.84706 255.744
221.39963 235.84967 255.744
221.40273 235.85144 255.744
221.40363 235.85196 255.744
221.42188 235.8622 255.744
221.41043 235.85576 255.744
221.40344 235.85187 255.744
221.4262 235.86464 255.744
221.39731 235.84839 255.744
221.41629 235.85905 255.744
221.41422 235.8579 255.744
221.41415 235.85786 255.744
221.40977 235.85541 255.744
221.40353 235.8519 255.744
221.40327 235.85175 255.744
221.417 235.85947 255.744
221.41373 235.85762 255.744
221.40935 235.85516 255.744
221.40019 235.85002 255.744
221.39287 235.8459 255.744
221.39847 235.84903 255.744
221.39485 235.84698 255.744
221.39912 235.84943 255.744
221.4201 235.86122 255.744
221.41408 235.85782 255.744
221.40504 235.85275 255.744
221.38985 235.84422 255.744
221.40996 235.8555 255.744
221.40054 235.85023 255.744
221.41656 235.85922 255.744
221.4072 235.85396 255.744
221.41595 235.85889 255.744
221.40749 235.85411 255.744
221.39885 235.84926 255.744
221.41235 235.85686 255.744
221.39839 235.84897 255.744
221.4069 235.85378 255.744
221.4258 235.86443 255.744
221.38718 235.84268 255.744
221.39105 235.84488 255.744
221.41057 235.85585 255.744
221.39124 235.84497 255.744
221.39952 235.84964 255.744
221.38918 235.84383 255.744
221.40561 235.85304 255.744
221.38861 235.84349 255.744
221.41977 235.86102 255.744
221.39394 235.84648 255.744
221.42543 235.86421 255.744
221.40839 235.85464 255.744
221.40114 235.85056 255.744
221.40503 235.85275 255.744
221.40187 235.85094 255.744
221.39764 235.84856 255.744
221.39993 235.84988 255.744
221.42122 235.86186 255.744
221.39441 235.84674 255.744
221.41472 235.85817 255.744
221.42413 235.86351 255.744
221.40651 235.85359 255.744
221.41534 235.85852 255.744
221.4221 235.86237 255.744
221.42226 235.86241 255.744
221.39578 235.8475 255.744
221.40852 235.8547 255.744
221.4243 235.8636 255.744
221.39128 235.84499 255.744
221.40535 235.85294 255.744
221.4001 235.84995 255.744
221.40117 235.85054 255.744
221.38756 235.84291 255.744
221.42996 235.86679 255.744
221.39027 235.84442 255.744
221.4008 235.85031 255.744
221.40108 235.85051 255.744
221.40512 235.85277 255.744
221.39845 235.84904 255.744
221.4107 235.85594 255.744
221.40424 235.8523 255.744
221.40118 235.85059 255.744
221.40599 235.85326 255.744
221.40878 235.85487 255.744
221.38661 235.84236 255.744
221.40977 235.85542 255.744
221.41425 235.85794 255.744
221.41919 235.86072 255.744
221.38928 235.84384 255.744
221.39488 235.84703 255.744
221.39777 235.84865 255.744
221.40964 235.85532 255.744
221.40657 235.85358 255.744
221.42497 235.86398 255.744
221.41972 235.86102 255.744
221.39206 235.84544 255.744
221.40404 235.85217 255.744
221.41966 235.86098 255.744
221.39111 235.84488 255.744
221.40356 235.8519 255.744
221.40416 235.85223 255.744
221.40042 235.85014 255.744
221.4093 235.85515 255.744
221.39552 235.84738 255.744
221.39629 235.84778 255.744
221.40753 235.85413 255.744
221.4242 235.86351 255.744
221.41722 235.85959 255.744
221.40369 235.85197 255.744
221.42073 235.86156 255.744
221.40968 235.85536 255.744
221.41882 235.86049 255.744
221.39835 235.84897 255.744
221.42651 235.86484 255.744
221.40952 235.85527 255.744
221.41594 235.85886 255.744
221.41652 235.85922 255.744
221.41278 235.8571 255.744
221.41591 235.85887 255.744
221.4141 235.85786 255.744
221.41153 235.85638 255.744
221.402 235.85101 255.744
221.42052 235.86147 255.744
221.40823 235.85452 255.744
221.41588 235.85886 255.744
221.39336 235.84613 255.744
221.42075 235.86159 255.744
221.42809 235.86572 255.744
221.4197 235.86098 255.744
221.38908 235.84377 255.744
221.41048 235.85582 255.744
221.39957 235.84967 255.744
221.41762 235.85983 255.744
221.40431 235.85233 255.744
221.42162 235.8621 255.744
221.39337 235.84615 255.744
221.41347 235.8575 255.744
221.40558 235.85303 255.744
221.39421 235.84665 255.744
221.3917 235.84523 255.744
221.4225 235.86256 255.744
221.42232 235.86247 255.744
221.40097 235.85045 255.744
221.42064 235.86154 255.744
221.39743 235.84845 255.744
221.40416 235.85225 255.744
221.43092 235.86732 255.744
221.41978 235.86105 255.744
221.40663 235.85364 255.744
221.42458 235.86377 255.744
221.40816 235.85449 255.744
221.41234 235.85686 255.744
221.42432 235.8636 255.744
221.41783 235.85994 255.744
221.41153 235.85638 255.744
221.40495 235.8527 255.744
221.41702 235.8595 255.744
221.42262 235.86266 255.744
221.41092 235.85603 255.744
221.41335 235.85742 255.744
221.40793 235.85437 255.744
221.42302 235.8629 255.744
221.40523 235.85284 255.744
221.41185 235.85657 255.744
221.42168 235.8621 255.744
221.41435 235.85797 255.744
221.40631 235.85345 255.744
221.39496 235.84705 255.744
221.41815 235.8601 255.744
221.41812 235.86012 255.744
221.4592 235.88327 255.744
221.44537 235.87546 255.744
221.45271 235.87958 255.744
221.46178 235.88467 255.744
221.4229 235.86276 255.744
221.4325 235.86823 255.744
221.44632 235.87599 255.744
221.43428 235.86923 255.744
221.4334 235.8687 255.744
221.4472 235.87648 255.744
221.46516 235.88661 255.744
221.44785 235.87686 255.744
221.42944 235.8665 255.744
221.4296 235.86658 255.744
221.45609 235.88147 255.744
221.45035 235.87825 255.744
221.44527 235.87538 255.744
221.44803 235.87694 255.744
221.43042 235.86703 255.744
221.46356 235.8857 255.744
221.43222 235.86806 255.744
221.4636 235.88571 255.744
221.45517 235.88097 255.744
221.44423 235.87482 255.744
221.433 235.86853 255.744
221.43758 235.87111 255.744
221.43195 235.86789 255.744
221.46127 235.88441 255.744
221.43477 235.86945 255.744
221.43854 235.87163 255.744
221.4316 235.86769 255.744
221.45175 235.87904 255.744
221.44786 235.87686 255.744
221.46089 235.88422 255.744
221.4343 235.86923 255.744
221.43336 235.86871 255.744
221.45528 235.88104 255.744
221.43745 235.871 255.744
221.45137 235.87883 255.744
221.44342 235.87437 255.744
221.43318 235.86858 255.744
221.44664 235.87616 255.744
221.44121 235.87312 255.744
221.45032 235.87825 255.744
221.46149 235.88454 255.744
221.45828 235.88272 255.744
221.42758 235.86542 255.744
221.43633 235.87035 255.744
221.43758 235.87105 255.744
221.45024 235.87819 255.744
221.43513 235.86972 255.744
221.43538 235.86981 255.744
221.43697 235.8707 255.744
221.45364 235.88011 255.744
221.4558 235.88133 255.744
221.42561 235.86432 255.744
221.45093 235.8786 255.744
221.46925 235.88893 255.744
221.45174 235.87906 255.744
221.42267 235.86269 255.744
221.43364 235.86884 255.744
221.4515 235.8789 255.744
221.45128 235.8788 255.744
221.44789 235.87688 255.744
221.43314 235.86856 255.744
221.43666 235.87054 255.744
221.43646 235.87044 255.744
221.4343 235.86922 255.744
221.45108 235.87868 255.744
221.43787 235.87126 255.744
221.4411 235.87305 255.744
221.43001 235.8668 255.744
221.43184 235.86786 255.744
221.42625 235.86467 255.744
221.43681 235.87064 255.744
221.4216 235.86208 255.744
221.43843 235.87157 255.744
221.43304 235.86847 255.744
221.44133 235.8732 255.744
221.45161 235.87897 255.744
221.44003 235.87248 255.744
221.46007 235.88374 255.744
221.44452 235.87495 255.744
221.43553 235.8699 255.744
221.42166 235.86208 255.744
221.4331 235.86855 255.744
221.44409 235.87474 255.744
221.43489 235.86958 255.744
221.4182 235.86018 255.744
221.43423 235.86922 255.744
221.4523 235.87935 255.744
221.4348 235.86954 255.744
221.43983 235.87231 255.744
221.43484 235.86954 255.744
221.44008 235.87247 255.744
221.44502 235.87527 255.744
221.43834 235.8715 255.744
221.42566 235.86435 255.744
221.42929 235.86638 255.744
221.43263 235.86824 255.744
221.43507 235.86963 255.744
221.44456 235.87502 255.744
221.4529 235.87971 255.744
221.43272 235.86835 255.744
221.44952 235.87782 255.744
221.43155 235.86766 255.744
221.43472 235.86945 255.744
221.44173 235.87341 255.744
221.45323 235.87988 255.744
221.44086 235.8729 255.744
221.44257 235.87387 255.744
221.43074 235.86722 255.744
221.44357 235.87445 255.744
221.42183 235.86217 255.744
221.44324 235.87422 255.744
221.43858 235.87166 255.744
221.41824 235.86017 255.744
221.44212 235.87363 255.744
221.43843 235.87157 255.744
221.44244 235.87383 255.744
221.4358 235.87003 255.744
221.44067 235.87282 255.744
221.44823 235.87706 255.744
221.4279 235.86562 255.744
221.44608 235.87584 255.744
221.42357 235.86317 255.744
221.44257 235.87387 255.744
221.42679 235.86502 255.744
221.45313 235.87984 255.744
221.45721 235.88211 255.744
221.45206 235.87921 255.744
221.43916 235.87195 255.744
221.43784 235.8712 255.744
221.43036 235.86699 255.744
221.42142 235.862 255.744
221.45088 235.87856 255.744
221.42943 235.86647 255.744
221.42133 235.8619 255.744
221.43428 235.86922 255.744
221.42703 235.86511 255.744
221.44182 235.87343 255.744
221.43538 235.86984 255.744
221.43376 235.86893 255.744
221.43962 235.87221 255.744
221.41927 235.86075 255.744
221.43065 235.86716 255.744
221.43408 235.86913 255.744
221.43842 235.87154 255.744
221.43323 235.8686 255.744
221.43433 235.86923 255.744
221.42142 235.86195 255.744
221.43073 235.8672 255.744
221.4461 235.87589 255.744
221.4405 235.87273 255.744
221.43962 235.8722 255.744
221.43929 235.87202 255.744
221.42647 235.86479 255.744
221.44214 235.87363 255.744
221.41464 235.85815 255.744
221.44804 235.87698 255.744
221.43674 235.87056 255.744
221.43307 235.86853 255.744
221.43224 235.86806 255.744
221.42677 235.86497 255.744
221.42798 235.86566 255.744
221.43211 235.86798 255.744
221.43477 235.86948 255.744
221.44249 235.87383 255.744
221.42223 235.86241 255.744
221.42883 235.86613 255.744
221.43527 235.86977 255.744
221.44868 235.87735 255.744
221.4226 235.86266 255.744
221.43489 235.86954 255.744
221.43294 235.86845 255.744
221.45453 235.88062 255.744
221.4357 235.87 255.744
221.4294 235.86646 255.744
221.44635 235.87604 255.744
221.43065 235.86719 255.744
221.42865 235.86606 255.744
221.46806 235.88826 255.744
221.43463 235.86943 255.744
221.44662 235.87617 255.744
221.44136 235.87317 255.744
221.42767 235.86548 255.744
221.44257 235.87389 255.744
221.4402 235.87253 255.744
221.42755 235.86545 255.744
221.42738 235.86534 255.744
221.42383 235.86334 255.744
221.42159 235.86206 255.744
221.42696 235.86511 255.744
221.4359 235.87013 255.744
221.45218 235.87927 255.744
221.44093 235.87299 255.744
221.46371 235.8858 255.744
221.43578 235.87004 255.744
221.45477 235.88075 255.744
221.44913 235.87756 255.744
221.4351 235.86966 255.744
221.41727 235.85963 255.744
221.42596 235.86453 255.744
221.44572 235.87564 255.744
221.42198 235.86227 255.744
221.4361 235.8702 255.744
221.45972 235.88353 255.744
221.4474 235.87657 255.744
221.43446 235.86932 255.744
221.45605 235.88147 255.744
221.4594 235.88338 255.744
221.45229 235.87932 255.744
221.42438 235.86362 255.744
221.42867 235.86607 255.744
221.43646 235.87042 255.744
221.43513 235.86972 255.744
221.4482 235.87703 255.744
221.43063 235.86714 255.744
221.43468 235.86945 255.744
221.44633 235.87599 255.744
221.42482 235.86389 255.744
221.4499 235.87802 255.744
221.43657 235.8705 255.744
221.44478 235.87514 255.744
221.4322 235.86806 255.744
221.42252 235.86256 255.744
221.42427 235.86359 255.744
221.43584 235.87007 255.744
221.436 235.8702 255.744
221.43494 235.86958 255.744
221.43762 235.87112 255.744
221.43054 235.8671 255.744
221.43034 235.867 255.744
221.43712 235.8708 255.744
221.43044 235.86705 255.744
221.43239 235.86815 255.744
221.42189 235.86221 255.744
221.4488 235.8774 255.744
221.44077 235.87288 255.744
221.43091 235.86731 255.744
221.43565 235.86998 255.744
221.44139 235.87325 255.744
221.43181 235.86781 255.744
221.44023 235.87256 255.744
221.44351 235.8744 255.744
221.43007 235.8668 255.744
221.4219 235.86223 255.744
221.45618 235.88155 255.744
221.44057 235.87276 255.744
221.4186 235.86038 255.744
221.44933 235.87767 255.744
221.42946 235.86652 255.744
221.42401 235.86342 255.744
221.4399 235.87233 255.744
221.42471 235.86382 255.744
221.43898 235.87186 255.744
221.45274 235.87961 255.744
221.42912 235.8663 255.744
221.43243 235.86818 255.744
221.42464 235.86377 255.744
221.44795 235.8769 255.744
221.43864 235.87164 255.744
221.42427 235.8636 255.744
221.44933 235.8777 255.744
221.42744 235.86537 255.744
221.4267 235.86497 255.744
221.44643 235.87604 255.744
221.44966 235.87787 255.744
221.43951 235.87215 255.744
221.43623 235.8703 255.744
221.418 235.86005 255.744
221.42358 235.86319 255.744
221.44612 235.8759 255.744
221.43494 235.86961 255.744
221.4424 235.87378 255.744
221.43631 235.87038 255.744
221.42982 235.86667 255.744
221.42328 235.863 255.744
221.4399 235.87239 255.744
221.42952 235.86653 255.744
221.44907 235.87749 255.744
221.44205 235.87358 255.744
221.43724 235.87088 255.744
221.4526 235.87952 255.744
221.42992 235.86678 255.744
221.4237 235.86322 255.744
221.44545 235.87547 255.744
221.44861 235.8773 255.744
221.44502 235.87526 255.744
221.4547 235.8807 255.744
221.42984 235.8667 255.744
221.43243 235.86815 255.744
221.42314 235.86293 255.744
221.4229 235.86276 255.744
221.41408 235.85785 255.744
221.43077 235.86723 255.744
221.4252 235.86407 255.744
221.43494 235.8696 255.744
221.42574 235.86441 255.744
221.44168 235.87338 255.744
221.44109 235.87306 255.744
221.4551 235.8809 255.744
221.4207 235.86154 255.744
221.46259 235.88515 255.744
221.42917 235.86632 255.744
221.423 235.86285 255.744
221.4433 235.87433 255.744
221.42152 235.86203 255.744
221.42838 235.86589 255.744
221.41783 235.85991 255.744
221.43803 235.8713 255.744
221.43608 235.87022 255.744
221.4353 235.86981 255.744
221.43777 235.87117 255.744
221.45699 235.882 255.744
221.44096 235.87299 255.744
221.43129 235.86751 255.744
221.4462 235.87593 255.744
221.44293 235.8741 255.744
221.40747 235.85411 255.744
221.4511 235.87866 255.744
221.4233 235.863 255.744
221.43402 235.86906 255.744
221.43156 235.86768 255.744
221.42157 235.86208 255.744
221.42677 235.86494 255.744
221.43886 235.87178 255.744
221.43185 235.86784 255.744
221.41724 235.85962 255.744
221.45033 235.87825 255.744
221.42828 235.86583 255.744
221.41365 235.85759 255.744
221.43983 235.87231 255.744
221.423 235.86285 255.744
221.44673 235.8762 255.744
221.4345 235.86935 255.744
221.42827 235.86583 255.744
221.43335 235.8687 255.744
221.44832 235.8771 255.744
221.40984 235.85545 255.744
221.42328 235.863 255.744
221.42033 235.86137 255.744
221.42249 235.86255 255.744
221.42784 235.86559 255.744
221.44633 235.876 255.744
221.43515 235.8697 255.744
221.44247 235.87387 255.744
221.42424 235.86357 255.744
221.45071 235.87846 255.744
221.44417 235.87476 255.744
221.4358 235.8701 255.744
221.43399 235.86905 255.744
221.45311 235.87979 255.744
221.42448 235.8637 255.744
221.4369 235.87068 255.744
221.43875 235.87175 255.744
221.4339 235.86902 255.744
221.40929 235.85515 255.744
221.4211 235.86177 255.744
221.4406 235.87277 255.744
221.43271 235.86833 255.744
221.4489 235.87746 255.744
221.42163 235.86209 255.744
221.43285 235.8684 255.744
221.45459 235.88065 255.744
221.43118 235.86748 255.744
221.43854 235.87158 255.744
221.41983 235.86107 255.744
221.43141 235.86761 255.744
221.439 235.87186 255.744
221.44037 235.87263 255.744
221.42516 235.86406 255.744
221.42197 235.86227 255.744
221.42406 235.86345 255.744
221.43939 235.87204 255.744
221.4324 235.86818 255.744
221.42758 235.86545 255.744
221.44789 235.87689 255.744
221.45058 235.87839 255.744
221.43158 235.86769 255.744
221.43129 235.86751 255.744
221.44241 235.8738 255.744
221.44283 235.87401 255.744
221.44687 235.8763 255.744
221.42664 235.8649 255.744
221.44719 235.87648 255.744
221.43953 235.87218 255.744
221.43768 235.87115 255.744
221.45792 235.88252 255.744
221.44127 235.87317 255.744
221.4705 235.88963 255.744
221.44957 235.87784 255.744
221.43646 235.87044 255.744
221.43584 235.87007 255.744
221.43004 235.86682 255.744
221.44862 235.87729 255.744
221.42894 235.8662 255.744
221.43053 235.86711 255.744
221.4313 235.86754 255.744
221.44173 235.87338 255.744
221.43959 235.87221 255.744
221.43922 235.872 255.744
221.4399 235.87236 255.744
221.40425 235.8523 255.744
221.41725 235.8596 255.744
221.42952 235.86653 255.744
221.4422 235.87367 255.744
221.44077 235.87285 255.744
221.45508 235.88094 255.744
221.44675 235.87624 255.744
221.43848 235.87158 255.744
221.44 235.87244 255.744
221.43623 235.87033 255.744
221.42914 235.86632 255.744
221.44775 235.8768 255.744
221.44539 235.87546 255.744
221.44629 235.87596 255.744
221.4194 235.86082 255.744
221.43303 235.86852 255.744
221.42607 235.8646 255.744
221.44806 235.87697 255.744
221.44472 235.8751 255.744
221.42534 235.86415 255.744
221.44914 235.87758 255.744
221.44096 235.87294 255.744
221.4367 235.87056 255.744
221.45387 235.88026 255.744
221.42302 235.86288 255.744
221.41977 235.86105 255.744
221.45258 235.87952 255.744
221.44951 235.87779 255.744
221.42932 235.86642 255.744
221.4368 235.8706 255.744
221.46136 235.88446 255.744
221.44466 235.87506 255.744
221.42781 235.86557 255.744
221.44417 235.87479 255.744
221.44803 235.87697 255.744
221.44577 235.87573 255.744
221.4345 235.86937 255.744
221.43996 235.87242 255.744
221.44016 235.8725 255.744
221.44363 235.87448 255.744
221.44008 235.87248 255.744
221.4329 235.86842 255.744
221.42856 235.866 255.744
221.4345 235.86932 255.744
221.42952 235.86652 255.744
221.44708 235.87642 255.744
221.44116 235.87308 255.744
221.4437 235.87451 255.744
221.44754 235.87668 255.744
221.4345 235.86932 255.744
221.41614 235.859 255.744
221.43011 235.86684 255.744
221.42413 235.8635 255.744
221.44609 235.87585 255.744
221.43965 235.87224 255.744
221.43538 235.86983 255.744
221.45555 235.88118 255.744
221.45264 235.87955 255.744
221.45538 235.8811 255.744
221.43639 235.8704 255.744
221.43924 235.872 255.744
221.44669 235.87617 255.744
221.4259 235.8645 255.744
221.43549 235.86987 255.744
221.44244 235.8738 255.744
221.44493 235.8752 255.744
221.42894 235.86621 255.744
221.43254 235.86823 255.744
221.42175 235.86215 255.744
221.44511 235.87534 255.744
221.43503 235.86963 255.744
221.43369 235.86887 255.744
221.45769 235.88239 255.744
221.46455 235.88623 255.744
221.42972 235.86662 255.744
221.44803 235.87697 255.744
221.45132 235.87881 255.744
221.44257 235.87389 255.744
221.42693 235.86507 255.744
221.4368 235.87062 255.744
221.4438 235.87457 255.744
221.44963 235.87787 255.744
221.43594 235.87016 255.744
221.4266 235.86488 255.744
221.42847 235.86594 255.744
221.44754 235.8767 255.744
221.44514 235.87535 255.744
221.4252 235.86409 255.744
221.43918 235.87195 255.744
221.42741 235.86536 255.744
221.44926 235.87766 255.744
221.4319 235.86787 255.744
221.44186 235.87349 255.744
221.4226 235.86261 255.744
221.45622 235.88155 255.744
221.443 235.8741 255.744
221.4549 235.88084 255.744
221.42426 235.86354 255.744
221.45844 235.88281 255.744
221.41797 235.86 255.744
221.43378 235.86896 255.744
221.45425 235.88048 255.744
221.44176 235.87343 255.744
221.43951 235.87216 255.744
221.44781 235.87683 255.744
221.42023 235.86133 255.744
221.44153 235.8733 255.744
221.4303 235.86696 255.744
221.4468 235.87625 255.744
221.44601 235.87581 255.744
221.44502 235.87524 255.744
221.43532 235.86975 255.744
221.44606 235.87582 255.744
221.4454 235.8755 255.744
221.43637 235.87039 255.744
221.429 235.86624 255.744
221.42339 235.86305 255.744
221.44164 235.87337 255.744
221.44092 235.87292 255.744
221.43755 235.87105 255.744
221.43358 235.8688 255.744
221.44635 235.876 255.744
221.42873 235.86609 255.744
221.44406 235.87471 255.744
221.41916 235.86067 255.744
221.41661 235.85922 255.744
221.4342 235.86919 255.744
221.44633 235.87599 255.744
221.4415 235.87326 255.744
221.45132 235.8788 255.744
221.4398 235.87233 255.744
221.43925 235.872 255.744
221.43646 235.87044 255.744
221.43335 235.8687 255.744
221.46873 235.88863 255.744
221.43602 235.8702 255.744
221.42322 235.863 255.744
221.44696 235.87639 255.744
221.43475 235.86949 255.744
221.43556 235.86996 255.744
221.44794 235.87689 255.744
221.4217 235.86214 255.744
221.44505 235.87529 255.744
221.45776 235.88249 255.744
221.42897 235.86624 255.744
221.45535 235.8811 255.744
221.46442 235.88618 255.744
221.44054 235.87274 255.744
221.43642 235.87042 255.744
221.42593 235.86449 255.744
221.4397 235.87228 255.744
221.44698 235.87637 255.744
221.464 235.88594 255.744
221.45154 235.87892 255.744
221.42752 235.8654 255.744
221.42473 235.86382 255.744
221.4255 235.86424 255.744
221.45255 235.87949 255.744
221.4245 235.86371 255.744
221.4413 235.87314 255.744
221.4599 235.88362 255.744
221.45314 235.8798 255.744
221.44194 235.87354 255.744
221.46654 235.88739 255.744
221.4521 235.87924 255.744
221.43993 235.87238 255.744
221.41815 235.8601 255.744
221.45357 235.88008 255.744
221.46504 235.88654 255.744
221.43768 235.87115 255.744
221.45177 235.87901 255.744
221.44113 235.87308 255.744
221.43935 235.87207 255.744
221.43674 235.8706 255.744
221.4361 235.8702 255.744
221.43391 235.869 255.744
221.43652 235.87048 255.744
221.43674 235.8706 255.744
221.45828 235.88272 255.744
221.44614 235.87592 255.744
221.43361 235.8688 255.744
221.43977 235.8723 255.744
221.43915 235.87198 255.744
221.44644 235.87605 255.744
221.4284 235.86589 255.744
221.43121 235.8675 255.744
221.45218 235.8793 255.744
221.44585 235.87572 255.744
221.45174 235.87909 255.744
221.44687 235.87631 255.744
221.43973 235.87228 255.744
221.44142 235.87321 255.744
221.44176 235.87341 255.744
221.43329 235.86864 255.744
221.43895 235.87184 255.744
221.43515 235.86969 255.744
221.44002 235.87245 255.744
221.47609 235.89276 255.744
221.48882 235.89995 255.744
221.46518 235.88663 255.744
221.46695 235.8876 255.744
221.47043 235.88959 255.744
221.49297 235.90227 255.744
221.5018 235.90724 255.744
221.46822 235.88834 255.744
221.48799 235.89948 255.744
221.47734 235.8935 255.744
221.46321 235.88553 255.744
221.4783 235.89403 255.744
221.46536 235.88675 255.744
221.45932 235.88332 255.744
221.46678 235.8875 255.744
221.46725 235.88777 255.744
221.47423 235.89172 255.744
221.4533 235.87993 255.744
221.48413 235.8973 255.744
221.4642 235.8861 255.744
221.46907 235.88881 255.744
221.47734 235.89348 255.744
221.4945 235.90317 255.744
221.4786 235.89417 255.744
221.477 235.89326 255.744
221.47737 235.8935 255.744
221.4771 235.89333 255.744
221.48662 235.89868 255.744
221.45366 235.88013 255.744
221.4597 235.88351 255.744
221.47072 235.88972 255.744
221.472 235.89047 255.744
221.47935 235.89455 255.744
221.49808 235.90515 255.744
221.46483 235.88641 255.744
221.47327 235.89117 255.744
221.4628 235.88527 255.744
221.4909 235.90108 255.744
221.46666 235.88747 255.744
221.46184 235.88472 255.744
221.48474 235.89764 255.744
221.46358 235.8857 255.744
221.46921 235.88887 255.744
221.47394 235.89154 255.744
221.47849 235.89413 255.744
221.4765 235.893 255.744
221.45105 235.87865 255.744
221.46642 235.8873 255.744
221.49611 235.90402 255.744
221.46793 235.88817 255.744
221.47897 235.89438 255.744
221.46825 235.88835 255.744
221.46674 235.88748 255.744
221.48312 235.89673 255.744
221.46469 235.88637 255.744
221.4672 235.88774 255.744
221.48322 235.89679 255.744
221.46236 235.88501 255.744
221.47667 235.8931 255.744
221.4754 235.89236 255.744
221.45993 235.88365 255.744
221.48532 235.89796 255.744
221.44353 235.87444 255.744
221.46037 235.88391 255.744
221.47609 235.89278 255.744
221.47203 235.89049 255.744
221.46053 235.88397 255.744
221.47865 235.89421 255.744
221.46106 235.88431 255.744
221.45392 235.88028 255.744
221.49799 235.90509 255.744
221.45367 235.88011 255.744
221.46185 235.88474 255.744
221.49321 235.9024 255.744
221.46898 235.88876 255.744
221.466 235.88705 255.744
221.48051 235.89526 255.744
221.4552 235.88098 255.744
221.4735 235.89128 255.744
221.46086 235.88419 255.744
221.46835 235.88838 255.744
221.47209 235.8905 255.744
221.47643 235.89296 255.744
221.47466 235.89194 255.744
221.46388 235.8859 255.744
221.46848 235.88847 255.744
221.48442 235.89746 255.744
221.48317 235.89676 255.744
221.47034 235.88951 255.744
221.47577 235.8926 255.744
221.46886 235.88869 255.744
221.47983 235.89485 255.744
221.4485 235.87718 255.744
221.49112 235.90126 255.744
221.4804 235.89516 255.744
221.46014 235.88377 255.744
221.45477 235.88077 255.744
221.4866 235.8987 255.744
221.44156 235.87334 255.744
221.46455 235.88625 255.744
221.48643 235.8986 255.744
221.46584 235.887 255.744
221.48282 235.89653 255.744
221.47551 235.89243 255.744
221.4772 235.89339 255.744
221.45993 235.88362 255.744
221.46527 235.88666 255.744
221.47672 235.89313 255.744
221.47621 235.89285 255.744
221.4535 235.88004 255.744
221.47786 235.89375 255.744
221.47139 235.89009 255.744
221.47746 235.89354 255.744
221.47862 235.89418 255.744
221.46268 235.88522 255.744
221.46556 235.88686 255.744
221.47763 235.89363 255.744
221.45992 235.88368 255.744
221.48062 235.8953 255.744
221.48277 235.8965 255.744
221.47163 235.89029 255.744
221.4819 235.89601 255.744
221.46326 235.88551 255.744
221.46605 235.8871 255.744
221.45741 235.88223 255.744
221.44774 235.87679 255.744
221.45854 235.8829 255.744
221.46931 235.88896 255.744
221.45732 235.8822 255.744
221.46764 235.88802 255.744
221.47304 235.89104 255.744
221.4582 235.88268 255.744
221.45999 235.8837 255.744
221.47136 235.8901 255.744
221.45392 235.8803 255.744
221.4823 235.89629 255.744
221.46889 235.8887 255.744
221.47032 235.88953 255.744
221.44518 235.87537 255.744
221.47252 235.89078 255.744
221.44687 235.87628 255.744
221.47363 235.89139 255.744
221.46982 235.88924 255.744
221.46683 235.88753 255.744
221.47978 235.89484 255.744
221.46577 235.88695 255.744
221.47318 235.89113 255.744
221.46577 235.88696 255.744
221.45866 235.88295 255.744
221.46812 235.88826 255.744
221.4502 235.87817 255.744
221.4686 235.88855 255.744
221.47952 235.89467 255.744
221.4567 235.88184 255.744
221.46973 235.88916 255.744
221.47762 235.89365 255.744
221.4519 235.87915 255.744
221.44969 235.87785 255.744
221.48312 235.89671 255.744
221.4834 235.89687 255.744
221.46712 235.88773 255.744
221.47551 235.89241 255.744
221.46046 235.88396 255.744
221.46861 235.88853 255.744
221.46541 235.88673 255.744
221.46497 235.8865 255.744
221.48015 235.89503 255.744
221.46552 235.88678 255.744
221.46387 235.8859 255.744
221.47853 235.89418 255.744
221.45975 235.88358 255.744
221.4663 235.88722 255.744
221.46965 235.88911 255.744
221.48718 235.89899 255.744
221.47888 235.89432 255.744
221.45027 235.8782 255.744
221.46367 235.88576 255.744
221.4601 235.88373 255.744
221.44205 235.87358 255.744
221.47887 235.89433 255.744
221.45908 235.8832 255.744
221.44957 235.87782 255.744
221.4679 235.88818 255.744
221.47533 235.89232 255.744
221.45499 235.88087 255.744
221.46474 235.88637 255.744
221.48013 235.89502 255.744
221.45186 235.87909 255.744
221.47238 235.89067 255.744
221.47371 235.8914 255.744
221.46692 235.88756 255.744
221.46187 235.88478 255.744
221.46407 235.88599 255.744
221.46416 235.88603 255.744
221.46864 235.8886 255.744
221.47656 235.893 255.744
221.47757 235.89359 255.744
221.45462 235.88066 255.744
221.4642 235.88605 255.744
221.46594 235.88705 255.744
221.4696 235.88914 255.744
221.46715 235.88773 255.744
221.47653 235.893 255.744
221.45267 235.8796 255.744
221.47308 235.8911 255.744
221.46555 235.8868 255.744
221.48412 235.89728 255.744
221.49612 235.90405 255.744
221.45235 235.87943 255.744
221.46133 235.88446 255.744
221.47408 235.89163 255.744
221.45561 235.88123 255.744
221.48033 235.89513 255.744
221.4555 235.88115 255.744
221.47475 235.89201 255.744
221.46036 235.88388 255.744
221.47133 235.89008 255.744
221.44624 235.87593 255.744
221.49332 235.90245 255.744
221.45142 235.87886 255.744
221.43881 235.87177 255.744
221.4789 235.89436 255.744
221.46109 235.8843 255.744
221.47153 235.89021 255.744
221.47064 235.8897 255.744
221.47928 235.89456 255.744
221.46786 235.88814 255.744
221.47462 235.89195 255.744
221.46512 235.88657 255.744
221.47842 235.89407 255.744
221.45872 235.88297 255.744
221.45546 235.88118 255.744
221.45343 235.88002 255.744
221.46666 235.88745 255.744
221.4714 235.89009 255.744
221.47408 235.89163 255.744
221.46681 235.88756 255.744
221.4756 235.8925 255.744
221.45534 235.88106 255.744
221.47646 235.89297 255.744
221.47441 235.8918 255.744
221.46297 235.88539 255.744
221.44554 235.87556 255.744
221.47879 235.8943 255.744
221.464 235.88596 255.744
221.4515 235.8789 255.744
221.46121 235.88437 255.744
221.46446 235.88622 255.744
221.46046 235.88397 255.744
221.47334 235.89124 255.744
221.46873 235.88861 255.744
221.46408 235.886 255.744
221.45946 235.88339 255.744
221.4581 235.88263 255.744
221.45335 235.87997 255.744
221.45259 235.87953 255.744
221.45415 235.88039 255.744
221.46121 235.88437 255.744
221.46365 235.88571 255.744
221.47392 235.89157 255.744
221.46367 235.88576 255.744
221.47221 235.8906 255.744
221.4591 235.88322 255.744
221.473 235.89102 255.744
221.45709 235.88206 255.744
221.4518 235.8791 255.744
221.47337 235.89125 255.744
221.46344 235.88562 255.744
221.47574 235.89255 255.744
221.46268 235.88521 255.744
221.45656 235.88177 255.744
221.4828 235.89656 255.744
221.46516 235.88661 255.744
221.45995 235.88368 255.744
221.45721 235.88214 255.744
221.45535 235.88106 255.744
221.4569 235.88196 255.744
221.47523 235.8923 255.744
221.46179 235.88472 255.744
221.47905 235.8944 255.744
221.46777 235.88806 255.744
221.47194 235.89043 255.744
221.475 235.89214 255.744
221.46591 235.88702 255.744
221.46933 235.88895 255.744
221.45566 235.88126 255.744
221.44962 235.87784 255.744
221.45386 235.88025 255.744
221.46765 235.88802 255.744
221.45021 235.87817 255.744
221.45317 235.87984 255.744
221.46892 235.88869 255.744
221.4478 235.87682 255.744
221.485 235.89778 255.744
221.45891 235.88307 255.744
221.45142 235.87885 255.744
221.47382 235.8915 255.744
221.46568 235.88692 255.744
221.4486 235.87727 255.744
221.45528 235.88101 255.744
221.472 235.89046 255.744
221.4886 235.89981 255.744
221.46678 235.88751 255.744
221.46265 235.8852 255.744
221.47495 235.89212 255.744
221.47063 235.88966 255.744
221.44785 235.87686 255.744
221.47331 235.89117 255.744
221.44923 235.87766 255.744
221.46344 235.88564 255.744
221.4838 235.89711 255.744
221.4676 235.88795 255.744
221.46689 235.88757 255.744
221.4594 235.88336 255.744
221.46196 235.88483 255.744
221.45566 235.88126 255.744
221.47275 235.89088 255.744
221.4694 235.88899 255.744
221.44615 235.8759 255.744
221.46495 235.88649 255.744
221.43573 235.87004 255.744
221.44742 235.87662 255.744
221.48344 235.8969 255.744
221.46439 235.88615 255.744
221.4646 235.88629 255.744
221.48235 235.8963 255.744
221.44456 235.87502 255.744
221.45721 235.88211 255.744
221.47806 235.89388 255.744
221.47597 235.8927 255.744
221.46089 235.8842 255.744
221.46753 235.88794 255.744
221.48741 235.89915 255.744
221.46118 235.88438 255.744
221.47804 235.89388 255.744
221.48492 235.89772 255.744
221.4772 235.89339 255.744
221.4681 235.88828 255.744
221.4583 235.88274 255.744
221.45633 235.88164 255.744
221.49576 235.90385 255.744
221.47688 235.89319 255.744
221.47856 235.89415 255.744
221.47438 235.8918 255.744
221.47627 235.89285 255.744
221.4607 235.88406 255.744
221.47061 235.8897 255.744
221.47401 235.89159 255.744
221.46994 235.88931 255.744
221.46378 235.88583 255.744
221.45728 235.88217 255.744
221.45836 235.88278 255.744
221.4759 235.89265 255.744
221.46072 235.88411 255.744
221.47548 235.8924 255.744
221.45105 235.87866 255.744
221.43828 235.87144 255.744
221.45529 235.88106 255.744
221.44269 235.87396 255.744
221.44522 235.87537 255.744
221.46988 235.88927 255.744
221.45764 235.88239 255.744
221.48454 235.89754 255.744
221.49028 235.90076 255.744
221.46059 235.88403 255.744
221.48236 235.89626 255.744
221.47766 235.89366 255.744
221.45844 235.88283 255.744
221.45038 235.87828 255.744
221.45885 235.88304 255.744
221.46799 235.88818 255.744
221.45522 235.881 255.744
221.4676 235.88797 255.744
221.45457 235.88062 255.744
221.46379 235.88585 255.744
221.47443 235.89183 255.744
221.46303 235.8854 255.744
221.46349 235.88567 255.744
221.48239 235.89632 255.744
221.46132 235.88441 255.744
221.46426 235.88612 255.744
221.46553 235.88683 255.744
221.4655 235.8868 255.744
221.48457 235.89754 255.744
221.47157 235.89021 255.744
221.46527 235.88667 255.744
221.46736 235.88783 255.744
221.481 235.89551 255.744
221.47438 235.8918 255.744
221.48262 235.89645 255.744
221.47856 235.89413 255.744
221.45998 235.88367 255.744
221.46779 235.88808 255.744
221.4783 235.89401 255.744
221.47557 235.89249 255.744
221.46346 235.88562 255.744
221.47777 235.8937 255.744
221.47551 235.89243 255.744
221.46704 235.88766 255.744
221.45128 235.87875 255.744
221.47626 235.89285 255.744
221.46478 235.8864 255.744
221.49742 235.90475 255.744
221.48073 235.89542 255.744
221.47739 235.89348 255.744
221.4605 235.88396 255.744
221.49095 235.90114 255.744
221.47182 235.89037 255.744
221.4712 235.89003 255.744
221.45721 235.88211 255.744
221.46739 235.88785 255.744
221.4715 235.89017 255.744
221.45277 235.87965 255.744
221.46513 235.88661 255.744
221.45651 235.88174 255.744
221.47575 235.89256 255.744
221.46416 235.88605 255.744
221.44775 235.87682 255.744
221.4765 235.89302 255.744
221.46822 235.88835 255.744
221.46552 235.8868 255.744
221.46016 235.88382 255.744
221.47006 235.88936 255.744
221.47392 235.89154 255.744
221.46107 235.8843 255.744
221.46725 235.88779 255.744
221.47647 235.89297 255.744
221.47646 235.89297 255.744
221.46652 235.88737 255.744
221.47104 235.88992 255.744
221.45465 235.88068 255.744
221.47093 235.88985 255.744
221.4632 235.88548 255.744
221.45955 235.8834 255.744
221.44104 235.87302 255.744
221.46329 235.88553 255.744
221.46132 235.88445 255.744
221.4554 235.88109 255.744
221.47015 235.88942 255.744
221.44974 235.87793 255.744
221.46321 235.8855 255.744
221.45166 235.879 255.744
221.47256 235.89078 255.744
221.47816 235.8939 255.744
221.45786 235.88249 255.744
221.46994 235.88925 255.744
221.44354 235.87444 255.744
221.4737 235.89137 255.744
221.45268 235.87958 255.744
221.48 235.89496 255.744
221.45578 235.88133 255.744
221.4425 235.87386 255.744
221.46341 235.88564 255.744
221.45152 235.87892 255.744
221.47406 235.89163 255.744
221.4483 235.8771 255.744
221.45914 235.88321 255.744
221.46692 235.88757 255.744
221.44621 235.87596 255.744
221.47017 235.8894 255.744
221.46614 235.88715 255.744
221.47757 235.8936 255.744
221.46556 235.88681 255.744
221.46384 235.88588 255.744
221.4661 235.88713 255.744
221.46954 235.88905 255.744
221.45625 235.88158 255.744
221.46246 235.8851 255.744
221.4661 235.88713 255.744
221.46597 235.88705 255.744
221.47127 235.89005 255.744
221.48453 235.89748 255.744
221.45839 235.88283 255.744
221.46213 235.88489 255.744
221.46796 235.88817 255.744
221.457 235.882 255.744
221.46152 235.88455 255.744
221.44727 235.87653 255.744
221.46877 235.88863 255.744
221.49057 235.90091 255.744
221.48795 235.89944 255.744
221.46501 235.8865 255.744
221.49599 235.90399 255.744
221.47717 235.89336 255.744
221.46576 235.88692 255.744
221.46567 235.88689 255.744
221.47313 235.8911 255.744
221.47043 235.88959 255.744
221.46394 235.88593 255.744
221.48079 235.89542 255.744
221.49281 235.90218 255.744
221.46568 235.8869 255.744
221.47202 235.89047 255.744
221.46992 235.88928 255.744
221.4473 235.87654 255.744
221.46156 235.88458 255.744
221.46779 235.88809 255.744
221.47314 235.8911 255.744
221.46655 235.8874 255.744
221.45819 235.88269 255.744
221.47745 235.89354 255.744
221.46976 235.88919 255.744
221.46178 235.8847 255.744
221.48286 235.89658 255.744
221.45801 235.8826 255.744
221.46104 235.88428 255.744
221.46 235.88368 255.744
221.46199 235.8848 255.744
221.44884 235.8774 255.744
221.46677 235.88754 255.744
221.4663 235.88725 255.744
221.4567 235.88182 255.744
221.47781 235.89372 255.744
221.47743 235.89355 255.744
221.46458 235.88628 255.744
221.48491 235.89772 255.744
221.46036 235.88391 255.744
221.49075 235.90103 255.744
221.47362 235.89137 255.744
221.48895 235.90002 255.744
221.44977 235.87794 255.744
221.44194 235.8735 255.744
221.47409 235.89165 255.744
221.4744 235.8918 255.744
221.46814 235.88828 255.744
221.47052 235.88963 255.744
221.46736 235.88783 255.744
221.47891 235.89436 255.744
221.4717 235.89029 255.744
221.48859 235.89983 255.744
221.46313 235.88547 255.744
221.47325 235.89114 255.744
221.48058 235.89532 255.744
221.4736 235.89136 255.744
221.47792 235.89378 255.744
221.47044 235.88959 255.744
221.45657 235.88174 255.744
221.47604 235.89272 255.744
221.4662 235.88719 255.744
221.47697 235.89323 255.744
221.47562 235.8925 255.744
221.48402 235.89723 255.744
221.49211 235.90178 255.744
221.47583 235.89261 255.744
221.46245 235.88507 255.744
221.46167 235.88461 255.744
221.48643 235.89862 255.744
221.46487 235.88644 255.744
221.48407 235.89728 255.744
221.4797 235.8948 255.744
221.47469 235.89194 255.744
221.47458 235.89192 255.744
221.45189 235.87915 255.744
221.46887 235.8887 255.744
221.47287 235.89093 255.744
221.45692 235.882 255.744
221.46625 235.8872 255.744
221.46918 235.88887 255.744
221.4685 235.88849 255.744
221.46693 235.88759 255.744
221.47203 235.89047 255.744
221.45897 235.88313 255.744
221.47043 235.88957 255.744
221.48322 235.89677 255.744
221.47205 235.89047 255.744
221.47423 235.89172 255.744
221.46008 235.88376 255.744
221.48059 235.89528 255.744
221.4659 235.88702 255.744
221.46898 235.88875 255.744
221.46404 235.88596 255.744
221.48003 235.89497 255.744
221.4816 235.89587 255.744
221.46861 235.88858 255.744
221.46422 235.88605 255.744
221.48894 235.9 255.744
221.47058 235.88963 255.744
221.48253 235.89636 255.744
221.48672 235.89877 255.744
221.47488 235.89206 255.744
221.46948 235.88904 255.744
221.47731 235.89343 255.744
221.46269 235.88525 255.744
221.5064 235.90982 255.744
221.45956 235.88345 255.744
221.48181 235.896 255.744
221.49149 235.90144 255.744
221.47353 235.89134 255.744
221.47935 235.8946 255.744
221.46092 235.8842 255.744
221.48386 235.89714 255.744
221.4765 235.89296 255.744
221.48422 235.89735 255.744
221.46869 235.88858 255.744
221.47198 235.89049 255.744
221.46625 235.8872 255.744
221.4826 235.89647 255.744
221.48439 235.89743 255.744
221.44969 235.87788 255.744
221.4652 235.88664 255.744
221.48903 235.90005 255.744
221.51303 235.91354 255.744
221.50227 235.90752 255.744
221.50606 235.90965 255.744
221.50803 235.91074 255.744
221.52081 235.91792 255.744
221.51576 235.91512 255.744
221.5023 235.90753 255.744
221.52676 235.92128 255.744
221.48811 235.89954 255.744
221.49384 235.90276 255.744
221.50009 235.9063 255.744
221.50189 235.90729 255.744
221.50578 235.90947 255.744
221.52019 235.9176 255.744
221.48277 235.89653 255.744
221.49185 235.9016 255.744
221.50438 235.90869 255.744
221.50371 235.90833 255.744
221.50162 235.90715 255.744
221.48697 235.89886 255.744
221.49127 235.90135 255.744
221.51077 235.91232 255.744
221.4949 235.90334 255.744
221.49892 235.90562 255.744
221.48668 235.89873 255.744
221.4926 235.90205 255.744
221.49095 235.90115 255.744
221.50386 235.9084 255.744
221.51068 235.91225 255.744
221.51659 235.91556 255.744
221.48993 235.90056 255.744
221.48207 235.89612 255.744
221.51634 235.91545 255.744
221.50148 235.90709 255.744
221.50363 235.90826 255.744
221.50847 235.91098 255.744
221.4932 235.9024 255.744
221.48883 235.89993 255.744
221.49622 235.90408 255.744
221.4747 235.89198 255.744
221.52316 235.91928 255.744
221.5287 235.92241 255.744
221.53307 235.92487 255.744
221.50746 235.91043 255.744
221.49733 235.9047 255.744
221.50919 235.91142 255.744
221.51933 235.91711 255.744
221.49869 235.90549 255.744
221.50287 235.90782 255.744
221.50441 235.90872 255.744
221.51952 235.91724 255.744
221.50356 235.90826 255.744
221.49873 235.9055 255.744
221.47723 235.8934 255.744
221.50551 235.90933 255.744
221.51541 235.91493 255.744
221.49413 235.90294 255.744
221.50203 235.90733 255.744
221.49213 235.9018 255.744
221.51093 235.91238 255.744
221.4972 235.90466 255.744
221.49489 235.90335 255.744
221.51408 235.91414 255.744
221.5092 235.9114 255.744
221.48624 235.89848 255.744
221.50206 235.9074 255.744
221.5033 235.90807 255.744
221.50166 235.90717 255.744
221.51012 235.91194 255.744
221.51106 235.91246 255.744
221.48593 235.89827 255.744
221.50044 235.90648 255.744
221.4834 235.89688 255.744
221.51054 235.91216 255.744
221.50072 235.90663 255.744
221.53738 235.92728 255.744
221.49919 235.9058 255.744
221.50517 235.90913 255.744
221.50816 235.9108 255.744
221.50833 235.91092 255.744
221.51294 235.91351 255.744
221.52116 235.91815 255.744
221.50372 235.90836 255.744
221.50304 235.90796 255.744
221.5089 235.91121 255.744
221.49077 235.90105 255.744
221.50784 235.91066 255.744
221.50818 235.91081 255.744
221.5082 235.91083 255.744
221.50421 235.90865 255.744
221.50607 235.90965 255.744
221.5074 235.91039 255.744
221.49992 235.9062 255.744
221.50404 235.9085 255.744
221.51228 235.91315 255.744
221.47507 235.8922 255.744
221.49687 235.90448 255.744
221.50671 235.91002 255.744
221.51112 235.9125 255.744
221.48634 235.89854 255.744
221.4896 235.90036 255.744
221.4974 235.90479 255.744
221.51488 235.9146 255.744
221.4974 235.90475 255.744
221.50996 235.91187 255.744
221.50473 235.90887 255.744
221.49976 235.9061 255.744
221.48512 235.89787 255.744
221.49876 235.90552 255.744
221.49194 235.90167 255.744
221.49825 235.90524 255.744
221.5035 235.90825 255.744
221.5003 235.90639 255.744
221.49721 235.90466 255.744
221.49988 235.90616 255.744
221.51152 235.91269 255.744
221.49551 235.9037 255.744
221.48608 235.8984 255.744
221.49438 235.90305 255.744
221.47849 235.89409 255.744
221.5083 235.9109 255.744
221.50134 235.90701 255.744
221.49538 235.90363 255.744
221.49413 235.90292 255.744
221.49396 235.90283 255.744
221.48454 235.89752 255.744
221.48419 235.89734 255.744
221.50166 235.90717 255.744
221.47823 235.89395 255.744
221.4962 235.90408 255.744
221.4968 235.90442 255.744
221.501 235.90681 255.744
221.50507 235.9091 255.744
221.50581 235.90953 255.744
221.50624 235.90971 255.744
221.52211 235.91869 255.744
221.4864 235.89856 255.744
221.51779 235.91624 255.744
221.49908 235.90573 255.744
221.49947 235.90591 255.744
221.49556 235.90372 255.744
221.51006 235.91188 255.744
221.50592 235.90956 255.744
221.50345 235.90819 255.744
221.48735 235.89911 255.744
221.49506 235.90344 255.744
221.50725 235.91032 255.744
221.51547 235.91495 255.744
221.51015 235.91194 255.744
221.47844 235.89409 255.744
221.48978 235.90051 255.744
221.49751 235.90486 255.744
221.504 235.90848 255.744
221.5108 235.91232 255.744
221.49637 235.90417 255.744
221.50339 235.90813 255.744
221.50461 235.90884 255.744
221.47546 235.89243 255.744
221.5147 235.91452 255.744
221.48685 235.89882 255.744
221.51251 235.91333 255.744
221.48418 235.89734 255.744
221.49002 235.90065 255.744
221.50638 235.90984 255.744
221.5035 235.9082 255.744
221.51588 235.9152 255.744
221.485 235.89778 255.744
221.50548 235.90935 255.744
221.48401 235.89722 255.744
221.47989 235.89488 255.744
221.49695 235.9045 255.744
221.50035 235.90643 255.744
221.52388 235.9197 255.744
221.5081 235.91078 255.744
221.48526 235.8979 255.744
221.49081 235.90102 255.744
221.51341 235.91379 255.744
221.48685 235.89883 255.744
221.5034 235.90816 255.744
221.50699 235.91019 255.744
221.49771 235.9049 255.744
221.47377 235.89146 255.744
221.4903 235.90076 255.744
221.49701 235.90454 255.744
221.50227 235.90752 255.744
221.4891 235.90009 255.744
221.51915 235.91702 255.744
221.48172 235.8959 255.744
221.48456 235.89754 255.744
221.49884 235.90561 255.744
221.4911 235.90125 255.744
221.50433 235.90869 255.744
221.48463 235.89757 255.744
221.5144 235.91435 255.744
221.49706 235.90459 255.744
221.4933 235.90245 255.744
221.48111 235.89557 255.744
221.50972 235.9117 255.744
221.48476 235.89766 255.744
221.51389 235.91403 255.744
221.49673 235.90439 255.744
221.50812 235.91078 255.744
221.48923 235.90018 255.744
221.47763 235.89363 255.744
221.50287 235.90785 255.744
221.50093 235.90675 255.744
221.5061 235.90965 255.744
221.51076 235.91228 255.744
221.49359 235.9026 255.744
221.49596 235.90396 255.744
221.50755 235.91045 255.744
221.50671 235.91 255.744
221.4886 235.89981 255.744
221.49744 235.90479 255.744
221.50766 235.91057 255.744
221.48442 235.89748 255.744
221.50314 235.90799 255.744
221.49744 235.90479 255.744
221.50783 235.91061 255.744
221.5103 235.91202 255.744
221.50043 235.90648 255.744
221.50061 235.9066 255.744
221.4909 235.9011 255.744
221.51192 235.91293 255.744
221.49487 235.90332 255.744
221.49947 235.90593 255.744
221.49606 235.904 255.744
221.49399 235.90283 255.744
221.48389 235.89717 255.744
221.52557 235.92062 255.744
221.47836 235.89404 255.744
221.51355 235.91388 255.744
221.50218 235.90749 255.744
221.48701 235.89894 255.744
221.49414 235.90292 255.744
221.48012 235.89503 255.744
221.49869 235.90552 255.744
221.50203 235.90733 255.744
221.50218 235.90746 255.744
221.50931 235.91151 255.744
221.49414 235.90292 255.744
221.48668 235.89873 255.744
221.48805 235.8995 255.744
221.51344 235.9138 255.744
221.50117 235.90689 255.744
221.48688 235.89882 255.744
221.49237 235.90195 255.744
221.50873 235.91113 255.744
221.49374 235.90271 255.744
221.50137 235.90701 255.744
221.50633 235.9098 255.744
221.50618 235.90971 255.744
221.49132 235.90135 255.744
221.50485 235.90897 255.744
221.48772 235.89932 255.744
221.48618 235.89844 255.744
221.48637 235.89854 255.744
221.50356 235.90825 255.744
221.49379 235.90273 255.744
221.49109 235.90121 255.744
221.508 235.91075 255.744
221.51514 235.91475 255.744
221.51266 235.91336 255.744
221.50174 235.90721 255.744
221.5193 235.9171 255.744
221.51292 235.91351 255.744
221.5065 235.9099 255.744
221.4833 235.89682 255.744
221.4965 235.90428 255.744
221.48254 235.89641 255.744
221.50204 235.90738 255.744
221.50055 235.90654 255.744
221.49686 235.90446 255.744
221.48767 235.8993 255.744
221.49496 235.9034 255.744
221.50348 235.90822 255.744
221.47813 235.89392 255.744
221.48647 235.89859 255.744
221.49452 235.90315 255.744
221.49954 235.90596 255.744
221.51006 235.91191 255.744
221.49702 235.90457 255.744
221.52827 235.92213 255.744
221.506 235.90962 255.744
221.49995 235.90619 255.744
221.49272 235.90213 255.744
221.4993 235.90582 255.744
221.50385 235.9084 255.744
221.50293 235.9079 255.744
221.50264 235.9077 255.744
221.51926 235.91707 255.744
221.48935 235.90025 255.744
221.48958 235.90034 255.744
221.49078 235.90102 255.744
221.50377 235.90834 255.744
221.48972 235.90045 255.744
221.50394 235.90845 255.744
221.50314 235.90797 255.744
221.51743 235.91605 255.744
221.4944 235.90308 255.744
221.49777 235.90498 255.744
221.51915 235.91699 255.744
221.49074 235.90105 255.744
221.51599 235.91525 255.744
221.49753 235.90485 255.744
221.49837 235.9053 255.744
221.48512 235.89787 255.744
221.50797 235.91077 255.744
221.50908 235.91135 255.744
221.4778 235.89374 255.744
221.49013 235.90068 255.744
221.50801 235.91074 255.744
221.51743 235.91602 255.744
221.48903 235.90005 255.744
221.51088 235.91235 255.744
221.49713 235.90465 255.744
221.49945 235.90591 255.744
221.50087 235.90672 255.744
221.48453 235.89749 255.744
221.50531 235.90921 255.744
221.49591 235.9039 255.744
221.48827 235.89961 255.744
221.49995 235.9062 255.744
221.50032 235.9064 255.744
221.49734 235.90474 255.744
221.50052 235.90651 255.744
221.5164 235.91548 255.744
221.50717 235.9103 255.744
221.50005 235.90623 255.744
221.48605 235.89838 255.744
221.5097 235.9117 255.744
221.4903 235.90076 255.744
221.51143 235.91264 255.744
221.52274 235.91905 255.744
221.50874 235.91112 255.744
221.47968 235.89476 255.744
221.48985 235.90051 255.744
221.49855 235.90538 255.744
221.50787 235.91068 255.744
221.53172 235.92406 255.744
221.50668 235.91 255.744
221.49557 235.90372 255.744
221.48943 235.90027 255.744
221.49129 235.90135 255.744
221.51303 235.91357 255.744
221.49951 235.90593 255.744
221.48804 235.89949 255.744
221.50887 235.9112 255.744
221.49469 235.90326 255.744
221.50404 235.90852 255.744
221.49974 235.90605 255.744
221.49034 235.90077 255.744
221.48964 235.90038 255.744
221.48961 235.9004 255.744
221.49544 235.90364 255.744
221.49533 235.9036 255.744
221.5022 235.90747 255.744
221.5063 235.90979 255.744
221.49062 235.90094 255.744
221.50955 235.9116 255.744
221.49512 235.90347 255.744
221.51164 235.9128 255.744
221.50458 235.90883 255.744
221.52417 235.91985 255.744
221.4985 235.90538 255.744
221.49991 235.90617 255.744
221.48706 235.89896 255.744
221.49046 235.90083 255.744
221.51898 235.9169 255.744
221.51572 235.91508 255.744
221.4895 235.90028 255.744
221.49957 235.906 255.744
221.47993 235.89491 255.744
221.50491 235.909 255.744
221.4908 235.901 255.744
221.5064 235.90982 255.744
221.50835 235.91092 255.744
221.50992 235.91185 255.744
221.49165 235.90154 255.744
221.49118 235.90125 255.744
221.49623 235.9041 255.744
221.49268 235.90213 255.744
221.50099 235.90678 255.744
221.50206 235.9074 255.744
221.50226 235.9075 255.744
221.4862 235.89847 255.744
221.48453 235.8975 255.744
221.48988 235.90053 255.744
221.50468 235.90892 255.744
221.48868 235.89987 255.744
221.50233 235.90752 255.744
221.50293 235.90787 255.744
221.4882 235.89958 255.744
221.48343 235.89691 255.744
221.52608 235.9209 255.744
221.48523 235.89793 255.744
221.49744 235.9048 255.744
221.49088 235.90108 255.744
221.50954 235.9116 255.744
221.50354 235.90823 255.744
221.49815 235.90518 255.744
221.48979 235.90047 255.744
221.5176 235.91612 255.744
221.49615 235.90408 255.744
221.49574 235.90382 255.744
221.47795 235.8938 255.744
221.50386 235.9084 255.744
221.48792 235.89944 255.744
221.5001 235.90628 255.744
221.48676 235.89877 255.744
221.50085 235.90671 255.744
221.506 235.9096 255.744
221.49234 235.90192 255.744
221.48543 235.89801 255.744
221.49765 235.90492 255.744
221.49702 235.90457 255.744
221.4915 235.90146 255.744
221.5041 235.90852 255.744
221.4957 235.90382 255.744
221.49492 235.90337 255.744
221.49666 235.90436 255.744
221.49487 235.90334 255.744
221.49617 235.90408 255.744
221.51346 235.91379 255.744
221.52545 235.92058 255.744
221.49362 235.90263 255.744
221.49622 235.90411 255.744
221.49728 235.90471 255.744
221.4953 235.90356 255.744
221.51237 235.91321 255.744
221.48167 235.89595 255.744
221.50542 235.90929 255.744
221.48357 235.89697 255.744
221.49767 235.9049 255.744
221.49132 235.90134 255.744
221.49529 235.90358 255.744
221.5179 235.91634 255.744
221.49294 235.90225 255.744
221.49344 235.90254 255.744
221.52046 235.91777 255.744
221.50623 235.90976 255.744
221.49074 235.90105 255.744
221.49565 235.90378 255.744
221.51584 235.91515 255.744
221.51276 235.91344 255.744
221.49406 235.9029 255.744
221.49724 235.90468 255.744
221.49873 235.90547 255.744
221.50908 235.91132 255.744
221.50233 235.90753 255.744
221.48135 235.8957 255.744
221.50879 235.91118 255.744
221.50388 235.90842 255.744
221.48296 235.89664 255.744
221.4794 235.89462 255.744
221.48903 235.90002 255.744
221.50285 235.90784 255.744
221.50433 235.90866 255.744
221.5014 235.90701 255.744
221.50188 235.90729 255.744
221.48508 235.89783 255.744
221.51463 235.91444 255.744
221.49431 235.90306 255.744
221.4994 235.9059 255.744
221.5139 235.91408 255.744
221.49498 235.9034 255.744
221.50429 235.90863 255.744
221.51578 235.91513 255.744
221.50955 235.91159 255.744
221.48143 235.8958 255.744
221.50505 235.9091 255.744
221.51384 235.91403 255.744
221.51968 235.91733 255.744
221.49442 235.90308 255.744
221.4843 235.8974 255.744
221.47806 235.89389 255.744
221.51431 235.91426 255.744
221.49727 235.90472 255.744
221.51636 235.91547 255.744
221.48993 235.90059 255.744
221.51663 235.91562 255.744
221.49889 235.90558 255.744
221.48679 235.89877 255.744
221.51636 235.91547 255.744
221.50279 235.90782 255.744
221.49318 235.9024 255.744
221.50116 235.90688 255.744
221.50667 235.90999 255.744
221.4997 235.90607 255.744
221.51228 235.91316 255.744
221.51549 235.91492 255.744
221.49745 235.9048 255.744
221.49757 235.90488 255.744
221.50613 235.90967 255.744
221.50128 235.90695 255.744
221.52731 235.92163 255.744
221.48984 235.9005 255.744
221.48889 235.9 255.744
221.50856 235.91104 255.744
221.51576 235.91513 255.744
221.491 235.90117 255.744
221.51662 235.91562 255.744
221.49135 235.90137 255.744
221.4836 235.89697 255.744
221.49205 235.90175 255.744
221.51877 235.91681 255.744
221.49782 235.90501 255.744
221.50786 235.91064 255.744
221.51337 235.91379 255.744
221.49568 235.9038 255.744
221.50424 235.90863 255.744
221.51402 235.91411 255.744
221.50174 235.90726 255.744
221.50671 235.91 255.744
221.49495 235.90337 255.744
221.5147 235.9145 255.744
221.48746 235.89919 255.744
221.48601 235.89835 255.744
221.50636 235.90982 255.744
221.49203 235.90173 255.744
221.50464 235.90884 255.744
221.50398 235.90845 255.744
221.49373 235.90271 255.744
221.48692 235.89886 255.744
221.48602 235.89835 255.744
221.5054 235.9093 255.744
221.50586 235.90952 255.744
221.49681 235.90442 255.744
221.50156 235.90714 255.744
221.53262 235.9246 255.744
221.5088 235.9112 255.744
221.47624 235.89284 255.744
221.49686 235.90446 255.744
221.50316 235.908 255.744
221.51239 235.91321 255.744
221.5039 235.9084 255.744
221.48578 235.8982 255.744
221.49141 235.90138 255.744
221.51915 235.91702 255.744
221.50377 235.90836 255.744
221.49602 235.90398 255.744
221.48505 235.89778 255.744
221.5102 235.91197 255.744
221.52489 235.92024 255.744
221.50395 235.90848 255.744
221.51352 235.91385 255.744
221.51335 235.91374 255.744
221.5162 235.91534 255.744
221.50601 235.90962 255.744
221.51416 235.91418 255.744
221.50813 235.9108 255.744
221.50838 235.91096 255.744
221.50371 235.90833 255.744
221.50885 235.91122 255.744
221.51593 235.91519 255.744
221.48972 235.90045 255.744
221.50015 235.90634 255.744
221.48227 235.89624 255.744
221.51042 235.91211 255.744
221.51741 235.91606 255.744
221.50768 235.91052 255.744
221.48138 235.89572 255.744
221.48955 235.90033 255.744
221.50842 235.91098 255.744
221.49371 235.90266 255.744
221.4899 235.90056 255.744
221.49757 235.90488 255.744
221.51518 235.91476 255.744
221.49725 235.9047 255.744
221.50937 235.91154 255.744
221.498 235.90514 255.744
221.49538 235.90363 255.744
221.49957 235.90599 255.744
221.5 235.90623 255.744
221.5123 235.91316 255.744
221.51154 235.91267 255.744
221.51671 235.91565 255.744
221.50137 235.907 255.744
221.4976 235.90488 255.744
221.50568 235.90945 255.744
221.5011 235.90686 255.744
221.50107 235.90683 255.744
221.49527 235.90358 255.744
221.51387 235.91405 255.744
221.50471 235.90889 255.744
221.50568 235.90945 255.744
221.51286 235.91347 255.744
221.50475 235.90892 255.744
221.50937 235.91153 255.744
221.48965 235.9004 255.744
221.50078 235.90663 255.744
221.50276 235.90779 255.744
221.50511 235.90912 255.744
221.49872 235.9055 255.744
221.48677 235.89877 255.744
221.49509 235.90346 255.744
221.4982 235.90523 255.744
221.49622 235.90411 255.744
221.49759 235.90486 255.744
221.55219 235.93561 255.744
221.53418 235.92548 255.744
221.53615 235.92659 255.744
221.5466 235.93248 255.744
221.54616 235.93224 255.744
221.53717 235.92719 255.744
221.52466 235.92014 255.744
221.5309 235.92366 255.744
221.54332 235.93065 255.744
221.53705 235.92711 255.744
221.53125 235.92384 255.744
221.54358 235.9308 255.744
221.52756 235.92174 255.744
221.52954 235.92288 255.744
221.53511 235.92598 255.744
221.53618 235.92664 255.744
221.51807 235.9164 255.744
221.52403 235.91974 255.744
221.55174 235.93538 255.744
221.53683 235.92697 255.744
221.5352 235.92606 255.744
221.52628 235.92102 255.744
221.51128 235.91258 255.744
221.52728 235.9216 255.744
221.53929 235.92836 255.744
221.53842 235.92787 255.744
221.5226 235.91896 255.744
221.53009 235.9232 255.744
221.54935 235.93404 255.744
221.52585 235.92079 255.744
221.54999 235.9344 255.744
221.54938 235.93405 255.744
221.55202 235.93552 255.744
221.54446 235.93129 255.744
221.54501 235.9316 255.744
221.53001 235.92314 255.744
221.52121 235.91818 255.744
221.53348 235.92508 255.744
221.52995 235.92313 255.744
221.53705 235.92711 255.744
221.53429 235.92555 255.744
221.50992 235.91183 255.744
221.51915 235.91702 255.744
221.54298 235.93045 255.744
221.53188 235.9242 255.744
221.52147 235.91833 255.744
221.54012 235.92885 255.744
221.52663 235.92123 255.744
221.52441 235.91997 255.744
221.53574 235.92638 255.744
221.50859 235.91104 255.744
221.52162 235.91841 255.744
221.52711 235.92152 255.744
221.52534 235.9205 255.744
221.53703 235.92712 255.744
221.54478 235.93143 255.744
221.5262 235.921 255.744
221.51666 235.91563 255.744
221.53322 235.92491 255.744
221.56128 235.94075 255.744
221.52995 235.92311 255.744
221.52968 235.92296 255.744
221.54028 235.92892 255.744
221.54984 235.9343 255.744
221.53944 235.92845 255.744
221.5366 235.92686 255.744
221.52516 235.9204 255.744
221.53616 235.9266 255.744
221.54268 235.93028 255.744
221.53085 235.92361 255.744
221.53023 235.92323 255.744
221.54039 235.92899 255.744
221.5433 235.93063 255.744
221.5243 235.91992 255.744
221.52516 235.92043 255.744
221.54326 235.9306 255.744
221.51025 235.912 255.744
221.50937 235.91151 255.744
221.51933 235.91714 255.744
221.54137 235.92955 255.744
221.51588 235.91516 255.744
221.54199 235.9299 255.744
221.53825 235.92778 255.744
221.52794 235.92198 255.744
221.52414 235.91982 255.744
221.54086 235.92924 255.744
221.5321 235.92435 255.744
221.5325 235.92455 255.744
221.55264 235.93588 255.744
221.52054 235.91777 255.744
221.5431 235.93051 255.744
221.5321 235.92433 255.744
221.53783 235.92754 255.744
221.54152 235.92964 255.744
221.52127 235.9182 255.744
221.54086 235.92926 255.744
221.51906 235.91696 255.744
221.53275 235.92465 255.744
221.54224 235.93002 255.744
221.52113 235.91812 255.744
221.52235 235.91885 255.744
221.54 235.92879 255.744
221.53314 235.92488 255.744
221.5374 235.92732 255.744
221.51106 235.91246 255.744
221.53987 235.9287 255.744
221.5347 235.92575 255.744
221.54057 235.92906 255.744
221.52405 235.9198 255.744
221.51918 235.91705 255.744
221.55191 235.93549 255.744
221.51064 235.91222 255.744
221.55101 235.93498 255.744
221.54378 235.9309 255.744
221.53888 235.92813 255.744
221.53209 235.92429 255.744
221.5451 235.93164 255.744
221.52809 235.92206 255.744
221.54155 235.92966 255.744
221.54237 235.93011 255.744
221.53726 235.92723 255.744
221.53781 235.92752 255.744
221.53177 235.92412 255.744
221.54393 235.931 255.744
221.54138 235.92953 255.744
221.54416 235.9311 255.744
221.54286 235.93037 255.744
221.51862 235.91672 255.744
221.52896 235.92255 255.744
221.52617 235.92099 255.744
221.51782 235.91628 255.744
221.51547 235.91495 255.744
221.52924 235.9227 255.744
221.53809 235.92766 255.744
221.52498 235.92027 255.744
221.53683 235.92697 255.744
221.54599 235.93213 255.744
221.52287 235.91916 255.744
221.52834 235.9222 255.744
221.52664 235.92125 255.744
221.5444 235.93123 255.744
221.51486 235.9146 255.744
221.53606 235.92651 255.744
221.54172 235.92972 255.744
221.5284 235.9222 255.744
221.50047 235.90648 255.744
221.53044 235.9234 255.744
221.52676 235.9213 255.744
221.54431 235.9312 255.744
221.53346 235.92508 255.744
221.53128 235.92386 255.744
221.52678 235.92133 255.744
221.52 235.91748 255.744
221.53285 235.92473 255.744
221.5267 235.92128 255.744
221.52573 235.92072 255.744
221.54759 235.93304 255.744
221.53378 235.92528 255.744
221.54051 235.92905 255.744
221.55486 235.93715 255.744
221.53955 235.92848 255.744
221.51582 235.91515 255.744
221.51895 235.9169 255.744
221.53236 235.92448 255.744
221.53148 235.92395 255.744
221.53075 235.92355 255.744
221.51027 235.91205 255.744
221.5178 235.91628 255.744
221.54259 235.93024 255.744
221.54254 235.93019 255.744
221.51474 235.91454 255.744
221.54112 235.92938 255.744
221.54391 235.93097 255.744
221.52075 235.91791 255.744
221.53413 235.92546 255.744
221.53589 235.92644 255.744
221.52602 235.92088 255.744
221.52873 235.92244 255.744
221.5146 235.91443 255.744
221.52904 235.9226 255.744
221.53215 235.92432 255.744
221.53995 235.92871 255.744
221.54654 235.93248 255.744
221.53035 235.92332 255.744
221.53856 235.92796 255.744
221.52547 235.92058 255.744
221.52223 235.91875 255.744
221.54402 235.93102 255.744
221.51433 235.9143 255.744
221.54393 235.931 255.744
221.51895 235.91693 255.744
221.52762 235.9218 255.744
221.54678 235.9326 255.744
221.5419 235.92986 255.744
221.54192 235.92986 255.744
221.54547 235.93187 255.744
221.52109 235.9181 255.744
221.52971 235.92297 255.744
221.52669 235.92128 255.744
221.54236 235.9301 255.744
221.5227 235.91902 255.744
221.53844 235.92786 255.744
221.52338 235.91939 255.744
221.5306 235.92345 255.744
221.5211 235.9181 255.744
221.5206 235.91785 255.744
221.52614 235.92093 255.744
221.53427 235.92554 255.744
221.53705 235.92711 255.744
221.5493 235.93402 255.744
221.5344 235.9256 255.744
221.5365 235.92679 255.744
221.5204 235.91772 255.744
221.54642 235.93237 255.744
221.5159 235.9152 255.744
221.52802 235.92201 255.744
221.52176 235.91849 255.744
221.5415 235.9296 255.744
221.54964 235.93419 255.744
221.54158 235.92967 255.744
221.53629 235.92667 255.744
221.53894 235.92818 255.744
221.51546 235.91493 255.744
221.54315 235.93054 255.744
221.55759 235.93867 255.744
221.51979 235.91737 255.744
221.51724 235.91597 255.744
221.52998 235.92313 255.744
221.53407 235.92542 255.744
221.54132 235.9295 255.744
221.53542 235.92618 255.744
221.5306 235.92345 255.744
221.51445 235.91435 255.744
221.54778 235.93314 255.744
221.53917 235.9283 255.744
221.51974 235.91733 255.744
221.53752 235.92737 255.744
221.53467 235.92575 255.744
221.54338 235.93066 255.744
221.54219 235.93002 255.744
221.52332 235.91937 255.744
221.53758 235.92743 255.744
221.53969 235.9286 255.744
221.52065 235.91788 255.744
221.52629 235.92104 255.744
221.5137 235.91397 255.744
221.53989 235.92871 255.744
221.5168 235.91568 255.744
221.51772 235.91623 255.744
221.53888 235.92812 255.744
221.53996 235.92876 255.744
221.54655 235.93245 255.744
221.5446 235.93135 255.744
221.5446 235.93135 255.744
221.5492 235.93396 255.744
221.51567 235.91502 255.744
221.52556 235.92061 255.744
221.52812 235.92207 255.744
221.53171 235.9241 255.744
221.5372 235.9272 255.744
221.53053 235.92342 255.744
221.50897 235.91129 255.744
221.51877 235.91681 255.744
221.54156 235.92964 255.744
221.52423 235.91988 255.744
221.50801 235.91072 255.744
221.53215 235.92433 255.744
221.52821 235.92215 255.744
221.53496 235.9259 255.744
221.52664 235.92125 255.744
221.53726 235.92722 255.744
221.52823 235.9221 255.744
221.5352 235.92607 255.744
221.52966 235.92293 255.744
221.52937 235.92279 255.744
221.52136 235.91824 255.744
221.53636 235.9267 255.744
221.54622 235.93228 255.744
221.52829 235.92216 255.744
221.5261 235.92091 255.744
221.53696 235.92705 255.744
221.52788 235.92195 255.744
221.53339 235.92505 255.744
221.5316 235.92406 255.744
221.52965 235.92291 255.744
221.53941 235.9284 255.744
221.52782 235.9219 255.744
221.52391 235.9197 255.744
221.54202 235.92993 255.744
221.53705 235.92711 255.744
221.52039 235.91771 255.744
221.51639 235.91547 255.744
221.53468 235.92578 255.744
221.53568 235.92632 255.744
221.52083 235.918 255.744
221.53273 235.92468 255.744
221.52794 235.922 255.744
221.50647 235.9099 255.744
221.54654 235.93246 255.744
221.53229 235.9244 255.744
221.5238 235.91963 255.744
221.53418 235.92548 255.744
221.50514 235.90909 255.744
221.55096 235.93494 255.744
221.52187 235.91853 255.744
221.53683 235.92697 255.744
221.52527 235.92046 255.744
221.53696 235.92705 255.744
221.51796 235.91635 255.744
221.53934 235.92839 255.744
221.51823 235.9165 255.744
221.52618 235.92099 255.744
221.53555 235.92625 255.744
221.53519 235.92606 255.744
221.5208 235.91795 255.744
221.52951 235.92284 255.744
221.51485 235.91458 255.744
221.52736 235.92165 255.744
221.53339 235.92506 255.744
221.5294 235.92279 255.744
221.55049 235.9347 255.744
221.52292 235.91914 255.744
221.52821 235.9221 255.744
221.5385 235.9279 255.744
221.53043 235.92337 255.744
221.5318 235.92413 255.744
221.52771 235.92184 255.744
221.51895 235.91692 255.744
221.52403 235.91975 255.744
221.53316 235.92491 255.744
221.52626 235.92104 255.744
221.52707 235.92146 255.744
221.52956 235.92288 255.744
221.54027 235.92892 255.744
221.5191 235.917 255.744
221.53575 235.92636 255.744
221.51251 235.91328 255.744
221.5343 235.92557 255.744
221.53818 235.92773 255.744
221.55492 235.93715 255.744
221.52428 235.91992 255.744
221.52773 235.92188 255.744
221.52486 235.92026 255.744
221.53683 235.92699 255.744
221.52214 235.9187 255.744
221.53111 235.92375 255.744
221.53436 235.9256 255.744
221.52551 235.9206 255.744
221.51892 235.91689 255.744
221.5059 235.90955 255.744
221.51799 235.91637 255.744
221.51167 235.91281 255.744
221.5385 235.92793 255.744
221.52756 235.92174 255.744
221.54428 235.93117 255.744
221.51846 235.91664 255.744
221.5252 235.92041 255.744
221.52728 235.9216 255.744
221.52673 235.92128 255.744
221.51407 235.91417 255.744
221.54678 235.9326 255.744
221.55379 235.93651 255.744
221.53145 235.9239 255.744
221.51447 235.9144 255.744
221.54848 235.93355 255.744
221.54553 235.9319 255.744
221.51833 235.91656 255.744
221.52768 235.92183 255.744
221.52408 235.9198 255.744
221.52582 235.92079 255.744
221.53745 235.9273 255.744
221.52078 235.91794 255.744
221.51884 235.91684 255.744
221.51228 235.91316 255.744
221.51549 235.91495 255.744
221.53963 235.92856 255.744
221.54105 235.92937 255.744
221.5211 235.91812 255.744
221.54196 235.92987 255.744
221.54166 235.9297 255.744
221.54181 235.92978 255.744
221.55817 235.93901 255.744
221.49605 235.904 255.744
221.52328 235.91934 255.744
221.52309 235.91922 255.744
221.53111 235.92375 255.744
221.51848 235.91664 255.744
221.52348 235.91946 255.744
221.52802 235.92203 255.744
221.53418 235.92546 255.744
221.54897 235.93382 255.744
221.52373 235.91962 255.744
221.52518 235.92043 255.744
221.5491 235.93391 255.744
221.54176 235.92976 255.744
221.54514 235.93167 255.744
221.52632 235.92108 255.744
221.53159 235.92404 255.744
221.5526 235.93582 255.744
221.52156 235.9184 255.744
221.54237 235.93008 255.744
221.51633 235.9154 255.744
221.53482 235.92584 255.744
221.53105 235.9237 255.744
221.51793 235.9163 255.744
221.52527 235.92046 255.744
221.53786 235.92757 255.744
221.52455 235.92006 255.744
221.52211 235.91869 255.744
221.54593 235.93211 255.744
221.53403 235.92538 255.744
221.51541 235.9149 255.744
221.5185 235.91666 255.744
221.54802 235.93327 255.744
221.54485 235.9315 255.744
221.52188 235.91856 255.744
221.52916 235.92267 255.744
221.54353 235.93074 255.744
221.53891 235.92815 255.744
221.51538 235.91489 255.744
221.53265 235.92464 255.744
221.5389 235.92818 255.744
221.55067 235.93478 255.744
221.50763 235.9105 255.744
221.53069 235.92354 255.744
221.51674 235.91568 255.744
221.51851 235.91666 255.744
221.52623 235.921 255.744
221.52551 235.92061 255.744
221.53775 235.9275 255.744
221.51105 235.91246 255.744
221.53406 235.9254 255.744
221.52092 235.91801 255.744
221.53928 235.92838 255.744
221.52052 235.9178 255.744
221.52075 235.91791 255.744
221.52122 235.91818 255.744
221.5323 235.92442 255.744
221.53072 235.92354 255.744
221.53865 235.928 255.744
221.52739 235.92165 255.744
221.53798 235.92763 255.744
221.51624 235.9154 255.744
221.52916 235.92267 255.744
221.53543 235.92618 255.744
221.53497 235.92595 255.744
221.55135 235.93515 255.744
221.5298 235.923 255.744
221.53001 235.92313 255.744
221.54774 235.9331 255.744
221.52228 235.91878 255.744
221.53703 235.92711 255.744
221.55142 235.9352 255.744
221.51097 235.91237 255.744
221.51923 235.91705 255.744
221.52788 235.92194 255.744
221.51967 235.91731 255.744
221.53094 235.92366 255.744
221.52167 235.91846 255.744
221.53339 235.92506 255.744
221.52625 235.92102 255.744
221.5271 235.92148 255.744
221.53339 235.92503 255.744
221.534 235.92538 255.744
221.53015 235.92323 255.744
221.529 235.92258 255.744
221.54303 235.93048 255.744
221.51886 235.91689 255.744
221.54254 235.93018 255.744
221.52568 235.92073 255.744
221.54768 235.93306 255.744
221.53941 235.92844 255.744
221.50156 235.90709 255.744
221.52892 235.92253 255.744
221.54686 235.93265 255.744
221.52711 235.92151 255.744
221.53842 235.92786 255.744
221.5193 235.9171 255.744
221.54524 235.93172 255.744
221.51675 235.9157 255.744
221.51503 235.9147 255.744
221.52046 235.91777 255.744
221.53363 235.92519 255.744
221.54045 235.92902 255.744
221.53905 235.92824 255.744
221.52408 235.9198 255.744
221.53789 235.92758 255.744
221.53601 235.92654 255.744
221.53983 235.9287 255.744
221.53165 235.92404 255.744
221.55443 235.93689 255.744
221.54427 235.93118 255.744
221.54189 235.92982 255.744
221.53589 235.92642 255.744
221.53934 235.9284 255.744
221.52094 235.918 255.744
221.52695 235.92142 255.744
221.53458 235.92572 255.744
221.52814 235.92207 255.744
221.53119 235.92378 255.744
221.52658 235.92119 255.744
221.5185 235.91666 255.744
221.54388 235.93095 255.744
221.54033 235.92897 255.744
221.54652 235.93243 255.744
221.5298 235.92302 255.744
221.52737 235.92165 255.744
221.53398 235.9254 255.744
221.54807 235.93329 255.744
221.53203 235.92427 255.744
221.54575 235.93199 255.744
221.53232 235.92445 255.744
221.51588 235.91518 255.744
221.54103 235.92935 255.744
221.52899 235.92255 255.744
221.53278 235.92468 255.744
221.51797 235.91635 255.744
221.52734 235.92169 255.744
221.51804 235.9164 255.744
221.53731 235.92726 255.744
221.52849 235.92226 255.744
221.54037 235.929 255.744
221.53006 235.92314 255.744
221.52487 235.92024 255.744
221.53326 235.92497 255.744
221.5518 235.93541 255.744
221.52087 235.91798 255.744
221.5326 235.9246 255.744
221.51968 235.9173 255.744
221.52124 235.91821 255.744
221.52254 235.9189 255.744
221.53613 235.92657 255.744
221.53214 235.92433 255.744
221.55511 235.93729 255.744
221.54533 235.9318 255.744
221.53673 235.92693 255.744
221.54527 235.93172 255.744
221.52563 235.92068 255.744
221.54425 235.93117 255.744
221.525 235.92032 255.744
221.50989 235.9118 255.744
221.53778 235.92755 255.744
221.53798 235.92763 255.744
221.5191 235.91702 255.744
221.54298 235.93047 255.744
221.55121 235.93506 255.744
221.52338 235.91937 255.744
221.5131 235.91359 255.744
221.53069 235.92354 255.744
221.5501 235.93448 255.744
221.52971 235.92296 255.744
221.51488 235.91458 255.744
221.52869 235.9224 255.744
221.53963 235.92856 255.744
221.51233 235.91318 255.744
221.53592 235.92644 255.744
221.5329 235.92477 255.744
221.51923 235.91705 255.744
221.53868 235.92802 255.744
221.55994 235.93999 255.744
221.54202 235.92989 255.744
221.52235 235.91884 255.744
221.55284 235.93599 255.744
221.52866 235.92236 255.744
221.54416 235.93112 255.744
221.5135 235.91383 255.744
221.53297 235.92482 255.744
221.54617 235.93227 255.744
221.53006 235.92316 255.744
221.52684 235.92133 255.744
221.54738 235.9329 255.744
221.55043 235.93466 255.744
221.5466 235.93246 255.744
221.55669 235.93819 255.744
221.52899 235.92256 255.744
221.54027 235.92891 255.744
221.5356 235.92628 255.744
221.54298 235.93047 255.744
221.52608 235.92093 255.744
221.52507 235.92035 255.744
221.5255 235.92061 255.744
221.5462 235.93224 255.744
221.52286 235.91913 255.744
221.5758 235.94894 255.744
221.55426 235.9368 255.744
221.5393 235.92838 255.744
221.52986 235.92307 255.744
221.54117 235.92941 255.744
221.54233 235.93007 255.744
221.54506 235.93161 255.744
221.5401 235.92885 255.744
221.53806 235.92766 255.744
221.53377 235.92528 255.744
221.52591 235.92082 255.744
221.51787 235.91628 255.744
221.53625 235.92667 255.744
221.53685 235.927 255.744
221.53491 235.9259 255.744
221.51845 235.91661 255.744
221.54507 235.93164 255.744
221.5611 235.94066 255.744
221.57753 235.94992 255.744
221.57219 235.9469 255.744
221.55724 235.93849 255.744
221.57819 235.9503 255.744
221.5556 235.93758 255.744
221.5437 235.93083 255.744
221.57115 235.94633 255.744
221.57382 235.9478 255.744
221.55452 235.93695 255.744
221.57426 235.94806 255.744
221.5708 235.94612 255.744
221.57721 235.94974 255.744
221.54842 235.9335 255.744
221.56497 235.94286 255.744
221.57198 235.94681 255.744
221.55911 235.93954 255.744
221.56274 235.94156 255.744
221.571 235.94623 255.744
221.57153 235.9465 255.744
221.56155 235.94092 255.744
221.56082 235.94048 255.744
221.56631 235.94359 255.744
221.5754 235.9487 255.744
221.55891 235.9394 255.744
221.553 235.9361 255.744
221.58772 235.95566 255.744
221.54594 235.93211 255.744
221.57472 235.94833 255.744
221.55803 235.93892 255.744
221.56804 235.9446 255.744
221.56325 235.94186 255.744
221.57408 235.94795 255.744
221.5615 235.94086 255.744
221.57729 235.94975 255.744
221.56496 235.94281 255.744
221.57123 235.94638 255.744
221.56277 235.9416 255.744
221.55864 235.93927 255.744
221.54913 235.93388 255.744
221.57045 235.94594 255.744
221.5614 235.9408 255.744
221.5572 235.93846 255.744
221.57632 235.94923 255.744
221.552 235.93552 255.744
221.56503 235.94289 255.744
221.57457 235.94823 255.744
221.5754 235.94872 255.744
221.57774 235.95003 255.744
221.56598 235.9434 255.744
221.56465 235.94267 255.744
221.54646 235.93242 255.744
221.55663 235.93817 255.744
221.57755 235.94992 255.744
221.5403 235.92897 255.744
221.5621 235.9412 255.744
221.55116 235.93506 255.744
221.58058 235.95163 255.744
221.5677 235.94437 255.744
221.55748 235.93861 255.744
221.55367 235.93646 255.744
221.56577 235.94328 255.744
221.56546 235.9431 255.744
221.5754 235.94868 255.744
221.57246 235.94704 255.744
221.57002 235.9457 255.744
221.5787 235.95058 255.744
221.55002 235.93442 255.744
221.55838 235.93913 255.744
221.55649 235.93805 255.744
221.56198 235.94113 255.744
221.56601 235.9434 255.744
221.56827 235.94469 255.744
221.57213 235.94688 255.744
221.55214 235.93561 255.744
221.56248 235.94142 255.744
221.55609 235.93782 255.744
221.54758 235.93301 255.744
221.5677 235.9444 255.744
221.58017 235.95139 255.744
221.5677 235.94438 255.744
221.56583 235.94331 255.744
221.56764 235.94434 255.744
221.56642 235.94365 255.744
221.56836 235.94476 255.744
221.56487 235.94281 255.744
221.55779 235.93878 255.744
221.57341 235.94757 255.744
221.56169 235.94098 255.744
221.55536 235.93742 255.744
221.56287 235.94167 255.744
221.55319 235.9362 255.744
221.55815 235.93898 255.744
221.57057 235.94598 255.744
221.55838 235.93909 255.744
221.57942 235.95097 255.744
221.55821 235.93903 255.744
221.58289 235.95291 255.744
221.5665 235.9437 255.744
221.56984 235.94556 255.744
221.57124 235.94637 255.744
221.56895 235.9451 255.744
221.57054 235.94597 255.744
221.53938 235.92839 255.744
221.54988 235.93436 255.744
221.58806 235.95583 255.744
221.56395 235.94229 255.744
221.55685 235.93826 255.744
221.57314 235.94742 255.744
221.56372 235.94212 255.744
221.56374 235.94214 255.744
221.56145 235.94083 255.744
221.56119 235.94069 255.744
221.57468 235.9483 255.744
221.56326 235.94186 255.744
221.57552 235.94876 255.744
221.56767 235.94435 255.744
221.56586 235.94336 255.744
221.5607 235.94044 255.744
221.57057 235.946 255.744
221.5766 235.9494 255.744
221.56161 235.94093 255.744
221.57726 235.94974 255.744
221.5773 235.94974 255.744
221.5718 235.94669 255.744
221.56493 235.94278 255.744
221.5574 235.93858 255.744
221.54524 235.93172 255.744
221.5538 235.93654 255.744
221.56255 235.94147 255.744
221.56711 235.94406 255.744
221.56291 235.9417 255.744
221.53712 235.92712 255.744
221.59074 235.95735 255.744
221.56345 235.94197 255.744
221.54639 235.93236 255.744
221.56453 235.9426 255.744
221.55022 235.9345 255.744
221.55113 235.935 255.744
221.56116 235.94069 255.744
221.56505 235.9429 255.744
221.56612 235.94348 255.744
221.57774 235.95003 255.744
221.58293 235.95294 255.744
221.54948 235.93413 255.744
221.58546 235.95438 255.744
221.55034 235.93457 255.744
221.54933 235.93402 255.744
221.54646 235.9324 255.744
221.55661 235.93811 255.744
221.57753 235.9499 255.744
221.55394 235.93661 255.744
221.55154 235.93527 255.744
221.56923 235.94522 255.744
221.56525 235.94301 255.744
221.57512 235.94856 255.744
221.57271 235.94722 255.744
221.57161 235.94656 255.744
221.57642 235.9493 255.744
221.5543 235.93683 255.744
221.56793 235.94453 255.744
221.53906 235.92824 255.744
221.55963 235.93982 255.744
221.55672 235.93817 255.744
221.55154 235.93529 255.744
221.55588 235.93774 255.744
221.58208 235.95248 255.744
221.55637 235.93799 255.744
221.56479 235.94273 255.744
221.56395 235.94226 255.744
221.56526 235.94302 255.744
221.5619 235.94109 255.744
221.55632 235.93797 255.744
221.57373 235.94777 255.744
221.56934 235.94528 255.744
221.55583 235.93767 255.744
221.57866 235.95055 255.744
221.56863 235.9449 255.744
221.55998 235.94002 255.744
221.56781 235.94443 255.744
221.58247 235.95268 255.744
221.53696 235.92705 255.744
221.58394 235.95352 255.744
221.55852 235.9392 255.744
221.57385 235.94788 255.744
221.56532 235.94302 255.744
221.57988 235.95125 255.744
221.55379 235.93652 255.744
221.54419 235.93114 255.744
221.57358 235.94768 255.744
221.5635 235.942 255.744
221.57748 235.94989 255.744
221.56398 235.94225 255.744
221.55109 235.93501 255.744
221.55363 235.93648 255.744
221.5681 235.94461 255.744
221.56664 235.94376 255.744
221.56032 235.94023 255.744
221.56207 235.94121 255.744
221.56673 235.94382 255.744
221.59085 235.95743 255.744
221.5356 235.9263 255.744
221.56119 235.9407 255.744
221.56522 235.94298 255.744
221.56245 235.94142 255.744
221.54977 235.93425 255.744
221.55344 235.93633 255.744
221.5565 235.93808 255.744
221.5565 235.93806 255.744
221.55998 235.94 255.744
221.55786 235.93881 255.744
221.55005 235.93443 255.744
221.58131 235.95206 255.744
221.56812 235.9446 255.744
221.5694 235.94531 255.744
221.56406 235.9423 255.744
221.55441 235.93687 255.744
221.57365 235.94775 255.744
221.56181 235.94107 255.744
221.56787 235.94447 255.744
221.55748 235.93863 255.744
221.55835 235.9391 255.744
221.53622 235.92664 255.744
221.55466 235.93704 255.744
221.53304 235.92484 255.744
221.5791 235.95082 255.744
221.55063 235.93474 255.744
221.5619 235.9411 255.744
221.55244 235.93578 255.744
221.56223 235.94125 255.744
221.56404 235.94232 255.744
221.53627 235.92667 255.744
221.56578 235.94328 255.744
221.57375 235.94778 255.744
221.57222 235.9469 255.744
221.57234 235.94699 255.744
221.55365 235.9365 255.744
219.98218 234.25455 254.16486
221.5651 235.94289 255.744
221.55437 235.93684 255.744
221.56244 235.9414 255.744
221.55902 235.93948 255.744
219.97498 234.25052 254.16486
221.54489 235.93153 255.744
221.55492 235.93718 255.744
221.56326 235.94186 255.744
221.55687 235.93825 255.744
221.55788 235.93884 255.744
221.57397 235.94788 255.744
221.54834 235.93344 255.744
221.56342 235.94197 255.744
221.57172 235.94664 255.744
221.57018 235.94574 255.744
221.55045 235.93466 255.744
221.5623 235.94135 255.744
221.54195 235.92987 255.744
221.56502 235.94284 255.744
221.55923 235.9396 255.744
221.56532 235.94304 255.744
221.55334 235.93631 255.744
221.56863 235.94489 255.744
221.56447 235.94254 255.744
221.56206 235.94121 255.744
221.55432 235.93684 255.744
221.56174 235.94102 255.744
221.56418 235.9424 255.744
221.56493 235.94283 255.744
221.56511 235.94287 255.744
221.56161 235.94093 255.744
221.5707 235.94606 255.744
221.57819 235.95029 255.744
221.57324 235.94751 255.744
221.5692 235.94522 255.744
221.54568 235.93196 255.744
221.57265 235.94717 255.744
221.54541 235.93181 255.744
221.53632 235.92667 255.744
221.5718 235.94667 255.744
221.56812 235.94464 255.744
221.56812 235.9446 255.744
221.56256 235.94148 255.744
221.54236 235.93011 255.744
221.59155 235.95781 255.744
221.5604 235.94026 255.744
221.55113 235.93506 255.744
221.5457 235.93198 255.744
221.55629 235.93794 255.744
221.55238 235.93573 255.744
221.57153 235.94652 255.744
221.5704 235.9459 255.744
221.55891 235.9394 255.744
221.56541 235.94308 255.744
221.57332 235.94756 255.744
221.5279 235.9219 255.744
221.5634 235.94196 255.744
221.57533 235.94873 255.744
221.56934 235.94528 255.744
221.5542 235.93677 255.744
221.55888 235.93942 255.744
221.55057 235.93474 255.744
221.56169 235.941 255.744
221.56525 235.94301 255.744
221.55142 235.9352 255.744
221.56404 235.94229 255.744
221.5623 235.94131 255.744
221.56282 235.94162 255.744
221.56136 235.9408 255.744
221.56042 235.94026 255.744
221.58371 235.95341 255.744
221.54518 235.9317 255.744
221.57773 235.95003 255.744
221.56055 235.94034 255.744
221.55305 235.93613 255.744
221.54172 235.92973 255.744
221.54584 235.93207 255.744
221.56589 235.94339 255.744
221.57202 235.94681 255.744
221.57904 235.95079 255.744
221.5783 235.95033 255.744
221.54276 235.93031 255.744
221.55046 235.93465 255.744
221.55447 235.9369 255.744
221.56496 235.94286 255.744
221.56859 235.94487 255.744
221.54727 235.93282 255.744
221.54735 235.9329 255.744
221.54553 235.9319 255.744
221.56842 235.9448 255.744
221.5523 235.9357 255.744
221.54623 235.93225 255.744
221.57133 235.94641 255.744
221.54915 235.93391 255.744
221.56944 235.94536 255.744
221.55055 235.93472 255.744
221.57619 235.94913 255.744
221.57484 235.9484 255.744
221.57246 235.94705 255.744
221.56203 235.94116 255.744
221.555 235.93723 255.744
221.56781 235.94446 255.744
221.57854 235.95045 255.744
221.57912 235.95082 255.744
221.56938 235.94531 255.744
221.56276 235.94159 255.744
221.56758 235.94429 255.744
221.57382 235.9478 255.744
221.54965 235.93422 255.744
221.5643 235.94249 255.744
221.56055 235.94037 255.744
221.55301 235.9361 255.744
221.54854 235.93356 255.744
221.55789 235.93884 255.744
221.55704 235.93837 255.744
221.57295 235.94733 255.744
221.5391 235.92825 255.744
221.56522 235.943 255.744
221.56752 235.94429 255.744
221.56152 235.94087 255.744
221.5528 235.93599 255.744
221.55473 235.93706 255.744
221.56757 235.9443 255.744
221.55724 235.93846 255.744
221.5744 235.94815 255.744
221.54979 235.93431 255.744
221.57669 235.94945 255.744
221.56578 235.9433 255.744
221.58563 235.95448 255.744
221.55385 235.93657 255.744
221.54848 235.93355 255.744
221.56235 235.94135 255.744
221.57312 235.94743 255.744
221.57173 235.94664 255.744
221.55038 235.93462 255.744
221.55687 235.93826 255.744
221.55408 235.93666 255.744
221.57683 235.94951 255.744
221.54285 235.93034 255.744
221.5576 235.93867 255.744
221.56226 235.94133 255.744
221.56117 235.94066 255.744
221.56241 235.9414 255.744
221.56212 235.94125 255.744
221.57224 235.9469 255.744
221.56718 235.94408 255.744
221.54875 235.93367 255.744
221.5622 235.94127 255.744
221.57695 235.94958 255.744
221.54504 235.93161 255.744
221.5657 235.94327 255.744
221.5474 235.93295 255.744
221.55316 235.93617 255.744
221.54955 235.93416 255.744
221.5604 235.94028 255.744
221.5639 235.94225 255.744
221.55865 235.93929 255.744
221.55896 235.93948 255.744
221.55174 235.93536 255.744
221.58246 235.95268 255.744
221.56725 235.94415 255.744
221.56995 235.94565 255.744
221.56223 235.94135 255.744
221.56712 235.94406 255.744
221.59053 235.95723 255.744
221.57057 235.94598 255.744
221.53821 235.92775 255.744
221.5711 235.94629 255.744
221.58562 235.95447 255.744
221.57347 235.9476 255.744
221.57391 235.94789 255.744
221.55963 235.9398 255.744
221.57858 235.95052 255.744
221.57785 235.95009 255.744
221.5706 235.94601 255.744
221.54146 235.9296 255.744
221.56516 235.94296 255.744
221.55777 235.93877 255.744
221.56366 235.94206 255.744
221.57071 235.94609 255.744
221.55502 235.93723 255.744
221.56445 235.94254 255.744
221.5533 235.93622 255.744
221.53783 235.92754 255.744
221.56557 235.94313 255.744
221.55135 235.93518 255.744
221.58405 235.95361 255.744
221.5736 235.9477 255.744
221.55998 235.94002 255.744
221.57011 235.94571 255.744
221.54013 235.92883 255.744
221.56175 235.94104 255.744
221.58484 235.95404 255.744
221.55997 235.94005 255.744
221.58086 235.95181 255.744
221.55591 235.93774 255.744
221.57013 235.94576 255.744
221.56949 235.94539 255.744
221.5503 235.93457 255.744
221.57393 235.94788 255.744
221.55576 235.93764 255.744
221.55981 235.93997 255.744
221.55948 235.93974 255.744
221.56671 235.94382 255.744
221.5609 235.94055 255.744
221.55336 235.93628 255.744
221.57735 235.94983 255.744
221.57219 235.9469 255.744
221.56787 235.94449 255.744
221.57217 235.94688 255.744
221.55112 235.93501 255.744
221.5526 235.93587 255.744
221.54953 235.93414 255.744
221.55879 235.93936 255.744
221.5713 235.9464 255.744
221.55562 235.93756 255.744
221.55164 235.93533 255.744
221.54774 235.9331 255.744
221.55246 235.93579 255.744
221.54395 235.93098 255.744
221.5887 235.9562 255.744
221.56604 235.94345 255.744
221.54143 235.92953 255.744
221.55803 235.93893 255.744
221.54117 235.92941 255.744
221.55052 235.93471 255.744
221.57611 235.9491 255.744
221.57831 235.95036 255.744
221.58353 235.9533 255.744
221.58076 235.95174 255.744
221.58147 235.95212 255.744
221.56104 235.94063 255.744
221.57384 235.94783 255.744
221.57281 235.94727 255.744
221.57336 235.9476 255.744
221.55447 235.9369 255.744
221.54727 235.93286 255.744
221.56355 235.94202 255.744
221.57234 235.94696 255.744
221.57692 235.94955 255.744
221.57253 235.94708 255.744
221.57773 235.95001 255.744
221.55125 235.93507 255.744
221.56485 235.94275 255.744
221.55788 235.93884 255.744
221.57878 235.95062 255.744
221.55116 235.93506 255.744
221.56264 235.94153 255.744
221.566 235.94342 255.744
221.55019 235.93451 255.744
221.57053 235.94595 255.744
221.56392 235.94225 255.744
221.58704 235.95529 255.744
221.5796 235.9511 255.744
221.55798 235.9389 255.744
221.56476 235.94273 255.744
221.57848 235.95045 255.744
221.56757 235.9443 255.744
221.56047 235.94028 255.744
221.56093 235.94055 255.744
221.55305 235.93613 255.744
221.55585 235.93773 255.744
221.54906 235.93388 255.744
221.56456 235.9426 255.744
221.56276 235.94162 255.744
221.56485 235.9428 255.744
221.5605 235.94029 255.744
221.56232 235.94135 255.744
221.5595 235.93976 255.744
221.56152 235.94092 255.744
221.55849 235.9392 255.744
221.58365 235.95338 255.744
221.56635 235.9436 255.744
221.56201 235.94116 255.744
221.55923 235.93962 255.744
221.56047 235.9403 255.744
221.56981 235.94554 255.744
221.57953 235.951 255.744
221.55963 235.93982 255.744
221.55974 235.93991 255.744
221.56479 235.94273 255.744
221.57925 235.9509 255.744
221.56258 235.94147 255.744
221.57373 235.94775 255.744
221.56973 235.94553 255.744
221.57877 235.95058 255.744
221.57439 235.94815 255.744
221.55917 235.93958 255.744
221.56795 235.94449 255.744
221.58269 235.95284 255.744
221.56306 235.94177 255.744
221.55072 235.93481 255.744
221.56705 235.944 255.744
221.55106 235.93498 255.744
221.54108 235.92937 255.744
221.57678 235.9495 255.744
221.55441 235.93686 255.744
221.56468 235.94269 255.744
221.57698 235.94958 255.744
221.57462 235.94826 255.744
221.56238 235.94136 255.744
221.54695 235.93268 255.744
221.56879 235.94496 255.744
221.56071 235.94044 255.744
221.56386 235.94218 255.744
221.5559 235.93773 255.744
221.57372 235.94778 255.744
221.557 235.93835 255.744
221.55832 235.93909 255.744
221.55917 235.9396 255.744
221.56926 235.94524 255.744
221.55643 235.93802 255.744
221.56146 235.94086 255.744
221.56142 235.94081 255.744
221.57004 235.94571 255.744
221.58345 235.95326 255.744
221.55893 235.93944 255.744
221.55418 235.93677 255.744
221.56422 235.94241 255.744
221.57411 235.94798 255.744
221.58116 235.95195 255.744
221.56215 235.94125 255.744
221.5705 235.94594 255.744
221.56874 235.94496 255.744
221.56824 235.94466 255.744
221.5602 235.94016 255.744
221.57146 235.94649 255.744
221.57103 235.94627 255.744
221.58118 235.95198 255.744
221.56337 235.94193 255.744
221.56815 235.94467 255.744
221.56674 235.94385 255.744
221.56238 235.94136 255.744
221.55612 235.93785 255.744
221.57614 235.94916 255.744
221.55821 235.93903 255.744
221.56042 235.94025 255.744
221.58655 235.95499 255.744
221.54309 235.9305 255.744
221.5614 235.94084 255.744
221.56111 235.94067 255.744
221.57256 235.94708 255.744
221.56033 235.94022 255.744
221.57317 235.94746 255.744
221.58426 235.95372 255.744
221.57024 235.9458 255.744
221.56023 235.94014 255.744
221.56621 235.94351 255.744
221.56873 235.94495 255.744
221.56682 235.94386 255.744
221.57007 235.94572 255.744
221.57846 235.95042 255.744
221.56929 235.94525 255.744
221.56764 235.94434 255.744
221.57004 235.94571 255.744
221.56598 235.9434 255.744
221.56194 235.94113 255.744
221.56963 235.94547 255.744
221.57663 235.94942 255.744
221.56516 235.94293 255.744
221.56908 235.94514 255.744
221.55783 235.93881 255.744
221.60625 235.96608 255.744
221.59538 235.95998 255.744
221.60704 235.96652 255.744
221.60277 235.96413 255.744
221.60945 235.9679 255.744
221.58766 235.95564 255.744
221.5871 235.95529 255.744
221.60143 235.9634 255.744
221.61417 235.97057 255.744
221.60814 235.96715 255.744
221.5871 235.95529 255.744
221.58713 235.9553 255.744
221.61713 235.97223 255.744
221.59015 235.95703 255.744
221.58574 235.95456 255.744
221.59036 235.95714 255.744
221.58197 235.9524 255.744
221.58643 235.95494 255.744
221.60513 235.96545 255.744
221.5721 235.94685 255.744
221.59816 235.96155 255.744
221.59915 235.9621 255.744
221.58163 235.95226 255.744
221.60767 235.96689 255.744
221.58844 235.95607 255.744
221.59645 235.96054 255.744
221.60428 235.96495 255.744
221.61777 235.97263 255.744
221.59067 235.9573 255.744
221.59311 235.95868 255.744
221.60083 235.96301 255.744
221.6094 235.96788 255.744
221.57407 235.94797 255.744
221.58566 235.95451 255.744
221.57942 235.95094 255.744
221.58391 235.9535 255.744
221.62065 235.97424 255.744
221.59213 235.95813 255.744
221.60098 235.9631 255.744
221.60045 235.96281 255.744
221.58551 235.95439 255.744
221.5911 235.95757 255.744
221.60686 235.96645 255.744
221.59663 235.96068 255.744
221.60036 235.96278 255.744
221.59677 235.96077 255.744
221.60823 235.96724 255.744
221.60675 235.96637 255.744
221.60094 235.96309 255.744
221.60425 235.96498 255.744
221.60616 235.96603 255.744
221.5644 235.94254 255.744
221.60759 235.96684 255.744
221.60442 235.96506 255.744
221.58792 235.95575 255.744
221.5893 235.95653 255.744
221.60101 235.96317 255.744
221.59047 235.95718 255.744
221.59789 235.96138 255.744
221.58125 235.95204 255.744
221.59586 235.96024 255.744
221.61589 235.97154 255.744
221.59567 235.96011 255.744
221.59315 235.95872 255.744
221.59969 235.96239 255.744
221.60413 235.9649 255.744
221.59708 235.96094 255.744
221.60284 235.96417 255.744
221.58969 235.95677 255.744
221.58612 235.95476 255.744
221.5746 235.94827 255.744
221.5961 235.96037 255.744
221.58948 235.95662 255.744
221.60391 235.9648 255.744
221.60565 235.96574 255.744
221.58902 235.95636 255.744
221.60516 235.96547 255.744
221.59631 235.96046 255.744
221.60793 235.96704 255.744
221.59802 235.96149 255.744
221.61345 235.97018 255.744
221.61005 235.96826 255.744
221.58833 235.95601 255.744
221.59612 235.96037 255.744
221.60962 235.968 255.744
221.62456 235.97643 255.744
221.58794 235.9558 255.744
221.5896 235.95671 255.744
221.62079 235.97432 255.744
221.58435 235.95375 255.744
221.57167 235.94661 255.744
221.58136 235.95206 255.744
221.59795 235.96144 255.744
221.61229 235.96953 255.744
221.60924 235.96777 255.744
221.59918 235.9621 255.744
221.5945 235.95949 255.744
221.59357 235.95892 255.744
221.58546 235.95436 255.744
221.58224 235.95255 255.744
221.60576 235.9658 255.744
221.6128 235.96979 255.744
221.5954 235.95998 255.744
221.60515 235.96548 255.744
221.6025 235.96396 255.744
221.57954 235.95105 255.744
221.59392 235.95915 255.744
221.5857 235.9545 255.744
221.58893 235.95628 255.744
221.60019 235.96268 255.744
221.61067 235.9686 255.744
221.58507 235.95415 255.744
221.60188 235.96364 255.744
221.58981 235.95683 255.744
221.60089 235.96307 255.744
221.58725 235.95538 255.744
221.59879 235.96188 255.744
221.59323 235.95872 255.744
221.6064 235.96619 255.744
221.58316 235.9531 255.744
221.58694 235.9552 255.744
221.59499 235.95976 255.744
221.6142 235.97058 255.744
221.57716 235.9497 255.744
221.59845 235.96169 255.744
221.60977 235.9681 255.744
221.5879 235.95576 255.744
221.5884 235.95605 255.744
221.59521 235.95987 255.744
221.59795 235.96141 255.744
221.5842 235.95369 255.744
221.59224 235.9582 255.744
221.59059 235.95726 255.744
221.59576 235.96017 255.744
221.61069 235.96855 255.744
221.59468 235.95958 255.744
221.6112 235.96892 255.744
221.58598 235.95468 255.744
221.58836 235.95602 255.744
221.59218 235.95819 255.744
221.59569 235.96014 255.744
221.59999 235.96259 255.744
221.58221 235.95258 255.744
221.58992 235.95688 255.744
221.59688 235.96078 255.744
221.6004 235.96278 255.744
221.58499 235.95413 255.744
221.58698 235.95523 255.744
221.60043 235.9628 255.744
221.60155 235.96344 255.744
221.57343 235.94762 255.744
221.6088 235.96754 255.744
221.57126 235.9464 255.744
221.59415 235.95927 255.744
221.5817 235.95229 255.744
221.60782 235.967 255.744
221.59654 235.96063 255.744
221.59296 235.95859 255.744
221.59435 235.95938 255.744
221.60716 235.96658 255.744
221.5891 235.95644 255.744
221.59752 235.96115 255.744
221.59326 235.95879 255.744
221.59293 235.95856 255.744
221.59608 235.96037 255.744
221.5916 235.95782 255.744
221.59459 235.95953 255.744
221.58035 235.95148 255.744
221.58199 235.95245 255.744
221.59192 235.95802 255.744
221.58722 235.95538 255.744
221.59818 235.96155 255.744
221.59465 235.95956 255.744
221.61546 235.97128 255.744
221.63075 235.9799 255.744
221.61435 235.97066 255.744
221.60547 235.96564 255.744
221.58954 235.95667 255.744
221.57161 235.94656 255.744
221.58781 235.95569 255.744
221.6097 235.96808 255.744
221.5948 235.95964 255.744
221.61143 235.96901 255.744
221.6097 235.96805 255.744
221.58891 235.95633 255.744
221.57347 235.94762 255.744
221.5977 235.96127 255.744
221.60403 235.96483 255.744
221.61263 235.96974 255.744
221.58897 235.95636 255.744
221.60498 235.9654 255.744
221.59615 235.96042 255.744
221.58084 235.95177 255.744
221.59747 235.96112 255.744
221.58276 235.95287 255.744
221.6116 235.96912 255.744
221.5901 235.95702 255.744
221.59425 235.95935 255.744
221.58215 235.95253 255.744
221.5959 235.96027 255.744
221.59554 235.96005 255.744
221.58174 235.95229 255.744
221.61754 235.97246 255.744
221.59854 235.96173 255.744
221.61104 235.96881 255.744
221.59435 235.95934 255.744
221.60498 235.9654 255.744
221.60738 235.96675 255.744
221.59912 235.9621 255.744
221.59064 235.95732 255.744
221.61139 235.96898 255.744
221.60425 235.96497 255.744
221.58989 235.95685 255.744
221.60889 235.96758 255.744
221.58621 235.95485 255.744
221.6315 235.9803 255.744
221.59164 235.95789 255.744
221.59596 235.9603 255.744
221.59505 235.95978 255.744
221.56046 235.9403 255.744
221.60242 235.96391 255.744
221.57816 235.95027 255.744
221.6001 235.96263 255.744
221.596 235.96033 255.744
221.59766 235.96124 255.744
221.59184 235.95796 255.744
221.59468 235.9596 255.744
221.58904 235.95638 255.744
220.01877 234.27515 254.16486
216.79463 230.84816 250.45422
220.02223 234.27713 254.16486
218.40863 232.5657 252.31636
218.39597 232.55856 252.31636
215.17282 229.12015 248.57813
218.41475 232.5692 252.31636
213.54083 227.38016 246.68777
215.17012 229.11865 248.57813
216.75987 230.82857 250.45422
213.52982 227.37401 246.68777
213.52507 227.3713 246.68777
213.52905 227.37355 246.68777
205.1581 218.45683 237.00995
213.525 227.37128 246.68777
221.59344 235.95885 255.744
216.77345 230.83621 250.45422
218.39366 232.55727 252.31636
218.39922 232.56042 252.31636
219.99738 234.26312 254.16486
221.57741 235.94984 255.744
221.61423 235.97058 255.744
221.60045 235.96281 255.744
221.59413 235.95926 255.744
221.59236 235.95828 255.744
221.60477 235.96526 255.744
221.59193 235.95802 255.744
221.59265 235.95844 255.744
221.58568 235.95451 255.744
221.6034 235.96448 255.744
221.62357 235.97586 255.744
221.58061 235.95166 255.744
221.59232 235.95824 255.744
221.59851 235.96172 255.744
221.57568 235.9489 255.744
221.58163 235.95222 255.744
221.6051 235.96544 255.744
221.61417 235.97049 255.744
221.59648 235.9606 255.744
221.58472 235.95395 255.744
221.59651 235.9606 255.744
221.59421 235.95935 255.744
221.59619 235.96043 255.744
221.59773 235.9613 255.744
221.58406 235.95361 255.744
221.60913 235.96768 255.744
221.579 235.95071 255.744
221.59651 235.9606 255.744
221.59187 235.95801 255.744
221.59981 235.96248 255.744
221.57794 235.95015 255.744
221.60506 235.96542 255.744
221.58995 235.95691 255.744
221.61087 235.9687 255.744
221.58664 235.95505 255.744
221.58948 235.95662 255.744
221.58244 235.95267 255.744
221.60002 235.9626 255.744
221.57649 235.94934 255.744
221.59738 235.96109 255.744
221.60797 235.9671 255.744
221.5947 235.95958 255.744
221.58728 235.95543 255.744
221.58847 235.95609 255.744
221.59366 235.95897 255.744
221.57669 235.94945 255.744
221.60039 235.9628 255.744
221.58318 235.95308 255.744
221.5849 235.9541 255.744
221.5936 235.95897 255.744
221.5818 235.9523 255.744
221.61719 235.97224 255.744
221.60486 235.9653 255.744
221.59012 235.957 255.744
221.59409 235.95921 255.744
221.6048 235.96527 255.744
221.59709 235.9609 255.744
221.61052 235.96849 255.744
221.60072 235.96297 255.744
221.6035 235.96452 255.744
221.58519 235.95422 255.744
221.61383 235.97034 255.744
221.59561 235.96011 255.744
221.5976 235.96121 255.744
221.61372 235.9703 255.744
221.56598 235.94339 255.744
221.58774 235.95567 255.744
221.59293 235.95859 255.744
221.58577 235.95457 255.744
221.59882 235.96191 255.744
221.57866 235.95053 255.744
221.59778 235.96132 255.744
221.58336 235.9532 255.744
221.59055 235.95724 255.744
221.59526 235.95992 255.744
221.58768 235.95564 255.744
221.6076 235.96686 255.744
221.5795 235.95102 255.744
221.58006 235.95137 255.744
221.60533 235.96558 255.744
221.60304 235.9643 255.744
221.5852 235.95422 255.744
221.60378 235.96466 255.744
221.5987 235.96182 255.744
221.57819 235.95029 255.744
221.57933 235.95093 255.744
221.59991 235.96252 255.744
221.59349 235.95891 255.744
221.57648 235.94931 255.744
221.57909 235.95076 255.744
221.58629 235.95485 255.744
221.6122 235.96944 255.744
221.61687 235.97208 255.744
221.57088 235.94618 255.744
221.60464 235.9652 255.744
221.5961 235.96037 255.744
221.60806 235.9671 255.744
221.6161 235.97166 255.744
221.58362 235.95331 255.744
221.61478 235.9709 255.744
221.60097 235.9631 255.744
221.58029 235.95145 255.744
221.60541 235.96562 255.744
221.58359 235.95332 255.744
221.59297 235.95865 255.744
221.60533 235.96558 255.744
221.61067 235.96861 255.744
221.58469 235.95395 255.744
221.59023 235.95708 255.744
221.57843 235.95044 255.744
221.61084 235.96866 255.744
221.59055 235.95724 255.744
221.5604 235.94028 255.744
221.59647 235.96056 255.744
221.60434 235.96503 255.744
221.59766 235.96124 255.744
221.6132 235.97003 255.744
221.57956 235.95107 255.744
221.58311 235.95302 255.744
221.58789 235.95576 255.744
221.60144 235.96338 255.744
221.59467 235.95958 255.744
221.58934 235.95657 255.744
221.5846 235.9539 255.744
221.59445 235.95946 255.744
221.60095 235.96309 255.744
221.59128 235.95767 255.744
221.5829 235.95294 255.744
221.59184 235.95798 255.744
221.57124 235.94638 255.744
221.59528 235.95992 255.744
221.59941 235.96227 255.744
221.5958 235.96024 255.744
221.59154 235.9578 255.744
221.59894 235.96196 255.744
221.59209 235.95811 255.744
221.58257 235.95274 255.744
221.58891 235.95633 255.744
221.59756 235.9612 255.744
221.57692 235.94958 255.744
221.60768 235.9669 255.744
221.57747 235.94989 255.744
221.58978 235.95682 255.744
221.61293 235.96985 255.744
221.58322 235.95311 255.744
221.5893 235.95656 255.744
221.58844 235.95605 255.744
221.59851 235.96173 255.744
221.59055 235.95723 255.744
221.58513 235.95421 255.744
221.58308 235.95308 255.744
221.59064 235.95732 255.744
221.61214 235.9694 255.744
221.59306 235.95866 255.744
221.59538 235.95998 255.744
221.58575 235.95456 255.744
221.60919 235.96776 255.744
221.57843 235.95044 255.744
221.57729 235.94977 255.744
221.59515 235.95984 255.744
221.60164 235.96349 255.744
221.60089 235.96307 255.744
221.5788 235.95062 255.744
221.58212 235.95251 255.744
221.57985 235.9512 255.744
221.6072 235.96661 255.744
221.59213 235.95816 255.744
221.59421 235.95934 255.744
221.59897 235.96199 255.744
221.57454 235.94823 255.744
221.5892 235.95647 255.744
221.60124 235.96329 255.744
221.5897 235.95677 255.744
221.6037 235.96465 255.744
221.56743 235.9442 255.744
221.6132 235.97002 255.744
221.59897 235.96198 255.744
221.58759 235.95557 255.744
221.58493 235.95407 255.744
221.59317 235.95872 255.744
221.58685 235.95515 255.744
221.58829 235.95595 255.744
221.59747 235.96115 255.744
221.59854 235.96173 255.744
221.59703 235.9609 255.744
221.61244 235.96956 255.744
221.5888 235.95625 255.744
221.59753 235.9612 255.744
221.61427 235.97061 255.744
221.57857 235.95053 255.744
221.60397 235.96483 255.744
221.59949 235.9623 255.744
221.59933 235.96219 255.744
221.58548 235.9544 255.744
221.58899 235.95636 255.744
221.57951 235.951 255.744
221.62035 235.97404 255.744
221.60269 235.96411 255.744
221.57912 235.95079 255.744
221.61028 235.96835 255.744
221.57349 235.94762 255.744
221.5762 235.94916 255.744
221.58612 235.95477 255.744
221.5877 235.95564 255.744
221.60612 235.96602 255.744
221.61267 235.9697 255.744
221.59935 235.96223 255.744
221.59125 235.95764 255.744
221.57228 235.94696 255.744
221.58977 235.95682 255.744
221.58316 235.95306 255.744
221.5901 235.95699 255.744
221.60109 235.96318 255.744
221.61707 235.97223 255.744
221.59918 235.96211 255.744
221.58788 235.95575 255.744
221.58984 235.95685 255.744
221.61394 235.97041 255.744
221.5926 235.95839 255.744
221.59181 235.95793 255.744
221.5916 235.95781 255.744
221.60071 235.96297 255.744
221.60025 235.9627 255.744
221.59605 235.96034 255.744
221.60968 235.96803 255.744
221.60594 235.9659 255.744
221.58691 235.95522 255.744
221.59142 235.95772 255.744
221.58762 235.95557 255.744
221.60258 235.96402 255.744
221.58502 235.95418 255.744
221.58554 235.95445 255.744
221.6081 235.96713 255.744
221.59053 235.95726 255.744
221.59737 235.96109 255.744
221.60077 235.96301 255.744
221.57898 235.95073 255.744
221.58357 235.95332 255.744
221.60748 235.96678 255.744
221.5993 235.96217 255.744
221.5983 235.96162 255.744
221.58528 235.95427 255.744
221.58212 235.95251 255.744
221.61797 235.97269 255.744
221.60522 235.96553 255.744
221.60725 235.96664 255.744
221.59546 235.96002 255.744
221.60422 235.96495 255.744
221.6145 235.97073 255.744
221.60674 235.96637 255.744
221.59877 235.96188 255.744
221.60175 235.96356 255.744
221.5743 235.94807 255.744
221.60408 235.96489 255.744
221.60115 235.96324 255.744
221.59766 235.96129 255.744
221.58328 235.95314 255.744
221.59631 235.96051 255.744
221.59727 235.96101 255.744
221.61034 235.96837 255.744
221.6001 235.96263 255.744
221.58925 235.95651 255.744
221.59018 235.95705 255.744
221.57593 235.949 255.744
221.59912 235.96204 255.744
221.59358 235.95895 255.744
221.59578 235.96017 255.744
221.60321 235.9644 255.744
221.60895 235.96764 255.744
221.59666 235.96068 255.744
221.59908 235.96207 255.744
221.58557 235.95445 255.744
221.59016 235.95702 255.744
221.59547 235.96004 255.744
221.61131 235.96892 255.744
221.59589 235.96027 255.744
221.6042 235.96494 255.744
221.62587 235.97711 255.744
221.60497 235.96538 255.744
221.61269 235.96971 255.744
221.5905 235.95721 255.744
221.5767 235.94945 255.744
221.59386 235.95914 255.744
221.60661 235.9663 255.744
221.6086 235.96745 255.744
221.58781 235.95569 255.744
221.60724 235.96666 255.744
221.62126 235.97452 255.744
221.58723 235.95537 255.744
221.60066 235.9629 255.744
221.6024 235.96394 255.744
221.61407 235.97049 255.744
221.6014 235.96338 255.744
221.59651 235.96063 255.744
221.59618 235.96043 255.744
221.60051 235.96286 255.744
221.59338 235.95883 255.744
221.58339 235.9532 255.744
221.59923 235.96211 255.744
221.60245 235.96394 255.744
221.61848 235.97298 255.744
221.60634 235.96616 255.744
221.5757 235.9489 255.744
221.6088 235.96751 255.744
221.60852 235.96738 255.744
221.59645 235.96057 255.744
221.58893 235.95636 255.744
221.60835 235.9673 255.744
221.602 235.9637 255.744
221.59438 235.9594 255.744
221.60289 235.9642 255.744
221.60263 235.96405 255.744
221.60611 235.96599 255.744
221.61345 235.97018 255.744
221.58276 235.95282 255.744
221.59634 235.96053 255.744
221.6176 235.9725 255.744
221.61209 235.96938 255.744
221.5929 235.95859 255.744
221.58391 235.95352 255.744
221.59811 235.96152 255.744
221.59361 235.95895 255.744
221.58505 235.95416 255.744
221.59842 235.96167 255.744
221.60803 235.96713 255.744
221.57954 235.95105 255.744
221.59766 235.96124 255.744
221.59634 235.96054 255.744
221.58746 235.9555 255.744
221.60771 235.96693 255.744
221.60728 235.96667 255.744
221.58658 235.955 255.744
221.60301 235.96426 255.744
221.5842 235.95369 255.744
221.61049 235.9685 255.744
221.59465 235.95953 255.744
221.6005 235.96284 255.744
221.58995 235.95692 255.744
221.59894 235.96196 255.744
221.59845 235.96169 255.744
221.6116 235.96912 255.744
221.58601 235.9547 255.744
221.58882 235.95627 255.744
221.60179 235.9636 255.744
221.60815 235.96716 255.744
221.60516 235.96548 255.744
221.60095 235.9631 255.744
221.59625 235.96046 255.744
221.58363 235.95331 255.744
221.58524 235.95427 255.744
221.59753 235.96117 255.744
221.59636 235.96054 255.744
221.65123 235.99146 255.744
221.63951 235.98486 255.744
221.62117 235.97447 255.744
221.63428 235.98187 255.744
221.62662 235.97758 255.744
221.63223 235.98074 255.744
221.64285 235.98671 255.744
221.62354 235.97585 255.744
221.63246 235.98088 255.744
221.63004 235.97948 255.744
221.62904 235.97894 255.744
221.62589 235.97719 255.744
221.619 235.9733 255.744
221.63348 235.98143 255.744
221.62991 235.97945 255.744
221.62155 235.9747 255.744
221.6234 235.97575 255.744
221.65208 235.99194 255.744
221.62701 235.97781 255.744
221.62137 235.97462 255.744
221.63109 235.9801 255.744
221.62665 235.97763 255.744
221.62854 235.97865 255.744
221.6352 235.98239 255.744
221.62874 235.97873 255.744
221.61563 235.97137 255.744
221.62317 235.97566 255.744
221.62564 235.97704 255.744
221.63147 235.98032 255.744
221.64014 235.98518 255.744
221.61237 235.96951 255.744
221.6223 235.97513 255.744
221.61414 235.97055 255.744
221.62776 235.97824 255.744
221.63274 235.98102 255.744
221.63448 235.98201 255.744
221.63371 235.98158 255.744
221.60912 235.96771 255.744
221.63419 235.98181 255.744
221.64111 235.98573 255.744
221.62355 235.97585 255.744
221.65204 235.99191 255.744
221.63004 235.97948 255.744
221.61826 235.97284 255.744
221.61908 235.97333 255.744
221.64146 235.98593 255.744
221.62292 235.97546 255.744
221.6153 235.97119 255.744
221.61159 235.96912 255.744
221.63402 235.98175 255.744
221.6359 235.9828 255.744
221.61717 235.97227 255.744
221.62624 235.97737 255.744
221.62106 235.97444 255.744
221.63281 235.98106 255.744
221.64464 235.98775 255.744
221.64804 235.98964 255.744
221.60939 235.96783 255.744
221.62993 235.97943 255.744
221.64583 235.9884 255.744
221.61879 235.97318 255.744
221.62407 235.97614 255.744
221.62192 235.9749 255.744
221.62111 235.97447 255.744
221.60959 235.968 255.744
221.63347 235.98141 255.744
221.646 235.9885 255.744
221.62967 235.97928 255.744
221.63022 235.97957 255.744
221.63736 235.98364 255.744
221.6349 235.98224 255.744
221.62862 235.97868 255.744
221.64395 235.98734 255.744
221.63058 235.97981 255.744
221.60118 235.96324 255.744
221.63148 235.98032 255.744
221.63907 235.9846 255.744
221.62659 235.97757 255.744
221.61723 235.97229 255.744
221.64346 235.98708 255.744
221.61147 235.96902 255.744
221.61417 235.97057 255.744
221.63956 235.98488 255.744
221.64494 235.98792 255.744
221.62173 235.9748 255.744
221.62029 235.97401 255.744
221.63048 235.97975 255.744
221.6237 235.97594 255.744
221.6179 235.97269 255.744
221.61711 235.97221 255.744
221.61508 235.97107 255.744
221.63417 235.98183 255.744
221.61841 235.97295 255.744
221.61185 235.96924 255.744
221.63802 235.98398 255.744
221.64297 235.98677 255.744
221.62581 235.9771 255.744
221.61609 235.97166 255.744
221.63065 235.97984 255.744
221.63223 235.98073 255.744
221.64441 235.98763 255.744
221.63179 235.98047 255.744
221.63298 235.98116 255.744
221.64534 235.98816 255.744
221.61351 235.9702 255.744
221.62646 235.97746 255.744
221.6206 235.97417 255.744
221.63176 235.98048 255.744
221.61714 235.97224 255.744
221.63156 235.98036 255.744
221.63866 235.98434 255.744
221.64442 235.98763 255.744
221.6014 235.96333 255.744
221.62532 235.97684 255.744
221.64577 235.98836 255.744
221.64015 235.9852 255.744
221.64304 235.98682 255.744
221.626 235.97722 255.744
221.63135 235.98021 255.744
221.6305 235.97977 255.744
221.62967 235.97928 255.744
221.61986 235.97375 255.744
221.63763 235.98375 255.744
221.63931 235.98474 255.744
221.63396 235.9817 255.744
221.62463 235.97646 255.744
221.6406 235.98544 255.744
221.63939 235.98476 255.744
221.62567 235.97705 255.744
221.64801 235.98958 255.744
221.62495 235.97664 255.744
221.60587 235.96588 255.744
221.64133 235.98587 255.744
221.62581 235.97714 255.744
221.61427 235.9706 255.744
221.62527 235.9768 255.744
221.63132 235.98022 255.744
221.6295 235.9792 255.744
221.62445 235.97636 255.744
221.62363 235.9759 255.744
221.62709 235.97783 255.744
221.6348 235.98215 255.744
221.63206 235.98065 255.744
221.61072 235.96863 255.744
221.64153 235.98596 255.744
221.63846 235.98427 255.744
221.6273 235.97795 255.744
221.63432 235.98192 255.744
221.63078 235.97992 255.744
221.6193 235.97346 255.744
221.61603 235.97157 255.744
221.61433 235.97064 255.744
221.65413 235.99306 255.744
221.61723 235.97232 255.744
221.6078 235.96698 255.744
221.60872 235.96751 255.744
221.63544 235.98253 255.744
221.63065 235.97983 255.744
221.62512 235.97673 255.744
221.62697 235.97777 255.744
221.62599 235.97719 255.744
221.63084 235.97997 255.744
221.61124 235.9689 255.744
221.63594 235.98283 255.744
221.63603 235.98286 255.744
221.61876 235.97316 255.744
221.62425 235.97627 255.744
221.6316 235.9804 255.744
221.60916 235.96774 255.744
221.6316 235.9804 255.744
221.62173 235.9748 255.744
221.60556 235.9657 255.744
221.62654 235.97754 255.744
221.64021 235.98523 255.744
221.62178 235.97482 255.744
221.62605 235.97726 255.744
221.63474 235.98213 255.744
221.6103 235.9684 255.744
221.62866 235.97874 255.744
221.63696 235.98341 255.744
221.60849 235.96736 255.744
221.63354 235.98148 255.744
221.6205 235.97415 255.744
221.62865 235.9787 255.744
221.61913 235.97334 255.744
221.61299 235.96992 255.744
221.63715 235.98349 255.744
221.61424 235.9706 255.744
221.6234 235.97577 255.744
221.63582 235.98277 255.744
221.6131 235.96996 255.744
221.62227 235.97508 255.744
221.62991 235.97945 255.744
221.62381 235.97597 255.744
221.62787 235.97827 255.744
221.62404 235.97614 255.744
221.63657 235.98317 255.744
221.62192 235.9749 255.744
221.64217 235.98631 255.744
221.63559 235.98264 255.744
221.62645 235.9775 255.744
221.65056 235.9911 255.744
221.63686 235.98332 255.744
221.62808 235.97841 255.744
221.61105 235.9688 255.744
221.63844 235.98425 255.744
221.62526 235.97684 255.744
221.6163 235.97179 255.744
221.62029 235.974 255.744
221.62598 235.97722 255.744
221.62962 235.97928 255.744
221.61723 235.97229 255.744
221.63303 235.98119 255.744
221.62267 235.97534 255.744
221.61465 235.97081 255.744
221.62877 235.97878 255.744
221.60902 235.96765 255.744
221.62892 235.97887 255.744
221.61575 235.97145 255.744
221.6213 235.97456 255.744
221.63734 235.98364 255.744
221.64081 235.98557 255.744
221.63026 235.97963 255.744
220.03459 234.2841 254.16486
221.63974 235.985 255.744
218.44943 232.58873 252.31636
215.21236 229.1424 248.57813
221.62445 235.97633 255.744
210.23538 223.85777 242.86292
213.54646 227.38336 246.68777
215.1644 229.1154 248.57813
205.14648 218.45032 237.00995
203.43613 216.62581 235.02657
206.86601 220.27281 238.97687
198.21341 211.05605 228.97336
208.55772 222.07266 240.92773
196.42949 209.15965 226.91974
187.30055 199.43288 216.3595
198.19687 211.0467 228.97336
191.00682 203.38072 220.64426
183.48651 195.38672 211.98814
194.64192 207.25305 224.84738
201.71237 214.78648 233.0263
191.00346 203.37883 220.64426
198.21042 211.05437 228.97336
203.45016 216.63376 235.02657
205.16496 218.46071 237.00995
206.86095 220.26996 238.97687
205.16034 218.4581 237.00995
211.89084 225.62378 244.78282
216.81433 230.85927 250.45422
213.56883 227.39597 246.68777
220.03108 234.28214 254.16486
220.04619 234.29066 254.16486
220.01462 234.27287 254.16486
221.6343 235.98192 255.744
221.62215 235.97502 255.744
221.64334 235.987 255.744
221.63312 235.98125 255.744
221.62856 235.97868 255.744
221.63268 235.98099 255.744
221.63051 235.97975 255.744
221.63481 235.98221 255.744
221.63678 235.98332 255.744
221.61569 235.97142 255.744
221.60886 235.96759 255.744
221.63173 235.98048 255.744
221.63307 235.98122 255.744
221.62012 235.97392 255.744
221.61646 235.97183 255.744
221.6202 235.97395 255.744
221.61931 235.97346 255.744
221.62521 235.97679 255.744
221.62541 235.9769 255.744
221.62686 235.97772 255.744
221.6213 235.97461 255.744
221.6175 235.97243 255.744
221.63644 235.9831 255.744
221.63298 235.98114 255.744
221.61407 235.97049 255.744
221.63634 235.98305 255.744
221.61095 235.96873 255.744
221.62779 235.97821 255.744
221.62117 235.9745 255.744
221.63739 235.98363 255.744
221.6277 235.97818 255.744
221.61418 235.97057 255.744
221.64381 235.98727 255.744
221.6245 235.97638 255.744
221.63167 235.98041 255.744
221.62889 235.97885 255.744
221.60341 235.9645 255.744
221.63374 235.98158 255.744
221.62073 235.97427 255.744
221.60255 235.96402 255.744
221.6117 235.96915 255.744
221.63266 235.98099 255.744
221.6044 235.96506 255.744
221.60518 235.9655 255.744
221.63264 235.98094 255.744
221.62976 235.97935 255.744
221.61584 235.97153 255.744
221.64711 235.9891 255.744
221.63174 235.98047 255.744
221.6136 235.97021 255.744
221.62624 235.97739 255.744
221.62775 235.9782 255.744
221.61041 235.96844 255.744
221.6228 235.97543 255.744
221.62527 235.97684 255.744
221.6344 235.98198 255.744
221.62991 235.97945 255.744
221.60876 235.9675 255.744
221.6473 235.98923 255.744
221.62186 235.97488 255.744
221.61555 235.97134 255.744
221.61665 235.97195 255.744
221.62653 235.97752 255.744
221.61882 235.97318 255.744
221.64272 235.98665 255.744
221.63548 235.98257 255.744
221.61493 235.97098 255.744
221.63728 235.98357 255.744
221.64052 235.9854 255.744
221.62814 235.97845 255.744
221.6238 235.97595 255.744
221.63805 235.98401 255.744
221.63905 235.98454 255.744
221.62196 235.97493 255.744
221.62779 235.97823 255.744
221.6311 235.98009 255.744
221.62804 235.97836 255.744
221.61569 235.97139 255.744
221.61862 235.97308 255.744
221.62614 235.9773 255.744
221.61804 235.97273 255.744
221.61919 235.9734 255.744
221.62027 235.97398 255.744
221.61966 235.97363 255.744
221.62083 235.9743 255.744
221.63177 235.9805 255.744
221.62378 235.97595 255.744
221.6412 235.98578 255.744
221.63007 235.97949 255.744
221.65282 235.99232 255.744
221.6286 235.97868 255.744
221.6314 235.98027 255.744
221.61053 235.96852 255.744
221.63751 235.9837 255.744
221.63525 235.98242 255.744
221.62921 235.97903 255.744
221.62994 235.97946 255.744
221.61209 235.96938 255.744
221.63715 235.98349 255.744
221.62425 235.97624 255.744
221.6236 235.97585 255.744
221.62094 235.97437 255.744
221.62685 235.97769 255.744
221.60828 235.96724 255.744
221.61856 235.97302 255.744
221.63031 235.97966 255.744
221.59486 235.95966 255.744
221.63083 235.97993 255.744
221.64284 235.9867 255.744
221.63197 235.9806 255.744
221.63011 235.97954 255.744
221.62082 235.97429 255.744
221.62547 235.97693 255.744
221.61133 235.96895 255.744
221.63187 235.9805 255.744
221.63695 235.9834 255.744
221.60622 235.96606 255.744
221.63232 235.98077 255.744
221.62558 235.977 255.744
221.62392 235.97604 255.744
221.60721 235.96661 255.744
221.63089 235.97997 255.744
221.6301 235.9795 255.744
221.617 235.97215 255.744
221.63742 235.98366 255.744
221.62123 235.97455 255.744
221.62396 235.97604 255.744
221.6238 235.97597 255.744
221.64244 235.98648 255.744
221.63066 235.97986 255.744
221.63145 235.98032 255.744
221.63441 235.98196 255.744
221.64641 235.98871 255.744
221.63332 235.98134 255.744
221.6252 235.97679 255.744
221.63263 235.98099 255.744
221.61794 235.97269 255.744
221.61317 235.97 255.744
221.61809 235.97276 255.744
221.63348 235.98143 255.744
221.62378 235.97595 255.744
221.61478 235.9709 255.744
221.63428 235.98187 255.744
221.64076 235.98553 255.744
221.63136 235.98026 255.744
221.6232 235.97563 255.744
221.63156 235.98036 255.744
221.6107 235.96863 255.744
221.63838 235.9842 255.744
221.6372 235.98352 255.744
221.62303 235.97554 255.744
221.6284 235.97859 255.744
221.63695 235.98337 255.744
221.60396 235.96483 255.744
221.62964 235.97928 255.744
221.63765 235.9838 255.744
221.62376 235.97595 255.744
221.612 235.9693 255.744
221.63084 235.97998 255.744
221.63495 235.98228 255.744
221.63554 235.9826 255.744
221.63379 235.98161 255.744
221.63274 235.98102 255.744
221.61156 235.96909 255.744
221.63622 235.98297 255.744
221.63118 235.98015 255.744
221.61826 235.97285 255.744
221.61316 235.97 255.744
221.61987 235.97374 255.744
221.60861 235.96744 255.744
221.64627 235.98866 255.744
221.62328 235.97568 255.744
221.62231 235.97516 255.744
221.6255 235.97693 255.744
221.61536 235.97122 255.744
221.63695 235.98337 255.744
221.62852 235.97867 255.744
221.62167 235.9748 255.744
221.61649 235.97188 255.744
221.60753 235.96681 255.744
221.63257 235.98093 255.744
221.63031 235.97968 255.744
221.6357 235.98268 255.744
221.61702 235.97217 255.744
221.63507 235.98235 255.744
221.61899 235.9733 255.744
221.62361 235.97586 255.744
221.62183 235.97487 255.744
221.60287 235.9642 255.744
221.63486 235.98221 255.744
221.64163 235.98605 255.744
221.62938 235.97914 255.744
221.6253 235.97684 255.744
221.60641 235.96619 255.744
221.61443 235.97069 255.744
221.6143 235.97066 255.744
221.6282 235.97847 255.744
221.63145 235.98029 255.744
221.66054 235.99669 255.744
221.62259 235.97531 255.744
221.61847 235.97298 255.744
221.59912 235.9621 255.744
221.63887 235.98447 255.744
221.61784 235.9726 255.744
221.62918 235.979 255.744
221.61894 235.97325 255.744
221.61436 235.97064 255.744
221.62854 235.97865 255.744
221.62895 235.97891 255.744
221.6159 235.97156 255.744
221.61604 235.97163 255.744
221.62128 235.97456 255.744
221.6388 235.98444 255.744
221.64224 235.98639 255.744
221.64072 235.9855 255.744
221.62962 235.97928 255.744
221.6063 235.96614 255.744
221.62718 235.97789 255.744
221.61069 235.96857 255.744
221.62985 235.97939 255.744
221.6289 235.97887 255.744
221.63405 235.98175 255.744
221.61679 235.97203 255.744
221.61646 235.97185 255.744
221.61963 235.97363 255.744
221.61931 235.97346 255.744
221.61981 235.97374 255.744
221.62022 235.974 255.744
221.63385 235.98163 255.744
221.62045 235.97409 255.744
221.62936 235.9791 255.744
221.61841 235.97295 255.744
221.61984 235.97374 255.744
221.61938 235.9735 255.744
221.62764 235.97815 255.744
221.62865 235.97871 255.744
221.62572 235.9771 255.744
221.62924 235.97906 255.744
221.61584 235.97153 255.744
221.6148 235.9709 255.744
221.64066 235.98546 255.744
221.61697 235.97215 255.744
221.61891 235.97327 255.744
221.62894 235.97887 255.744
221.61664 235.97195 255.744
221.62181 235.97487 255.744
221.63156 235.98036 255.744
221.61145 235.96902 255.744
221.63567 235.98268 255.744
221.64423 235.9875 255.744
221.63293 235.98112 255.744
221.63013 235.97955 255.744
221.62042 235.97408 255.744
221.61806 235.97275 255.744
221.63358 235.98149 255.744
221.63396 235.9817 255.744
221.6221 235.97502 255.744
221.62746 235.97806 255.744
221.64122 235.98578 255.744
221.63615 235.98296 255.744
221.6418 235.98613 255.744
221.61171 235.96916 255.744
221.6214 235.9746 255.744
221.6195 235.97357 255.744
221.62454 235.9764 255.744
221.63618 235.98296 255.744
221.62723 235.97789 255.744
221.62787 235.9783 255.744
221.61668 235.97197 255.744
221.61044 235.96846 255.744
221.64488 235.98788 255.744
221.62215 235.97504 255.744
221.62367 235.9759 255.744
221.6136 235.97025 255.744
221.61263 235.9697 255.744
221.62135 235.97456 255.744
221.62257 235.9753 255.744
221.62286 235.97543 255.744
221.60733 235.96674 255.744
221.61687 235.9721 255.744
221.62042 235.97409 255.744
221.62755 235.97807 255.744
221.63487 235.98221 255.744
221.6285 235.97864 255.744
221.63496 235.9823 255.744
221.63177 235.98048 255.744
221.62811 235.9784 255.744
221.62389 235.97604 255.744
221.62685 235.97769 255.744
221.62718 235.97789 255.744
221.656 235.99411 255.744
221.62344 235.97577 255.744
221.61394 235.97041 255.744
221.63661 235.98322 255.744
221.62956 235.97923 255.744
221.62247 235.97522 255.744
221.61485 235.97092 255.744
221.63406 235.98174 255.744
221.628 235.97833 255.744
221.63277 235.98102 255.744
221.6116 235.96913 255.744
221.62842 235.97858 255.744
221.60402 235.96484 255.744
221.61253 235.96964 255.744
221.63457 235.98204 255.744
221.61877 235.97313 255.744
221.63844 235.9842 255.744
221.61821 235.97285 255.744
221.63216 235.9807 255.744
221.6381 235.98407 255.744
221.63226 235.98079 255.744
221.63872 235.98439 255.744
221.62094 235.97437 255.744
221.61893 235.97325 255.744
221.63019 235.97955 255.744
221.63881 235.98444 255.744
221.62206 235.97502 255.744
221.61137 235.96896 255.744
221.62201 235.97496 255.744
221.6434 235.98706 255.744
221.62169 235.97481 255.744
221.6201 235.97389 255.744
221.61505 235.97104 255.744
221.61293 235.96988 255.744
221.63564 235.98264 255.744
221.62578 235.97713 255.744
221.62593 235.97716 255.744
221.61606 235.97162 255.744
221.62474 235.97653 255.744
221.63293 235.9811 255.744
221.63524 235.98242 255.744
221.60934 235.96785 255.744
221.63312 235.98123 255.744
221.62665 235.9776 255.744
221.64008 235.98514 255.744
221.63087 235.98001 255.744
221.61993 235.9738 255.744
221.61209 235.96939 255.744
221.64693 235.98901 255.744
221.64287 235.98674 255.744
221.60495 235.9654 255.744
221.62901 235.97894 255.744
221.63362 235.98154 255.744
221.64307 235.98683 255.744
221.63623 235.98299 255.744
221.6656 235.99954 255.744
221.67093 236.00255 255.744
221.65964 235.99617 255.744
221.68547 236.01074 255.744
221.66435 235.99884 255.744
221.657 235.99469 255.744
221.65143 235.99156 255.744
221.6679 236.00084 255.744
221.65738 235.9949 255.744
221.65022 235.99088 255.744
221.65517 235.99368 255.744
221.6686 236.00122 255.744
221.66534 235.99939 255.744
221.64818 235.98972 255.744
221.68057 236.00797 255.744
221.65128 235.99144 255.744
221.65396 235.99298 255.744
221.64627 235.98866 255.744
221.66792 236.00085 255.744
221.64912 235.99022 255.744
221.64053 235.98537 255.744
221.67422 236.00443 255.744
221.66386 235.99857 255.744
221.64555 235.98824 255.744
221.66656 236.00008 255.744
221.65346 235.99269 255.744
221.6549 235.99353 255.744
221.65366 235.99278 255.744
221.65352 235.99272 255.744
221.67123 236.0027 255.744
221.66826 236.00104 255.744
221.67033 236.0022 255.744
221.64946 235.99043 255.744
221.65137 235.99153 255.744
221.65318 235.99254 255.744
221.64484 235.98785 255.744
221.64908 235.99022 255.744
221.6746 236.00462 255.744
221.6733 236.00386 255.744
221.65854 235.99556 255.744
221.67528 236.005 255.744
221.6774 236.0062 255.744
221.6579 235.99521 255.744
221.66887 236.0014 255.744
221.66895 236.00143 255.744
221.64897 235.9902 255.744
221.66304 235.9981 255.744
221.64073 235.98552 255.744
221.67238 236.00337 255.744
221.65613 235.99419 255.744
221.66475 235.99907 255.744
221.67645 236.00568 255.744
221.66132 235.99713 255.744
221.65541 235.9938 255.744
221.65302 235.99246 255.744
221.66823 236.001 255.744
221.65826 235.99539 255.744
221.64073 235.98558 255.744
221.66333 235.99825 255.744
221.65448 235.99329 255.744
221.65636 235.99431 255.744
221.64664 235.98886 255.744
221.66045 235.99661 255.744
221.66537 235.99942 255.744
221.64513 235.988 255.744
221.65367 235.99281 255.744
221.63586 235.98279 255.744
221.64856 235.98993 255.744
221.65378 235.99289 255.744
221.65817 235.99533 255.744
221.66154 235.99727 255.744
221.68095 236.0082 255.744
221.65979 235.99629 255.744
221.65482 235.99347 255.744
221.67625 236.00552 255.744
221.6807 236.00804 255.744
221.65009 235.99077 255.744
221.65977 235.99626 255.744
221.64857 235.98996 255.744
221.66069 235.99678 255.744
221.67308 236.00374 255.744
221.6693 236.0016 255.744
221.65302 235.99245 255.744
221.64749 235.98935 255.744
221.65694 235.99466 255.744
221.65073 235.99115 255.744
221.65295 235.99242 255.744
221.66975 236.00188 255.744
221.66112 235.99704 255.744
221.66766 236.00067 255.744
221.67043 236.00226 255.744
221.65259 235.9922 255.744
221.65112 235.99138 255.744
221.65839 235.99548 255.744
221.64914 235.99026 255.744
221.67453 236.00455 255.744
221.66853 236.0012 255.744
221.65913 235.99591 255.744
221.65625 235.99428 255.744
221.65332 235.9926 255.744
221.6634 235.99832 255.744
221.65257 235.9922 255.744
221.65234 235.99207 255.744
221.65305 235.9925 255.744
221.65642 235.99437 255.744
221.67285 236.0036 255.744
221.67628 236.00554 255.744
221.64113 235.98578 255.744
221.68106 236.00826 255.744
221.67183 236.00305 255.744
221.64854 235.98991 255.744
221.67206 236.00319 255.744
221.65086 235.99124 255.744
221.66286 235.99802 255.744
221.66214 235.99759 255.744
221.6741 236.00435 255.744
221.64896 235.99019 255.744
221.66202 235.99751 255.744
221.6497 235.99059 255.744
221.65309 235.99246 255.744
221.65509 235.99364 255.744
221.6391 235.98459 255.744
221.6762 236.00552 255.744
221.65817 235.99538 255.744
221.65254 235.99217 255.744
221.66809 236.00093 255.744
221.67384 236.00418 255.744
221.64113 235.9858 255.744
221.65712 235.99474 255.744
221.64323 235.98694 255.744
221.6472 235.98917 255.744
221.66527 235.99936 255.744
221.67294 236.00366 255.744
221.68883 236.01265 255.744
221.66844 236.00114 255.744
221.66983 236.00194 255.744
221.67245 236.0034 255.744
221.6639 235.99855 255.744
221.65991 235.99632 255.744
221.63208 235.98062 255.744
221.67607 236.00545 255.744
221.65982 235.99628 255.744
221.67172 236.00298 255.744
221.64514 235.98802 255.744
221.66054 235.9967 255.744
221.66913 236.00154 255.744
221.65709 235.99475 255.744
221.66113 235.99702 255.744
221.65555 235.99385 255.744
221.64993 235.99069 255.744
221.6521 235.99194 255.744
221.66129 235.9971 255.744
221.6505 235.99104 255.744
221.63979 235.98499 255.744
221.65904 235.99582 255.744
221.64528 235.98811 255.744
221.64952 235.9905 255.744
221.64464 235.9877 255.744
221.65942 235.99605 255.744
221.66507 235.99924 255.744
221.66675 236.00018 255.744
221.66435 235.99886 255.744
221.67339 236.00392 255.744
221.64905 235.99025 255.744
221.65842 235.99548 255.744
221.66733 236.0005 255.744
221.66896 236.00143 255.744
221.6535 235.99272 255.744
221.62303 235.97556 255.744
221.62978 235.97937 255.744
221.65045 235.99103 255.744
221.66641 236.00003 255.744
221.68484 236.01038 255.744
221.6574 235.99493 255.744
221.67342 236.00397 255.744
221.65134 235.99149 255.744
221.63817 235.98407 255.744
221.64255 235.98654 255.744
221.66463 235.99896 255.744
221.67174 236.003 255.744
221.63902 235.98456 255.744
221.65073 235.99115 255.744
221.63889 235.98448 255.744
221.66217 235.99759 255.744
221.67073 236.00243 255.744
221.65726 235.99484 255.744
221.68661 236.01137 255.744
221.66591 235.99973 255.744
221.63885 235.98447 255.744
221.67181 236.00305 255.744
221.64871 235.99004 255.744
221.6498 235.99062 255.744
221.67038 236.00226 255.744
221.65085 235.99124 255.744
221.65788 235.9952 255.744
221.6631 235.99811 255.744
221.65971 235.99622 255.744
221.66559 235.99954 255.744
221.67114 236.00267 255.744
221.6538 235.99289 255.744
221.67442 236.00452 255.744
221.66183 235.9974 255.744
221.6495 235.99048 255.744
221.65694 235.99467 255.744
221.66522 235.99934 255.744
221.65137 235.99152 255.744
221.64491 235.98788 255.744
221.65875 235.9957 255.744
221.66365 235.99846 255.744
221.66704 236.00032 255.744
221.65753 235.995 255.744
221.644 235.98738 255.744
221.67114 236.00267 255.744
221.66324 235.9982 255.744
221.65527 235.99371 255.744
221.66039 235.99657 255.744
221.64754 235.98935 255.744
221.68195 236.00876 255.744
221.65843 235.99553 255.744
221.66418 235.99875 255.744
218.48003 232.60596 252.31636
218.46202 232.59583 252.31636
221.65239 235.9921 255.744
216.85463 230.88197 250.45422
213.58687 227.40613 246.68777
210.27104 223.8779 242.86292
201.72978 214.79628 233.0263
201.73538 214.79942 233.0263
201.74568 214.80527 233.0263
203.45316 216.6354 235.02657
183.50488 195.39706 211.98814
181.60304 193.36208 209.76831
181.58997 193.3547 209.76831
175.69592 187.08035 202.9632
163.28693 173.86273 188.61783
154.44672 164.45358 178.41461
171.64737 182.77399 198.29675
163.2746 173.85576 188.61783
183.50018 195.39444 211.98814
171.64386 182.77202 198.29675
154.43587 164.44746 178.41461
175.68411 187.0737 202.9632
156.68835 166.84706 181.01933
158.8991 169.2071 183.58711
163.27698 173.85713 188.61783
177.68958 189.199 205.25664
187.29947 199.43227 216.3595
177.66785 189.18674 205.25664
196.43834 209.16463 226.91974
173.7134 184.95659 200.64354
192.85406 205.33792 222.75572
198.22902 211.06485 228.97336
206.89395 220.28854 238.97687
205.19939 218.48009 237.00995
215.20847 229.14021 248.57813
210.26218 223.8729 242.86292
215.20604 229.13885 248.57813
220.06313 234.30019 254.16486
221.6762 236.00552 255.744
221.66617 235.99988 255.744
221.659 235.99583 255.744
221.64786 235.98953 255.744
221.66382 235.99855 255.744
221.66502 235.9992 255.744
221.66675 236.00018 255.744
221.66063 235.99677 255.744
221.6572 235.9948 255.744
221.63548 235.98257 255.744
221.66037 235.99661 255.744
221.63634 235.98303 255.744
221.65317 235.99254 255.744
221.66821 236.001 255.744
221.65442 235.99324 255.744
221.66699 236.0003 255.744
221.65558 235.99388 255.744
221.64941 235.99042 255.744
221.68004 236.00769 255.744
221.66063 235.99677 255.744
221.65361 235.99283 255.744
221.66026 235.99652 255.744
221.67851 236.0068 255.744
221.65659 235.99446 255.744
221.66293 235.99803 255.744
221.67244 236.00339 255.744
221.67068 236.00241 255.744
221.67455 236.00456 255.744
221.65283 235.99232 255.744
221.65553 235.99388 255.744
221.64795 235.9896 255.744
221.67133 236.00276 255.744
221.66327 235.99826 255.744
221.63808 235.98402 255.744
221.6513 235.99152 255.744
221.66443 235.99889 255.744
220.0471 234.29115 254.16486
221.65628 235.9943 255.744
216.84497 230.87651 250.45422
221.6527 235.99225 255.744
220.07341 234.30598 254.16486
215.22095 229.14726 248.57813
216.8561 230.88278 250.45422
220.07703 234.30797 254.16486
220.04163 234.28802 254.16486
221.65889 235.99574 255.744
220.06075 234.29884 254.16486
221.65549 235.99384 255.744
221.65973 235.99625 255.744
221.66618 235.99985 255.744
221.65945 235.99608 255.744
221.64917 235.99028 255.744
221.64911 235.99023 255.744
221.64561 235.98827 255.744
221.65874 235.99568 255.744
221.65947 235.99608 255.744
221.64056 235.98543 255.744
221.65898 235.99582 255.744
221.65898 235.99583 255.744
221.65816 235.99536 255.744
221.63257 235.98091 255.744
221.67326 236.00388 255.744
221.66084 235.99684 255.744
221.66466 235.999 255.744
221.65103 235.99132 255.744
221.65337 235.99265 255.744
221.64702 235.98909 255.744
221.65167 235.99165 255.744
221.65726 235.99483 255.744
221.67108 236.00264 255.744
221.66824 236.00104 255.744
221.66504 235.99925 255.744
221.65508 235.99362 255.744
221.67946 236.00735 255.744
221.6515 235.99158 255.744
221.67104 236.00261 255.744
221.65315 235.99252 255.744
221.66397 235.99861 255.744
221.66666 236.00012 255.744
221.65529 235.99371 255.744
221.65736 235.99487 255.744
221.67278 236.00359 255.744
221.65784 235.9952 255.744
221.66 235.9964 255.744
221.6525 235.99216 255.744
221.6415 235.98598 255.744
221.65228 235.99203 255.744
221.65367 235.99281 255.744
221.6339 235.98169 255.744
221.64407 235.98743 255.744
221.6705 236.00229 255.744
221.65839 235.99547 255.744
221.63817 235.98407 255.744
221.64029 235.9853 255.744
221.66309 235.99812 255.744
221.66467 235.99901 255.744
221.65471 235.99341 255.744
221.663 235.99805 255.744
221.66054 235.99667 255.744
221.6568 235.99458 255.744
221.65692 235.99464 255.744
221.65187 235.99182 255.744
221.66411 235.99872 255.744
221.64384 235.98729 255.744
221.66135 235.99715 255.744
221.66069 235.99675 255.744
221.65218 235.99196 255.744
221.66124 235.99707 255.744
221.6572 235.9948 255.744
221.64548 235.9882 255.744
221.65471 235.99341 255.744
221.66066 235.99677 255.744
221.65833 235.99545 255.744
221.68286 236.00926 255.744
221.65633 235.99431 255.744
221.65869 235.99564 255.744
221.65106 235.99136 255.744
221.6535 235.9927 255.744
221.6427 235.98666 255.744
221.65506 235.9936 255.744
221.68224 236.00894 255.744
221.67322 236.00385 255.744
221.67586 236.00528 255.744
221.65646 235.9944 255.744
221.66656 236.0001 255.744
221.6651 235.99927 255.744
221.64565 235.9883 255.744
221.65959 235.99615 255.744
221.64842 235.98984 255.744
221.65144 235.99153 255.744
221.66055 235.9967 255.744
221.64249 235.98653 255.744
221.66309 235.99811 255.744
221.65709 235.99475 255.744
221.65398 235.993 255.744
221.66278 235.99797 255.744
221.65909 235.99588 255.744
221.637 235.98341 255.744
221.65594 235.99408 255.744
221.65657 235.99445 255.744
221.64449 235.98761 255.744
221.656 235.99417 255.744
221.6695 236.00172 255.744
221.68217 236.00885 255.744
221.66055 235.9967 255.744
221.64917 235.9903 255.744
221.65181 235.99176 255.744
221.64877 235.99005 255.744
221.66953 236.00174 255.744
221.6585 235.99551 255.744
221.65613 235.99419 255.744
221.65642 235.9944 255.744
221.65282 235.99234 255.744
221.66957 236.00177 255.744
221.65094 235.9913 255.744
221.66557 235.99953 255.744
221.6436 235.98715 255.744
221.66972 236.00186 255.744
221.66422 235.99873 255.744
221.65094 235.99129 255.744
221.6721 236.00319 255.744
221.66159 235.99727 255.744
221.67471 236.00467 255.744
221.6414 235.98589 255.744
221.65036 235.99097 255.744
221.65787 235.99522 255.744
221.66096 235.99693 255.744
221.62686 235.9777 255.744
221.66965 236.00185 255.744
221.66261 235.99785 255.744
221.67952 236.00739 255.744
221.64914 235.99026 255.744
221.66045 235.99663 255.744
221.65372 235.99283 255.744
221.66458 235.99896 255.744
221.65642 235.99437 255.744
221.66891 236.0014 255.744
221.64691 235.98898 255.744
221.65717 235.9948 255.744
221.64415 235.98744 255.744
221.65749 235.99498 255.744
221.68607 236.01106 255.744
221.65129 235.99146 255.744
221.63405 235.98177 255.744
221.6745 236.00455 255.744
221.65253 235.99214 255.744
221.65935 235.99603 255.744
221.65536 235.99377 255.744
221.66475 235.99905 255.744
221.65085 235.99123 255.744
221.67467 236.00464 255.744
221.65231 235.99208 255.744
221.6419 235.98619 255.744
221.65819 235.99538 255.744
221.65744 235.99493 255.744
221.6506 235.99109 255.744
221.64403 235.98738 255.744
221.6373 235.98361 255.744
221.64987 235.99066 255.744
221.65897 235.9958 255.744
221.65678 235.99458 255.744
221.6507 235.99113 255.744
221.66438 235.99886 255.744
221.64337 235.98698 255.744
221.66472 235.99904 255.744
221.67116 236.00269 255.744
221.64105 235.98572 255.744
221.6538 235.9929 255.744
221.64767 235.98944 255.744
221.67114 236.00267 255.744
221.65714 235.99475 255.744
221.66539 235.9994 255.744
221.66191 235.99744 255.744
221.65816 235.99533 255.744
221.68231 236.00897 255.744
221.6487 235.99002 255.744
221.66156 235.99724 255.744
221.66055 235.9967 255.744
221.65263 235.99226 255.744
221.66287 235.998 255.744
221.67337 236.0039 255.744
221.65793 235.99524 255.744
221.68083 236.00812 255.744
221.66316 235.99818 255.744
221.65926 235.99594 255.744
221.64333 235.98697 255.744
221.64624 235.98863 255.744
221.64667 235.9889 255.744
221.67186 236.00305 255.744
221.66487 235.99911 255.744
221.65764 235.99506 255.744
221.64621 235.98859 255.744
221.67267 236.0035 255.744
221.66452 235.9989 255.744
221.65839 235.99544 255.744
221.67067 236.0024 255.744
221.64484 235.98784 255.744
221.6617 235.99733 255.744
221.63968 235.98492 255.744
221.67581 236.00531 255.744
221.6382 235.98407 255.744
221.66948 236.00172 255.744
221.65004 235.99078 255.744
221.66374 235.9985 255.744
221.65555 235.99388 255.744
221.67278 236.00359 255.744
221.68071 236.00806 255.744
221.6566 235.99449 255.744
221.65121 235.99144 255.744
221.6632 235.9982 255.744
221.66554 235.99953 255.744
221.65909 235.99588 255.744
221.67624 236.00552 255.744
221.66646 236.00003 255.744
221.67361 236.00406 255.744
221.65117 235.99142 255.744
221.65846 235.99553 255.744
221.65463 235.99335 255.744
221.6611 235.99702 255.744
221.66936 236.00168 255.744
221.647 235.98903 255.744
221.66101 235.99695 255.744
221.65775 235.99512 255.744
221.67033 236.00223 255.744
221.64362 235.98717 255.744
221.6643 235.99881 255.744
221.64977 235.9906 255.744
221.65138 235.99153 255.744
221.672 236.00313 255.744
221.67305 236.00372 255.744
221.65393 235.99298 255.744
221.66368 235.99846 255.744
221.66203 235.99754 255.744
221.65793 235.9952 255.744
221.66646 236.00002 255.744
221.6457 235.98831 255.744
221.6506 235.99107 255.744
221.64497 235.98792 255.744
221.66435 235.99886 255.744
221.63214 235.98067 255.744
221.65335 235.99265 255.744
221.65625 235.99423 255.744
221.65576 235.99397 255.744
221.65787 235.99518 255.744
221.64908 235.99023 255.744
221.65627 235.99428 255.744
221.66689 236.0003 255.744
221.65465 235.99338 255.744
221.65935 235.99602 255.744
221.67043 236.00227 255.744
221.65771 235.9951 255.744
221.66385 235.99857 255.744
221.65227 235.99202 255.744
221.64868 235.99 255.744
221.66862 236.00124 255.744
221.65846 235.9955 255.744
221.64287 235.98674 255.744
221.64885 235.99011 255.744
221.66719 236.00044 255.744
221.67607 236.00543 255.744
221.66698 236.00032 255.744
221.66835 236.00113 255.744
221.65361 235.99278 255.744
221.65048 235.991 255.744
221.67331 236.00388 255.744
221.65114 235.99138 255.744
221.65765 235.99504 255.744
221.64952 235.9905 255.744
221.65732 235.99487 255.744
221.6469 235.98901 255.744
221.65794 235.99522 255.744
221.66399 235.99864 255.744
221.66013 235.99643 255.744
221.64577 235.98836 255.744
221.66908 236.0015 255.744
221.66273 235.99791 255.744
221.66211 235.99757 255.744
221.66695 236.00029 255.744
221.68004 236.00768 255.744
221.6625 235.99777 255.744
221.67679 236.00583 255.744
221.68114 236.00827 255.744
221.6621 235.99757 255.744
221.66396 235.99858 255.744
221.64143 235.9859 255.744
221.6536 235.99278 255.744
221.65756 235.99504 255.744
221.68375 236.00977 255.744
221.65738 235.99486 255.744
221.66277 235.99794 255.744
221.6658 235.99965 255.744
221.65771 235.99507 255.744
221.65192 235.99184 255.744
221.68346 236.00958 255.744
221.67007 236.00206 255.744
221.66467 235.99902 255.744
221.6552 235.99367 255.744
221.66418 235.99872 255.744
221.66928 236.00162 255.744
221.65901 235.99583 255.744
221.65509 235.99364 255.744
221.66164 235.99728 255.744
221.69037 236.01349 255.744
221.68268 236.00917 255.744
221.68457 236.01021 255.744
221.69191 236.01434 255.744
221.68564 236.01083 255.744
221.6782 236.00665 255.744
221.68983 236.0132 255.744
221.70193 236.02002 255.744
221.6835 236.0096 255.744
221.67172 236.003 255.744
221.7071 236.02293 255.744
221.7034 236.02083 255.744
221.69325 236.01514 255.744
221.69725 236.01738 255.744
221.69604 236.01668 255.744
221.70079 236.01936 255.744
221.69809 236.01784 255.744
221.69676 236.01712 255.744
221.69975 236.01878 255.744
221.68861 236.0125 255.744
221.69981 236.01883 255.744
221.68922 236.01286 255.744
221.67934 236.00731 255.744
221.6869 236.01155 255.744
221.71924 236.02975 255.744
221.70155 236.01982 255.744
221.69914 236.01848 255.744
221.67839 236.00673 255.744
221.69359 236.01532 255.744
221.68015 236.00774 255.744
221.70607 236.02234 255.744
221.70241 236.02026 255.744
221.711 236.02512 255.744
221.70123 236.0196 255.744
221.68375 236.00975 255.744
221.6721 236.00317 255.744
221.69057 236.0136 255.744
221.68675 236.01146 255.744
221.6788 236.00699 255.744
221.68335 236.00955 255.744
221.68796 236.01215 255.744
221.70001 236.01894 255.744
221.69678 236.0171 255.744
221.6865 236.0113 255.744
221.709 236.02402 255.744
221.69025 236.01341 255.744
221.69766 236.01761 255.744
221.69362 236.01532 255.744
221.68965 236.01309 255.744
221.69484 236.01604 255.744
221.69473 236.01596 255.744
221.68854 236.01245 255.744
221.69058 236.01363 255.744
221.68646 236.0113 255.744
221.69737 236.01744 255.744
221.6826 236.00912 255.744
221.68233 236.00896 255.744
221.6856 236.01082 255.744
221.68858 236.01247 255.744
221.70547 236.022 255.744
221.70158 236.01984 255.744
221.70636 236.02249 255.744
221.68315 236.00943 255.744
221.6963 236.01683 255.744
221.70131 236.01965 255.744
221.7104 236.02478 255.744
221.69887 236.01831 255.744
221.68564 236.01086 255.744
221.67249 236.00345 255.744
221.69073 236.01372 255.744
221.69435 236.01576 255.744
221.68687 236.01154 255.744
221.68861 236.0125 255.744
221.69336 236.01517 255.744
221.70381 236.02104 255.744
221.67897 236.00706 255.744
221.6921 236.01443 255.744
221.69539 236.01631 255.744
221.6878 236.01205 255.744
221.68927 236.01286 255.744
221.67581 236.00526 255.744
221.69043 236.01355 255.744
221.71432 236.02702 255.744
221.68675 236.01144 255.744
221.68434 236.01009 255.744
221.71349 236.02654 255.744
221.67038 236.00224 255.744
221.68459 236.01024 255.744
221.6967 236.01706 255.744
221.69337 236.01521 255.744
221.7035 236.02087 255.744
221.70378 236.02104 255.744
221.68953 236.01303 255.744
221.70317 236.02075 255.744
221.68634 236.01122 255.744
221.70857 236.02376 255.744
221.69461 236.01588 255.744
221.699 236.01834 255.744
221.68631 236.0112 255.744
221.68715 236.01169 255.744
221.69801 236.01782 255.744
221.6739 236.00421 255.744
221.69722 236.01738 255.744
221.6968 236.01712 255.744
221.722 236.03131 255.744
221.69705 236.01726 255.744
221.69205 236.01442 255.744
221.67679 236.00584 255.744
221.69197 236.01439 255.744
221.68962 236.01306 255.744
221.71071 236.02496 255.744
221.6987 236.0182 255.744
221.69743 236.01747 255.744
221.70262 236.02039 255.744
221.67728 236.00613 255.744
221.67928 236.00722 255.744
221.69481 236.01604 255.744
221.67584 236.00531 255.744
221.70012 236.01898 255.744
221.6921 236.01447 255.744
221.71487 236.02731 255.744
221.69489 236.01607 255.744
221.69936 236.01854 255.744
221.69975 236.01878 255.744
221.69778 236.01768 255.744
221.69739 236.01744 255.744
221.69417 236.01564 255.744
221.67574 236.00525 255.744
221.68413 236.01 255.744
221.68985 236.01321 255.744
221.6933 236.01515 255.744
221.68855 236.01248 255.744
221.67958 236.00743 255.744
221.69572 236.01651 255.744
221.70047 236.01917 255.744
221.6914 236.01411 255.744
221.68657 236.01138 255.744
221.70415 236.02124 255.744
221.67934 236.00728 255.744
221.66939 236.00168 255.744
221.67278 236.00357 255.744
221.68314 236.00941 255.744
221.68565 236.01085 255.744
221.682 236.00879 255.744
221.68985 236.01321 255.744
221.6856 236.0108 255.744
221.69862 236.01814 255.744
221.69597 236.01666 255.744
221.68987 236.01323 255.744
221.70853 236.02373 255.744
221.69083 236.01373 255.744
221.70074 236.01935 255.744
221.70413 236.02126 255.744
221.68893 236.01266 255.744
221.6856 236.01082 255.744
221.69162 236.0142 255.744
221.68565 236.01085 255.744
221.6982 236.01791 255.744
221.68575 236.01088 255.744
221.69653 236.01698 255.744
221.6676 236.00067 255.744
221.68237 236.00897 255.744
221.68132 236.0084 255.744
221.69229 236.01454 255.744
221.69933 236.01855 255.744
221.66882 236.00139 255.744
221.69054 236.01357 255.744
221.68088 236.00815 255.744
221.67676 236.00581 255.744
221.70703 236.02287 255.744
221.70103 236.0195 255.744
221.69427 236.01567 255.744
221.677 236.00594 255.744
221.71524 236.0275 255.744
221.6734 236.00394 255.744
221.6939 236.0155 255.744
221.69363 236.01537 255.744
221.6911 236.01392 255.744
221.68466 236.01031 255.744
221.69254 236.01472 255.744
221.70335 236.02083 255.744
221.69508 236.01617 255.744
221.68518 236.01059 255.744
221.6924 236.01465 255.744
221.68472 236.01031 255.744
221.6819 236.00871 255.744
221.69026 236.01344 255.744
221.67899 236.00705 255.744
221.69229 236.0146 255.744
221.67517 236.00493 255.744
221.70802 236.02347 255.744
221.6913 236.01404 255.744
221.69264 236.01479 255.744
221.69487 236.01604 255.744
221.67784 236.00647 255.744
221.702 236.02007 255.744
221.6938 236.01544 255.744
221.69844 236.01805 255.744
221.70435 236.02136 255.744
221.69318 236.01506 255.744
221.707 236.02287 255.744
221.69662 236.01704 255.744
221.68506 236.01048 255.744
221.67603 236.00542 255.744
221.68387 236.00984 255.744
221.69101 236.01389 255.744
221.68701 236.01161 255.744
221.69003 236.01329 255.744
221.69182 236.01428 255.744
221.68025 236.00778 255.744
221.68245 236.00903 255.744
221.67075 236.00243 255.744
221.71072 236.02498 255.744
221.68684 236.0115 255.744
221.69223 236.01457 255.744
221.68105 236.00824 255.744
221.69016 236.01338 255.744
221.69374 236.01541 255.744
216.8804 230.8965 250.45422
218.49309 232.6133 252.31636
218.48187 232.60698 252.31636
200.03438 212.96541 231.00871
205.23715 218.5014 237.00995
201.77086 214.81944 233.0263
179.68216 191.30606 207.52473
175.73378 187.10168 202.9632
167.5356 178.38318 193.5178
163.30182 173.87111 188.61783
154.45914 164.46059 178.41461
154.45891 164.46046 178.41461
152.17004 162.0236 175.77129
140.15582 149.23792 161.90862
142.65082 151.88748 164.77448
149.82771 159.53912 173.08759
121.38468 129.2473 140.21698
132.43121 141.01453 152.98926
124.23997 132.28816 143.51665
115.44942 122.93282 133.37296
140.1444 149.23148 161.90862
115.44834 122.93221 133.37296
109.20898 116.28549 126.15818
135.05513 143.8079 156.01904
118.45787 126.13164 136.83775
118.458305 126.131874 136.83775
124.23576 132.28577 143.51665
124.24728 132.29227 143.51665
129.76007 138.16801 149.89825
156.70534 166.85663 181.01933
121.384415 129.24715 140.21698
161.11891 171.5569 186.11948
156.72223 166.86615 181.01933
173.70404 184.95131 200.64354
179.68875 191.3098 207.52473
194.6836 207.27652 224.84738
183.54544 195.4199 211.98814
187.34406 199.45738 216.3595
196.48886 209.19312 226.91974
208.63138 222.11414 240.92773
210.31087 223.90034 242.86292
213.60324 227.41536 246.68777
220.11565 234.32979 254.16486
218.49721 232.61568 252.31636
220.10031 234.32114 254.16486
221.68388 236.00984 255.744
221.67291 236.00368 255.744
221.68626 236.01122 255.744
221.70334 236.0208 255.744
221.69899 236.01836 255.744
221.69998 236.01894 255.744
221.69646 236.01692 255.744
221.67377 236.00415 255.744
221.68155 236.00854 255.744
221.6914 236.01408 255.744
221.68652 236.01135 255.744
221.67639 236.00563 255.744
221.70792 236.02338 255.744
221.68007 236.00768 255.744
221.68608 236.01108 255.744
221.68814 236.01225 255.744
221.66685 236.00026 255.744
221.7003 236.01909 255.744
221.68692 236.01155 255.744
221.6917 236.01425 255.744
221.67906 236.00714 255.744
221.69765 236.01761 255.744
221.69151 236.01414 255.744
221.69398 236.01555 255.744
216.8944 230.90436 250.45422
216.89635 230.9055 250.45422
215.25691 229.16757 248.57813
203.49477 216.65887 235.02657
206.90744 220.29611 238.97687
200.03587 212.96625 231.00871
187.32373 199.44594 216.3595
181.62186 193.37268 209.76831
191.02202 203.38928 220.64426
181.62442 193.37411 209.76831
181.61496 193.3688 209.76831
181.61676 193.36981 209.76831
185.45255 197.44788 214.18497
185.44507 197.44368 214.18497
177.70427 189.20729 205.25664
185.44626 197.44435 214.18497
183.54294 195.4185 211.98814
179.6817 191.30579 207.52473
198.24901 211.07611 228.97336
201.77223 214.82022 233.0263
203.50885 216.66685 235.02657
206.9164 220.3012 238.97687
213.60562 227.4167 246.68777
211.96677 225.66658 244.78282
213.60999 227.41919 246.68777
218.4753 232.60329 252.31636
221.699 236.01833 255.744
221.68993 236.01324 255.744
221.70753 236.02318 255.744
221.69414 236.01566 255.744
221.67805 236.00658 255.744
221.69469 236.01595 255.744
221.69766 236.01761 255.744
221.68686 236.01155 255.744
221.68657 236.01137 255.744
221.70181 236.01994 255.744
221.69397 236.01552 255.744
221.69838 236.018 255.744
221.71645 236.0282 255.744
221.68279 236.0092 255.744
221.68347 236.00961 255.744
221.68085 236.00812 255.744
221.68234 236.00899 255.744
221.69356 236.0153 255.744
221.69728 236.0174 255.744
221.68532 236.01067 255.744
221.69073 236.01373 255.744
221.69455 236.01584 255.744
221.69406 236.0156 255.744
221.69907 236.01837 255.744
221.67654 236.0057 255.744
221.69481 236.01599 255.744
221.67746 236.00621 255.744
221.69118 236.01396 255.744
221.68253 236.00908 255.744
221.7014 236.01971 255.744
221.68388 236.00984 255.744
221.68053 236.00797 255.744
221.68379 236.0098 255.744
221.70628 236.02242 255.744
221.68942 236.01294 255.744
221.69038 236.01347 255.744
221.69585 236.01659 255.744
221.68787 236.01205 255.744
221.67693 236.00592 255.744
221.70837 236.02364 255.744
221.67995 236.00761 255.744
221.68028 236.0078 255.744
221.69684 236.01717 255.744
221.69914 236.01843 255.744
221.67563 236.0052 255.744
221.72038 236.03043 255.744
221.70502 236.02173 255.744
221.71806 236.0291 255.744
221.68465 236.01027 255.744
221.68219 236.00887 255.744
221.69728 236.01741 255.744
221.66862 236.00127 255.744
221.67152 236.00287 255.744
221.67636 236.00562 255.744
221.68246 236.00905 255.744
221.6804 236.00787 255.744
221.68822 236.01227 255.744
221.67885 236.00699 255.744
221.69377 236.01541 255.744
221.70172 236.01991 255.744
221.7121 236.02577 255.744
221.6909 236.01384 255.744
221.6997 236.01877 255.744
221.69008 236.01335 255.744
221.68016 236.00774 255.744
221.6811 236.00827 255.744
221.68692 236.01155 255.744
221.68274 236.00922 255.744
221.69176 236.01431 255.744
221.69675 236.01709 255.744
221.69168 236.01424 255.744
221.68309 236.0094 255.744
221.69383 236.01546 255.744
221.69606 236.0167 255.744
221.68356 236.00967 255.744
221.68648 236.01129 255.744
221.67567 236.00522 255.744
221.67773 236.00638 255.744
221.69446 236.0158 255.744
221.68484 236.01035 255.744
221.70288 236.02055 255.744
221.6731 236.00378 255.744
221.69185 236.01434 255.744
221.70912 236.02406 255.744
221.6767 236.00575 255.744
221.683 236.00934 255.744
220.10019 234.32108 254.16486
218.51115 232.62354 252.31636
218.49422 232.61395 252.31636
211.96988 225.66832 244.78282
213.61682 227.423 246.68777
210.3146 223.90242 242.86292
206.96297 220.32745 238.97687
205.27 218.51991 237.00995
210.35074 223.9228 242.86292
198.28642 211.09718 228.97336
198.30258 211.1063 228.97336
205.26886 218.51927 237.00995
203.5364 216.68236 235.02657
210.32202 223.90662 242.86292
216.89133 230.90265 250.45422
210.33548 223.9142 242.86292
216.90025 230.90768 250.45422
213.63065 227.43082 246.68777
220.10571 234.32416 254.16486
221.69485 236.01602 255.744
221.67877 236.00697 255.744
221.67989 236.00761 255.744
221.70227 236.0202 255.744
221.69589 236.01663 255.744
221.67805 236.00658 255.744
221.6789 236.00702 255.744
221.68793 236.01212 255.744
221.68161 236.00854 255.744
221.7063 236.02246 255.744
221.69537 236.01631 255.744
221.69624 236.01682 255.744
221.69049 236.0136 255.744
221.68315 236.00945 255.744
221.67967 236.00746 255.744
221.6778 236.0064 255.744
221.6843 236.01007 255.744
221.70152 236.01978 255.744
221.69287 236.01491 255.744
221.67632 236.00557 255.744
221.70181 236.01994 255.744
221.69148 236.01414 255.744
221.70203 236.02008 255.744
221.70271 236.02046 255.744
221.68639 236.01126 255.744
221.68828 236.01234 255.744
221.67874 236.00696 255.744
221.68742 236.01186 255.744
221.70036 236.01912 255.744
221.69324 236.01512 255.744
221.70154 236.01982 255.744
221.69879 236.01822 255.744
221.6994 236.01859 255.744
221.65862 235.99562 255.744
221.69221 236.01453 255.744
221.6863 236.0112 255.744
221.68279 236.00923 255.744
221.68077 236.00812 255.744
221.69153 236.01411 255.744
221.68234 236.00897 255.744
221.68834 236.01237 255.744
221.6779 236.00647 255.744
221.71466 236.02716 255.744
221.696 236.01666 255.744
221.698 236.01779 255.744
221.70667 236.02267 255.744
221.6923 236.0146 255.744
221.68753 236.0119 255.744
221.68376 236.00975 255.744
221.69753 236.01755 255.744
221.70845 236.02368 255.744
221.66612 235.99985 255.744
221.68394 236.00987 255.744
221.6952 236.01622 255.744
221.6864 236.01125 255.744
221.68512 236.01056 255.744
221.6926 236.01476 255.744
221.68297 236.00932 255.744
221.69823 236.01794 255.744
221.68938 236.01295 255.744
221.69128 236.01404 255.744
221.69463 236.01588 255.744
221.70045 236.01917 255.744
221.69807 236.01784 255.744
221.67844 236.00677 255.744
221.6848 236.01033 255.744
221.69447 236.01578 255.744
221.67278 236.00356 255.744
221.68503 236.01047 255.744
221.6771 236.00601 255.744
221.68742 236.01183 255.744
221.69823 236.01793 255.744
221.6866 236.01137 255.744
221.6925 236.01471 255.744
221.68913 236.01282 255.744
221.7049 236.02168 255.744
221.69614 236.01674 255.744
221.6914 236.0141 255.744
221.68755 236.0119 255.744
221.68831 236.01231 255.744
221.68475 236.01036 255.744
221.68896 236.01268 255.744
221.6692 236.00157 255.744
221.69238 236.01462 255.744
221.69112 236.0139 255.744
221.68973 236.01312 255.744
221.69647 236.01692 255.744
221.67998 236.00766 255.744
221.68633 236.01123 255.744
221.69902 236.01837 255.744
221.69873 236.01822 255.744
221.69312 236.01506 255.744
221.69261 236.01477 255.744
221.69084 236.0138 255.744
221.67336 236.00392 255.744
221.68825 236.0123 255.744
221.67122 236.0027 255.744
221.6954 236.01636 255.744
221.68665 236.01137 255.744
221.6903 236.01349 255.744
221.6811 236.0083 255.744
221.68063 236.008 255.744
221.69104 236.01389 255.744
221.70251 236.02036 255.744
221.68489 236.01039 255.744
221.69315 236.01508 255.744
221.67332 236.00389 255.744
221.69682 236.01714 255.744
221.71553 236.02768 255.744
221.70415 236.02126 255.744
221.69893 236.01834 255.744
221.6861 236.0111 255.744
221.69547 236.01637 255.744
221.69313 236.01506 255.744
221.70259 236.02039 255.744
221.6833 236.0095 255.744
221.69203 236.01442 255.744
221.67442 236.0045 255.744
221.69496 236.01607 255.744
221.68176 236.00864 255.744
221.69374 236.01541 255.744
221.68558 236.01082 255.744
221.69113 236.01392 255.744
221.70175 236.0199 255.744
221.69875 236.0182 255.744
221.6586 235.99559 255.744
221.69943 236.0186 255.744
221.71332 236.02643 255.744
221.69557 236.01645 255.744
221.70306 236.02065 255.744
221.69386 236.01546 255.744
221.68689 236.01154 255.744
221.71336 236.02647 255.744
221.69366 236.01535 255.744
221.69275 236.01483 255.744
221.6703 236.00217 255.744
221.69806 236.01782 255.744
221.69276 236.01483 255.744
221.69572 236.0165 255.744
221.6824 236.00902 255.744
221.70192 236.02 255.744
221.6988 236.01823 255.744
221.67775 236.0064 255.744
221.69588 236.01657 255.744
221.69423 236.01567 255.744
221.68777 236.01205 255.744
221.69243 236.01465 255.744
221.67348 236.00397 255.744
221.70459 236.02153 255.744
221.69374 236.01543 255.744
221.6837 236.00974 255.744
221.69249 236.0147 255.744
221.69057 236.0136 255.744
221.66891 236.00142 255.744
221.7114 236.02533 255.744
221.69617 236.01677 255.744
221.69221 236.01453 255.744
221.68481 236.01038 255.744
221.67662 236.00575 255.744
221.68657 236.01135 255.744
221.68977 236.01312 255.744
221.70396 236.02115 255.744
221.67935 236.0073 255.744
221.67943 236.00731 255.744
221.69577 236.01656 255.744
221.68954 236.01303 255.744
221.6849 236.01039 255.744
221.68533 236.01068 255.744
221.67221 236.00327 255.744
221.68973 236.01312 255.744
221.67345 236.00395 255.744
221.67699 236.00597 255.744
221.69247 236.01468 255.744
221.68439 236.01015 255.744
221.69594 236.01663 255.744
221.68785 236.01208 255.744
221.68712 236.01166 255.744
221.68367 236.00974 255.744
221.68521 236.01056 255.744
221.69414 236.01561 255.744
221.70895 236.02397 255.744
221.68832 236.01234 255.744
221.7253 236.03317 255.744
221.71255 236.02599 255.744
221.72961 236.03561 255.744
221.73755 236.04012 255.744
221.72267 236.03171 255.744
221.72142 236.03099 255.744
221.73628 236.03938 255.744
221.70813 236.0235 255.744
221.72101 236.03076 255.744
221.72995 236.0358 255.744
221.71637 236.02817 255.744
221.72864 236.03506 255.744
221.71664 236.02829 255.744
221.72098 236.03076 255.744
221.69582 236.01659 255.744
221.70967 236.02437 255.744
221.71808 236.02916 255.744
221.71388 236.02675 255.744
221.70132 236.01965 255.744
221.71704 236.02852 255.744
221.70999 236.02458 255.744
221.71721 236.02863 255.744
221.71411 236.0269 255.744
221.7091 236.02406 255.744
221.71886 236.02956 255.744
221.71556 236.0277 255.744
221.73885 236.04082 255.744
221.70537 236.02197 255.744
221.73122 236.0365 255.744
221.7287 236.0351 255.744
221.71394 236.02678 255.744
221.73984 236.04138 255.744
221.69646 236.01694 255.744
221.72003 236.03021 255.744
221.72626 236.03369 255.744
221.70477 236.02162 255.744
221.73389 236.03804 255.744
221.70523 236.02185 255.744
221.72978 236.03572 255.744
221.71475 236.02724 255.744
221.72044 236.03046 255.744
221.7313 236.03658 255.744
221.70381 236.02107 255.744
221.72058 236.03053 255.744
221.72844 236.03494 255.744
221.73994 236.04146 255.744
221.7274 236.03438 255.744
221.71162 236.02551 255.744
221.73721 236.03992 255.744
221.72675 236.034 255.744
221.72412 236.03252 255.744
221.725 236.033 255.744
221.73083 236.0363 255.744
221.7259 236.03354 255.744
221.7348 236.03854 255.744
221.74051 236.04176 255.744
221.7262 236.03368 255.744
221.71635 236.02814 255.744
221.71886 236.02954 255.744
221.72739 236.03436 255.744
221.72067 236.03056 255.744
221.70909 236.02406 255.744
221.71234 236.02588 255.744
221.71745 236.02875 255.744
221.68826 236.01233 255.744
221.71692 236.02849 255.744
221.73076 236.03625 255.744
221.71783 236.02898 255.744
221.72328 236.03204 255.744
221.70749 236.02313 255.744
221.71265 236.02605 255.744
221.71863 236.02942 255.744
221.73099 236.03638 255.744
221.72769 236.03455 255.744
221.71156 236.02544 255.744
221.72884 236.03517 255.744
221.7206 236.03052 255.744
221.70827 236.0236 255.744
221.72351 236.03218 255.744
221.71463 236.0272 255.744
221.7201 236.03021 255.744
221.71234 236.02588 255.744
221.72423 236.03261 255.744
221.71616 236.02803 255.744
221.71796 236.02905 255.744
221.73389 236.03801 255.744
221.71922 236.0298 255.744
221.71223 236.02583 255.744
221.7208 236.03061 255.744
221.69835 236.01799 255.744
221.7182 236.02917 255.744
221.71506 236.02742 255.744
221.72336 236.03209 255.744
221.72665 236.03394 255.744
221.72388 236.0324 255.744
221.7232 236.03201 255.744
221.72122 236.03087 255.744
221.72081 236.03065 255.744
221.72565 236.03339 255.744
221.72076 236.03065 255.744
221.70216 236.02011 255.744
221.73386 236.03802 255.744
221.72885 236.03516 255.744
221.70634 236.0225 255.744
221.73071 236.03624 255.744
221.72989 236.03578 255.744
221.74913 236.04662 255.744
221.70964 236.02435 255.744
221.7248 236.03287 255.744
221.71725 236.02869 255.744
221.73161 236.03674 255.744
221.72684 236.03404 255.744
221.71904 236.02966 255.744
221.71385 236.02673 255.744
221.7159 236.0279 255.744
221.73276 236.03738 255.744
221.70699 236.02289 255.744
221.71265 236.02605 255.744
221.71288 236.02617 255.744
221.70947 236.02425 255.744
221.71188 236.02562 255.744
221.73328 236.03767 255.744
221.7307 236.03624 255.744
221.69554 236.01643 255.744
221.72325 236.03203 255.744
221.72841 236.03496 255.744
221.70615 236.02238 255.744
221.72394 236.03244 255.744
221.72427 236.03261 255.744
221.72739 236.03438 255.744
221.72057 236.0305 255.744
221.73169 236.0368 255.744
221.71223 236.02582 255.744
221.71385 236.02675 255.744
221.7397 236.0413 255.744
221.71796 236.02907 255.744
221.7164 236.0282 255.744
221.7253 236.03317 255.744
221.73076 236.03624 255.744
221.7074 236.0231 255.744
221.74258 236.04294 255.744
221.72992 236.03581 255.744
221.72754 236.03442 255.744
221.7074 236.0231 255.744
221.71675 236.02838 255.744
221.7145 236.02708 255.744
221.7172 236.02861 255.744
221.72339 236.03209 255.744
221.71564 236.02776 255.744
221.72415 236.03253 255.744
221.71964 236.03003 255.744
221.73677 236.03966 255.744
221.71686 236.02841 255.744
221.7485 236.04628 255.744
221.7288 236.03514 255.744
221.71005 236.02458 255.744
221.7359 236.03914 255.744
221.72011 236.03026 255.744
221.73474 236.03851 255.744
221.72517 236.0331 255.744
221.74164 236.0424 255.744
221.73372 236.03792 255.744
221.72806 236.03474 255.744
221.7314 236.03662 255.744
221.72153 236.03107 255.744
221.72266 236.03168 255.744
221.71938 236.02986 255.744
221.71738 236.02872 255.744
221.72792 236.03468 255.744
221.70323 236.02075 255.744
221.72461 236.03282 255.744
221.71927 236.02979 255.744
221.7285 236.035 255.744
221.71677 236.02838 255.744
221.71507 236.02742 255.744
221.72575 236.03345 255.744
221.7374 236.03998 255.744
221.72116 236.03085 255.744
221.72935 236.03548 255.744
221.71541 236.0276 255.744
221.71878 236.0295 255.744
221.7208 236.03067 255.744
221.72887 236.03519 255.744
221.73048 236.0361 255.744
221.73106 236.03644 255.744
221.72182 236.03123 255.744
221.72356 236.03221 255.744
221.7271 236.03421 255.744
221.7254 236.03325 255.744
221.71469 236.0272 255.744
221.72943 236.03552 255.744
221.70964 236.02437 255.744
221.72528 236.0332 255.744
221.73366 236.0379 255.744
221.71036 236.02475 255.744
221.71011 236.0246 255.744
221.71167 236.0255 255.744
221.70389 236.02107 255.744
221.72238 236.03154 255.744
221.7095 236.02428 255.744
221.71997 236.03018 255.744
221.72896 236.03525 255.744
221.71173 236.02553 255.744
221.7121 236.02577 255.744
221.71786 236.029 255.744
221.70598 236.02228 255.744
221.71521 236.02751 255.744
221.70953 236.02428 255.744
221.70383 236.02112 255.744
221.7253 236.03322 255.744
221.70721 236.02298 255.744
221.72646 236.03383 255.744
221.72737 236.03436 255.744
221.72021 236.03032 255.744
220.11407 234.32887 254.16486
221.71483 236.02724 255.744
216.89578 230.90515 250.45422
213.64784 227.44049 246.68777
201.81598 214.84486 233.0263
201.79262 214.8317 233.0263
198.28256 211.09502 228.97336
196.50874 209.2043 226.91974
173.71971 184.96014 200.64354
171.7086 182.8085 198.29675
140.17805 149.25044 161.90862
161.14667 171.57253 186.11948
129.7863 138.1828 149.89825
118.46775 126.1372 136.83775
109.21874 116.290985 126.15818
102.59702 109.23855 118.504974
99.12039 105.535736 114.48668
118.45783 126.13161 136.83775
105.94785 112.813255 122.39141
91.757416 97.701324 105.99407
87.84565 93.538864 101.4816
87.842415 93.53705 101.4816
45.875523 48.848873 52.997036
83.7534 89.18348 96.7589
70.070366 74.6147 80.95431
59.219532 63.06052 68.41888
70.07415 74.61684 80.95431
74.91555 79.770515 86.54379
87.842834 93.53729 101.4816
87.8447 93.53834 101.4816
74.91456 79.76996 86.54379
83.75761 89.18586 96.7589
79.46217 84.61067 91.79356
112.38274 119.66107 129.8157
105.95569 112.81767 122.39141
112.380325 119.65971 129.8157
115.46367 122.94086 133.37296
127.054276 135.2737 146.74214
132.45528 141.02809 152.98926
137.65656 146.5635 158.9911
163.30365 173.87213 188.61783
158.9585 169.24059 183.58711
175.75587 187.11412 202.9632
171.71046 182.80952 198.29675
196.50084 209.19983 226.91974
192.92683 205.37892 222.75572
205.27037 218.5201 237.00995
205.27133 218.52068 237.00995
218.53238 232.63544 252.31636
216.90292 230.90921 250.45422
220.15096 234.34969 254.16486
221.72017 236.0303 255.744
221.72125 236.03091 255.744
221.7055 236.02203 255.744
221.73196 236.03696 255.744
221.73544 236.03891 255.744
221.71297 236.02625 255.744
221.71303 236.02626 255.744
221.71503 236.0274 255.744
221.70987 236.02446 255.744
221.72437 236.03264 255.744
221.71355 236.02655 255.744
221.7204 236.03043 255.744
221.72641 236.03383 255.744
221.73488 236.03862 255.744
221.72604 236.03362 255.744
221.71655 236.02826 255.744
218.52704 232.63248 252.31636
218.50476 232.61992 252.31636
206.97021 220.33153 238.97687
191.06854 203.4155 220.64426
200.04639 212.97218 231.00871
183.55643 195.42613 211.98814
171.6902 182.79814 198.29675
169.6589 180.62291 195.92184
156.73541 166.8736 181.01933
152.18034 162.02942 175.77129
149.85449 159.55424 173.08759
121.3889 129.24968 140.21698
121.39132 129.25104 140.21698
115.455826 122.93644 133.37296
132.44148 141.02034 152.98926
127.03278 135.2616 146.74214
105.94199 112.80995 122.39141
109.21045 116.28632 126.15818
112.36814 119.65285 129.8157
118.45617 126.13066 136.83775
91.75395 97.699394 105.99407
132.44243 141.02087 152.98926
105.95123 112.815155 122.39141
118.46313 126.13459 136.83775
121.38631 129.24821 140.21698
137.64883 146.55919 158.9911
145.09088 154.48482 167.59134
127.04707 135.26965 146.74214
165.43736 176.14449 191.08353
158.96642 169.24504 183.58711
177.72818 189.22075 205.25664
177.72823 189.2208 205.25664
196.51703 209.20898 226.91974
203.53638 216.68231 235.02657
213.64798 227.44058 246.68777
206.9712 220.33208 238.97687
218.51465 232.62547 252.31636
220.12717 234.33627 254.16486
221.73907 236.04094 255.744
221.73045 236.03607 255.744
221.72685 236.03406 255.744
221.74547 236.04454 255.744
221.7221 236.03139 255.744
221.69026 236.01344 255.744
221.74294 236.04315 255.744
221.72165 236.03114 255.744
221.70906 236.02402 255.744
221.73055 236.03613 255.744
221.71121 236.02522 255.744
221.7165 236.02823 255.744
221.71982 236.0301 255.744
221.7192 236.02971 255.744
221.70352 236.02089 255.744
221.71361 236.02657 255.744
221.72086 236.03069 255.744
221.72812 236.03477 255.744
221.73573 236.03908 255.744
221.71071 236.02498 255.744
221.71179 236.02559 255.744
221.72417 236.03255 255.744
221.72592 236.03354 255.744
221.72215 236.03143 255.744
221.7483 236.04614 255.744
221.7322 236.03708 255.744
221.7139 236.02673 255.744
221.72356 236.0322 255.744
221.72482 236.03288 255.744
221.70976 236.02444 255.744
221.72586 236.03348 255.744
221.70296 236.02057 255.744
221.72713 236.03421 255.744
221.72173 236.03117 255.744
221.73167 236.03677 255.744
221.71495 236.02734 255.744
221.70805 236.02342 255.744
221.69485 236.01604 255.744
221.72874 236.03513 255.744
221.74127 236.04219 255.744
221.72145 236.03104 255.744
221.71577 236.02783 255.744
221.73874 236.04076 255.744
221.70468 236.02158 255.744
221.71577 236.02782 255.744
221.73424 236.03821 255.744
221.72878 236.03514 255.744
221.7112 236.02525 255.744
221.73143 236.03668 255.744
221.70863 236.02379 255.744
221.70978 236.02443 255.744
221.71695 236.02849 255.744
221.71005 236.0246 255.744
221.7175 236.02878 255.744
221.72464 236.03282 255.744
221.72717 236.03423 255.744
221.70616 236.02242 255.744
221.7095 236.02429 255.744
221.71892 236.0296 255.744
221.72804 236.03473 255.744
221.69843 236.018 255.744
221.73167 236.03677 255.744
221.713 236.02626 255.744
221.74446 236.04399 255.744
221.733 236.0375 255.744
221.70909 236.02405 255.744
221.71489 236.02733 255.744
221.72203 236.03133 255.744
221.72069 236.03056 255.744
221.73311 236.0376 255.744
221.72005 236.03024 255.744
220.1166 234.33032 254.16486
212.01715 225.69493 244.78282
213.66812 227.45192 246.68777
200.0965 213.00038 231.00871
192.94276 205.38791 222.75572
163.38602 173.91855 188.61783
149.91747 159.58969 173.08759
147.58209 157.09079 170.36163
111.5204 118.36806 128
115.54772 122.98822 133.37296
91.84581 97.75116 105.99407
87.91747 93.57935 101.4816
64.933685 69.11424 74.94913
83.84459 89.23488 96.7589
45.916985 48.872242 52.997036
37.491196 39.904095 43.271896
59.28847 63.099373 68.41888
37.500183 39.90916 43.271896
53.034363 56.440697 61.195705
26.512793 28.217873 30.597853
59.283867 63.096775 68.41888
53.02678 56.436417 61.195705
70.13924 74.65351 80.95431
37.50027 39.90921 43.271896
70.1411 74.654564 80.95431
95.58638 101.73713 110.32213
87.92205 93.58193 101.4816
95.5697 101.72772 110.32213
99.18326 105.57116 114.48668
154.54027 164.5063 178.41461
171.76901 182.84254 198.29675
171.7712 182.84377 198.29675
183.63159 195.46846 211.98814
191.11911 203.44402 220.64426
213.17244 226.74992 245.73714
213.65787 227.44614 246.68777
221.72858 236.03505 255.744
221.7209 236.03073 255.744
221.71597 236.02792 255.744
221.73557 236.03899 255.744
221.70923 236.02415 255.744
221.72726 236.03427 255.744
221.71597 236.02791 255.744
221.7128 236.02614 255.744
221.7254 236.03326 255.744
221.72595 236.03355 255.744
221.71764 236.02887 255.744
221.71777 236.02893 255.744
221.70369 236.02103 255.744
221.70818 236.02353 255.744
221.71342 236.02649 255.744
221.7103 236.02472 255.744
221.73308 236.03757 255.744
221.73592 236.03918 255.744
221.71371 236.02666 255.744
221.72043 236.03044 255.744
221.74043 236.04172 255.744
221.74599 236.04485 255.744
221.71957 236.02994 255.744
221.72292 236.03185 255.744
221.73087 236.03632 255.744
221.70413 236.02126 255.744
221.7318 236.03687 255.744
221.70314 236.0207 255.744
221.73349 236.03781 255.744
221.72414 236.03252 255.744
221.696 236.01665 255.744
221.71327 236.02641 255.744
221.72496 236.03297 255.744
221.71964 236.03 255.744
221.71855 236.02937 255.744
221.72676 236.03404 255.744
221.70995 236.02455 255.744
221.71829 236.02924 255.744
221.73087 236.0363 255.744
221.7188 236.02953 255.744
221.70078 236.01938 255.744
221.7412 236.04211 255.744
221.72632 236.03375 255.744
221.72469 236.03285 255.744
221.71838 236.02927 255.744
221.72847 236.03496 255.744
221.731 236.03639 255.744
221.7296 236.0356 255.744
221.72554 236.03331 255.744
221.71082 236.02504 255.744
221.7036 236.02094 255.744
221.71597 236.02794 255.744
221.71233 236.0259 255.744
221.72372 236.03227 255.744
221.73305 236.03752 255.744
221.73247 236.03722 255.744
221.7182 236.02919 255.744
221.71176 236.02556 255.744
221.73457 236.03845 255.744
221.73128 236.03659 255.744
221.73615 236.03928 255.744
221.7132 236.02635 255.744
221.70705 236.02289 255.744
221.72438 236.03268 255.744
221.72116 236.03082 255.744
221.70569 236.02213 255.744
221.70944 236.02425 255.744
221.7005 236.01921 255.744
221.72069 236.03062 255.744
221.71936 236.02983 255.744
221.73064 236.03621 255.744
221.71979 236.0301 255.744
221.72166 236.03113 255.744
221.72699 236.03413 255.744
221.72362 236.03224 255.744
221.72728 236.0343 255.744
221.7225 236.0316 255.744
221.71907 236.02968 255.744
221.72664 236.03395 255.744
221.72345 236.03214 255.744
221.7295 236.03555 255.744
221.70941 236.02425 255.744
221.71416 236.02689 255.744
221.72119 236.03087 255.744
221.71684 236.0284 255.744
221.72993 236.03578 255.744
221.71797 236.02907 255.744
221.72844 236.03496 255.744
221.7285 236.03497 255.744
221.71158 236.02545 255.744
221.72621 236.03374 255.744
221.7355 236.03894 255.744
221.7168 236.02841 255.744
221.6932 236.01508 255.744
221.71512 236.02742 255.744
221.7127 236.0261 255.744
221.71059 236.02489 255.744
221.71017 236.02464 255.744
221.72685 236.03404 255.744
221.71191 236.02563 255.744
221.71487 236.02731 255.744
221.7364 236.03944 255.744
221.72432 236.03265 255.744
221.72163 236.03113 255.744
221.73701 236.03978 255.744
221.69925 236.01851 255.744
221.72548 236.03325 255.744
221.7226 236.0317 255.744
221.71777 236.02896 255.744
221.70137 236.0197 255.744
221.70541 236.02197 255.744
221.744 236.04373 255.744
221.71602 236.02795 255.744
221.72238 236.03156 255.744
221.7178 236.02896 255.744
221.72864 236.03503 255.744
221.70232 236.02026 255.744
221.71315 236.0263 255.744
221.72021 236.03033 255.744
221.74165 236.0424 255.744
221.7134 236.02647 255.744
221.70763 236.0232 255.744
221.69453 236.01584 255.744
221.74287 236.04312 255.744
221.72197 236.03134 255.744
221.73248 236.03723 255.744
221.72295 236.03186 255.744
221.73001 236.03583 255.744
221.7025 236.02036 255.744
221.71635 236.02812 255.744
221.73114 236.03648 255.744
221.72772 236.03455 255.744
221.74953 236.04688 255.744
221.70203 236.02008 255.744
221.72998 236.03581 255.744
221.71736 236.02869 255.744
221.7273 236.0343 255.744
221.719 236.02966 255.744
221.7259 236.03351 255.744
221.72055 236.03053 255.744
221.71587 236.02786 255.744
221.725 236.03305 255.744
221.72038 236.03047 255.744
221.72949 236.03554 255.744
221.6976 236.01756 255.744
221.71413 236.02689 255.744
221.73715 236.03987 255.744
221.72371 236.03229 255.744
221.72011 236.03024 255.744
221.71857 236.0294 255.744
221.71365 236.02663 255.744
221.72884 236.03517 255.744
221.72285 236.03178 255.744
221.72751 236.03445 255.744
221.72296 236.03188 255.744
221.72717 236.03426 255.744
221.70842 236.02367 255.744
221.7179 236.029 255.744
221.73817 236.04044 255.744
221.72908 236.03534 255.744
221.71585 236.02786 255.744
221.72424 236.03258 255.744
221.71336 236.02646 255.744
221.72705 236.03416 255.744
221.73134 236.03659 255.744
221.72878 236.03513 255.744
221.72108 236.03082 255.744
221.71748 236.02875 255.744
221.72005 236.03024 255.744
221.71892 236.0296 255.744
221.73428 236.03827 255.744
221.70819 236.02354 255.744
221.71634 236.02812 255.744
221.73503 236.03868 255.744
221.75526 236.05008 255.744
221.7475 236.04572 255.744
221.74762 236.04575 255.744
221.75412 236.04941 255.744
221.73482 236.03856 255.744
221.76279 236.05429 255.744
221.72713 236.03421 255.744
221.74388 236.04367 255.744
221.7421 236.0426 255.744
221.76828 236.05742 255.744
221.76318 236.05455 255.744
221.73856 236.04066 255.744
221.77005 236.05843 255.744
221.74326 236.04327 255.744
221.75595 236.05046 255.744
221.75655 236.0508 255.744
221.76518 236.05563 255.744
221.76503 236.05559 255.744
221.764 236.05501 255.744
221.75644 236.05074 255.744
221.7548 236.04982 255.744
221.75945 236.05244 255.744
221.74565 236.04465 255.744
221.75256 236.04855 255.744
221.74205 236.04263 255.744
221.74646 236.04512 255.744
221.76027 236.05289 255.744
221.7412 236.04213 255.744
221.7449 236.04425 255.744
221.74869 236.04637 255.744
221.72984 236.03574 255.744
221.73447 236.03835 255.744
221.75043 236.04736 255.744
221.75407 236.04942 255.744
221.76909 236.05786 255.744
221.73819 236.04044 255.744
221.75928 236.05237 255.744
221.7347 236.03847 255.744
221.76456 236.0553 255.744
221.76593 236.0561 255.744
221.74484 236.0442 255.744
221.75542 236.05017 255.744
221.74934 236.04675 255.744
221.74579 236.04472 255.744
221.75539 236.05013 255.744
221.74452 236.04404 255.744
221.74216 236.04268 255.744
221.72374 236.0323 255.744
221.76828 236.0574 255.744
221.76994 236.05833 255.744
221.74152 236.04234 255.744
221.74324 236.04329 255.744
221.75815 236.05171 255.744
221.75195 236.0482 255.744
221.75475 236.04979 255.744
221.74748 236.0457 255.744
221.75093 236.04765 255.744
221.74246 236.04288 255.744
221.74983 236.047 255.744
221.74774 236.04582 255.744
221.75018 236.04721 255.744
221.7439 236.04366 255.744
221.7492 236.04666 255.744
221.73628 236.03937 255.744
221.76048 236.053 255.744
221.75157 236.04797 255.744
221.75099 236.04765 255.744
221.73799 236.04033 255.744
221.76772 236.0571 255.744
221.7615 236.0536 255.744
221.75677 236.0509 255.744
221.7505 236.04738 255.744
221.74472 236.04414 255.744
221.7546 236.0497 255.744
221.7543 236.04951 255.744
221.75749 236.05132 255.744
221.77113 236.05902 255.744
221.73715 236.03987 255.744
221.746 236.04488 255.744
221.7641 236.05504 255.744
221.76855 236.05757 255.744
221.76147 236.0536 255.744
221.74326 236.04333 255.744
221.76283 236.05434 255.744
221.7423 236.04277 255.744
221.75273 236.04863 255.744
221.7673 236.05688 255.744
221.756 236.05048 255.744
221.75891 236.05211 255.744
221.75093 236.04762 255.744
221.76833 236.05745 255.744
221.75423 236.04951 255.744
221.73132 236.03658 255.744
221.74005 236.04152 255.744
221.74895 236.04652 255.744
221.7403 236.04166 255.744
221.73907 236.04094 255.744
221.75226 236.0484 255.744
221.75829 236.05177 255.744
221.74867 236.04633 255.744
221.74258 236.04294 255.744
221.74503 236.0443 255.744
221.77324 236.06021 255.744
221.7462 236.04495 255.744
221.75346 236.04904 255.744
221.73822 236.0405 255.744
221.77103 236.05896 255.744
221.75749 236.05135 255.744
221.7395 236.04123 255.744
221.73831 236.04051 255.744
221.74677 236.04529 255.744
221.76147 236.05357 255.744
221.76114 236.05338 255.744
221.76198 236.05385 255.744
221.732 236.03696 255.744
221.7575 236.05135 255.744
221.75487 236.04985 255.744
221.75914 236.05226 255.744
221.7532 236.04893 255.744
221.7643 236.05519 255.744
221.74463 236.0441 255.744
221.74153 236.04231 255.744
221.75742 236.05127 255.744
221.75606 236.05049 255.744
221.75818 236.0517 255.744
221.72696 236.03412 255.744
221.73878 236.0408 255.744
221.74542 236.04454 255.744
221.76134 236.0535 255.744
221.76357 236.05475 255.744
221.75487 236.04985 255.744
221.73602 236.03923 255.744
221.74542 236.04454 255.744
221.75764 236.05139 255.744
221.75923 236.0523 255.744
221.76425 236.05513 255.744
221.74178 236.0425 255.744
221.75363 236.04916 255.744
221.75739 236.05125 255.744
221.75294 236.04877 255.744
221.7439 236.04366 255.744
221.73738 236.03995 255.744
221.75294 236.04878 255.744
221.76166 236.05371 255.744
221.747 236.0454 255.744
221.75385 236.04927 255.744
221.75499 236.0499 255.744
221.74461 236.04407 255.744
221.76424 236.05513 255.744
221.75487 236.04982 255.744
221.75768 236.05142 255.744
221.75778 236.05148 255.744
221.75224 236.04839 255.744
221.73193 236.03694 255.744
221.74118 236.04214 255.744
221.74428 236.04388 255.744
221.76643 236.05638 255.744
221.76343 236.05467 255.744
221.76822 236.05736 255.744
221.74352 236.04346 255.744
221.75684 236.05095 255.744
221.74516 236.04437 255.744
221.76321 236.05453 255.744
221.7495 236.04684 255.744
221.75362 236.04916 255.744
221.73825 236.04048 255.744
221.75844 236.05186 255.744
221.7518 236.04814 255.744
221.7761 236.06183 255.744
221.75679 236.05092 255.744
221.76044 236.05298 255.744
221.7408 236.04192 255.744
221.75543 236.05017 255.744
221.76 236.05275 255.744
221.75938 236.0524 255.744
221.77086 236.05885 255.744
221.75697 236.05106 255.744
221.75166 236.04805 255.744
221.76738 236.05692 255.744
221.75232 236.04843 255.744
221.77473 236.06107 255.744
221.76779 236.05713 255.744
221.75134 236.04787 255.744
221.76166 236.0537 255.744
221.763 236.05444 255.744
221.74269 236.04298 255.744
221.75122 236.04778 255.744
221.7671 236.05673 255.744
221.75237 236.04845 255.744
221.76128 236.0535 255.744
221.768 236.05725 255.744
221.7495 236.0468 255.744
221.74348 236.04344 255.744
221.73628 236.03937 255.744
221.7569 236.051 255.744
221.74414 236.04381 255.744
221.76718 236.05678 255.744
221.77022 236.0585 255.744
221.75908 236.05223 255.744
221.7441 236.04376 255.744
221.78262 236.06549 255.744
221.75749 236.05133 255.744
221.74309 236.04323 255.744
221.76929 236.05798 255.744
221.74951 236.04684 255.744
221.73827 236.04047 255.744
221.75026 236.04727 255.744
221.7577 236.05147 255.744
221.74919 236.04666 255.744
221.76405 236.05502 255.744
221.74867 236.04637 255.744
221.77043 236.05862 255.744
220.16257 234.35623 254.16486
220.17348 234.36238 254.16486
213.67543 227.45604 246.68777
213.67368 227.45505 246.68777
208.66919 222.13545 240.92773
198.31697 211.11443 228.97336
173.77788 184.99292 200.64354
165.50325 176.18163 191.08353
152.2143 162.04857 175.77129
149.87784 159.56735 173.08759
137.67531 146.57408 158.9911
115.500725 122.96173 133.37296
105.97533 112.82874 122.39141
91.7717 97.70939 105.99407
74.92752 79.77726 86.54379
91.76904 97.707886 105.99407
64.88603 69.08738 74.94913
52.97895 56.409462 61.195705
45.88112 48.852028 52.997036
52.977703 56.408756 61.195705
26.488728 28.20431 30.597853
59.225143 63.06368 68.41888
37.458633 39.885742 43.271896
45.8734 48.84768 52.997036
37.45474 39.88355 43.271896
37.457424 39.88506 43.271896
37.45582 39.884155 43.271896
0 0 0
37.456207 39.884377 43.271896
0 0 0
26.489044 28.204487 30.597853
37.455334 39.883884 43.271896
0 0 0
0 0 0
45.877354 48.849907 52.997036
37.45905 39.885975 43.271896
74.91808 79.77195 86.54379
45.885048 48.854237 52.997036
64.89031 69.0898 74.94913
74.926926 79.776924 86.54379
87.85846 93.54609 101.4816
91.766754 97.7066 105.99407
115.474785 122.94711 133.37296
118.48332 126.14597 136.83775
142.67969 151.90375 164.77448
129.80992 138.1961 149.89825
154.5094 164.4889 178.41461
158.99892 169.26335 183.58711
167.59418 178.41621 193.5178
175.77495 187.12488 202.9632
205.29015 218.53123 237.00995
205.29619 218.53467 237.00995
213.66548 227.45044 246.68777
212.04085 225.7083 244.78282
220.16812 234.35936 254.16486
220.16992 234.36035 254.16486
221.74849 236.04626 255.744
221.75026 236.04726 255.744
221.75362 236.04913 255.744
221.759 236.05217 255.744
221.74664 236.04523 255.744
221.7532 236.04893 255.744
221.7368 236.03964 255.744
221.75208 236.04831 255.744
220.15617 234.35262 254.16486
213.6824 227.45995 246.68777
206.99707 220.34666 238.97687
201.82143 214.84792 233.0263
200.04764 212.97287 231.00871
179.71689 191.32565 207.52473
167.57208 178.40375 193.5178
152.19484 162.03758 175.77129
140.18733 149.25566 161.90862
121.41379 129.2637 140.21698
99.1209 105.536026 114.48668
109.21317 116.28784 126.15818
64.88758 69.08826 74.94913
26.486923 28.203293 30.597853
45.881798 48.852413 52.997036
26.484722 28.202051 30.597853
52.972958 56.406086 61.195705
26.485622 28.202559 30.597853
52.966503 56.402447 61.195705
26.486338 28.202963 30.597853
0 0 0
0 0 0
0 0 0
0 0 0
0 0 0
37.454807 39.883587 43.271896
0 0 0
26.48373 28.201492 30.597853
45.87208 48.846935 52.997036
26.484564 28.201962 30.597853
45.87322 48.847576 52.997036
45.87864 48.85063 52.997036
59.225258 63.063744 68.41888
70.08176 74.62112 80.95431
70.085686 74.62334 80.95431
115.46079 122.939224 133.37296
112.39482 119.667885 129.8157
118.473076 126.1402 136.83775
127.06713 135.28094 146.74214
154.49155 164.47884 178.41461
156.74759 166.88045 181.01933
165.48402 176.17078 191.08353
189.24452 201.46252 218.51237
196.53088 209.21678 226.91974
212.02795 225.70105 244.78282
216.94029 230.93022 250.45422
220.15869 234.35406 254.16486
221.75122 236.04782 255.744
221.74733 236.0456 255.744
221.74757 236.04573 255.744
221.75447 236.04964 255.744
221.74657 236.04518 255.744
221.74362 236.04353 255.744
221.72652 236.03387 255.744
221.76108 236.05336 255.744
221.76465 236.05534 255.744
221.75198 236.04825 255.744
221.75273 236.04861 255.744
221.76067 236.05312 255.744
221.75812 236.05167 255.744
221.74385 236.04366 255.744
221.75204 236.04825 255.744
221.74155 236.04236 255.744
221.76823 236.05737 255.744
221.75589 236.05045 255.744
221.73856 236.04065 255.744
221.74515 236.04436 255.744
221.77432 236.06082 255.744
221.75752 236.05135 255.744
221.73999 236.04146 255.744
221.76558 236.05591 255.744
221.75464 236.0497 255.744
221.74768 236.0458 255.744
221.74126 236.04218 255.744
221.75882 236.05206 255.744
221.75174 236.04808 255.744
221.76288 236.05435 255.744
221.75235 236.04845 255.744
221.7615 236.0536 255.744
221.75424 236.04951 255.744
221.76091 236.05325 255.744
221.76776 236.05711 255.744
221.75247 236.04851 255.744
221.75374 236.04924 255.744
221.74376 236.0436 255.744
221.74701 236.04543 255.744
221.74597 236.04485 255.744
221.7579 236.05156 255.744
221.76805 236.05725 255.744
221.75787 236.05156 255.744
221.76633 236.05632 255.744
221.74684 236.04535 255.744
221.74387 236.04364 255.744
221.75809 236.05167 255.744
221.77931 236.0636 255.744
221.74878 236.0464 255.744
221.77335 236.06027 255.744
221.75525 236.05006 255.744
221.7554 236.05014 255.744
221.77086 236.0589 255.744
221.74461 236.04407 255.744
221.75308 236.04886 255.744
221.75352 236.04907 255.744
221.75291 236.04877 255.744
221.74799 236.04597 255.744
221.75012 236.04718 255.744
221.75491 236.04988 255.744
221.75859 236.05196 255.744
221.76115 236.05338 255.744
215.3411 229.215 248.57813
203.58885 216.71191 235.02657
175.81865 187.14952 202.9632
169.72055 180.65765 195.92184
137.7454 146.6136 158.9911
106.02882 112.858894 122.39141
79.55119 84.660835 91.79356
59.285305 63.09759 68.41888
26.523655 28.223997 30.597853
26.52347 28.223892 30.597853
0 0 0
0 0 0
0 0 0
0 0 0
0 0 0
0 0 0
0 0 0
0 0 0
0 0 0
0 0 0
0 0 0
0 0 0
0 0 0
0 0 0
0 0 0
0 0 0
0 0 0
0 0 0
0 0 0
0 0 0
0 0 0
0 0 0
0 0 0
0 0 0
0 0 0
0 0 0
0 0 0
26.520138 28.222015 30.597853
53.040947 56.444405 61.195705
64.94611 69.12125 74.94913
74.98679 79.81067 86.54379
121.4778 129.29979 140.21698
132.54918 141.08102 152.98926
173.8391 185.02742 200.64354
189.29845 201.49295 218.51237
187.42116 199.50084 216.3595
212.03061 225.70256 244.78282
221.7652 236.05566 255.744
221.75824 236.05176 255.744
221.76826 236.0574 255.744
221.75577 236.05034 255.744
221.75508 236.04999 255.744
221.77461 236.06099 255.744
221.73685 236.0397 255.744
221.75241 236.04848 255.744
221.75116 236.04776 255.744
221.75246 236.04846 255.744
221.73601 236.03922 255.744
221.75934 236.05237 255.744
221.76259 236.0542 255.744
221.75566 236.05031 255.744
221.75487 236.04985 255.744
221.7562 236.05063 255.744
221.76022 236.05287 255.744
221.72552 236.03333 255.744
221.75395 236.04935 255.744
221.73236 236.03716 255.744
221.74875 236.0464 255.744
221.74683 236.04532 255.744
221.76987 236.0583 255.744
221.76126 236.05345 255.744
221.74907 236.04657 255.744
221.74918 236.04666 255.744
221.74097 236.042 255.744
221.76515 236.05565 255.744
221.75516 236.05002 255.744
221.74254 236.0429 255.744
221.75592 236.05045 255.744
221.72867 236.0351 255.744
221.73724 236.0399 255.744
221.77678 236.06223 255.744
221.75484 236.04982 255.744
221.77094 236.05891 255.744
221.75157 236.04797 255.744
221.75989 236.05266 255.744
221.76315 236.05452 255.744
221.75859 236.05196 255.744
221.73799 236.04034 255.744
221.75374 236.04922 255.744
221.75984 236.05267 255.744
221.75005 236.04713 255.744
221.75528 236.05011 255.744
221.74625 236.045 255.744
221.7453 236.04445 255.744
221.75214 236.0483 255.744
221.77238 236.05971 255.744
221.75427 236.04951 255.744
221.7572 236.05118 255.744
221.75908 236.05222 255.744
221.7423 236.04277 255.744
221.7594 236.05243 255.744
221.74689 236.04535 255.744
221.72826 236.03485 255.744
221.72997 236.03583 255.744
221.75754 236.05136 255.744
221.75192 236.0482 255.744
221.73395 236.03806 255.744
221.74985 236.047 255.744
221.75221 236.04836 255.744
221.75842 236.05185 255.744
221.75188 236.04817 255.744
221.7473 236.0456 255.744
221.7438 236.0436 255.744
221.75507 236.04997 255.744
221.76898 236.0578 255.744
221.77632 236.06195 255.744
221.74385 236.04366 255.744
221.782 236.06512 255.744
221.74602 236.04483 255.744
221.7622 236.05399 255.744
221.74968 236.04692 255.744
221.75012 236.04718 255.744
221.75148 236.04794 255.744
221.75 236.04709 255.744
221.75415 236.04945 255.744
221.75725 236.05121 255.744
221.75345 236.04903 255.744
221.7545 236.0496 255.744
221.75397 236.04936 255.744
221.74658 236.0452 255.744
221.74107 236.0421 255.744
221.74553 236.0446 255.744
221.7547 236.04976 255.744
221.7479 236.04596 255.744
221.75633 236.0507 255.744
221.75545 236.05019 255.744
221.76727 236.05684 255.744
221.74644 236.0451 255.744
221.76039 236.05295 255.744
221.75874 236.05205 255.744
221.7401 236.0415 255.744
221.75693 236.05101 255.744
221.74974 236.04695 255.744
221.75923 236.0523 255.744
221.75212 236.04834 255.744
221.75757 236.05138 255.744
221.73796 236.04036 255.744
221.73573 236.03906 255.744
221.74808 236.046 255.744
221.74313 236.04324 255.744
221.76166 236.05365 255.744
221.7607 236.05316 255.744
221.75166 236.04802 255.744
221.76376 236.05487 255.744
221.76297 236.05443 255.744
221.73898 236.0409 255.744
221.75578 236.0504 255.744
221.74596 236.04483 255.744
221.74924 236.04669 255.744
221.74313 236.04324 255.744
221.766 236.05615 255.744
221.75937 236.05237 255.744
221.75858 236.05196 255.744
221.73723 236.03992 255.744
221.75343 236.04904 255.744
221.74484 236.04419 255.744
221.74142 236.04228 255.744
221.7373 236.03993 255.744
221.74812 236.04604 255.744
221.73598 236.03917 255.744
221.75784 236.05151 255.744
221.74478 236.04416 255.744
221.75043 236.04733 255.744
221.74449 236.044 255.744
221.74568 236.04465 255.744
221.73871 236.04074 255.744
221.74934 236.04675 255.744
221.747 236.0454 255.744
221.74837 236.04617 255.744
221.75446 236.04965 255.744
221.76833 236.05746 255.744
221.74939 236.04678 255.744
221.74005 236.0415 255.744
221.76505 236.05559 255.744
221.74359 236.04347 255.744
221.75111 236.04773 255.744
221.74634 236.04504 255.744
221.75356 236.04912 255.744
221.74597 236.04485 255.744
221.75119 236.04784 255.744
221.74788 236.04591 255.744
221.74323 236.04329 255.744
221.7462 236.04498 255.744
221.74107 236.0421 255.744
221.74802 236.04599 255.744
221.74872 236.04639 255.744
221.75493 236.04985 255.744
221.74095 236.04202 255.744
221.77829 236.06306 255.744
221.75293 236.04875 255.744
221.74454 236.04402 255.744
221.74815 236.04605 255.744
221.75153 236.04797 255.744
221.75987 236.05267 255.744
221.7456 236.04463 255.744
221.76022 236.05289 255.744
221.75212 236.04831 255.744
221.7493 236.04669 255.744
221.76439 236.05522 255.744
221.7355 236.03894 255.744
221.76521 236.05568 255.744
221.74596 236.04485 255.744
221.75398 236.04936 255.744
221.72513 236.03311 255.744
221.74129 236.04218 255.744
221.80302 236.07697 255.744
221.77031 236.05855 255.744
221.79874 236.0746 255.744
221.77971 236.06386 255.744
221.78879 236.06895 255.744
221.79329 236.07149 255.744
221.78416 236.06635 255.744
221.76567 236.05595 255.744
221.792 236.0708 255.744
221.79156 236.07053 255.744
221.78346 236.066 255.744
221.78108 236.06465 255.744
221.7926 236.07112 255.744
221.78609 236.06747 255.744
221.77614 236.06184 255.744
221.78136 236.06479 255.744
221.79242 236.07104 255.744
221.78421 236.06639 255.744
221.7902 236.06978 255.744
221.77414 236.06073 255.744
221.77489 236.06116 255.744
221.78737 236.06819 255.744
221.81146 236.08179 255.744
221.78418 236.06635 255.744
221.79414 236.07199 255.744
221.79126 236.07037 255.744
221.80908 236.0804 255.744
221.78804 236.06854 255.744
221.78459 236.0666 255.744
221.78285 236.06564 255.744
221.78476 236.0667 255.744
221.78896 236.06908 255.744
221.78864 236.0689 255.744
221.7822 236.06526 255.744
221.79204 236.0708 255.744
221.80037 236.07549 255.744
221.78459 236.06659 255.744
221.79568 236.07286 255.744
221.79393 236.07187 255.744
221.79286 236.07126 255.744
221.78552 236.06714 255.744
221.77531 236.06139 255.744
221.80115 236.07593 255.744
221.75385 236.0493 255.744
221.80292 236.07695 255.744
221.80188 236.07637 255.744
221.77422 236.06078 255.744
221.79059 236.06996 255.744
221.78345 236.06596 255.744
221.77884 236.06339 255.744
221.78392 236.06622 255.744
221.79823 236.07428 255.744
221.79855 236.07448 255.744
221.7889 236.06905 255.744
221.8028 236.07687 255.744
221.78433 236.06645 255.744
221.7947 236.07231 255.744
221.79681 236.0735 255.744
221.77725 236.06245 255.744
221.78938 236.06934 255.744
221.78636 236.06758 255.744
221.8002 236.0754 255.744
221.79732 236.07375 255.744
221.8012 236.07596 255.744
221.80295 236.07692 255.744
221.76338 236.05464 255.744
221.7741 236.0607 255.744
221.77281 236.05994 255.744
221.78642 236.06766 255.744
221.78616 236.06752 255.744
221.79572 236.07286 255.744
221.78183 236.06502 255.744
221.7846 236.06662 255.744
221.79758 236.07394 255.744
221.79501 236.07248 255.744
221.77032 236.05856 255.744
221.76709 236.05672 255.744
221.77058 236.0587 255.744
221.77312 236.06013 255.744
221.78198 236.06514 255.744
221.772 236.05954 255.744
221.80904 236.08038 255.744
221.80087 236.07578 255.744
221.78934 236.06927 255.744
221.78636 236.0676 255.744
221.77415 236.06068 255.744
221.78812 236.06859 255.744
221.78174 236.06502 255.744
221.76964 236.05817 255.744
221.79353 236.07164 255.744
221.76242 236.0541 255.744
221.77783 236.0628 255.744
221.77193 236.0595 255.744
221.78186 236.06505 255.744
221.75996 236.05275 255.744
221.78784 236.06844 255.744
221.79497 236.07245 255.744
221.78561 236.06718 255.744
221.7765 236.06206 255.744
221.77208 236.05956 255.744
221.78587 236.06732 255.744
221.79819 236.07428 255.744
221.79288 236.07127 255.744
221.77759 236.06267 255.744
221.79349 236.0716 255.744
221.7746 236.06097 255.744
221.78755 236.06827 255.744
221.78192 236.0651 255.744
221.7758 236.06161 255.744
221.78316 236.06581 255.744
221.76677 236.05653 255.744
221.7996 236.07507 255.744
221.77332 236.06024 255.744
221.77364 236.06041 255.744
221.77452 236.06093 255.744
221.77406 236.06068 255.744
221.79443 236.07214 255.744
221.78923 236.06918 255.744
221.7891 236.06914 255.744
221.78076 236.06447 255.744
221.79117 236.07033 255.744
221.79875 236.07457 255.744
221.78116 236.06468 255.744
221.79817 236.07425 255.744
221.79225 236.07094 255.744
221.79648 236.07332 255.744
221.7714 236.05917 255.744
221.78322 236.06583 255.744
221.77551 236.06148 255.744
221.78403 236.0663 255.744
221.77135 236.05911 255.744
221.7783 236.06305 255.744
221.79578 236.0729 255.744
221.78584 236.0673 255.744
221.7793 236.06369 255.744
221.77528 236.06137 255.744
221.79704 236.07364 255.744
221.78403 236.0663 255.744
221.77165 236.05931 255.744
221.79668 236.0734 255.744
221.78563 236.0672 255.744
221.79733 236.07379 255.744
221.80629 236.07884 255.744
221.78862 236.0689 255.744
221.79605 236.07306 255.744
221.78633 236.06758 255.744
221.7786 236.06325 255.744
221.77838 236.06308 255.744
221.762 236.05386 255.744
221.78548 236.06712 255.744
221.78928 236.06924 255.744
221.78894 236.06905 255.744
221.77992 236.06398 255.744
221.77657 236.06206 255.744
221.78104 236.06459 255.744
221.78436 236.06645 255.744
221.79118 236.07033 255.744
221.78357 236.06604 255.744
221.77348 236.06032 255.744
221.78969 236.0695 255.744
221.77927 236.0636 255.744
221.76903 236.05785 255.744
221.78114 236.06467 255.744
221.76405 236.05504 255.744
221.79848 236.07446 255.744
221.778 236.06291 255.744
221.7866 236.06775 255.744
221.77328 236.06023 255.744
221.77423 236.06076 255.744
221.76787 236.05719 255.744
221.78525 236.06699 255.744
221.77475 236.06107 255.744
221.79518 236.07259 255.744
221.78899 236.06909 255.744
221.78647 236.06766 255.744
221.77866 236.06325 255.744
221.777 236.06229 255.744
221.80118 236.07596 255.744
221.78214 236.0652 255.744
221.80972 236.08078 255.744
221.7994 236.07494 255.744
221.77916 236.06354 255.744
221.77835 236.06306 255.744
221.777 236.06233 255.744
221.77011 236.05844 255.744
221.80083 236.07578 255.744
221.78123 236.06471 255.744
221.78552 236.06714 255.744
221.77747 236.06256 255.744
221.76465 236.05539 255.744
221.77559 236.06152 255.744
221.77481 236.06108 255.744
221.7798 236.0639 255.744
221.79416 236.07198 255.744
221.80334 236.07718 255.744
221.79285 236.07126 255.744
221.77968 236.06384 255.744
221.7794 236.06369 255.744
221.78073 236.06442 255.744
221.77022 236.05855 255.744
221.79007 236.06969 255.744
221.79544 236.07271 255.744
221.79135 236.0704 255.744
221.7645 236.05527 255.744
221.78482 236.06674 255.744
221.79004 236.06967 255.744
221.7956 236.07285 255.744
221.79175 236.07065 255.744
221.79025 236.06981 255.744
221.77618 236.06189 255.744
218.58412 232.6646 252.31636
215.35811 229.22456 248.57813
216.97716 230.95102 250.45422
208.72865 222.169 240.92773
191.11708 203.44286 220.64426
175.80621 187.1425 202.9632
189.25906 201.47073 218.51237
161.19939 171.60223 186.11948
142.69467 151.91219 164.77448
127.07751 135.28679 146.74214
95.53609 101.70877 110.32213
112.4213 119.682816 129.8157
99.12875 105.54044 114.48668
79.48577 84.62396 91.79356
79.487305 84.62483 91.79356
37.463223 39.88833 43.271896
0 0 0
0 0 0
26.493612 28.207062 30.597853
0 0 0
26.486917 28.203289 30.597853
0 0 0
26.48755 28.203646 30.597853
0 0 0
0 0 0
0 0 0
0 0 0
0 0 0
0 0 0
0 0 0
0 0 0
0 0 0
0 0 0
0 0 0
0 0 0
0 0 0
26.485441 28.202457 30.597853
0 0 0
0 0 0
26.490967 28.205572 30.597853
26.489908 28.204975 30.597853
37.463943 39.888737 43.271896
26.493078 28.20676 30.597853
45.8892 48.856575 52.997036
64.8922 69.09086 74.94913
83.77598 89.196205 96.7589
91.777534 97.71268 105.99407
79.47934 84.62034 91.79356
105.984215 112.83375 122.39141
118.50408 126.157684 136.83775
142.70248 151.9166 164.77448
167.60088 178.41997 193.5178
165.49559 176.17729 191.08353
171.75069 182.83221 198.29675
183.62283 195.46355 211.98814
198.36337 211.14056 228.97336
216.96626 230.94489 250.45422
212.05075 225.71391 244.78282
221.7748 236.06107 255.744
221.76404 236.05502 255.744
221.78049 236.06429 255.744
221.77545 236.06145 255.744
221.7967 236.07341 255.744
221.77312 236.06012 255.744
212.0677 225.72345 244.78282
201.86346 214.87161 233.0263
198.34839 211.13211 228.97336
156.80396 166.91223 181.01933
171.74243 182.82756 198.29675
140.21037 149.26865 161.90862
129.80698 138.19444 149.89825
102.6094 109.24553 118.504974
59.243603 63.074085 68.41888
45.887684 48.85573 52.997036
45.881535 48.85226 52.997036
37.459877 39.88644 43.271896
0 0 0
0 0 0
0 0 0
0 0 0
0 0 0
0 0 0
0 0 0
0 0 0
0 0 0
0 0 0
0 0 0
0 0 0
0 0 0
0 0 0
0 0 0
0 0 0
0 0 0
0 0 0
0 0 0
0 0 0
0 0 0
0 0 0
0 0 0
0 0 0
0 0 0
0 0 0
0 0 0
0 0 0
45.888405 48.856133 52.997036
52.985203 56.412983 61.195705
70.090645 74.62613 80.95431
91.7861 97.7175 105.99407
118.49322 126.15156 136.83775
145.13905 154.51198 167.59134
167.60654 178.42316 193.5178
194.74957 207.31372 224.84738
187.40034 199.4891 216.3595
203.59706 216.71654 235.02657
216.98598 230.95601 250.45422
218.5842 232.66467 252.31636
221.80579 236.07854 255.744
221.78589 236.06734 255.744
221.78342 236.06595 255.744
221.77895 236.06342 255.744
221.7924 236.07101 255.744
221.8105 236.08124 255.744
221.76523 236.05571 255.744
221.80556 236.07843 255.744
221.78104 236.0646 255.744
221.778 236.06291 255.744
221.77036 236.05861 255.744
221.79321 236.07144 255.744
221.79633 236.07326 255.744
221.8035 236.07727 255.744
221.793 236.07137 255.744
221.78711 236.06802 255.744
221.77414 236.06071 255.744
221.78477 236.06673 255.744
221.7984 236.07439 255.744
221.77258 236.05984 255.744
221.80942 236.08063 255.744
221.79895 236.0747 255.744
221.80824 236.07993 255.744
221.78545 236.0671 255.744
221.7866 236.06775 255.744
221.79604 236.07304 255.744
221.80453 236.07787 255.744
221.78856 236.06885 255.744
221.7854 236.06706 255.744
221.77448 236.06091 255.744
221.78549 236.06714 255.744
221.8035 236.07729 255.744
221.78102 236.06459 255.744
221.77608 236.0618 255.744
221.76523 236.0557 255.744
221.79129 236.07036 255.744
221.79352 236.07164 255.744
221.77156 236.05925 255.744
221.7875 236.06825 255.744
221.79305 236.07138 255.744
221.79306 236.07137 255.744
221.77422 236.06075 255.744
221.78906 236.06914 255.744
221.77321 236.0602 255.744
221.77725 236.06245 255.744
221.76297 236.05441 255.744
221.78241 236.06537 255.744
221.80518 236.0782 255.744
221.78593 236.06734 255.744
221.78702 236.06796 255.744
221.79008 236.06972 255.744
221.78746 236.06825 255.744
221.78241 236.06535 255.744
221.78038 236.06422 255.744
221.80415 236.07764 255.744
203.61945 216.72914 235.02657
179.80481 191.3752 207.52473
161.27013 171.64212 186.11948
118.58716 126.204506 136.83775
115.59025 123.01219 133.37296
26.517561 28.22056 30.597853
26.526428 28.225561 30.597853
0 0 0
0 0 0
0 0 0
0 0 0
0 0 0
0 0 0
0 0 0
0 0 0
0 0 0
0 0 0
0 0 0
0 0 0
0 0 0
0 0 0
0 0 0
0 0 0
0 0 0
0 0 0
0 0 0
0 0 0
0 0 0
0 0 0
0 0 0
0 0 0
0 0 0
0 0 0
0 0 0
0 0 0
0 0 0
0 0 0
0 0 0
0 0 0
0 0 0
0 0 0
0 0 0
0 0 0
0 0 0
0 0 0
0 0 0
0 0 0
0 0 0
26.522734 28.223478 30.597853
37.50818 39.91367 43.271896
91.8572 97.757576 105.99407
127.1592 135.33284 146.74214
161.26436 171.63887 186.11948
189.32869 201.50998 218.51237
210.40549 223.95366 242.86292
220.20166 234.37823 254.16486
221.78076 236.06444 255.744
221.78107 236.0646 255.744
221.7813 236.06476 255.744
221.79979 236.07516 255.744
221.78203 236.06516 255.744
221.78383 236.06616 255.744
221.7762 236.0619 255.744
221.79118 236.07034 255.744
221.77896 236.06343 255.744
221.77303 236.06007 255.744
221.81294 236.08261 255.744
221.77924 236.0636 255.744
221.77763 236.0627 255.744
221.77873 236.06331 255.744
221.78896 236.06909 255.744
221.78557 236.06717 255.744
221.78458 236.0666 255.744
221.78767 236.06834 255.744
221.8056 236.07843 255.744
221.78076 236.06447 255.744
221.78671 236.06783 255.744
221.79002 236.06969 255.744
221.78146 236.06483 255.744
221.7673 236.05685 255.744
221.78668 236.06776 255.744
221.79337 236.07155 255.744
221.78336 236.06592 255.744
221.78758 236.06831 255.744
221.78258 236.06546 255.744
221.78326 236.06586 255.744
221.80473 236.07794 255.744
221.78574 236.06726 255.744
221.7936 236.0717 255.744
221.7981 236.07422 255.744
221.78061 236.06439 255.744
221.77159 236.05925 255.744
221.7939 236.07187 255.744
221.77393 236.0606 255.744
221.77487 236.06114 255.744
221.7914 236.07043 255.744
221.77597 236.06175 255.744
221.80519 236.07822 255.744
221.77704 236.06233 255.744
221.774 236.06062 255.744
221.7675 236.05696 255.744
221.79636 236.07323 255.744
221.77133 236.05913 255.744
221.78946 236.06937 255.744
221.8014 236.07611 255.744
221.77603 236.0618 255.744
221.77914 236.06352 255.744
221.7719 236.05946 255.744
221.78448 236.06654 255.744
221.77118 236.05905 255.744
221.77315 236.06017 255.744
221.7738 236.06052 255.744
221.77405 236.06068 255.744
221.77545 236.06145 255.744
221.79013 236.06973 255.744
221.78688 236.06787 255.744
221.80704 236.07924 255.744
221.78387 236.0662 255.744
221.78035 236.06421 255.744
221.79443 236.07216 255.744
221.7979 236.07411 255.744
221.78127 236.06474 255.744
221.79288 236.07126 255.744
221.79816 236.07428 255.744
221.79877 236.0746 255.744
221.79523 236.07262 255.744
221.76599 236.05612 255.744
221.76558 236.05591 255.744
221.7905 236.06993 255.744
221.76584 236.05605 255.744
221.7653 236.05573 255.744
221.77022 236.05853 255.744
221.79562 236.0728 255.744
221.76999 236.05835 255.744
221.7966 236.0734 255.744
221.75917 236.05228 255.744
221.76576 236.05598 255.744
221.78067 236.06436 255.744
221.77672 236.06218 255.744
221.78888 236.06898 255.744
221.77963 236.0638 255.744
221.77948 236.06372 255.744
221.79771 236.074 255.744
221.78714 236.06802 255.744
221.77669 236.06216 255.744
221.79012 236.06972 255.744
221.7679 236.05722 255.744
221.79604 236.07304 255.744
221.77403 236.06065 255.744
221.79315 236.07144 255.744
221.7799 236.064 255.744
221.77234 236.0597 255.744
221.7778 236.06279 255.744
221.78635 236.06763 255.744
221.78627 236.06752 255.744
221.78561 236.06715 255.744
221.77948 236.06372 255.744
221.77939 236.06367 255.744
221.78581 236.06729 255.744
221.7957 236.07289 255.744
221.80273 236.07684 255.744
221.78824 236.06863 255.744
221.7797 236.06386 255.744
221.7821 236.0652 255.744
221.79883 236.07463 255.744
221.79002 236.06967 255.744
221.79968 236.07509 255.744
221.77594 236.06172 255.744
221.78331 236.06589 255.744
221.77953 236.06374 255.744
221.77826 236.06302 255.744
221.7825 236.06544 255.744
221.80305 236.07701 255.744
221.78033 236.06424 255.744
221.78598 236.0674 255.744
221.77629 236.06195 255.744
221.79362 236.0717 255.744
221.77852 236.0632 255.744
221.77483 236.0611 255.744
221.8059 236.07861 255.744
221.78383 236.0662 255.744
221.77245 236.05974 255.744
221.78247 236.0654 255.744
221.78326 236.06586 255.744
221.79013 236.06972 255.744
221.77097 236.05893 255.744
221.78616 236.0675 255.744
221.7718 236.05939 255.744
221.79407 236.07198 255.744
221.77228 236.0597 255.744
221.77136 236.05916 255.744
221.77899 236.06343 255.744
221.77911 236.06352 255.744
221.76505 236.05562 255.744
221.7655 236.05586 255.744
221.79222 236.0709 255.744
221.77481 236.06107 255.744
221.78487 236.06676 255.744
221.80208 236.07648 255.744
221.78574 236.06725 255.744
221.80408 236.07756 255.744
221.77519 236.06134 255.744
221.79132 236.07039 255.744
221.79678 236.07349 255.744
221.77888 236.06339 255.744
221.78754 236.06828 255.744
221.78326 236.06584 255.744
221.79213 236.07086 255.744
221.795 236.07248 255.744
221.78342 236.06596 255.744
221.77405 236.06067 255.744
221.77718 236.06241 255.744
221.79393 236.07188 255.744
221.78134 236.06477 255.744
221.78749 236.06824 255.744
221.77922 236.0636 255.744
221.7885 236.06882 255.744
221.78809 236.06857 255.744
221.78468 236.06665 255.744
221.82283 236.08818 255.744
221.79298 236.07135 255.744
221.8362 236.0957 255.744
221.8124 236.08232 255.744
221.81602 236.08432 255.744
221.79604 236.07306 255.744
221.82329 236.08844 255.744
221.79755 236.07391 255.744
221.82047 236.08682 255.744
221.82301 236.08826 255.744
221.81615 236.0844 255.744
221.8143 236.08334 255.744
221.81213 236.08212 255.744
221.80666 236.07903 255.744
221.82397 236.0888 255.744
221.79866 236.07454 255.744
221.81369 236.08302 255.744
221.80681 236.07915 255.744
221.82053 236.08685 255.744
221.81483 236.08366 255.744
221.8289 236.09158 255.744
221.81549 236.08401 255.744
221.82253 236.08798 255.744
221.80504 236.07816 255.744
221.81285 236.08253 255.744
221.81104 236.08151 255.744
221.83284 236.09381 255.744
221.80666 236.07903 255.744
221.80089 236.07579 255.744
221.83194 236.09329 255.744
221.81973 236.08644 255.744
221.82202 236.0877 255.744
221.8166 236.08464 255.744
221.79372 236.07175 255.744
221.8139 236.08311 255.744
221.82224 236.0878 255.744
221.80095 236.0758 255.744
221.80898 236.08032 255.744
221.8172 236.08502 255.744
221.84381 236.1 255.744
221.8102 236.08101 255.744
221.82727 236.09068 255.744
221.80287 236.07692 255.744
221.80475 236.07794 255.744
221.79979 236.07516 255.744
221.83357 236.09422 255.744
221.80733 236.07942 255.744
221.82916 236.09174 255.744
221.82379 236.0887 255.744
221.81915 236.08609 255.744
221.82666 236.09033 255.744
221.81891 236.08595 255.744
221.81998 236.08653 255.744
221.82217 236.08777 255.744
221.79498 236.07245 255.744
221.82036 236.08676 255.744
221.81448 236.08345 255.744
221.83688 236.09608 255.744
221.79929 236.0749 255.744
221.81886 236.08594 255.744
221.80597 236.07863 255.744
221.82565 236.08978 255.744
221.82185 236.08763 255.744
221.81802 236.08546 255.744
221.80603 236.07869 255.744
221.80995 236.0809 255.744
221.8191 236.08606 255.744
221.81038 236.08116 255.744
221.82774 236.09091 255.744
221.82426 236.08896 255.744
221.7769 236.06227 255.744
221.8129 236.08257 255.744
221.82196 236.08768 255.744
221.80666 236.07904 255.744
221.80933 236.08058 255.744
221.80832 236.07999 255.744
221.82585 236.08987 255.744
221.82579 236.08983 255.744
221.83058 236.09253 255.744
221.82588 236.08987 255.744
221.80684 236.07915 255.744
221.80795 236.0798 255.744
221.83287 236.09381 255.744
221.833 236.0939 255.744
221.81369 236.08301 255.744
221.7984 236.07442 255.744
221.83495 236.09497 255.744
221.84459 236.1004 255.744
221.83246 236.09361 255.744
221.80669 236.07907 255.744
221.83202 236.09335 255.744
221.82779 236.09097 255.744
221.82504 236.08939 255.744
221.81383 236.08311 255.744
221.8144 236.0834 255.744
221.8245 236.08907 255.744
221.82596 236.08998 255.744
221.81041 236.08115 255.744
221.79619 236.07317 255.744
221.81317 236.08269 255.744
221.8097 236.08076 255.744
221.80263 236.07675 255.744
221.81909 236.08604 255.744
221.80423 236.07767 255.744
221.82394 236.08879 255.744
221.8231 236.08832 255.744
221.80841 236.08003 255.744
221.81949 236.08626 255.744
221.83423 236.0946 255.744
221.82735 236.09074 255.744
221.8234 236.08849 255.744
221.81296 236.08258 255.744
221.80652 236.07895 255.744
221.80836 236.08003 255.744
221.80193 236.07635 255.744
221.80345 236.07722 255.744
221.8054 236.07834 255.744
221.80602 236.07867 255.744
221.80916 236.08046 255.744
221.81886 236.0859 255.744
221.82443 236.08905 255.744
221.82137 236.08734 255.744
221.82191 236.08765 255.744
221.8361 236.09566 255.744
221.79047 236.06992 255.744
221.80989 236.08089 255.744
221.79482 236.07236 255.744
221.83156 236.0931 255.744
221.81038 236.08116 255.744
221.81956 236.08629 255.744
221.82642 236.09016 255.744
221.81773 236.08528 255.744
221.80475 236.07796 255.744
221.81334 236.08278 255.744
221.82654 236.09026 255.744
221.8293 236.0918 255.744
221.81087 236.08142 255.744
221.81808 236.0855 255.744
221.80772 236.07967 255.744
221.82503 236.08939 255.744
221.81659 236.08463 255.744
221.8143 236.08336 255.744
221.84106 236.09845 255.744
221.82515 236.0895 255.744
221.79321 236.07147 255.744
221.81093 236.08145 255.744
221.82393 236.08879 255.744
221.80849 236.08008 255.744
221.815 236.08374 255.744
221.82152 236.08743 255.744
221.8103 236.08109 255.744
221.81694 236.08484 255.744
221.82465 236.0892 255.744
221.81068 236.0813 255.744
221.8175 236.08516 255.744
221.81567 236.08417 255.744
221.81728 236.085 255.744
221.83678 236.09604 255.744
221.8202 236.08669 255.744
221.80185 236.07635 255.744
221.80931 236.08052 255.744
221.85207 236.10463 255.744
221.80577 236.07855 255.744
221.81604 236.08434 255.744
221.83226 236.09349 255.744
221.8414 236.09863 255.744
221.8088 236.08028 255.744
221.81616 236.08441 255.744
221.80376 236.07738 255.744
221.81595 236.08427 255.744
221.81683 236.08476 255.744
221.80045 236.07553 255.744
221.8222 236.0878 255.744
221.82027 236.0867 255.744
221.81589 236.08424 255.744
221.81346 236.08286 255.744
221.80276 236.07684 255.744
221.8376 236.09651 255.744
221.81789 236.08537 255.744
221.83614 236.09564 255.744
221.82425 236.08894 255.744
221.79512 236.07254 255.744
221.81856 236.08571 255.744
221.82892 236.09158 255.744
221.83337 236.0941 255.744
221.83704 236.09619 255.744
221.84259 236.09932 255.744
221.80864 236.08015 255.744
221.81332 236.08276 255.744
221.81546 236.084 255.744
221.8203 236.08673 255.744
221.8072 236.07935 255.744
221.81079 236.08138 255.744
221.82477 236.08926 255.744
221.8199 236.0865 255.744
221.83719 236.09625 255.744
221.81116 236.08157 255.744
221.82402 236.08884 255.744
221.83719 236.09627 255.744
221.81874 236.08585 255.744
221.81128 236.08167 255.744
221.82304 236.08827 255.744
221.82771 236.0909 255.744
221.79498 236.07248 255.744
221.8055 236.07838 255.744
221.8433 236.0997 255.744
221.80562 236.07848 255.744
221.8059 236.07861 255.744
221.8124 236.0823 255.744
215.37248 229.23265 248.57813
207.05908 220.3816 238.97687
208.73227 222.17105 240.92773
196.59749 209.25432 226.91974
185.54973 197.50267 214.18497
163.3842 173.91756 188.61783
156.80122 166.91068 181.01933
137.69504 146.5852 158.9911
118.523506 126.168625 136.83775
91.79853 97.72451 105.99407
83.79755 89.20835 96.7589
87.891846 93.56491 101.4816
52.98995 56.415657 61.195705
45.89647 48.860676 52.997036
0 0 0
26.49121 28.205708 30.597853
0 0 0
26.49054 28.20533 30.597853
0 0 0
0 0 0
0 0 0
0 0 0
0 0 0
0 0 0
0 0 0
0 0 0
0 0 0
0 0 0
0 0 0
0 0 0
0 0 0
0 0 0
0 0 0
0 0 0
0 0 0
0 0 0
0 0 0
0 0 0
0 0 0
0 0 0
0 0 0
0 0 0
0 0 0
0 0 0
26.49351 28.207005 30.597853
45.887177 48.85544 52.997036
37.465816 39.88979 43.271896
45.894127 48.859356 52.997036
45.889446 48.85672 52.997036
91.79133 97.72045 105.99407
52.99192 56.416767 61.195705
91.80162 97.72625 105.99407
109.2557 116.31181 126.15818
121.45379 129.28624 140.21698
118.52756 126.17091 136.83775
140.25111 149.29161 161.90862
177.81636 189.27048 205.25664
181.73119 193.4343 209.76831
201.88264 214.88243 233.0263
213.74908 227.49756 246.68777
218.62117 232.6855 252.31636
218.62117 232.68547 252.31636
210.42029 223.962 242.86292
201.88065 214.8813 233.0263
177.80954 189.26662 205.25664
179.77798 191.36008 207.52473
142.72078 151.9269 164.77448
118.51748 126.165215 136.83775
95.539276 101.71057 110.32213
79.48257 84.622154 91.79356
74.93937 79.783936 86.54379
37.46726 39.890602 43.271896
0 0 0
0 0 0
0 0 0
0 0 0
0 0 0
0 0 0
0 0 0
0 0 0
0 0 0
0 0 0
0 0 0
0 0 0
0 0 0
0 0 0
0 0 0
0 0 0
0 0 0
0 0 0
0 0 0
0 0 0
0 0 0
0 0 0
0 0 0
0 0 0
0 0 0
0 0 0
0 0 0
0 0 0
0 0 0
0 0 0
0 0 0
0 0 0
0 0 0
0 0 0
0 0 0
0 0 0
0 0 0
26.491047 28.205616 30.597853
52.991264 56.416397 61.195705
70.10455 74.633965 80.95431
118.501175 126.156044 136.83775
118.51321 126.16281 136.83775
135.1355 143.8532 156.01904
159.0249 169.27802 183.58711
181.72281 193.4296 209.76831
207.04057 220.37119 238.97687
212.0737 225.7268 244.78282
217.02434 230.9776 250.45422
221.80289 236.07693 255.744
221.8262 236.09006 255.744
221.8197 236.0864 255.744
221.82948 236.09192 255.744
221.80984 236.08083 255.744
221.78894 236.06908 255.744
221.80487 236.07802 255.744
221.80338 236.0772 255.744
221.81023 236.08104 255.744
221.8305 236.09251 255.744
221.8296 236.092 255.744
221.82451 236.08911 255.744
221.82912 236.09169 255.744
221.82515 236.08948 255.744
221.8213 236.08731 255.744
221.8032 236.07712 255.744
221.81516 236.08383 255.744
221.80792 236.07977 255.744
221.83504 236.09508 255.744
221.79483 236.07239 255.744
221.8235 236.08855 255.744
221.83978 236.09772 255.744
221.78809 236.06859 255.744
221.80518 236.07822 255.744
221.80817 236.07991 255.744
221.83398 236.09445 255.744
221.81294 236.08258 255.744
221.8102 236.08102 255.744
221.80415 236.07764 255.744
221.81508 236.08379 255.744
221.82477 236.08925 255.744
221.81694 236.08485 255.744
221.83554 236.09532 255.744
221.82045 236.08682 255.744
221.8164 236.08452 255.744
221.81712 236.08496 255.744
221.80544 236.07835 255.744
221.81548 236.08401 255.744
221.82498 236.08939 255.744
221.80145 236.07611 255.744
221.80878 236.08023 255.744
221.81752 236.08517 255.744
221.80849 236.08008 255.744
221.83128 236.09293 255.744
221.8047 236.07794 255.744
221.82463 236.08919 255.744
221.82877 236.09149 255.744
215.37315 229.23305 248.57813
205.36911 218.57578 237.00995
181.75372 193.44702 209.76831
147.62431 157.11461 170.36163
64.95118 69.12411 74.94913
53.050404 56.449738 61.195705
26.531336 28.228329 30.597853
0 0 0
0 0 0
0 0 0
0 0 0
0 0 0
0 0 0
0 0 0
0 0 0
0 0 0
0 0 0
0 0 0
0 0 0
0 0 0
0 0 0
0 0 0
0 0 0
0 0 0
0 0 0
0 0 0
0 0 0
0 0 0
0 0 0
0 0 0
0 0 0
0 0 0
0 0 0
0 0 0
0 0 0
0 0 0
0 0 0
0 0 0
0 0 0
0 0 0
0 0 0
0 0 0
0 0 0
0 0 0
0 0 0
0 0 0
0 0 0
0 0 0
0 0 0
0 0 0
0 0 0
0 0 0
0 0 0
0 0 0
0 0 0
0 0 0
0 0 0
0 0 0
0 0 0
53.047375 56.44803 61.195705
102.71416 109.30457 118.504974
145.24078 154.5693 167.59134
189.34961 201.5218 218.51237
201.91444 214.90034 233.0263
221.81604 236.08434 255.744
221.80615 236.07877 255.744
221.81429 236.08334 255.744
221.8113 236.08165 255.744
221.81401 236.08319 255.744
221.8145 236.08344 255.744
221.812 236.08205 255.744
221.8097 236.08075 255.744
221.81136 236.08168 255.744
221.8124 236.08226 255.744
221.8184 236.08566 255.744
221.8306 236.09254 255.744
221.82208 236.08774 255.744
221.80994 236.0809 255.744
221.8247 236.08923 255.744
221.81247 236.08232 255.744
221.81734 236.08505 255.744
221.82848 236.09134 255.744
221.85504 236.10632 255.744
221.81639 236.0845 255.744
221.82184 236.08762 255.744
221.8303 236.09236 255.744
221.8071 236.0793 255.744
221.83435 236.09464 255.744
221.8221 236.08772 255.744
221.82938 236.09186 255.744
221.81985 236.08649 255.744
221.82532 236.08957 255.744
221.81374 236.08302 255.744
221.80562 236.07846 255.744
221.81941 236.08626 255.744
221.81139 236.08174 255.744
221.8044 236.07776 255.744
221.82788 236.091 255.744
221.81071 236.08133 255.744
221.82234 236.08788 255.744
221.82173 236.08754 255.744
221.82817 236.09119 255.744
221.79889 236.07468 255.744
221.82018 236.08669 255.744
221.79813 236.07425 255.744
221.78922 236.06923 255.744
221.83162 236.09312 255.744
221.82666 236.09032 255.744
221.8075 236.07951 255.744
221.82928 236.0918 255.744
221.8081 236.07988 255.744
221.8268 236.09041 255.744
221.81699 236.08487 255.744
221.81142 236.08174 255.744
221.82256 236.08801 255.744
221.81723 236.08504 255.744
221.80927 236.08049 255.744
221.80515 236.0782 255.744
221.83449 236.09476 255.744
221.81476 236.08362 255.744
221.81207 236.08212 255.744
221.8069 236.0792 255.744
221.83423 236.09459 255.744
221.824 236.08884 255.744
221.80508 236.07816 255.744
221.82666 236.09033 255.744
221.81927 236.08614 255.744
221.81654 236.08461 255.744
221.82083 236.08704 255.744
221.80696 236.0792 255.744
221.82553 236.08969 255.744
221.83414 236.09451 255.744
221.80173 236.07628 255.744
221.82657 236.09027 255.744
221.81943 236.08626 255.744
221.82137 236.08731 255.744
221.80956 236.08067 255.744
221.81352 236.08292 255.744
221.80817 236.07991 255.744
221.82613 236.09003 255.744
221.80849 236.08012 255.744
221.81512 236.08382 255.744
221.80873 236.08023 255.744
221.81366 236.083 255.744
221.80786 236.07971 255.744
221.84248 236.09923 255.744
221.83191 236.09329 255.744
221.79633 236.07323 255.744
221.80643 236.07887 255.744
221.80171 236.07626 255.744
221.81569 236.08417 255.744
221.82924 236.09175 255.744
221.8144 236.0834 255.744
221.79843 236.07439 255.744
221.80727 236.0794 255.744
221.83318 236.09401 255.744
221.8045 236.07784 255.744
221.8109 236.08144 255.744
221.80852 236.08008 255.744
221.81592 236.08427 255.744
221.82027 236.08673 255.744
221.82977 236.09206 255.744
221.803 236.07703 255.744
221.83304 236.09393 255.744
221.80803 236.07983 255.744
221.83229 236.09348 255.744
221.8071 236.07928 255.744
221.8211 236.08717 255.744
221.82487 236.08931 255.744
221.824 236.08882 255.744
221.81076 236.08134 255.744
221.81303 236.08266 255.744
221.79922 236.0749 255.744
221.80734 236.07945 255.744
221.82751 236.0908 255.744
221.82285 236.08817 255.744
221.80505 236.07816 255.744
221.8208 236.08704 255.744
221.82976 236.09206 255.744
221.81828 236.08557 255.744
221.81184 236.08195 255.744
221.81776 236.0853 255.744
221.81265 236.08243 255.744
221.81711 236.08493 255.744
221.8166 236.08467 255.744
221.82108 236.08717 255.744
221.82558 236.08972 255.744
221.8195 236.08629 255.744
221.8219 236.08765 255.744
221.80797 236.07977 255.744
221.81322 236.08276 255.744
221.8199 236.0865 255.744
221.82065 236.08693 255.744
221.79938 236.07495 255.744
221.81212 236.08215 255.744
221.81093 236.08145 255.744
221.80922 236.08047 255.744
221.82458 236.08914 255.744
221.8289 236.09158 255.744
221.80545 236.07834 255.744
221.80795 236.07979 255.744
221.8151 236.0838 255.744
221.8148 236.08363 255.744
221.82788 236.091 255.744
221.81903 236.08603 255.744
221.82979 236.09209 255.744
221.82198 236.08768 255.744
221.80154 236.07617 255.744
221.82434 236.08902 255.744
221.82109 236.08717 255.744
221.81462 236.08354 255.744
221.81003 236.08092 255.744
221.81578 236.08418 255.744
221.81068 236.0813 255.744
221.82237 236.08789 255.744
221.82175 236.08757 255.744
221.79889 236.07468 255.744
221.80405 236.07756 255.744
221.81137 236.0817 255.744
221.80556 236.0784 255.744
221.83334 236.09409 255.744
221.82803 236.09108 255.744
221.82213 236.08775 255.744
221.80745 236.07951 255.744
221.84012 236.09793 255.744
221.86206 236.11029 255.744
221.85204 236.10463 255.744
221.84598 236.10121 255.744
221.85751 236.10773 255.744
221.84607 236.10126 255.744
221.8501 236.10355 255.744
221.83563 236.09537 255.744
221.85208 236.10469 255.744
221.83446 236.09473 255.744
221.8453 236.10081 255.744
221.85735 236.10764 255.744
221.84624 236.10138 255.744
221.83919 236.0974 255.744
221.83981 236.09773 255.744
221.85945 236.10886 255.744
221.84792 236.1023 255.744
221.84001 236.09787 255.744
221.85486 236.10625 255.744
221.8546 236.10603 255.744
221.85342 236.10542 255.744
221.83145 236.09303 255.744
221.83974 236.09769 255.744
221.85635 236.10706 255.744
221.85008 236.10353 255.744
221.82976 236.09207 255.744
221.86237 236.11044 255.744
221.84935 236.10313 255.744
221.83916 236.09737 255.744
221.85162 236.1044 255.744
221.85414 236.10579 255.744
221.85728 236.10759 255.744
221.85133 236.10425 255.744
221.83784 236.09663 255.744
221.83661 236.09592 255.744
221.82898 236.09163 255.744
221.85085 236.10397 255.744
221.83478 236.09491 255.744
221.8552 236.1064 255.744
221.85696 236.1074 255.744
221.83855 236.097 255.744
221.83472 236.09486 255.744
221.85982 236.10901 255.744
221.82704 236.09055 255.744
221.83145 236.09302 255.744
221.83647 236.09587 255.744
221.84138 236.09862 255.744
221.84082 236.09833 255.744
221.85382 236.10564 255.744
221.85793 236.10796 255.744
221.8382 236.09685 255.744
221.84848 236.10262 255.744
221.86256 236.11053 255.744
221.85786 236.1079 255.744
221.84694 236.10173 255.744
221.84251 236.09926 255.744
221.85765 236.10779 255.744
221.85864 236.10832 255.744
221.84935 236.10309 255.744
221.85352 236.1055 255.744
221.85431 236.10591 255.744
221.84213 236.09904 255.744
221.86308 236.11086 255.744
221.86948 236.11446 255.744
221.84149 236.09871 255.744
221.83815 236.0968 255.744
221.85828 236.10815 255.744
221.86014 236.10922 255.744
221.83246 236.09361 255.744
221.85025 236.10362 255.744
221.84676 236.10165 255.744
221.82997 236.09221 255.744
221.8522 236.10472 255.744
221.85136 236.10423 255.744
221.85135 236.10423 255.744
221.83768 236.09656 255.744
221.86226 236.11038 255.744
221.85672 236.10728 255.744
221.85579 236.10674 255.744
221.85461 236.10608 255.744
221.86028 236.10925 255.744
221.82608 236.09003 255.744
221.83025 236.09232 255.744
221.83762 236.09651 255.744
221.85437 236.10593 255.744
221.83615 236.09567 255.744
221.84444 236.10037 255.744
221.8507 236.10387 255.744
221.82831 236.09123 255.744
221.85294 236.1051 255.744
221.84785 236.10226 255.744
221.83867 236.09708 255.744
221.84695 236.10178 255.744
221.85054 236.10376 255.744
221.83783 236.09662 255.744
221.84013 236.09792 255.744
221.83076 236.09264 255.744
221.83693 236.0961 255.744
221.8351 236.0951 255.744
221.85574 236.10674 255.744
221.84335 236.09972 255.744
221.83757 236.09647 255.744
221.8371 236.0962 255.744
221.85677 236.1073 255.744
221.86826 236.11378 255.744
221.83624 236.09572 255.744
221.84932 236.10306 255.744
221.8568 236.1073 255.744
221.8539 236.1057 255.744
221.83315 236.094 255.744
221.85536 236.10654 255.744
221.86307 236.11082 255.744
221.82533 236.08958 255.744
221.8417 236.09882 255.744
221.86484 236.11186 255.744
221.85126 236.10422 255.744
221.84222 236.09912 255.744
221.84746 236.10204 255.744
221.83946 236.09753 255.744
221.84947 236.10321 255.744
221.84975 236.10335 255.744
221.86388 236.1113 255.744
221.85062 236.10384 255.744
221.8435 236.09982 255.744
221.84741 236.10199 255.744
221.8266 236.09027 255.744
221.8559 236.1068 255.744
221.83609 236.09561 255.744
221.843 236.09955 255.744
221.85054 236.10376 255.744
221.84532 236.10083 255.744
221.85483 236.1062 255.744
221.86325 236.11096 255.744
221.86539 236.11214 255.744
221.8745 236.11728 255.744
221.86467 236.11174 255.744
221.83954 236.09756 255.744
221.84872 236.10272 255.744
221.87187 236.1158 255.744
221.83344 236.09415 255.744
221.86415 236.11148 255.744
221.84282 236.09944 255.744
221.8417 236.0988 255.744
221.8406 236.0982 255.744
221.85657 236.1072 255.744
221.84558 236.10098 255.744
221.84143 236.09863 255.744
221.8427 236.09933 255.744
221.83534 236.09521 255.744
221.85582 236.10677 255.744
221.85864 236.10834 255.744
221.86807 236.11368 255.744
221.85219 236.1047 255.744
221.8475 236.10204 255.744
221.8494 236.10313 255.744
221.85843 236.10823 255.744
221.87433 236.1172 255.744
221.84306 236.09958 255.744
221.84755 236.1021 255.744
221.84587 236.10117 255.744
221.8582 236.1081 255.744
221.84985 236.1034 255.744
221.8725 236.1162 255.744
221.83827 236.09688 255.744
221.85425 236.10588 255.744
221.83316 236.094 255.744
221.84166 236.0988 255.744
221.85805 236.10803 255.744
221.84866 236.10275 255.744
221.84346 236.0998 255.744
221.86043 236.10939 255.744
221.83492 236.09499 255.744
221.87764 236.11903 255.744
221.84851 236.10265 255.744
221.84317 236.09962 255.744
221.85065 236.10384 255.744
221.83908 236.09732 255.744
221.8466 236.1016 255.744
221.8589 236.1085 255.744
221.83327 236.09406 255.744
221.84657 236.10156 255.744
221.8501 236.10353 255.744
221.83923 236.09737 255.744
221.8367 236.096 255.744
221.84076 236.09827 255.744
221.838 236.0967 255.744
221.84216 236.09906 255.744
221.84912 236.10297 255.744
221.83153 236.09306 255.744
221.84431 236.10027 255.744
221.85826 236.10815 255.744
221.83957 236.0976 255.744
221.83162 236.09311 255.744
221.84326 236.0997 255.744
221.84648 236.1015 255.744
221.855 236.1063 255.744
221.8462 236.10135 255.744
221.84927 236.10304 255.744
221.84776 236.10222 255.744
221.83533 236.0952 255.744
221.84647 236.10149 255.744
221.84668 236.10161 255.744
221.83853 236.09702 255.744
221.84178 236.09886 255.744
221.85222 236.10474 255.744
221.87079 236.1152 255.744
221.8224 236.08794 255.744
217.02867 230.98006 250.45422
210.44939 223.9784 242.86292
203.66644 216.75563 235.02657
191.1707 203.47308 220.64426
179.79976 191.37233 207.52473
156.82994 166.92686 181.01933
132.53226 141.07149 152.98926
127.11764 135.30942 146.74214
112.44744 119.69754 129.8157
95.56618 101.72573 110.32213
70.12192 74.64375 80.95431
59.26372 63.085423 68.41888
52.996685 56.419456 61.195705
26.502586 28.212118 30.597853
0 0 0
0 0 0
0 0 0
0 0 0
0 0 0
0 0 0
0 0 0
0 0 0
0 0 0
0 0 0
0 0 0
0 0 0
0 0 0
0 0 0
0 0 0
0 0 0
0 0 0
0 0 0
0 0 0
0 0 0
0 0 0
0 0 0
0 0 0
0 0 0
0 0 0
0 0 0
0 0 0
0 0 0
0 0 0
0 0 0
0 0 0
0 0 0
0 0 0
0 0 0
0 0 0
0 0 0
0 0 0
26.495026 28.207859 30.597853
37.474777 39.89484 43.271896
45.904358 48.865128 52.997036
70.11323 74.63886 80.95431
74.954 79.79218 86.54379
91.81625 97.7345 105.99407
127.10074 135.2999 146.74214
137.7434 146.61246 158.9911
152.2766 162.08368 175.77129
177.82451 189.27505 205.25664
177.8313 189.27888 205.25664
175.87921 187.18364 202.9632
196.60022 209.25586 226.91974
181.72919 193.43318 209.76831
137.72792 146.60373 158.9911
102.652054 109.26957 118.504974
91.79581 97.72297 105.99407
64.91736 69.10505 74.94913
26.498482 28.209806 30.597853
26.498135 28.209612 30.597853
0 0 0
0 0 0
0 0 0
0 0 0
0 0 0
0 0 0
0 0 0
0 0 0
0 0 0
0 0 0
0 0 0
0 0 0
0 0 0
0 0 0
0 0 0
0 0 0
0 0 0
0 0 0
0 0 0
0 0 0
0 0 0
0 0 0
0 0 0
0 0 0
0 0 0
0 0 0
0 0 0
0 0 0
0 0 0
0 0 0
0 0 0
0 0 0
0 0 0
0 0 0
0 0 0
0 0 0
0 0 0
0 0 0
0 0 0
0 0 0
0 0 0
0 0 0
0 0 0
26.49424 28.207415 30.597853
52.996685 56.419456 61.195705
45.898212 48.86166 52.997036
79.50719 84.63604 91.79356
99.17186 105.56474 114.48668
145.17802 154.53395 167.59134
165.55006 176.20801 191.08353
175.86868 187.17773 202.9632
215.38034 229.2371 248.57813
212.1235 225.7549 244.78282
221.8629 236.11073 255.744
221.84387 236.10004 255.744
221.85695 236.10742 255.744
221.84119 236.09853 255.744
221.85426 236.10588 255.744
221.83331 236.09406 255.744
221.83986 236.09773 255.744
221.85243 236.10484 255.744
221.85793 236.10796 255.744
221.84767 236.10216 255.744
221.85294 236.10515 255.744
221.84937 236.10312 255.744
221.85744 236.1077 255.744
221.84569 236.10106 255.744
221.86546 236.11217 255.744
221.85135 236.10425 255.744
221.85938 236.10878 255.744
221.8498 236.10338 255.744
221.8571 236.1075 255.744
221.8523 236.10475 255.744
221.86057 236.10944 255.744
221.86862 236.11397 255.744
221.87106 236.11533 255.744
221.8479 236.10231 255.744
221.84908 236.10297 255.744
221.83978 236.09772 255.744
221.85596 236.10684 255.744
221.83812 236.0968 255.744
221.84494 236.10066 255.744
221.85681 236.10735 255.744
221.85703 236.10745 255.744
221.83421 236.09459 255.744
221.84969 236.1033 255.744
221.86 236.10913 255.744
221.86623 236.11266 255.744
221.8275 236.0908 255.744
221.85333 236.10533 255.744
221.8397 236.09767 255.744
221.84532 236.10085 255.744
221.8507 236.10384 255.744
221.82805 236.0911 255.744
221.84152 236.0987 255.744
215.42737 229.26364 248.57813
196.68073 209.30127 226.91974
156.8879 166.95953 181.01933
95.622925 101.75773 110.32213
64.97459 69.1373 74.94913
37.5217 39.921295 43.271896
0 0 0
0 0 0
0 0 0
0 0 0
0 0 0
0 0 0
0 0 0
0 0 0
0 0 0
0 0 0
0 0 0
0 0 0
0 0 0
0 0 0
0 0 0
0 0 0
0 0 0
0 0 0
0 0 0
0 0 0
0 0 0
0 0 0
0 0 0
0 0 0
0 0 0
0 0 0
0 0 0
0 0 0
0 0 0
0 0 0
0 0 0
0 0 0
0 0 0
0 0 0
0 0 0
0 0 0
0 0 0
0 0 0
0 0 0
0 0 0
0 0 0
0 0 0
0 0 0
0 0 0
0 0 0
0 0 0
0 0 0
0 0 0
0 0 0
0 0 0
0 0 0
0 0 0
0 0 0
0 0 0
0 0 0
0 0 0
0 0 0
0 0 0
0 0 0
26.534626 28.230185 30.597853
37.51352 39.91668 43.271896
87.971695 93.609924 101.4816
156.8887 166.95998 181.01933
194.86578 207.37923 224.84738
213.7844 227.51747 246.68777
221.8274 236.09071 255.744
221.86757 236.11336 255.744
221.8517 236.10443 255.744
221.85458 236.10603 255.744
221.83969 236.09769 255.744
221.84007 236.09787 255.744
221.84444 236.10036 255.744
221.84355 236.09982 255.744
221.83905 236.09732 255.744
221.84378 236.09998 255.744
221.8502 236.10359 255.744
221.84671 236.10164 255.744
221.85295 236.10513 255.744
221.83646 236.09583 255.744
221.83911 236.09734 255.744
221.84962 236.10327 255.744
221.85416 236.10583 255.744
221.83377 236.09433 255.744
221.84747 236.10205 255.744
221.85818 236.1081 255.744
221.87064 236.1151 255.744
221.84741 236.102 255.744
221.82056 236.0869 255.744
221.83371 236.09425 255.744
221.85573 236.10672 255.744
221.85097 236.10403 255.744
221.84636 236.1014 255.744
221.84726 236.10193 255.744
221.84958 236.10324 255.744
221.84084 236.09831 255.744
221.84933 236.10312 255.744
221.85483 236.1062 255.744
221.85245 236.10487 255.744
221.83809 236.09674 255.744
221.85428 236.10588 255.744
221.85228 236.10474 255.744
221.83682 236.0961 255.744
221.83897 236.09724 255.744
221.84065 236.0982 255.744
221.84306 236.09958 255.744
221.84872 236.10277 255.744
221.86711 236.11314 255.744
221.84251 236.09927 255.744
221.84729 236.10194 255.744
221.83212 236.0934 255.744
221.84174 236.09882 255.744
221.84993 236.10344 255.744
221.85562 236.10666 255.744
221.84167 236.0988 255.744
221.85835 236.10818 255.744
221.85104 236.10405 255.744
221.84366 236.09991 255.744
221.87057 236.11507 255.744
221.83792 236.09665 255.744
221.83478 236.09491 255.744
221.85909 236.10861 255.744
221.85959 236.10892 255.744
221.83896 236.09726 255.744
221.8388 236.09717 255.744
221.85577 236.10675 255.744
221.8336 236.09422 255.744
221.87077 236.1152 255.744
221.84213 236.09906 255.744
221.84642 236.10146 255.744
221.84404 236.10013 255.744
221.84854 236.10266 255.744
221.85196 236.1046 255.744
221.85295 236.10515 255.744
221.8428 236.09944 255.744
221.86272 236.11064 255.744
221.86244 236.1105 255.744
221.84676 236.10164 255.744
221.86206 236.11028 255.744
221.83961 236.09761 255.744
221.86702 236.11307 255.744
221.84103 236.09845 255.744
221.85345 236.10544 255.744
221.83757 236.09647 255.744
221.83562 236.09537 255.744
221.84494 236.10063 255.744
221.86343 236.11107 255.744
221.83861 236.09709 255.744
221.84149 236.09866 255.744
221.84512 236.10071 255.744
221.83743 236.09639 255.744
221.84256 236.09927 255.744
221.84958 236.10324 255.744
221.86551 236.11221 255.744
221.81761 236.08522 255.744
221.8405 236.0981 255.744
221.83168 236.09315 255.744
221.84181 236.09889 255.744
221.83783 236.09662 255.744
221.84224 236.09912 255.744
221.84953 236.10323 255.744
221.83711 236.09624 255.744
221.85478 236.10614 255.744
221.85588 236.10681 255.744
221.83163 236.09317 255.744
221.82956 236.09196 255.744
221.84128 236.09856 255.744
221.83669 236.09596 255.744
221.83057 236.09251 255.744
221.8474 236.102 255.744
221.83832 236.0969 255.744
221.84496 236.1006 255.744
221.8727 236.1163 255.744
221.84288 236.09944 255.744
221.84009 236.0979 255.744
221.85516 236.1064 255.744
221.86685 236.11295 255.744
221.85184 236.10449 255.744
221.84854 236.10269 255.744
221.85643 236.1071 255.744
221.83066 236.0926 255.744
221.83337 236.09413 255.744
221.82994 236.09216 255.744
221.8444 236.10031 255.744
221.85068 236.10385 255.744
221.83759 236.09648 255.744
221.84349 236.09981 255.744
221.84294 236.09952 255.744
221.83263 236.0937 255.744
221.85458 236.10606 255.744
221.84084 236.0983 255.744
221.83266 236.0937 255.744
221.84335 236.09973 255.744
221.85687 236.10738 255.744
221.84009 236.0979 255.744
221.86192 236.11021 255.744
221.84558 236.101 255.744
221.85718 236.10756 255.744
221.8523 236.10477 255.744
221.84598 236.10121 255.744
221.82442 236.08905 255.744
221.85173 236.10445 255.744
221.82892 236.0916 255.744
221.83887 236.0972 255.744
221.82779 236.09096 255.744
221.85179 236.10448 255.744
221.84206 236.09903 255.744
221.85403 236.10576 255.744
221.84656 236.10155 255.744
221.83205 236.09335 255.744
221.87215 236.11595 255.744
221.82819 236.09116 255.744
221.85088 236.10393 255.744
221.83745 236.09642 255.744
221.85811 236.10806 255.744
221.8585 236.10828 255.744
221.83778 236.0966 255.744
221.8319 236.09328 255.744
221.84053 236.09814 255.744
221.84969 236.10332 255.744
221.84526 236.1008 255.744
221.86629 236.11267 255.744
221.8855 236.1235 255.744
221.87326 236.11661 255.744
221.85576 236.10677 255.744
221.87555 236.11787 255.744
221.87756 236.11903 255.744
221.86095 236.10966 255.744
221.87642 236.1184 255.744
221.89462 236.12865 255.744
221.88829 236.12508 255.744
221.85576 236.10674 255.744
221.87675 236.11856 255.744
221.86406 236.11142 255.744
221.88423 236.12279 255.744
221.8741 236.11707 255.744
221.87073 236.11517 255.744
221.86462 236.11172 255.744
221.88667 236.12416 255.744
221.90257 236.13312 255.744
221.86273 236.11067 255.744
221.89027 236.12619 255.744
221.89148 236.12692 255.744
221.8803 236.12056 255.744
221.87515 236.11766 255.744
221.87898 236.11983 255.744
221.86026 236.10924 255.744
221.89276 236.12761 255.744
221.85693 236.10739 255.744
221.88911 236.1255 255.744
221.88399 236.12265 255.744
221.88203 236.12157 255.744
221.87514 236.11765 255.744
221.87762 236.11903 255.744
221.88803 236.12494 255.744
221.87383 236.1169 255.744
221.89673 236.12984 255.744
221.87543 236.1178 255.744
221.8644 236.11159 255.744
221.866 236.11249 255.744
221.88097 236.12096 255.744
221.88626 236.12393 255.744
221.88094 236.12091 255.744
221.88844 236.12518 255.744
221.88281 236.12198 255.744
221.88867 236.1253 255.744
221.88129 236.12114 255.744
221.88286 236.122 255.744
221.88031 236.12056 255.744
221.87779 236.11916 255.744
221.86868 236.11398 255.744
221.8483 236.10252 255.744
221.87723 236.11879 255.744
221.89738 236.1302 255.744
221.88983 236.12595 255.744
221.89828 236.13074 255.744
221.87802 236.1193 255.744
221.88506 236.12325 255.744
221.88435 236.12286 255.744
221.881 236.12097 255.744
221.88197 236.12152 255.744
221.88408 236.12268 255.744
221.87173 236.11574 255.744
221.87485 236.11751 255.744
221.89839 236.13075 255.744
221.8985 236.13083 255.744
221.87988 236.12033 255.744
221.87323 236.11661 255.744
221.87767 236.1191 255.744
221.86575 236.11235 255.744
221.90564 236.13486 255.744
221.89413 236.12837 255.744
221.88861 236.12524 255.744
221.87465 236.11736 255.744
221.8653 236.1121 255.744
221.86565 236.1123 255.744
221.86734 236.11325 255.744
221.89359 236.12804 255.744
221.88704 236.12434 255.744
221.87582 236.11806 255.744
221.87233 236.11607 255.744
221.86803 236.11365 255.744
221.89577 236.12926 255.744
221.8763 236.1183 255.744
221.88412 236.12274 255.744
221.87486 236.11751 255.744
221.85541 236.10652 255.744
221.86844 236.11386 255.744
221.8856 236.12352 255.744
221.86896 236.11417 255.744
221.88503 236.12321 255.744
221.87566 236.11792 255.744
221.87645 236.1184 255.744
221.88564 236.12357 255.744
221.87492 236.11755 255.744
221.8613 236.10983 255.744
221.87663 236.11853 255.744
221.88351 236.12239 255.744
221.881 236.12093 255.744
221.89488 236.12875 255.744
221.87885 236.11972 255.744
221.8917 236.127 255.744
221.8851 236.12328 255.744
221.87892 236.11981 255.744
221.86981 236.11465 255.744
221.85631 236.10704 255.744
221.8869 236.12428 255.744
221.88637 236.124 255.744
221.8801 236.12045 255.744
221.89307 236.12778 255.744
221.88966 236.12587 255.744
221.8743 236.11719 255.744
221.87704 236.11873 255.744
221.86456 236.1117 255.744
221.88928 236.12564 255.744
221.868 236.1136 255.744
221.87965 236.12022 255.744
221.8858 236.12364 255.744
221.87375 236.11688 255.744
221.88628 236.12393 255.744
221.8819 236.12149 255.744
221.87822 236.11937 255.744
221.87146 236.11559 255.744
221.86993 236.1147 255.744
221.87141 236.11559 255.744
221.87874 236.11967 255.744
221.87418 236.11711 255.744
221.87672 236.11858 255.744
221.87949 236.1201 255.744
221.86783 236.11353 255.744
221.88586 236.1237 255.744
221.88008 236.12044 255.744
221.87651 236.1184 255.744
221.86977 236.11461 255.744
221.89137 236.12682 255.744
221.87138 236.11552 255.744
221.86914 236.11426 255.744
221.87079 236.11516 255.744
221.88074 236.1208 255.744
221.87804 236.1193 255.744
221.87532 236.11772 255.744
221.87164 236.11572 255.744
221.89044 236.1263 255.744
221.884 236.12263 255.744
221.8886 236.12521 255.744
221.87842 236.11952 255.744
221.88705 236.12436 255.744
221.872 236.11584 255.744
221.88318 236.1222 255.744
221.8804 236.1206 255.744
221.8754 236.11781 255.744
221.89182 236.12704 255.744
221.89223 236.12729 255.744
221.8694 236.1144 255.744
221.88976 236.1259 255.744
221.87617 236.11823 255.744
221.87297 236.11641 255.744
221.88254 236.12183 255.744
221.85625 236.10701 255.744
221.87184 236.1158 255.744
221.8907 236.12643 255.744
221.87263 236.11626 255.744
221.884 236.12263 255.744
221.84567 236.10104 255.744
221.87515 236.11768 255.744
221.9013 236.13243 255.744
221.89857 236.13086 255.744
221.88391 236.12259 255.744
221.86739 236.11328 255.744
221.88533 236.12341 255.744
221.88704 236.12437 255.744
221.88881 236.12534 255.744
221.8737 236.11682 255.744
221.88898 236.12546 255.744
221.87816 236.11934 255.744
221.88196 236.12149 255.744
221.87743 236.11893 255.744
221.87526 236.11774 255.744
221.8711 236.11536 255.744
221.87054 236.11507 255.744
221.87704 236.11871 255.744
221.88152 236.12126 255.744
221.86769 236.11345 255.744
221.86377 236.11125 255.744
221.86876 236.11406 255.744
221.88274 236.12193 255.744
221.89058 236.12639 255.744
221.87292 236.11641 255.744
221.89009 236.12608 255.744
221.88098 236.12094 255.744
221.89365 236.12808 255.744
221.87785 236.1192 255.744
221.88815 236.12502 255.744
221.89029 236.12622 255.744
221.89398 236.12827 255.744
221.87596 236.11813 255.744
221.88779 236.12479 255.744
221.88289 236.12206 255.744
221.87918 236.11992 255.744
221.86726 236.11322 255.744
221.89256 236.12747 255.744
221.89 236.12602 255.744
221.8751 236.11765 255.744
221.89482 236.12875 255.744
221.90076 236.1321 255.744
221.87808 236.1193 255.744
221.88121 236.12106 255.744
220.28964 234.42789 254.16486
212.16742 225.7797 244.78282
207.10992 220.41028 238.97687
198.42781 211.17688 228.97336
177.8648 189.29778 205.25664
159.08603 169.31244 183.58711
132.55786 141.08592 152.98926
118.554054 126.185844 136.83775
102.67568 109.28288 118.504974
59.27814 63.093548 68.41888
59.265633 63.0865 68.41888
53.010826 56.427425 61.195705
0 0 0
37.478462 39.89692 43.271896
0 0 0
0 0 0
0 0 0
0 0 0
0 0 0
0 0 0
0 0 0
0 0 0
0 0 0
0 0 0
0 0 0
0 0 0
0 0 0
0 0 0
0 0 0
0 0 0
0 0 0
0 0 0
0 0 0
0 0 0
0 0 0
0 0 0
0 0 0
0 0 0
0 0 0
0 0 0
0 0 0
0 0 0
0 0 0
0 0 0
0 0 0
0 0 0
0 0 0
0 0 0
0 0 0
0 0 0
0 0 0
0 0 0
0 0 0
0 0 0
0 0 0
0 0 0
0 0 0
26.498411 28.209766 30.597853
53.00035 56.421524 61.195705
53.013493 56.428925 61.195705
74.98309 79.80858 86.54379
109.28765 116.32983 126.15818
135.1741 143.87494 156.01904
121.48205 129.30217 140.21698
121.483826 129.30318 140.21698
87.91632 93.578705 101.4816
91.81295 97.732635 105.99407
64.92143 69.10734 74.94913
26.498014 28.209543 30.597853
0 0 0
0 0 0
0 0 0
0 0 0
0 0 0
0 0 0
0 0 0
0 0 0
0 0 0
0 0 0
0 0 0
0 0 0
0 0 0
0 0 0
0 0 0
0 0 0
0 0 0
0 0 0
0 0 0
0 0 0
0 0 0
0 0 0
0 0 0
0 0 0
0 0 0
0 0 0
0 0 0
0 0 0
0 0 0
0 0 0
0 0 0
0 0 0
0 0 0
0 0 0
0 0 0
0 0 0
0 0 0
0 0 0
0 0 0
0 0 0
0 0 0
0 0 0
0 0 0
0 0 0
0 0 0
0 0 0
0 0 0
0 0 0
0 0 0
0 0 0
0 0 0
45.898697 48.861935 52.997036
79.5107 84.638016 91.79356
74.97352 79.80319 86.54379
121.47428 129.2978 140.21698
140.27759 149.30655 161.90862
163.44017 173.9491 188.61783
194.84859 207.3695 224.84738
201.97058 214.93205 233.0263
220.28215 234.42363 254.16486
221.88524 236.12335 255.744
221.89336 236.12793 255.744
221.88425 236.12279 255.744
221.88783 236.1248 255.744
221.86055 236.10944 255.744
221.88254 236.12184 255.744
221.88184 236.1214 255.744
221.84827 236.1025 255.744
221.88562 236.12355 255.744
221.87613 236.11821 255.744
221.88412 236.12271 255.744
221.89519 236.12894 255.744
221.87439 236.11725 255.744
221.8742 236.11713 255.744
221.87881 236.11974 255.744
221.89294 236.12772 255.744
221.88599 236.12375 255.744
221.88103 236.121 255.744
221.86488 236.11188 255.744
221.88643 236.12402 255.744
221.87305 236.11647 255.744
221.90364 236.13376 255.744
221.89502 236.12889 255.744
221.87656 236.11844 255.744
221.87643 236.11838 255.744
221.89008 236.12607 255.744
221.88086 236.12088 255.744
221.87773 236.1191 255.744
221.88437 236.12286 255.744
221.89917 236.1312 255.744
221.88412 236.12273 255.744
221.87938 236.12006 255.744
221.87074 236.11516 255.744
221.88196 236.12146 255.744
221.88272 236.1219 255.744
220.2787 234.42168 254.16486
210.49847 224.00609 242.86292
187.5586 199.57835 216.3595
135.24864 143.91696 156.01904
83.89642 89.26411 96.7589
0 0 0
0 0 0
0 0 0
0 0 0
0 0 0
0 0 0
0 0 0
0 0 0
0 0 0
0 0 0
0 0 0
0 0 0
0 0 0
0 0 0
0 0 0
0 0 0
0 0 0
0 0 0
0 0 0
0 0 0
0 0 0
0 0 0
0 0 0
0 0 0
0 0 0
0 0 0
0 0 0
0 0 0
0 0 0
0 0 0
0 0 0
0 0 0
0 0 0
0 0 0
0 0 0
0 0 0
0 0 0
0 0 0
0 0 0
0 0 0
0 0 0
0 0 0
0 0 0
0 0 0
0 0 0
0 0 0
0 0 0
0 0 0
0 0 0
0 0 0
0 0 0
0 0 0
0 0 0
0 0 0
0 0 0
0 0 0
0 0 0
0 0 0
0 0 0
0 0 0
0 0 0
0 0 0
0 0 0
0 0 0
0 0 0
0 0 0
0 0 0
0 0 0
0 0 0
87.98349 93.61657 101.4816
132.62119 141.12163 152.98926
189.42528 201.5644 218.51237
205.42598 218.60783 237.00995
218.689 232.72374 252.31636
221.86371 236.1112 255.744
221.89427 236.12846 255.744
221.8765 236.1184 255.744
221.8699 236.1147 255.744
221.87671 236.11855 255.744
221.88054 236.1207 255.744
221.88593 236.12376 255.744
221.86711 236.11316 255.744
221.89102 236.1266 255.744
221.87556 236.11789 255.744
221.88023 236.12053 255.744
221.8733 236.11664 255.744
221.89438 236.12848 255.744
221.88257 236.12187 255.744
221.86992 236.11472 255.744
221.87679 236.11858 255.744
221.8842 236.12276 255.744
221.89935 236.13129 255.744
221.86563 236.1123 255.744
221.87437 236.11722 255.744
221.86932 236.11438 255.744
221.86986 236.11465 255.744
221.87503 236.11757 255.744
221.8875 236.12462 255.744
221.87117 236.11542 255.744
221.88487 236.12315 255.744
221.88564 236.12357 255.744
221.87 236.11473 255.744
221.8988 236.13101 255.744
221.86987 236.11469 255.744
221.87868 236.11964 255.744
221.89551 236.12912 255.744
221.8603 236.10927 255.744
221.87508 236.11761 255.744
221.88469 236.12305 255.744
221.87071 236.11513 255.744
221.88062 236.12074 255.744
221.8738 236.11687 255.744
221.88618 236.12386 255.744
221.87225 236.11603 255.744
221.88237 236.12173 255.744
221.87459 236.11732 255.744
221.86916 236.11426 255.744
221.88133 236.12114 255.744
221.89937 236.13133 255.744
221.89235 236.12737 255.744
221.89798 236.13052 255.744
221.8815 236.12123 255.744
221.85507 236.10635 255.744
221.88068 236.12077 255.744
221.87514 236.11766 255.744
221.881 236.12094 255.744
221.87918 236.11998 255.744
221.87268 236.11627 255.744
221.88496 236.12318 255.744
221.86897 236.1142 255.744
221.87064 236.11511 255.744
221.89568 236.12923 255.744
221.88113 236.12102 255.744
221.87668 236.11848 255.744
221.8646 236.1117 255.744
221.87482 236.11745 255.744
221.87329 236.1166 255.744
221.87639 236.11835 255.744
221.8745 236.11728 255.744
221.89977 236.13153 255.744
221.87132 236.11551 255.744
221.88083 236.12086 255.744
221.8704 236.11499 255.744
221.86543 236.11218 255.744
221.87631 236.11833 255.744
221.87772 236.11911 255.744
221.8781 236.11934 255.744
221.8742 236.11713 255.744
221.8895 236.12573 255.744
221.85985 236.10901 255.744
221.8784 236.11949 255.744
221.88559 236.12352 255.744
221.8768 236.11858 255.744
221.87808 236.11932 255.744
221.8846 236.123 255.744
221.89061 236.12634 255.744
221.86995 236.11472 255.744
221.86685 236.11299 255.744
221.86124 236.10982 255.744
221.88046 236.12067 255.744
221.8634 236.11104 255.744
221.85092 236.10403 255.744
221.88177 236.1214 255.744
221.88577 236.12367 255.744
221.88406 236.12273 255.744
221.87286 236.11638 255.744
221.8907 236.12643 255.744
221.88583 236.12369 255.744
221.86606 236.1125 255.744
221.88881 236.12534 255.744
221.85861 236.10834 255.744
221.87268 236.11627 255.744
221.88991 236.12596 255.744
221.85548 236.10658 255.744
221.88628 236.12395 255.744
221.85933 236.10872 255.744
221.85736 236.10764 255.744
221.87784 236.11917 255.744
221.88243 236.12178 255.744
221.89613 236.12952 255.744
221.88356 236.12239 255.744
221.88036 236.1206 255.744
221.88779 236.12476 255.744
221.88332 236.12225 255.744
221.87737 236.11893 255.744
221.85893 236.10854 255.744
221.88623 236.12392 255.744
221.87659 236.11847 255.744
221.88657 236.12407 255.744
221.87897 236.11981 255.744
221.86536 236.11212 255.744
221.89467 236.12865 255.744
221.88835 236.12508 255.744
221.87906 236.11986 255.744
221.87187 236.11584 255.744
221.89917 236.1312 255.744
221.88348 236.12238 255.744
221.8827 236.12193 255.744
221.88277 236.12196 255.744
221.88443 236.1229 255.744
221.8862 236.1239 255.744
221.87839 236.11949 255.744
221.87222 236.11603 255.744
221.87361 236.11679 255.744
221.8796 236.12013 255.744
221.866 236.1125 255.744
221.89339 236.12793 255.744
221.87724 236.11884 255.744
221.87375 236.11687 255.744
221.88101 236.12097 255.744
221.88629 236.12393 255.744
221.87566 236.11792 255.744
221.89136 236.12679 255.744
221.87656 236.11847 255.744
221.86832 236.11383 255.744
221.87341 236.11668 255.744
221.87778 236.11914 255.744
221.87677 236.11858 255.744
221.87679 236.11856 255.744
221.8759 236.11809 255.744
221.87933 236.12004 255.744
221.89214 236.12721 255.744
221.87386 236.11691 255.744
221.87115 236.1154 255.744
221.86626 236.11266 255.744
221.88493 236.1232 255.744
221.88654 236.12407 255.744
221.90178 236.13269 255.744
221.9169 236.14122 255.744
221.90907 236.13676 255.744
221.9062 236.1352 255.744
221.90068 236.13205 255.744
221.90147 236.13252 255.744
221.90318 236.13347 255.744
221.91171 236.13824 255.744
221.9075 236.13591 255.744
221.89749 236.13025 255.744
221.90553 236.13478 255.744
221.92285 236.14458 255.744
221.91458 236.13988 255.744
221.92018 236.14308 255.744
221.90146 236.13252 255.744
221.89702 236.13002 255.744
221.8963 236.1296 255.744
221.90468 236.13428 255.744
221.89009 236.12607 255.744
221.92136 236.14369 255.744
221.90565 236.13487 255.744
221.90082 236.13211 255.744
221.89458 236.12859 255.744
221.90714 236.1357 255.744
221.91086 236.1378 255.744
221.89711 236.13004 255.744
221.90706 236.13564 255.744
221.9127 236.13884 255.744
221.91437 236.13977 255.744
221.89096 236.1266 255.744
221.91345 236.13925 255.744
221.88698 236.12431 255.744
221.9215 236.1438 255.744
221.89975 236.13153 255.744
221.912 236.13843 255.744
221.91489 236.14006 255.744
221.88739 236.12457 255.744
221.9091 236.1368 255.744
221.90024 236.13179 255.744
221.92078 236.14339 255.744
221.88907 236.12553 255.744
221.88452 236.12292 255.744
221.90887 236.13669 255.744
221.9146 236.13991 255.744
221.90723 236.13576 255.744
221.90108 236.13225 255.744
221.90105 236.13226 255.744
221.89517 236.12892 255.744
221.90396 236.13391 255.744
221.91504 236.14017 255.744
221.91678 236.14114 255.744
221.93016 236.14868 255.744
221.90076 236.13213 255.744
221.9087 236.13658 255.744
221.90114 236.13232 255.744
221.90282 236.13327 255.744
221.90141 236.13245 255.744
221.93645 236.1522 255.744
221.90172 236.13264 255.744
221.88985 236.12595 255.744
221.89754 236.1303 255.744
221.90167 236.13263 255.744
221.90977 236.13718 255.744
221.9165 236.14096 255.744
221.91565 236.14047 255.744
221.90813 236.13625 255.744
221.9082 236.1363 255.744
221.91553 236.14043 255.744
221.91415 236.13966 255.744
221.92297 236.1446 255.744
221.89926 236.13127 255.744
221.91837 236.14204 255.744
221.92624 236.14645 255.744
221.88852 236.12521 255.744
221.90071 236.13208 255.744
221.90236 236.13298 255.744
221.90807 236.13625 255.744
221.92079 236.14337 255.744
221.88962 236.12582 255.744
221.93018 236.14867 255.744
221.8971 236.13005 255.744
221.90854 236.13649 255.744
221.9307 236.149 255.744
221.90118 236.13234 255.744
221.89728 236.13013 255.744
221.90857 236.13649 255.744
221.9166 236.141 255.744
221.90173 236.13266 255.744
221.89977 236.13155 255.744
221.92331 236.14479 255.744
221.91493 236.1401 255.744
221.90991 236.13727 255.744
221.8938 236.12817 255.744
221.9139 236.13953 255.744
221.8978 236.13043 255.744
221.90396 236.13393 255.744
221.90685 236.13554 255.744
221.90105 236.13225 255.744
221.90855 236.13649 255.744
221.89862 236.1309 255.744
221.90054 236.13196 255.744
221.89806 236.13057 255.744
221.90446 236.1342 255.744
221.8985 236.13081 255.744
221.91327 236.13913 255.744
221.90752 236.13588 255.744
221.91821 236.1419 255.744
221.9135 236.1393 255.744
221.90245 236.13303 255.744
221.91565 236.1405 255.744
221.92447 236.14546 255.744
221.90012 236.13171 255.744
221.91556 236.14047 255.744
221.9124 236.13866 255.744
221.90971 236.13715 255.744
221.91301 236.139 255.744
221.91881 236.14229 255.744
221.8976 236.13033 255.744
221.91338 236.1392 255.744
221.9155 236.14038 255.744
221.90596 236.13506 255.744
221.91222 236.13855 255.744
221.89537 236.12906 255.744
221.93018 236.14868 255.744
221.90419 236.13402 255.744
221.90074 236.1321 255.744
221.9117 236.13824 255.744
221.89957 236.13144 255.744
221.90665 236.13539 255.744
221.93736 236.15274 255.744
221.90167 236.13263 255.744
221.91739 236.14148 255.744
221.91367 236.13939 255.744
221.8974 236.1302 255.744
221.89117 236.1267 255.744
221.9214 236.14374 255.744
221.91011 236.13733 255.744
221.89981 236.13155 255.744
221.90027 236.1318 255.744
221.91258 236.13875 255.744
221.90619 236.13515 255.744
221.91313 236.13908 255.744
221.89827 236.13069 255.744
221.9154 236.14037 255.744
221.91832 236.14203 255.744
221.91898 236.14241 255.744
221.92188 236.14401 255.744
221.92572 236.14618 255.744
221.93233 236.1499 255.744
221.8946 236.1286 255.744
221.92107 236.14354 255.744
221.9141 236.13962 255.744
221.91154 236.13817 255.744
221.91238 236.13866 255.744
221.9037 236.13373 255.744
221.90625 236.1352 255.744
221.92862 236.14778 255.744
221.93445 236.15106 255.744
221.90472 236.13431 255.744
221.90692 236.13554 255.744
221.90771 236.13605 255.744
221.90543 236.13472 255.744
221.91429 236.1397 255.744
221.8929 236.12767 255.744
221.923 236.14465 255.744
221.9208 236.14342 255.744
221.90863 236.13654 255.744
221.91801 236.1418 255.744
221.90364 236.13374 255.744
221.87984 236.1203 255.744
221.90268 236.13316 255.744
221.91347 236.13927 255.744
221.90472 236.13434 255.744
221.90442 236.13416 255.744
221.93929 236.15384 255.744
221.91582 236.14056 255.744
221.90149 236.1325 255.744
221.91417 236.13966 255.744
221.90794 236.13614 255.744
221.91664 236.14105 255.744
221.9105 236.1376 255.744
221.91203 236.13844 255.744
221.91533 236.1403 255.744
221.89522 236.12895 255.744
221.90892 236.13666 255.744
221.92368 236.14499 255.744
221.90285 236.13327 255.744
221.91045 236.13756 255.744
221.91673 236.14108 255.744
221.92021 236.14308 255.744
221.91455 236.13988 255.744
221.912 236.13844 255.744
221.89635 236.12961 255.744
221.91177 236.13834 255.744
221.92131 236.1437 255.744
221.92033 236.14313 255.744
221.90147 236.13246 255.744
221.90147 236.1325 255.744
221.90524 236.13463 255.744
221.89465 236.12866 255.744
221.92075 236.14337 255.744
221.91454 236.13986 255.744
218.70624 232.73347 252.31636
217.08875 231.01395 250.45422
207.14188 220.4283 238.97687
181.80138 193.47388 209.76831
187.50139 199.54605 216.3595
161.28848 171.65247 186.11948
132.58669 141.10217 152.98926
129.88644 138.23926 149.89825
95.59417 101.741516 110.32213
70.14526 74.65691 80.95431
64.932205 69.11341 74.94913
37.480293 39.89795 43.271896
26.51018 28.216398 30.597853
0 0 0
0 0 0
0 0 0
0 0 0
0 0 0
0 0 0
0 0 0
0 0 0
0 0 0
0 0 0
0 0 0
0 0 0
0 0 0
0 0 0
0 0 0
0 0 0
0 0 0
0 0 0
0 0 0
0 0 0
0 0 0
0 0 0
0 0 0
0 0 0
0 0 0
0 0 0
0 0 0
0 0 0
0 0 0
0 0 0
0 0 0
0 0 0
0 0 0
0 0 0
0 0 0
0 0 0
0 0 0
0 0 0
0 0 0
0 0 0
0 0 0
0 0 0
0 0 0
0 0 0
0 0 0
0 0 0
0 0 0
0 0 0
0 0 0
59.27822 63.093594 68.41888
59.274254 63.091362 68.41888
87.924194 93.58314 101.4816
59.27486 63.091698 68.41888
45.914845 48.871033 52.997036
37.4828 39.89936 43.271896
0 0 0
0 0 0
0 0 0
0 0 0
0 0 0
0 0 0
0 0 0
0 0 0
0 0 0
0 0 0
0 0 0
0 0 0
0 0 0
0 0 0
0 0 0
0 0 0
0 0 0
0 0 0
0 0 0
0 0 0
0 0 0
0 0 0
0 0 0
0 0 0
0 0 0
0 0 0
0 0 0
0 0 0
0 0 0
0 0 0
0 0 0
0 0 0
0 0 0
0 0 0
0 0 0
0 0 0
0 0 0
0 0 0
0 0 0
0 0 0
0 0 0
0 0 0
0 0 0
0 0 0
0 0 0
0 0 0
0 0 0
0 0 0
0 0 0
0 0 0
0 0 0
0 0 0
0 0 0
0 0 0
0 0 0
0 0 0
0 0 0
37.480335 39.897972 43.271896
64.925804 69.1098 74.94913
112.47123 119.71096 129.8157
132.57272 141.0943 152.98926
154.60478 164.54268 178.41461
173.88573 185.05371 200.64354
201.97623 214.93518 233.0263
218.71136 232.73636 252.31636
220.31151 234.44017 254.16486
221.90749 236.1359 255.744
221.89201 236.12715 255.744
221.91495 236.1401 255.744
221.90158 236.13254 255.744
221.90517 236.13458 255.744
221.90694 236.13559 255.744
221.91626 236.14082 255.744
221.91905 236.14243 255.744
221.9174 236.1415 255.744
221.90364 236.13374 255.744
221.9318 236.14961 255.744
221.92955 236.14833 255.744
221.9099 236.13722 255.744
221.8986 236.1309 255.744
221.91402 236.13957 255.744
221.91533 236.14032 255.744
221.9086 236.13654 255.744
221.91162 236.13821 255.744
221.90796 236.13617 255.744
221.91911 236.14247 255.744
221.90833 236.13638 255.744
221.921 236.14352 255.744
221.91272 236.13887 255.744
221.89908 236.13116 255.744
221.90454 236.13422 255.744
221.91591 236.14066 255.744
221.89758 236.1303 255.744
221.91643 236.14095 255.744
221.90038 236.1319 255.744
221.9144 236.13982 255.744
217.13318 231.03897 250.45422
193.11247 205.48358 222.75572
124.41764 132.38829 143.51665
79.60152 84.68922 91.79356
0 0 0
0 0 0
0 0 0
0 0 0
0 0 0
0 0 0
0 0 0
0 0 0
0 0 0
0 0 0
0 0 0
0 0 0
0 0 0
0 0 0
0 0 0
0 0 0
0 0 0
0 0 0
0 0 0
0 0 0
0 0 0
0 0 0
0 0 0
0 0 0
0 0 0
0 0 0
0 0 0
0 0 0
0 0 0
0 0 0
0 0 0
0 0 0
0 0 0
0 0 0
0 0 0
0 0 0
0 0 0
0 0 0
0 0 0
0 0 0
0 0 0
0 0 0
0 0 0
0 0 0
0 0 0
0 0 0
0 0 0
0 0 0
0 0 0
0 0 0
0 0 0
0 0 0
0 0 0
0 0 0
0 0 0
0 0 0
0 0 0
0 0 0
0 0 0
0 0 0
0 0 0
0 0 0
0 0 0
0 0 0
0 0 0
0 0 0
0 0 0
0 0 0
0 0 0
0 0 0
0 0 0
0 0 0
0 0 0
0 0 0
0 0 0
75.0509 79.84682 86.54379
140.37595 149.36197 161.90862
191.27002 203.52908 220.64426
218.71666 232.73938 252.31636
221.92653 236.14662 255.744
221.92285 236.14459 255.744
221.9084 236.13643 255.744
221.90706 236.13567 255.744
221.93147 236.14941 255.744
221.89818 236.13066 255.744
221.9142 236.13966 255.744
221.91792 236.14178 255.744
221.91853 236.14214 255.744
221.90198 236.13278 255.744
221.92091 236.1435 255.744
221.91792 236.14178 255.744
221.90869 236.13658 255.744
221.91484 236.14001 255.744
221.91806 236.14186 255.744
221.90884 236.13666 255.744
221.92766 236.14726 255.744
221.91455 236.13985 255.744
221.90894 236.1367 255.744
221.91708 236.14133 255.744
221.91713 236.14134 255.744
221.90419 236.13406 255.744
221.89723 236.13011 255.744
221.93912 236.15369 255.744
221.89296 236.12767 255.744
221.90854 236.13647 255.744
221.89076 236.12643 255.744
221.93346 236.15053 255.744
221.91147 236.13815 255.744
221.91235 236.13867 255.744
221.93013 236.14865 255.744
221.9017 236.13261 255.744
221.92467 236.14558 255.744
221.92477 236.1456 255.744
221.91061 236.13763 255.744
221.90814 236.13625 255.744
221.92458 236.14557 255.744
221.922 236.1441 255.744
221.89384 236.12822 255.744
221.90198 236.1328 255.744
221.90112 236.13231 255.744
221.9 236.13164 255.744
221.89552 236.12915 255.744
221.91035 236.13754 255.744
221.90086 236.13216 255.744
221.90245 236.13304 255.744
221.90732 236.1358 255.744
221.91907 236.14243 255.744
221.9194 236.14261 255.744
221.89365 236.12808 255.744
221.9061 236.13512 255.744
221.90916 236.13684 255.744
221.9376 236.1529 255.744
221.9282 236.14755 255.744
221.87943 236.12007 255.744
221.90633 236.13524 255.744
221.91563 236.14049 255.744
221.91235 236.13864 255.744
221.9322 236.14983 255.744
221.89809 236.13058 255.744
221.91766 236.1416 255.744
221.90746 236.13586 255.744
221.90129 236.13239 255.744
221.90446 236.13419 255.744
221.90727 236.13577 255.744
221.91649 236.14098 255.744
221.91025 236.13745 255.744
221.90622 236.13516 255.744
221.91878 236.14227 255.744
221.90295 236.13333 255.744
221.90343 236.13358 255.744
221.92549 236.14607 255.744
221.89835 236.13072 255.744
221.90732 236.13579 255.744
221.90195 236.1328 255.744
221.90837 236.13638 255.744
221.91284 236.13892 255.744
221.90309 236.1334 255.744
221.91277 236.13887 255.744
221.89249 236.12743 255.744
221.9028 236.13324 255.744
221.927 236.14688 255.744
221.91702 236.14125 255.744
221.91753 236.14156 255.744
221.92378 236.14511 255.744
221.8996 236.13144 255.744
221.93073 236.149 255.744
221.91336 236.13919 255.744
221.91484 236.14003 255.744
221.91048 236.13756 255.744
221.92784 236.14734 255.744
221.91818 236.14194 255.744
221.9257 236.1462 255.744
221.91545 236.14037 255.744
221.909 236.13675 255.744
221.91615 236.14078 255.744
221.89864 236.1309 255.744
221.92348 236.14488 255.744
221.92899 236.14803 255.744
221.89874 236.13094 255.744
221.91739 236.14148 255.744
221.89815 236.13065 255.744
221.90422 236.13406 255.744
221.90422 236.13408 255.744
221.90556 236.13481 255.744
221.90988 236.13724 255.744
221.89818 236.13066 255.744
221.91281 236.13887 255.744
221.92352 236.14494 255.744
221.88701 236.12436 255.744
221.8938 236.12816 255.744
221.90233 236.13295 255.744
221.90096 236.13222 255.744
221.90298 236.13335 255.744
221.91559 236.14046 255.744
221.89441 236.12851 255.744
221.9184 236.14203 255.744
221.91331 236.13918 255.744
221.91925 236.14252 255.744
221.91295 236.13898 255.744
221.91507 236.14018 255.744
221.91069 236.13771 255.744
221.89494 236.12881 255.744
221.9156 236.14047 255.744
221.90459 236.13428 255.744
221.92955 236.14832 255.744
221.90282 236.13329 255.744
221.90102 236.13223 255.744
221.90956 236.13705 255.744
221.9216 236.14388 255.744
221.91539 236.14037 255.744
221.92427 236.14534 255.744
221.91034 236.13751 255.744
221.90279 236.13322 255.744
221.90767 236.13599 255.744
221.91139 236.13808 255.744
221.90273 236.13321 255.744
221.88754 236.12465 255.744
221.89674 236.12984 255.744
221.89464 236.12866 255.744
221.92189 236.144 255.744
221.90651 236.13535 255.744
221.912 236.13843 255.744
221.91183 236.13834 255.744
221.89774 236.13039 255.744
221.90291 236.13332 255.744
221.90126 236.13239 255.744
221.90791 236.13611 255.744
221.90245 236.13303 255.744
221.91261 236.1388 255.744
221.93793 236.15302 255.744
221.94872 236.15913 255.744
221.94487 236.15698 255.744
221.94057 236.15456 255.744
221.9228 236.14453 255.744
221.92302 236.14464 255.744
221.93974 236.15408 255.744
221.95842 236.16464 255.744
221.93655 236.15228 255.744
221.93753 236.15285 255.744
221.9289 236.14795 255.744
221.9396 236.154 255.744
221.94417 236.15659 255.744
221.93216 236.14981 255.744
221.92502 236.1458 255.744
221.96112 236.16614 255.744
221.93285 236.15016 255.744
221.94275 236.1558 255.744
221.92154 236.14381 255.744
221.94423 236.15665 255.744
221.92937 236.14822 255.744
221.94276 236.1558 255.744
221.94537 236.15727 255.744
221.93706 236.15256 255.744
221.93822 236.15324 255.744
221.93936 236.15387 255.744
221.95407 236.16214 255.744
221.94333 236.15611 255.744
221.94861 236.15907 255.744
221.9423 236.15553 255.744
221.93242 236.14992 255.744
221.9349 236.15135 255.744
221.92639 236.14658 255.744
221.9405 236.15448 255.744
221.94492 236.157 255.744
221.9251 236.14581 255.744
221.94084 236.15471 255.744
221.93645 236.1522 255.744
221.92776 236.14735 255.744
221.92377 236.14508 255.744
221.94333 236.1561 255.744
221.93285 236.15019 255.744
221.93019 236.1487 255.744
221.9396 236.15398 255.744
221.93196 236.14967 255.744
221.94072 236.15463 255.744
221.94942 236.15952 255.744
221.94612 236.15767 255.744
221.94809 236.15877 255.744
221.94841 236.15898 255.744
221.93542 236.15166 255.744
221.93497 236.15137 255.744
221.93466 236.15121 255.744
221.94229 236.1555 255.744
221.93622 236.1521 255.744
221.94554 236.15733 255.744
221.9418 236.15523 255.744
221.92387 236.14514 255.744
221.93185 236.14963 255.744
221.94609 236.15764 255.744
221.93874 236.15353 255.744
221.94022 236.15434 255.744
221.93797 236.15308 255.744
221.94304 236.15593 255.744
221.94572 236.15742 255.744
221.95494 236.16264 255.744
221.94946 236.15958 255.744
221.94205 236.15536 255.744
221.94049 236.1545 255.744
221.93979 236.15407 255.744
221.95181 236.16086 255.744
221.96301 236.16719 255.744
221.94505 236.15707 255.744
221.96358 236.16751 255.744
221.93443 236.15108 255.744
221.95026 236.15999 255.744
221.94804 236.15877 255.744
221.929 236.14803 255.744
221.94951 236.15958 255.744
221.94562 236.15738 255.744
221.94177 236.15521 255.744
221.94562 236.1574 255.744
221.93678 236.1524 255.744
221.95914 236.16498 255.744
221.95032 236.16003 255.744
221.94234 236.15553 255.744
221.94681 236.15807 255.744
221.92056 236.14328 255.744
221.9395 236.15393 255.744
221.95027 236.16 255.744
221.95105 236.16046 255.744
221.9598 236.16539 255.744
221.94353 236.15625 255.744
221.93407 236.15088 255.744
221.94717 236.15826 255.744
221.94072 236.15465 255.744
221.93729 236.15266 255.744
221.92747 236.14716 255.744
221.92943 236.14825 255.744
221.95686 236.16373 255.744
221.94476 236.15692 255.744
221.94487 236.15695 255.744
221.93672 236.15237 255.744
221.93764 236.15291 255.744
221.94862 236.15907 255.744
221.9526 236.16133 255.744
221.92387 236.14513 255.744
221.942 236.15535 255.744
221.95633 236.16345 255.744
221.93684 236.15242 255.744
221.93628 236.15213 255.744
221.93666 236.15234 255.744
221.94983 236.15976 255.744
221.95442 236.16234 255.744
221.93993 236.15419 255.744
221.93845 236.15334 255.744
221.94627 236.15776 255.744
221.95297 236.16156 255.744
221.93312 236.15034 255.744
221.93654 236.15227 255.744
221.95847 236.16467 255.744
221.9564 236.16348 255.744
221.93008 236.14865 255.744
221.91885 236.14232 255.744
221.92377 236.14507 255.744
221.95198 236.16096 255.744
221.93379 236.15076 255.744
221.96455 236.16808 255.744
221.94073 236.15463 255.744
221.94487 236.15698 255.744
221.94131 236.15498 255.744
221.94315 236.156 255.744
221.9361 236.15202 255.744
221.92494 236.14574 255.744
221.9596 236.16528 255.744
221.96883 236.17049 255.744
221.92714 236.14697 255.744
221.93198 236.14967 255.744
221.93149 236.1494 255.744
221.94637 236.15784 255.744
221.9536 236.1619 255.744
221.93982 236.15414 255.744
221.93251 236.15 255.744
221.94688 236.1581 255.744
221.96022 236.16559 255.744
221.9691 236.17062 255.744
221.93459 236.15114 255.744
221.93611 236.15204 255.744
221.94583 236.15752 255.744
221.935 236.1514 255.744
221.93364 236.15067 255.744
221.95113 236.16049 255.744
221.94261 236.1557 255.744
221.93614 236.15205 255.744
221.93378 236.15071 255.744
221.94261 236.15573 255.744
221.9468 236.15804 255.744
221.93954 236.154 255.744
221.94855 236.15907 255.744
221.9571 236.16386 255.744
221.95566 236.16309 255.744
221.9534 236.16174 255.744
221.93605 236.15201 255.744
221.94519 236.15717 255.744
221.9541 236.16216 255.744
221.94487 236.15697 255.744
221.96158 236.16638 255.744
221.9626 236.16698 255.744
221.9378 236.15298 255.744
221.95088 236.16039 255.744
221.93718 236.15263 255.744
221.9371 236.15259 255.744
221.94772 236.15858 255.744
221.95303 236.16158 255.744
221.94475 236.15692 255.744
221.93077 236.14905 255.744
221.94972 236.15968 255.744
221.94446 236.15671 255.744
221.93073 236.14902 255.744
221.95602 236.16325 255.744
221.96501 236.16832 255.744
221.93465 236.1512 255.744
221.94633 236.1578 255.744
221.96054 236.16579 255.744
221.92969 236.14839 255.744
221.96208 236.16667 255.744
221.96689 236.1694 255.744
221.93489 236.15137 255.744
221.94296 236.1559 255.744
221.95164 236.16078 255.744
221.92758 236.14725 255.744
221.94154 236.15509 255.744
221.95203 236.16098 255.744
221.94887 236.1592 255.744
221.92929 236.14818 255.744
221.94243 236.15558 255.744
221.9376 236.15288 255.744
221.95343 236.1618 255.744
221.92577 236.1462 255.744
221.93088 236.14908 255.744
221.92018 236.14307 255.744
220.34508 234.4591 254.16486
218.74892 232.75752 252.31636
202.0272 214.96394 233.0263
203.72331 216.78767 235.02657
177.92212 189.3301 205.25664
165.64171 176.25966 191.08353
145.25343 154.57643 167.59134
102.70438 109.29906 118.504974
112.50826 119.73183 129.8157
79.542366 84.65587 91.79356
26.507875 28.2151 30.597853
45.916862 48.872173 52.997036
0 0 0
0 0 0
0 0 0
0 0 0
0 0 0
0 0 0
0 0 0
0 0 0
0 0 0
0 0 0
0 0 0
0 0 0
0 0 0
0 0 0
0 0 0
0 0 0
0 0 0
0 0 0
0 0 0
0 0 0
0 0 0
0 0 0
0 0 0
0 0 0
0 0 0
0 0 0
0 0 0
0 0 0
0 0 0
0 0 0
0 0 0
0 0 0
0 0 0
0 0 0
0 0 0
0 0 0
0 0 0
0 0 0
0 0 0
0 0 0
0 0 0
0 0 0
0 0 0
0 0 0
0 0 0
0 0 0
0 0 0
0 0 0
0 0 0
0 0 0
0 0 0
0 0 0
0 0 0
26.505241 28.213615 30.597853
0 0 0
0 0 0
0 0 0
0 0 0
0 0 0
0 0 0
0 0 0
0 0 0
0 0 0
0 0 0
0 0 0
0 0 0
0 0 0
0 0 0
0 0 0
0 0 0
0 0 0
0 0 0
0 0 0
0 0 0
0 0 0
0 0 0
0 0 0
0 0 0
0 0 0
0 0 0
0 0 0
0 0 0
0 0 0
0 0 0
0 0 0
0 0 0
0 0 0
0 0 0
0 0 0
0 0 0
0 0 0
0 0 0
0 0 0
0 0 0
0 0 0
0 0 0
0 0 0
0 0 0
0 0 0
0 0 0
0 0 0
0 0 0
0 0 0
0 0 0
0 0 0
0 0 0
0 0 0
0 0 0
0 0 0
0 0 0
0 0 0
0 0 0
0 0 0
0 0 0
0 0 0
0 0 0
0 0 0
37.489727 39.903263 43.271896
45.91632 48.87187 52.997036
70.145004 74.65677 80.95431
118.58568 126.203674 136.83775
137.7972 146.64279 158.9911
191.26915 203.5286 220.64426
202.01134 214.95499 233.0263
217.11687 231.02979 250.45422
220.35524 234.46486 254.16486
221.93428 236.15099 255.744
221.96465 236.16808 255.744
221.95564 236.16304 255.744
221.95444 236.16235 255.744
221.94261 236.15572 255.744
221.9468 236.15805 255.744
221.97415 236.17346 255.744
221.94936 236.1595 255.744
221.94533 236.15721 255.744
221.95886 236.16486 255.744
221.94958 236.15964 255.744
221.95561 236.16304 255.744
221.94064 236.15456 255.744
221.96356 236.16753 255.744
221.95912 236.16501 255.744
221.94298 236.1559 255.744
221.96422 236.16788 255.744
221.95581 236.16312 255.744
221.93587 236.15192 255.744
221.95277 236.16145 255.744
221.95033 236.16005 255.744
221.93272 236.15012 255.744
221.9519 236.16092 255.744
221.95198 236.16096 255.744
221.9483 236.1589 255.744
221.96468 236.16814 255.744
193.15004 205.50476 222.75572
132.65617 141.14136 152.98926
70.20664 74.69152 80.95431
45.974277 48.90455 52.997036
0 0 0
0 0 0
0 0 0
0 0 0
0 0 0
0 0 0
0 0 0
0 0 0
0 0 0
0 0 0
0 0 0
0 0 0
0 0 0
0 0 0
0 0 0
0 0 0
0 0 0
0 0 0
0 0 0
0 0 0
0 0 0
0 0 0
0 0 0
0 0 0
0 0 0
0 0 0
0 0 0
0 0 0
0 0 0
0 0 0
0 0 0
0 0 0
0 0 0
0 0 0
0 0 0
0 0 0
0 0 0
0 0 0
0 0 0
0 0 0
0 0 0
0 0 0
0 0 0
0 0 0
0 0 0
0 0 0
0 0 0
0 0 0
0 0 0
0 0 0
0 0 0
0 0 0
0 0 0
0 0 0
0 0 0
0 0 0
0 0 0
0 0 0
0 0 0
0 0 0
0 0 0
0 0 0
0 0 0
0 0 0
0 0 0
0 0 0
0 0 0
0 0 0
0 0 0
0 0 0
0 0 0
0 0 0
0 0 0
0 0 0
0 0 0
0 0 0
0 0 0
0 0 0
0 0 0
26.541298 28.233946 30.597853
75.047646 79.84498 86.54379
152.41843 162.16364 175.77129
191.30675 203.54979 220.64426
218.7439 232.75471 252.31636
221.9412 236.15489 255.744
221.95319 236.16167 255.744
221.93716 236.15262 255.744
221.94011 236.15428 255.744
221.9417 236.15518 255.744
221.93272 236.15012 255.744
221.9212 236.14362 255.744
221.9548 236.16257 255.744
221.94754 236.15846 255.744
221.93364 236.15065 255.744
221.93092 236.14911 255.744
221.95538 236.16289 255.744
221.97098 236.17168 255.744
221.94687 236.1581 255.744
221.94739 236.1584 255.744
221.93306 236.15031 255.744
221.92664 236.14664 255.744
221.95152 236.16072 255.744
221.93846 236.15335 255.744
221.92297 236.1446 255.744
221.94061 236.15456 255.744
221.9315 236.14944 255.744
221.94435 236.1567 255.744
221.94336 236.15613 255.744
221.93187 236.14963 255.744
221.93651 236.15228 255.744
221.94504 236.15704 255.744
221.9612 236.16615 255.744
221.95044 236.16013 255.744
221.93073 236.14897 255.744
221.95883 236.16486 255.744
221.94675 236.15802 255.744
221.94608 236.15767 255.744
221.95213 236.16106 255.744
221.93086 236.1491 255.744
221.93501 236.15141 255.744
221.9302 236.1487 255.744
221.92094 236.1435 255.744
221.95831 236.16457 255.744
221.94443 236.15674 255.744
221.94543 236.15727 255.744
221.93416 236.15092 255.744
221.9452 236.15712 255.744
221.9409 236.15474 255.744
221.94698 236.15814 255.744
221.9442 236.15659 255.744
221.93297 236.15025 255.744
221.92462 236.14555 255.744
221.94922 236.15941 255.744
221.94687 236.1581 255.744
221.96097 236.16605 255.744
221.95244 236.16121 255.744
221.93591 236.15192 255.744
221.92497 236.14574 255.744
221.93512 236.15147 255.744
221.92204 236.1441 255.744
221.95595 236.16325 255.744
221.9086 236.13652 255.744
221.93489 236.15137 255.744
221.93906 236.1537 255.744
221.94142 236.15503 255.744
221.92476 236.1456 255.744
221.95712 236.1639 255.744
221.94026 236.15437 255.744
221.9599 236.16545 255.744
221.92688 236.14682 255.744
221.9474 236.15843 255.744
221.95073 236.16026 255.744
221.95067 236.16025 255.744
221.94469 236.15686 255.744
221.9439 236.15642 255.744
221.95274 236.16139 255.744
221.93599 236.15196 255.744
221.94635 236.15779 255.744
221.95888 236.16487 255.744
221.94139 236.15503 255.744
221.91512 236.14021 255.744
221.93729 236.15271 255.744
221.953 236.16156 255.744
221.9316 236.14948 255.744
221.94832 236.1589 255.744
221.9387 236.15349 255.744
221.94057 236.15456 255.744
221.94026 236.15434 255.744
221.94147 236.15506 255.744
221.9364 236.1522 255.744
221.94397 236.15648 255.744
221.93373 236.15068 255.744
221.93608 236.15204 255.744
221.9194 236.14262 255.744
221.93031 236.14876 255.744
221.94469 236.15688 255.744
221.92677 236.14677 255.744
221.93224 236.14984 255.744
221.935 236.1514 255.744
221.94049 236.1545 255.744
221.90971 236.13716 255.744
221.95892 236.16493 255.744
221.95317 236.16165 255.744
221.95975 236.16534 255.744
221.94609 236.15767 255.744
221.9245 236.14551 255.744
221.93364 236.15065 255.744
221.94057 236.15456 255.744
221.9431 236.15594 255.744
221.95114 236.16052 255.744
221.94463 236.15685 255.744
221.94373 236.15631 255.744
221.94608 236.15765 255.744
221.93889 236.1536 255.744
221.92561 236.14612 255.744
221.94542 236.15727 255.744
221.95314 236.16164 255.744
221.94264 236.15572 255.744
221.93265 236.15007 255.744
221.92566 236.14616 255.744
221.93112 236.14922 255.744
221.94366 236.15627 255.744
221.94736 236.15837 255.744
221.9384 236.15334 255.744
221.9512 236.16055 255.744
221.92883 236.14796 255.744
221.96034 236.16568 255.744
221.93098 236.14912 255.744
221.95226 236.16113 255.744
221.9431 236.15598 255.744
221.93805 236.15312 255.744
221.9244 236.14542 255.744
221.9383 236.15326 255.744
221.93977 236.15411 255.744
221.93964 236.15402 255.744
221.94498 236.15704 255.744
221.94026 236.15439 255.744
221.93019 236.1487 255.744
221.95514 236.16275 255.744
221.9454 236.15726 255.744
221.93529 236.15158 255.744
221.94339 236.15613 255.744
221.94585 236.1575 255.744
221.94562 236.1574 255.744
221.9345 236.15112 255.744
221.93332 236.15048 255.744
221.94762 236.15852 255.744
221.93886 236.15358 255.744
221.93803 236.15315 255.744
221.94069 236.15462 255.744
221.91975 236.14282 255.744
221.97542 236.1742 255.744
221.95535 236.16289 255.744
221.95778 236.16426 255.744
221.98085 236.17726 255.744
221.97511 236.17401 255.744
221.97717 236.1752 255.744
221.95676 236.16368 255.744
221.97136 236.17192 255.744
221.9763 236.1747 255.744
221.97318 236.17293 255.744
221.9655 236.1686 255.744
221.95378 236.162 255.744
221.98262 236.17827 255.744
221.98248 236.17818 255.744
221.98344 236.17871 255.744
221.99396 236.18466 255.744
221.98024 236.17691 255.744
221.97 236.17116 255.744
221.95271 236.1614 255.744
221.96379 236.16768 255.744
221.96254 236.16695 255.744
221.96152 236.16637 255.744
221.97699 236.17508 255.744
221.97466 236.1738 255.744
221.97525 236.1741 255.744
221.95834 236.16457 255.744
221.9981 236.18698 255.744
221.97073 236.17151 255.744
221.96748 236.16974 255.744
221.98222 236.17805 255.744
221.96657 236.16919 255.744
221.99315 236.1842 255.744
221.98471 236.17944 255.744
221.96967 236.17097 255.744
221.98256 236.17824 255.744
221.96933 236.17073 255.744
221.98499 236.17958 255.744
221.98207 236.17796 255.744
221.98016 236.17688 255.744
221.98093 236.1773 255.744
221.95894 236.1649 255.744
221.95143 236.16066 255.744
221.97923 236.17635 255.744
221.98364 236.17883 255.744
221.97604 236.17456 255.744
221.98792 236.18124 255.744
222.0052 236.19102 255.744
221.96178 236.1665 255.744
221.9542 236.1622 255.744
221.96913 236.17064 255.744
221.95633 236.16342 255.744
221.9723 236.17241 255.744
221.95859 236.16472 255.744
221.98187 236.17786 255.744
221.94974 236.15971 255.744
221.97797 236.17563 255.744
221.98724 236.18086 255.744
221.96446 236.168 255.744
221.95885 236.16486 255.744
221.97612 236.17459 255.744
221.9716 236.17203 255.744
221.98625 236.18028 255.744
221.96768 236.16983 255.744
221.98755 236.18102 255.744
221.96652 236.16914 255.744
221.96815 236.1701 255.744
221.96875 236.17044 255.744
221.95898 236.16492 255.744
221.9716 236.17206 255.744
221.96828 236.17018 255.744
221.9746 236.17374 255.744
221.96545 236.16856 255.744
221.96977 236.17102 255.744
221.9752 236.17409 255.744
221.95905 236.16496 255.744
221.96486 236.16821 255.744
221.9688 236.17044 255.744
221.97331 236.17299 255.744
221.97125 236.17186 255.744
221.98813 236.1814 255.744
221.97955 236.17654 255.744
221.97356 236.17316 255.744
221.9773 236.17526 255.744
221.9537 236.16196 255.744
221.98422 236.17915 255.744
221.97102 236.17172 255.744
221.95685 236.16374 255.744
221.9711 236.17177 255.744
221.97385 236.17331 255.744
221.99313 236.18417 255.744
221.98438 236.17926 255.744
221.98839 236.1815 255.744
221.95833 236.16457 255.744
221.96051 236.16577 255.744
221.95657 236.16357 255.744
221.97496 236.17397 255.744
221.98161 236.17769 255.744
221.97559 236.17429 255.744
221.97873 236.17606 255.744
221.97162 236.17203 255.744
221.95845 236.1646 255.744
221.97954 236.17654 255.744
221.96558 236.16864 255.744
221.97229 236.17244 255.744
221.99046 236.18268 255.744
221.94585 236.15753 255.744
221.96628 236.16904 255.744
221.988 236.1813 255.744
221.9795 236.1765 255.744
221.98831 236.18146 255.744
221.97299 236.17285 255.744
221.98157 236.17767 255.744
221.96776 236.1699 255.744
221.9524 236.16124 255.744
221.97696 236.17508 255.744
221.97047 236.17142 255.744
221.98116 236.17746 255.744
221.9503 236.16003 255.744
221.98326 236.1786 255.744
221.95891 236.16489 255.744
221.96664 236.16924 255.744
221.98563 236.17996 255.744
221.97638 236.17473 255.744
221.97131 236.17189 255.744
221.95891 236.1649 255.744
221.97018 236.17123 255.744
221.9867 236.18054 255.744
221.96837 236.1702 255.744
221.97491 236.17392 255.744
221.97734 236.17531 255.744
221.97293 236.17279 255.744
221.96439 236.16798 255.744
221.9641 236.16777 255.744
221.97247 236.17252 255.744
221.97412 236.17345 255.744
221.96294 236.16714 255.744
221.98367 236.17883 255.744
221.98816 236.18138 255.744
221.9782 236.17577 255.744
221.96669 236.16928 255.744
221.98062 236.17712 255.744
221.95311 236.16162 255.744
221.96873 236.17044 255.744
221.96622 236.16899 255.744
221.97021 236.17126 255.744
221.98016 236.17688 255.744
221.98357 236.17882 255.744
221.98225 236.17805 255.744
221.98373 236.17886 255.744
221.97127 236.17186 255.744
221.98734 236.18091 255.744
221.9938 236.18454 255.744
221.98569 236.17998 255.744
221.96199 236.16666 255.744
221.98601 236.18018 255.744
221.967 236.16945 255.744
221.97923 236.17635 255.744
221.97087 236.17165 255.744
221.9879 236.18121 255.744
221.98064 236.17715 255.744
221.97903 236.17625 255.744
221.97002 236.17113 255.744
221.97041 236.17136 255.744
221.99055 236.18272 255.744
221.9748 236.17386 255.744
221.98654 236.18048 255.744
221.9824 236.17813 255.744
221.96605 236.16888 255.744
221.96805 236.17003 255.744
221.98607 236.18024 255.744
221.9739 236.17334 255.744
221.98206 236.17796 255.744
221.98419 236.17917 255.744
221.97021 236.17128 255.744
221.97485 236.17389 255.744
221.97424 236.17352 255.744
221.9775 236.17537 255.744
221.97092 236.17166 255.744
221.98154 236.17766 255.744
221.96979 236.17104 255.744
221.97406 236.17345 255.744
221.97897 236.17621 255.744
221.96318 236.16728 255.744
221.97252 236.17256 255.744
221.97171 236.17209 255.744
221.95822 236.16452 255.744
221.97905 236.17624 255.744
221.98611 236.18024 255.744
221.975 236.17398 255.744
221.99706 236.18639 255.744
221.97635 236.17473 255.744
221.99019 236.18253 255.744
221.9706 236.17146 255.744
221.9645 236.16803 255.744
221.9807 236.17715 255.744
221.98842 236.18153 255.744
221.95296 236.16151 255.744
221.96748 236.16974 255.744
221.96408 236.16783 255.744
221.98315 236.17856 255.744
218.7666 232.76753 252.31636
220.38168 234.47978 254.16486
212.23819 225.81956 244.78282
183.78835 195.55685 211.98814
165.66203 176.27112 191.08353
156.92534 166.98064 181.01933
137.82385 146.65782 158.9911
118.60596 126.21511 136.83775
87.952385 93.59904 101.4816
64.9502 69.12356 74.94913
59.28959 63.100006 68.41888
0 0 0
0 0 0
0 0 0
0 0 0
0 0 0
0 0 0
0 0 0
0 0 0
0 0 0
0 0 0
0 0 0
0 0 0
0 0 0
0 0 0
0 0 0
0 0 0
0 0 0
0 0 0
0 0 0
0 0 0
0 0 0
0 0 0
0 0 0
0 0 0
0 0 0
0 0 0
0 0 0
0 0 0
0 0 0
0 0 0
0 0 0
0 0 0
0 0 0
0 0 0
0 0 0
0 0 0
0 0 0
0 0 0
0 0 0
0 0 0
0 0 0
0 0 0
0 0 0
0 0 0
0 0 0
0 0 0
0 0 0
0 0 0
0 0 0
0 0 0
0 0 0
0 0 0
0 0 0
0 0 0
0 0 0
0 0 0
0 0 0
0 0 0
0 0 0
0 0 0
0 0 0
0 0 0
0 0 0
0 0 0
0 0 0
0 0 0
0 0 0
0 0 0
0 0 0
0 0 0
0 0 0
0 0 0
0 0 0
0 0 0
0 0 0
0 0 0
0 0 0
0 0 0
0 0 0
0 0 0
0 0 0
0 0 0
0 0 0
0 0 0
0 0 0
0 0 0
0 0 0
0 0 0
0 0 0
0 0 0
0 0 0
0 0 0
0 0 0
0 0 0
0 0 0
0 0 0
0 0 0
0 0 0
0 0 0
0 0 0
0 0 0
0 0 0
0 0 0
0 0 0
0 0 0
0 0 0
0 0 0
0 0 0
0 0 0
0 0 0
0 0 0
0 0 0
0 0 0
0 0 0
0 0 0
0 0 0
0 0 0
0 0 0
0 0 0
0 0 0
0 0 0
0 0 0
0 0 0
79.54227 84.655815 91.79356
109.349884 116.36491 126.15818
159.14267 169.3444 183.58711
175.96115 187.22984 202.9632
202.02783 214.9643 233.0263
215.52446 229.31834 248.57813
221.98051 236.1771 255.744
221.99043 236.18265 255.744
221.97136 236.17192 255.744
221.96579 236.16878 255.744
221.98933 236.18204 255.744
221.96927 236.17078 255.744
221.97302 236.17284 255.744
222.00294 236.18971 255.744
221.97453 236.17374 255.744
221.98692 236.18071 255.744
221.98193 236.17787 255.744
221.96335 236.16739 255.744
221.98184 236.17781 255.744
221.98982 236.18234 255.744
221.96956 236.1709 255.744
221.99051 236.18271 255.744
221.96881 236.17049 255.744
221.97142 236.17197 255.744
221.97778 236.17554 255.744
221.97993 236.17676 255.744
221.96942 236.1708 255.744
220.38237 234.48015 254.16486
215.56586 229.34169 248.57813
154.6964 164.59431 178.41461
118.68588 126.260185 136.83775
37.538662 39.93086 43.271896
0 0 0
0 0 0
0 0 0
0 0 0
0 0 0
0 0 0
0 0 0
0 0 0
0 0 0
0 0 0
0 0 0
0 0 0
0 0 0
0 0 0
0 0 0
0 0 0
0 0 0
0 0 0
0 0 0
0 0 0
0 0 0
0 0 0
0 0 0
0 0 0
0 0 0
0 0 0
0 0 0
0 0 0
0 0 0
0 0 0
0 0 0
0 0 0
0 0 0
0 0 0
0 0 0
0 0 0
0 0 0
0 0 0
0 0 0
0 0 0
0 0 0
0 0 0
0 0 0
0 0 0
0 0 0
0 0 0
0 0 0
0 0 0
0 0 0
0 0 0
0 0 0
0 0 0
0 0 0
0 0 0
0 0 0
0 0 0
0 0 0
0 0 0
0 0 0
0 0 0
0 0 0
0 0 0
0 0 0
0 0 0
0 0 0
0 0 0
0 0 0
0 0 0
0 0 0
0 0 0
0 0 0
0 0 0
0 0 0
0 0 0
0 0 0
0 0 0
0 0 0
0 0 0
0 0 0
0 0 0
0 0 0
0 0 0
0 0 0
0 0 0
0 0 0
26.539312 28.232826 30.597853
99.29043 105.6316 114.48668
161.39665 171.71346 186.11948
207.20976 220.46658 238.97687
220.39584 234.48773 254.16486
221.96326 236.16734 255.744
221.96889 236.1705 255.744
221.9578 236.16426 255.744
221.97227 236.17245 255.744
221.96089 236.166 255.744
221.97737 236.1753 255.744
221.99496 236.18523 255.744
221.96692 236.1694 255.744
221.9469 236.1581 255.744
221.97672 236.17491 255.744
221.96643 236.16913 255.744
221.97266 236.17262 255.744
221.98557 236.17992 255.744
221.979 236.17624 255.744
221.9742 236.1735 255.744
221.97469 236.17378 255.744
221.98698 236.18068 255.744
221.97133 236.17189 255.744
221.97603 236.17451 255.744
221.95703 236.16383 255.744
221.98282 236.17838 255.744
221.98042 236.17702 255.744
221.93547 236.15167 255.744
221.98476 236.17947 255.744
221.98915 236.18193 255.744
221.9604 236.16571 255.744
221.97125 236.17181 255.744
221.97542 236.17421 255.744
221.98465 236.17938 255.744
221.97716 236.17517 255.744
221.98157 236.17766 255.744
221.94762 236.15852 255.744
221.97015 236.17122 255.744
221.9745 236.17369 255.744
221.98184 236.17783 255.744
221.98192 236.17787 255.744
221.97627 236.17465 255.744
221.9821 236.17796 255.744
221.96156 236.1664 255.744
221.98293 236.17845 255.744
221.9674 236.16968 255.744
221.99423 236.18483 255.744
221.96123 236.1662 255.744
221.96527 236.16847 255.744
221.96548 236.16861 255.744
221.97891 236.17618 255.744
221.96432 236.16795 255.744
221.9842 236.17915 255.744
221.97383 236.1733 255.744
221.96992 236.1711 255.744
221.96257 236.16695 255.744
221.97974 236.17662 255.744
221.95766 236.16418 255.744
221.95996 236.1655 255.744
221.9693 236.17076 255.744
221.99075 236.18286 255.744
222.00456 236.1906 255.744
221.97299 236.17284 255.744
221.96198 236.1666 255.744
221.96613 236.16896 255.744
221.97694 236.17506 255.744
221.98718 236.18085 255.744
221.97934 236.17642 255.744
221.98608 236.18019 255.744
221.9856 236.1799 255.744
221.9728 236.17274 255.744
221.97704 236.17508 255.744
221.98178 236.17778 255.744
221.9671 236.16951 255.744
221.96138 236.16628 255.744
221.98155 236.17767 255.744
221.96318 236.1673 255.744
221.9894 236.18207 255.744
221.968 236.17001 255.744
221.96007 236.16554 255.744
221.97926 236.17635 255.744
221.9761 236.1746 255.744
221.95854 236.16466 255.744
221.96362 236.16754 255.744
221.97339 236.17305 255.744
221.96031 236.1657 255.744
221.97485 236.17381 255.744
221.95107 236.16048 255.744
221.9683 236.1702 255.744
221.97095 236.17169 255.744
221.96918 236.17068 255.744
221.98466 236.17938 255.744
221.94173 236.15518 255.744
221.966 236.1689 255.744
221.95618 236.16335 255.744
221.95638 236.16347 255.744
221.9762 236.17464 255.744
221.97604 236.17455 255.744
221.94446 236.15672 255.744
221.99745 236.1866 255.744
221.98341 236.17871 255.744
221.97878 236.1761 255.744
221.98381 236.17896 255.744
221.98016 236.1769 255.744
221.9547 236.1625 255.744
221.98694 236.18068 255.744
221.94743 236.15842 255.744
221.97964 236.17657 255.744
221.97769 236.17549 255.744
221.96364 236.16754 255.744
221.98209 236.17798 255.744
221.96288 236.16713 255.744
221.98155 236.17766 255.744
221.9646 236.16808 255.744
221.95633 236.16342 255.744
221.97162 236.17204 255.744
221.97644 236.17477 255.744
221.96877 236.17046 255.744
221.94894 236.15927 255.744
221.96506 236.16833 255.744
221.97939 236.17644 255.744
221.96854 236.1703 255.744
221.96725 236.16959 255.744
221.9673 236.1696 255.744
221.96161 236.1664 255.744
221.97673 236.17491 255.744
221.96301 236.1672 255.744
221.95819 236.16449 255.744
221.95302 236.16154 255.744
221.96745 236.1697 255.744
221.9569 236.16374 255.744
221.9666 236.1692 255.744
221.97243 236.1725 255.744
221.98038 236.17699 255.744
221.95374 236.16199 255.744
221.98515 236.1797 255.744
221.96541 236.16855 255.744
221.98543 236.17986 255.744
221.95984 236.16542 255.744
221.97134 236.17188 255.744
221.98598 236.18016 255.744
221.9536 236.16191 255.744
221.96765 236.16982 255.744
221.98064 236.17712 255.744
221.97345 236.17308 255.744
221.95912 236.16502 255.744
221.98819 236.18143 255.744
221.96634 236.1691 255.744
221.97766 236.17549 255.744
221.99423 236.18481 255.744
222.01964 236.19913 255.744
221.99942 236.18771 255.744
222.01375 236.19582 255.744
221.99866 236.18732 255.744
221.99611 236.18588 255.744
222.02756 236.20361 255.744
221.99216 236.18364 255.744
221.98068 236.17714 255.744
221.9975 236.18663 255.744
221.98044 236.17702 255.744
222.01297 236.19537 255.744
221.99554 236.18555 255.744
221.99887 236.18742 255.744
221.99857 236.18727 255.744
222.01831 236.19841 255.744
221.97224 236.17241 255.744
221.99107 236.18303 255.744
221.99731 236.18652 255.744
222.00032 236.18823 255.744
222.0054 236.1911 255.744
222.01544 236.19678 255.744
221.99097 236.18298 255.744
221.98663 236.18054 255.744
221.99744 236.18661 255.744
222.00552 236.19121 255.744
221.99565 236.1856 255.744
221.99107 236.18303 255.744
222.01352 236.19568 255.744
221.99551 236.18555 255.744
221.99475 236.1851 255.744
222.02345 236.20128 255.744
222.01515 236.19661 255.744
222.00897 236.19313 255.744
221.99977 236.18793 255.744
221.99083 236.18288 255.744
221.98935 236.18207 255.744
222.01472 236.19638 255.744
221.97433 236.17357 255.744
222.00095 236.18863 255.744
221.99692 236.18633 255.744
221.98842 236.18155 255.744
222.0064 236.19167 255.744
221.99434 236.18486 255.744
222.01521 236.19662 255.744
222.00171 236.18904 255.744
222.00514 236.191 255.744
222.027 236.20326 255.744
221.99818 236.18701 255.744
221.99095 236.18298 255.744
222.01894 236.19873 255.744
222.00285 236.18968 255.744
222.00664 236.19182 255.744
222.0064 236.19167 255.744
222.0102 236.19379 255.744
222.01721 236.19778 255.744
221.99129 236.18315 255.744
222.00302 236.18977 255.744
222.00534 236.19109 255.744
222.00632 236.19162 255.744
222.00685 236.19194 255.744
221.98682 236.1806 255.744
221.99155 236.18329 255.744
221.99995 236.18802 255.744
222.00946 236.19339 255.744
221.99533 236.18544 255.744
221.99619 236.18594 255.744
221.98192 236.17787 255.744
222.00992 236.19366 255.744
222.01503 236.19652 255.744
222.00128 236.18878 255.744
221.99704 236.18639 255.744
222.00752 236.19232 255.744
222.00314 236.18983 255.744
222.01093 236.19423 255.744
222.01605 236.19711 255.744
222.0194 236.199 255.744
221.9852 236.17972 255.744
221.99194 236.18353 255.744
221.99039 236.18263 255.744
221.99681 236.18625 255.744
222.01038 236.19392 255.744
222.01407 236.196 255.744
221.98279 236.17838 255.744
221.99214 236.1836 255.744
222.00722 236.19211 255.744
222.01572 236.19693 255.744
221.99509 236.1853 255.744
221.99493 236.18521 255.744
222.0147 236.19633 255.744
222.01608 236.19714 255.744
221.98868 236.18166 255.744
221.98418 236.17915 255.744
222.01767 236.19803 255.744
222.00952 236.19342 255.744
222.00813 236.19266 255.744
222.01744 236.19789 255.744
222.00354 236.19008 255.744
222.0144 236.1962 255.744
221.9955 236.1855 255.744
222.0111 236.19427 255.744
222.01363 236.19576 255.744
221.97688 236.17502 255.744
222.00052 236.18835 255.744
222.00851 236.19284 255.744
221.99847 236.18721 255.744
222.00261 236.18951 255.744
222.01411 236.19601 255.744
222.01471 236.19635 255.744
222.01173 236.19467 255.744
221.99678 236.18626 255.744
222.02399 236.20158 255.744
222.02762 236.20364 255.744
222.0141 236.196 255.744
222.02736 236.2035 255.744
222.00981 236.1936 255.744
222.00497 236.1909 255.744
221.99779 236.1868 255.744
221.99913 236.18756 255.744
222.00372 236.19017 255.744
222.01125 236.19438 255.744
222.00668 236.19182 255.744
222.01549 236.1968 255.744
222.02895 236.20439 255.744
222.00719 236.19211 255.744
222.0222 236.20056 255.744
222.00392 236.19028 255.744
221.99368 236.1845 255.744
221.98419 236.17917 255.744
222.01947 236.19905 255.744
222.00992 236.19365 255.744
222.0098 236.19359 255.744
222.00383 236.19023 255.744
222.01321 236.19551 255.744
222.01524 236.19669 255.744
221.99489 236.18518 255.744
222.0013 236.1888 255.744
222.00671 236.19183 255.744
222.01866 236.19858 255.744
222.00049 236.18835 255.744
221.99911 236.18756 255.744
222.0052 236.19101 255.744
221.98694 236.18073 255.744
222.02266 236.20085 255.744
222.00363 236.19011 255.744
222.00395 236.19029 255.744
222.00558 236.19121 255.744
222.00607 236.19148 255.744
222.0113 236.19444 255.744
222.00056 236.18842 255.744
221.99844 236.1872 255.744
222.02821 236.204 255.744
222.01804 236.19823 255.744
222.01733 236.19783 255.744
221.99518 236.18536 255.744
222.01387 236.19589 255.744
222.00185 236.1891 255.744
222.01158 236.19458 255.744
222.02118 236.2 255.744
221.99991 236.18805 255.744
222.01122 236.19438 255.744
222.01132 236.19446 255.744
222.00826 236.19275 255.744
222.00697 236.19202 255.744
222.01015 236.19379 255.744
222.00725 236.19215 255.744
221.9987 236.18733 255.744
222.0086 236.1929 255.744
222.01865 236.1986 255.744
222.0061 236.1915 255.744
221.99132 236.18317 255.744
222.00833 236.19275 255.744
222.01033 236.19388 255.744
222.01553 236.19681 255.744
222.01767 236.19803 255.744
222.02127 236.20009 255.744
221.97897 236.1762 255.744
222.00066 236.18842 255.744
222.00754 236.19229 255.744
222.01271 236.19522 255.744
222.01558 236.19685 255.744
221.99677 236.18625 255.744
222.01732 236.19781 255.744
222.00957 236.19345 255.744
222.03084 236.20547 255.744
222.01375 236.1958 255.744
222.00241 236.18945 255.744
222.01247 236.19511 255.744
222.00673 236.19186 255.744
221.99112 236.18301 255.744
222.01039 236.19394 255.744
222.01274 236.19524 255.744
222.01413 236.19601 255.744
222.0104 236.19392 255.744
222.00331 236.1899 255.744
222.01834 236.1984 255.744
221.98233 236.17809 255.744
222.00627 236.19159 255.744
222.01277 236.19527 255.744
218.80264 232.78783 252.31636
213.92113 227.59459 246.68777
198.56369 211.25351 228.97336
167.77925 178.52054 193.5178
150.07242 159.67706 173.08759
142.84444 151.99663 164.77448
95.634056 101.764 110.32213
79.55964 84.66561 91.79356
64.968025 69.133606 74.94913
0 0 0
0 0 0
0 0 0
0 0 0
0 0 0
0 0 0
0 0 0
0 0 0
0 0 0
0 0 0
0 0 0
0 0 0
0 0 0
0 0 0
0 0 0
0 0 0
0 0 0
0 0 0
0 0 0
0 0 0
0 0 0
0 0 0
0 0 0
0 0 0
0 0 0
0 0 0
0 0 0
0 0 0
0 0 0
0 0 0
0 0 0
0 0 0
0 0 0
0 0 0
0 0 0
0 0 0
0 0 0
0 0 0
0 0 0
0 0 0
0 0 0
0 0 0
0 0 0
0 0 0
0 0 0
0 0 0
0 0 0
0 0 0
0 0 0
0 0 0
0 0 0
0 0 0
0 0 0
0 0 0
0 0 0
0 0 0
0 0 0
0 0 0
0 0 0
0 0 0
0 0 0
0 0 0
0 0 0
0 0 0
0 0 0
0 0 0
0 0 0
0 0 0
0 0 0
0 0 0
0 0 0
0 0 0
0 0 0
0 0 0
0 0 0
0 0 0
0 0 0
0 0 0
0 0 0
0 0 0
0 0 0
0 0 0
0 0 0
0 0 0
0 0 0
0 0 0
0 0 0
0 0 0
0 0 0
0 0 0
0 0 0
0 0 0
0 0 0
0 0 0
0 0 0
0 0 0
0 0 0
0 0 0
0 0 0
0 0 0
0 0 0
0 0 0
0 0 0
0 0 0
0 0 0
0 0 0
0 0 0
0 0 0
0 0 0
0 0 0
0 0 0
0 0 0
0 0 0
0 0 0
0 0 0
0 0 0
0 0 0
0 0 0
0 0 0
0 0 0
0 0 0
0 0 0
0 0 0
0 0 0
0 0 0
0 0 0
0 0 0
37.503143 39.91083 43.271896
64.95893 69.12848 74.94913
87.97773 93.61332 101.4816
142.85194 152.00085 164.77448
175.98346 187.24242 202.9632
200.31941 213.12608 231.00871
217.17284 231.06137 250.45422
221.99675 236.18623 255.744
222.01312 236.19548 255.744
222.03075 236.20538 255.744
222.01105 236.1943 255.744
222.00919 236.19325 255.744
222.0156 236.19684 255.744
222.0223 236.2006 255.744
222.00287 236.18968 255.744
221.99397 236.18466 255.744
222.01323 236.19551 255.744
222.0147 236.19635 255.744
222.00467 236.1907 255.744
222.01245 236.19511 255.744
222.02644 236.20296 255.744
222.00865 236.19293 255.744
222.01306 236.19543 255.744
222.0198 236.19923 255.744
222.02426 236.20172 255.744
200.35725 213.14745 231.00871
145.35822 154.63554 167.59134
53.102867 56.47933 61.195705
0 0 0
0 0 0
0 0 0
0 0 0
0 0 0
0 0 0
0 0 0
0 0 0
0 0 0
0 0 0
0 0 0
0 0 0
0 0 0
0 0 0
0 0 0
0 0 0
0 0 0
0 0 0
0 0 0
0 0 0
0 0 0
0 0 0
0 0 0
0 0 0
0 0 0
0 0 0
0 0 0
0 0 0
0 0 0
0 0 0
0 0 0
0 0 0
0 0 0
0 0 0
0 0 0
0 0 0
0 0 0
0 0 0
0 0 0
0 0 0
0 0 0
0 0 0
0 0 0
0 0 0
0 0 0
0 0 0
0 0 0
0 0 0
0 0 0
0 0 0
0 0 0
0 0 0
0 0 0
0 0 0
0 0 0
0 0 0
0 0 0
0 0 0
0 0 0
0 0 0
0 0 0
0 0 0
0 0 0
0 0 0
0 0 0
0 0 0
0 0 0
0 0 0
0 0 0
0 0 0
0 0 0
0 0 0
0 0 0
0 0 0
0 0 0
0 0 0
0 0 0
0 0 0
0 0 0
0 0 0
0 0 0
0 0 0
0 0 0
0 0 0
0 0 0
0 0 0
0 0 0
0 0 0
0 0 0
0 0 0
0 0 0
75.088776 79.86817 86.54379
131.89473 140.02826 151.45164
187.64789 199.6287 216.3595
221.98042 236.177 255.744
222.0099 236.19363 255.744
222.00313 236.18982 255.744
221.9991 236.18758 255.744
222.00146 236.18889 255.744
222.01552 236.19682 255.744
222.023 236.20103 255.744
222.00186 236.1891 255.744
222.00842 236.19281 255.744
222.01297 236.1954 255.744
221.98729 236.18088 255.744
222.0147 236.19635 255.744
222.02243 236.2007 255.744
222.01613 236.19714 255.744
221.99602 236.1858 255.744
222.00581 236.19136 255.744
222.00818 236.19269 255.744
221.99988 236.18794 255.744
221.99754 236.18668 255.744
222.00418 236.19041 255.744
222.0198 236.19922 255.744
222.03627 236.20851 255.744
222.00943 236.19336 255.744
222.00732 236.19217 255.744
222.0033 236.18993 255.744
222.01347 236.19565 255.744
221.99214 236.18364 255.744
222.012 236.19487 255.744
222.00346 236.19003 255.744
222.00221 236.18932 255.744
222.00845 236.19281 255.744
222.00626 236.19159 255.744
222.02136 236.20015 255.744
221.99551 236.18555 255.744
222.00906 236.19316 255.744
222.00209 236.18924 255.744
222.00922 236.19327 255.744
222.01828 236.19835 255.744
222.00502 236.1909 255.744
222.01854 236.1985 255.744
222.02174 236.20033 255.744
222.00352 236.19005 255.744
222.00256 236.18951 255.744
222.01656 236.19739 255.744
222.00165 236.189 255.744
222.00136 236.18884 255.744
221.99118 236.18307 255.744
222.00433 236.1905 255.744
221.9945 236.18498 255.744
222.0068 236.1919 255.744
221.99503 236.18526 255.744
222.00749 236.19229 255.744
222.00674 236.19186 255.744
222.00021 236.18817 255.744
221.99626 236.18596 255.744
222.00743 236.19226 255.744
222.00409 236.19038 255.744
221.98683 236.18063 255.744
221.99516 236.18535 255.744
222.00433 236.19048 255.744
222.00558 236.19122 255.744
221.99936 236.18774 255.744
221.98598 236.18016 255.744
222.00763 236.1924 255.744
222.00848 236.19281 255.744
221.9992 236.18765 255.744
222.00697 236.19199 255.744
221.99187 236.18347 255.744
221.98901 236.18187 255.744
222.01505 236.19656 255.744
222.01488 236.19644 255.744
221.99706 236.18639 255.744
222.00578 236.19131 255.744
222.00049 236.18834 255.744
222.01265 236.19519 255.744
221.99939 236.18773 255.744
222.00366 236.19011 255.744
221.99876 236.18736 255.744
222.01306 236.19542 255.744
221.99396 236.18462 255.744
221.98914 236.18192 255.744
221.99539 236.18547 255.744
222.00267 236.18954 255.744
222.00117 236.1887 255.744
222.00543 236.19112 255.744
222.01102 236.19426 255.744
222.00778 236.19243 255.744
221.99553 236.18549 255.744
221.99696 236.18637 255.744
222.00325 236.18988 255.744
222.00467 236.19072 255.744
221.991 236.18298 255.744
221.9928 236.18402 255.744
221.98314 236.17857 255.744
222.02272 236.20085 255.744
222.0013 236.1888 255.744
221.98589 236.18008 255.744
221.99068 236.18283 255.744
222.01472 236.19637 255.744
222.00839 236.1928 255.744
222.01068 236.19409 255.744
221.99928 236.18765 255.744
221.9987 236.18732 255.744
222.00653 236.19174 255.744
221.99316 236.18419 255.744
221.99614 236.18587 255.744
222.00917 236.19324 255.744
221.99808 236.187 255.744
222.00673 236.19186 255.744
222.00395 236.19032 255.744
221.99869 236.18733 255.744
222.00974 236.19356 255.744
222.00919 236.19324 255.744
222.0061 236.19148 255.744
221.99666 236.18617 255.744
221.98636 236.18036 255.744
221.99994 236.18802 255.744
221.99307 236.18413 255.744
221.98132 236.17752 255.744
222.0207 236.19975 255.744
222.01169 236.19466 255.744
221.99174 236.18343 255.744
222.00238 236.1894 255.744
222.00446 236.19058 255.744
221.97481 236.17384 255.744
222.00938 236.19334 255.744
221.99849 236.18721 255.744
222.01096 236.19427 255.744
222.01045 236.19392 255.744
222.00157 236.18895 255.744
221.99338 236.18436 255.744
222.01405 236.196 255.744
221.98999 236.18239 255.744
222.00925 236.19327 255.744
222.00888 236.19308 255.744
221.99353 236.1844 255.744
221.97919 236.17636 255.744
221.99062 236.18277 255.744
222.0075 236.19228 255.744
221.9899 236.18234 255.744
221.98563 236.17998 255.744
222.01001 236.19366 255.744
222.00404 236.19034 255.744
222.00377 236.1902 255.744
222.02426 236.20177 255.744
222.03023 236.20511 255.744
222.02193 236.20042 255.744
222.02982 236.2049 255.744
222.03975 236.2105 255.744
222.01465 236.19633 255.744
222.03088 236.20549 255.744
222.03105 236.20558 255.744
222.04222 236.21187 255.744
222.02164 236.2003 255.744
222.05125 236.21695 255.744
222.03831 236.20969 255.744
222.02274 236.2009 255.744
222.03198 236.2061 255.744
222.02757 236.20361 255.744
222.02763 236.20364 255.744
222.03157 236.20586 255.744
222.0368 236.20883 255.744
222.03482 236.2077 255.744
222.04875 236.21556 255.744
222.04689 236.2145 255.744
222.04013 236.21068 255.744
222.0333 236.20683 255.744
222.01808 236.19826 255.744
222.02757 236.20361 255.744
222.03966 236.21042 255.744
222.03339 236.20688 255.744
222.04475 236.21332 255.744
222.0115 236.19453 255.744
222.01775 236.19806 255.744
222.03879 236.20995 255.744
222.02194 236.20042 255.744
222.00475 236.19073 255.744
222.02582 236.20258 255.744
222.04497 236.21341 255.744
222.02539 236.20238 255.744
222.03085 236.20546 255.744
222.02312 236.2011 255.744
222.01773 236.19806 255.744
222.0438 236.21278 255.744
222.03374 236.20712 255.744
222.05585 236.21953 255.744
222.03001 236.20499 255.744
222.01875 236.19865 255.744
222.04276 236.21217 255.744
222.0427 236.21216 255.744
222.0303 236.20512 255.744
222.0321 236.20613 255.744
222.04048 236.21086 255.744
222.02274 236.20087 255.744
222.03918 236.21011 255.744
222.03107 236.2056 255.744
222.02457 236.20193 255.744
222.03317 236.20676 255.744
222.02693 236.20325 255.744
222.03308 236.20671 255.744
222.02585 236.20265 255.744
222.04097 236.21118 255.744
222.01958 236.19911 255.744
222.06532 236.22488 255.744
222.03098 236.2055 255.744
222.03073 236.20538 255.744
222.02504 236.20218 255.744
222.03423 236.20737 255.744
222.03053 236.20528 255.744
222.04065 236.21098 255.744
222.02698 236.2033 255.744
222.03067 236.20534 255.744
222.04971 236.21611 255.744
222.03197 236.20609 255.744
222.0379 236.20943 255.744
222.0516 236.21718 255.744
222.04044 236.21085 255.744
222.04504 236.21346 255.744
222.0531 236.218 255.744
222.03865 236.20988 255.744
222.04813 236.21524 255.744
222.03955 236.21034 255.744
222.04892 236.21565 255.744
222.03578 236.20825 255.744
222.0245 236.20186 255.744
222.03313 236.20673 255.744
222.0317 236.20592 255.744
222.01581 236.19695 255.744
222.03938 236.2103 255.744
222.03377 236.20709 255.744
222.0384 236.20972 255.744
222.03873 236.20992 255.744
222.02162 236.20027 255.744
222.02571 236.20258 255.744
222.0442 236.21298 255.744
222.01892 236.19878 255.744
222.02888 236.20433 255.744
222.04239 236.21199 255.744
222.03435 236.20744 255.744
222.0454 236.21367 255.744
222.03249 236.20638 255.744
222.02351 236.20132 255.744
222.04303 236.21233 255.744
222.03532 236.20795 255.744
222.03206 236.20613 255.744
222.02742 236.20354 255.744
222.02875 236.20427 255.744
222.0465 236.2143 255.744
222.03824 236.20963 255.744
222.03055 236.20529 255.744
222.0367 236.20874 255.744
222.03271 236.20651 255.744
222.03766 236.2093 255.744
222.04475 236.21332 255.744
222.0376 236.20927 255.744
222.04158 236.2115 255.744
222.04234 236.21198 255.744
222.04297 236.2123 255.744
222.03703 236.20892 255.744
222.01613 236.19719 255.744
222.02641 236.20296 255.744
222.03735 236.2091 255.744
222.02493 236.20212 255.744
222.02399 236.20158 255.744
222.03091 236.20547 255.744
222.02501 236.20213 255.744
222.02905 236.2044 255.744
222.0193 236.19893 255.744
222.00719 236.19212 255.744
222.01933 236.19897 255.744
222.04698 236.21455 255.744
222.01945 236.19902 255.744
222.03731 236.20912 255.744
222.0379 236.20941 255.744
222.04161 236.21153 255.744
222.02513 236.20222 255.744
222.0408 236.2111 255.744
222.05702 236.22021 255.744
222.02571 236.20256 255.744
222.05804 236.22083 255.744
222.02618 236.20282 255.744
222.0405 236.21092 255.744
222.04858 236.21547 255.744
222.02727 236.20343 255.744
222.0322 236.2062 255.744
222.04153 236.21149 255.744
222.04996 236.21623 255.744
222.04097 236.21121 255.744
222.05162 236.21718 255.744
222.0281 236.2039 255.744
222.04475 236.21329 255.744
222.03232 236.2063 255.744
222.03355 236.20699 255.744
222.04259 236.2121 255.744
222.04753 236.21486 255.744
222.04266 236.21208 255.744
222.04237 236.21194 255.744
222.05138 236.21709 255.744
222.03442 236.20747 255.744
222.04243 236.21199 255.744
222.02838 236.20409 255.744
222.05782 236.22069 255.744
222.04126 236.21132 255.744
222.04985 236.21614 255.744
222.03105 236.2056 255.744
222.0361 236.20845 255.744
222.066 236.22528 255.744
222.05275 236.21777 255.744
222.0313 236.20569 255.744
222.05597 236.2196 255.744
222.03905 236.21007 255.744
222.0365 236.20863 255.744
222.07594 236.23088 255.744
222.01688 236.19756 255.744
222.03821 236.20961 255.744
222.0492 236.2158 255.744
222.05391 236.21844 255.744
222.0272 236.2034 255.744
222.02814 236.20398 255.744
222.04729 236.21477 255.744
222.04416 236.21295 255.744
222.03856 236.20985 255.744
222.04521 236.21356 255.744
222.02003 236.19937 255.744
222.02603 236.20274 255.744
222.05879 236.22124 255.744
222.0547 236.21892 255.744
222.045 236.21346 255.744
222.04459 236.21318 255.744
222.04698 236.21457 255.744
222.01508 236.19656 255.744
222.05855 236.22108 255.744
222.0364 236.2086 255.744
222.03807 236.20955 255.744
222.04092 236.21114 255.744
222.02951 236.20468 255.744
222.0268 236.20316 255.744
222.0587 236.22118 255.744
222.01404 236.19597 255.744
222.03317 236.20679 255.744
222.03229 236.2063 255.744
220.4575 234.52252 254.16486
208.93994 222.2881 240.92773
189.49751 201.60518 218.51237
171.9512 182.94527 198.29675
140.38815 149.36888 161.90862
124.44537 132.40393 143.51665
102.728355 109.31257 118.504974
75.02789 79.83384 86.54379
37.506573 39.91276 43.271896
0 0 0
0 0 0
0 0 0
0 0 0
0 0 0
0 0 0
0 0 0
0 0 0
0 0 0
0 0 0
0 0 0
0 0 0
0 0 0
0 0 0
0 0 0
0 0 0
0 0 0
0 0 0
0 0 0
0 0 0
0 0 0
0 0 0
0 0 0
0 0 0
0 0 0
0 0 0
0 0 0
0 0 0
0 0 0
0 0 0
0 0 0
0 0 0
0 0 0
0 0 0
0 0 0
0 0 0
0 0 0
0 0 0
0 0 0
0 0 0
0 0 0
0 0 0
0 0 0
0 0 0
0 0 0
0 0 0
0 0 0
0 0 0
0 0 0
0 0 0
0 0 0
0 0 0
0 0 0
0 0 0
0 0 0
0 0 0
0 0 0
0 0 0
0 0 0
0 0 0
0 0 0
0 0 0
0 0 0
0 0 0
0 0 0
0 0 0
0 0 0
0 0 0
0 0 0
0 0 0
0 0 0
0 0 0
0 0 0
0 0 0
0 0 0
0 0 0
0 0 0
0 0 0
0 0 0
0 0 0
0 0 0
0 0 0
0 0 0
0 0 0
0 0 0
0 0 0
0 0 0
0 0 0
0 0 0
0 0 0
0 0 0
0 0 0
0 0 0
0 0 0
0 0 0
0 0 0
0 0 0
0 0 0
0 0 0
0 0 0
0 0 0
0 0 0
0 0 0
0 0 0
0 0 0
0 0 0
0 0 0
0 0 0
0 0 0
0 0 0
0 0 0
0 0 0
0 0 0
0 0 0
0 0 0
0 0 0
0 0 0
0 0 0
0 0 0
0 0 0
0 0 0
0 0 0
0 0 0
0 0 0
0 0 0
0 0 0
0 0 0
0 0 0
0 0 0
0 0 0
0 0 0
75.01954 79.82913 86.54379
132.63103 141.12717 152.98926
156.95438 166.99702 181.01933
183.82043 195.57497 211.98814
208.96277 222.301 240.92773
220.426 234.50476 254.16486
222.03326 236.2068 255.744
222.0337 236.20708 255.744
222.04527 236.21358 255.744
222.04724 236.2147 255.744
222.02585 236.20264 255.744
222.03958 236.2104 255.744
222.0489 236.21564 255.744
222.0398 236.21051 255.744
222.0335 236.20695 255.744
222.02145 236.20016 255.744
222.03197 236.2061 255.744
222.02547 236.20245 255.744
222.03636 236.20856 255.744
218.86226 232.82147 252.31636
198.6019 211.27505 228.97336
121.64401 129.3935 140.21698
45.982983 48.90946 52.997036
0 0 0
0 0 0
0 0 0
0 0 0
0 0 0
0 0 0
0 0 0
0 0 0
0 0 0
0 0 0
0 0 0
0 0 0
0 0 0
0 0 0
0 0 0
0 0 0
0 0 0
0 0 0
0 0 0
0 0 0
0 0 0
0 0 0
0 0 0
0 0 0
0 0 0
0 0 0
0 0 0
0 0 0
0 0 0
0 0 0
0 0 0
0 0 0
0 0 0
0 0 0
0 0 0
0 0 0
0 0 0
0 0 0
0 0 0
0 0 0
0 0 0
0 0 0
0 0 0
0 0 0
0 0 0
0 0 0
0 0 0
0 0 0
0 0 0
0 0 0
0 0 0
0 0 0
0 0 0
0 0 0
0 0 0
0 0 0
0 0 0
0 0 0
0 0 0
0 0 0
0 0 0
0 0 0
0 0 0
0 0 0
0 0 0
0 0 0
0 0 0
0 0 0
0 0 0
0 0 0
0 0 0
0 0 0
0 0 0
0 0 0
0 0 0
0 0 0
0 0 0
0 0 0
0 0 0
0 0 0
0 0 0
0 0 0
0 0 0
0 0 0
0 0 0
0 0 0
0 0 0
0 0 0
0 0 0
0 0 0
0 0 0
0 0 0
0 0 0
0 0 0
0 0 0
53.108406 56.482452 61.195705
112.6049 119.78632 129.8157
179.42545 190.65865 206.3938
218.856 232.81792 252.31636
222.03807 236.20953 255.744
222.02487 236.20207 255.744
222.03046 236.20522 255.744
222.04642 236.21423 255.744
222.04642 236.21425 255.744
222.03514 236.20789 255.744
222.03766 236.20926 255.744
222.05708 236.22025 255.744
222.01546 236.1968 255.744
222.04529 236.21358 255.744
222.05132 236.21698 255.744
222.03387 236.20718 255.744
222.04926 236.21584 255.744
222.02951 236.2047 255.744
222.0464 236.2142 255.744
222.02477 236.20203 255.744
222.05005 236.21631 255.744
222.03973 236.21045 255.744
222.03856 236.20981 255.744
222.02673 236.20314 255.744
222.05074 236.21667 255.744
222.03 236.20499 255.744
222.0386 236.20984 255.744
222.02538 236.20236 255.744
222.06567 236.2251 255.744
222.04106 236.21121 255.744
222.04457 236.21321 255.744
222.02591 236.20267 255.744
222.03438 236.20746 255.744
222.02875 236.20427 255.744
222.02448 236.20186 255.744
222.03624 236.2085 255.744
222.03531 236.20798 255.744
222.03658 236.20868 255.744
222.04077 236.21107 255.744
222.03659 236.20871 255.744
222.03687 236.20886 255.744
222.0386 236.20982 255.744
222.03833 236.20969 255.744
222.02567 236.20255 255.744
222.02235 236.20065 255.744
222.02466 236.20198 255.744
222.02322 236.20116 255.744
222.02927 236.20457 255.744
222.03877 236.20996 255.744
222.0398 236.21051 255.744
222.03561 236.20816 255.744
222.0433 236.2125 255.744
222.03668 236.20877 255.744
222.05211 236.21744 255.744
222.03372 236.20706 255.744
222.03482 236.20767 255.744
222.03761 236.20927 255.744
222.03008 236.20502 255.744
222.02968 236.2048 255.744
222.02412 236.20169 255.744
222.05016 236.21632 255.744
222.03745 236.20917 255.744
222.02975 236.20485 255.744
222.02411 236.20166 255.744
222.03114 236.20563 255.744
222.03592 236.20828 255.744
222.032 236.2061 255.744
222.02733 236.20346 255.744
222.02634 236.20291 255.744
222.02678 236.20316 255.744
222.0215 236.20016 255.744
222.05725 236.22038 255.744
222.03616 236.20847 255.744
222.03578 236.20822 255.744
222.02492 236.20209 255.744
222.03616 236.20847 255.744
222.02728 236.20343 255.744
222.02594 236.20267 255.744
222.02315 236.20113 255.744
222.00758 236.19232 255.744
222.02968 236.20479 255.744
222.02928 236.20459 255.744
222.0443 236.21303 255.744
222.0246 236.20193 255.744
222.02051 236.19965 255.744
222.03053 236.20526 255.744
222.02843 236.20407 255.744
222.02722 236.20341 255.744
222.04005 236.21066 255.744
222.02843 236.20409 255.744
222.05568 236.21942 255.744
222.04727 236.2147 255.744
222.0339 236.20715 255.744
222.0298 236.2049 255.744
222.04802 236.21513 255.744
222.04341 236.21254 255.744
222.05424 236.21864 255.744
222.04749 236.21484 255.744
222.03023 236.20511 255.744
222.02235 236.20065 255.744
222.02855 236.20413 255.744
222.01956 236.19911 255.744
222.0321 236.20618 255.744
222.00725 236.19212 255.744
222.03072 236.20538 255.744
222.02718 236.2034 255.744
222.03773 236.20935 255.744
222.02338 236.20123 255.744
222.0347 236.20766 255.744
222.02473 236.202 255.744
222.0239 236.20152 255.744
222.02711 236.20334 255.744
222.04292 236.2123 255.744
222.04355 236.21265 255.744
222.04884 236.21559 255.744
222.02635 236.20293 255.744
222.0475 236.21484 255.744
222.0295 236.20468 255.744
222.04657 236.21431 255.744
222.04735 236.21478 255.744
222.02843 236.2041 255.744
222.02924 236.20454 255.744
222.0263 236.20291 255.744
222.03346 236.20692 255.744
222.03062 236.2053 255.744
222.03624 236.20848 255.744
222.03003 236.20497 255.744
222.0419 236.21172 255.744
222.03654 236.20866 255.744
222.02904 236.20442 255.744
222.02599 236.20271 255.744
222.0463 236.21417 255.744
222.01732 236.1978 255.744
222.02641 236.20294 255.744
222.0415 236.21149 255.744
222.0072 236.19212 255.744
222.03459 236.20757 255.744
222.04295 236.2123 255.744
222.02428 236.20175 255.744
222.03242 236.20633 255.744
222.02403 236.20161 255.744
222.03261 236.20645 255.744
222.02682 236.20317 255.744
222.05403 236.2185 255.744
222.0578 236.22069 255.744
222.06345 236.22383 255.744
222.06168 236.22285 255.744
222.05608 236.21968 255.744
222.05614 236.21973 255.744
222.05211 236.21745 255.744
222.0501 236.21632 255.744
222.07674 236.23135 255.744
222.0725 236.22896 255.744
222.07146 236.22835 255.744
222.07086 236.22804 255.744
222.06624 236.22542 255.744
222.05933 236.22153 255.744
222.0644 236.22438 255.744
222.05551 236.21935 255.744
222.07289 236.22919 255.744
222.06596 236.22525 255.744
222.04881 236.21558 255.744
222.07097 236.22809 255.744
222.07468 236.23018 255.744
222.06339 236.22385 255.744
222.08907 236.2383 255.744
222.05647 236.21994 255.744
222.06355 236.22389 255.744
222.07202 236.22871 255.744
222.0649 236.22469 255.744
222.05888 236.22124 255.744
222.05734 236.2204 255.744
222.05504 236.21913 255.744
222.08177 236.23419 255.744
222.06018 236.22198 255.744
222.07518 236.23047 255.744
222.0526 236.21773 255.744
222.06938 236.22717 255.744
222.0672 236.22595 255.744
222.06174 236.22287 255.744
222.07005 236.22758 255.744
222.06131 236.22267 255.744
222.0643 236.2243 255.744
222.0525 236.21765 255.744
222.04733 236.21474 255.744
222.05948 236.2216 255.744
222.05879 236.2212 255.744
222.07474 236.23024 255.744
222.07248 236.22893 255.744
222.05971 236.22176 255.744
222.05717 236.22029 255.744
222.0646 236.22452 255.744
222.05902 236.22134 255.744
222.06628 236.22545 255.744
222.06528 236.22488 255.744
222.06387 236.22406 255.744
222.0546 236.21884 255.744
222.07794 236.23203 255.744
222.07396 236.22975 255.744
222.0622 236.22314 255.744
222.07463 236.23015 255.744
222.06546 236.22496 255.744
222.06546 236.22498 255.744
222.05902 236.22136 255.744
222.0681 236.2265 255.744
222.05937 236.22156 255.744
222.06805 236.22644 255.744
222.05377 236.2184 255.744
222.04999 236.21626 255.744
222.07536 236.23055 255.744
222.07089 236.22803 255.744
222.08047 236.23347 255.744
222.0525 236.21767 255.744
222.06801 236.22641 255.744
222.0717 236.22849 255.744
222.07661 236.23128 255.744
222.06915 236.22708 255.744
222.05003 236.21625 255.744
222.07898 236.23259 255.744
222.07745 236.23175 255.744
222.05644 236.21991 255.744
222.05368 236.21834 255.744
222.05554 236.2194 255.744
222.0628 236.22351 255.744
222.05008 236.2163 255.744
222.06804 236.22641 255.744
222.07161 236.22849 255.744
222.05682 236.22011 255.744
222.05408 236.21855 255.744
222.05771 236.22063 255.744
222.06339 236.22383 255.744
222.06006 236.22191 255.744
222.07588 236.2309 255.744
222.05417 236.21863 255.744
222.0729 236.22916 255.744
222.07808 236.2321 255.744
222.05096 236.21683 255.744
222.06332 236.22377 255.744
222.05807 236.2208 255.744
222.0661 236.22531 255.744
222.07007 236.22757 255.744
222.07004 236.22755 255.744
222.0533 236.21812 255.744
222.0863 236.23672 255.744
222.05202 236.2174 255.744
222.05212 236.21747 255.744
222.06894 236.22696 255.744
222.06302 236.22356 255.744
222.08034 236.23335 255.744
222.06496 236.22467 255.744
222.06891 236.22693 255.744
222.06625 236.22543 255.744
222.07507 236.23041 255.744
222.05983 236.2218 255.744
222.06845 236.22665 255.744
222.0814 236.23398 255.744
222.05904 236.22136 255.744
222.07018 236.22765 255.744
222.07141 236.22832 255.744
222.05504 236.2191 255.744
222.07051 236.22783 255.744
222.06198 236.223 255.744
222.06796 236.2264 255.744
222.07559 236.2307 255.744
222.06464 236.22453 255.744
222.07745 236.23175 255.744
222.04753 236.21487 255.744
222.06357 236.22394 255.744
222.06834 236.22661 255.744
222.07394 236.22978 255.744
222.07025 236.22769 255.744
222.07545 236.2306 255.744
222.06573 236.22513 255.744
222.04172 236.21158 255.744
222.0717 236.22849 255.744
222.0699 236.22751 255.744
222.06444 236.22441 255.744
222.0658 236.22517 255.744
222.07181 236.22856 255.744
222.06477 236.2246 255.744
222.06793 236.22636 255.744
222.0665 236.22556 255.744
222.05609 236.2197 255.744
222.07475 236.23026 255.744
222.06027 236.22203 255.744
222.07207 236.2287 255.744
222.07687 236.2314 255.744
222.06415 236.22426 255.744
222.08786 236.23761 255.744
222.07858 236.23238 255.744
222.08159 236.2341 255.744
222.06816 236.2265 255.744
222.0571 236.22028 255.744
222.0642 236.22424 255.744
222.08061 236.23354 255.744
222.07486 236.23029 255.744
222.0704 236.22775 255.744
222.08412 236.23552 255.744
222.07512 236.23038 255.744
222.06654 236.2256 255.744
222.06563 236.22507 255.744
222.05717 236.22032 255.744
222.06068 236.22229 255.744
222.06409 236.2242 255.744
222.07048 236.22781 255.744
222.07117 236.2282 255.744
222.06483 236.22462 255.744
222.07765 236.23186 255.744
222.06169 236.22285 255.744
222.05466 236.2189 255.744
222.07962 236.23297 255.744
222.05003 236.21628 255.744
222.07155 236.22841 255.744
222.07034 236.22772 255.744
222.05511 236.21915 255.744
222.05875 236.22122 255.744
222.07094 236.22809 255.744
222.07613 236.231 255.744
222.06097 236.22246 255.744
222.06541 236.22495 255.744
222.08925 236.2384 255.744
222.0618 236.22293 255.744
222.07053 236.22784 255.744
222.067 236.22583 255.744
222.0825 236.2346 255.744
222.07707 236.23152 255.744
222.07925 236.23279 255.744
222.05354 236.21822 255.744
222.06616 236.22536 255.744
222.07616 236.231 255.744
222.06131 236.22264 255.744
222.08278 236.23474 255.744
222.07443 236.23006 255.744
222.07175 236.22856 255.744
222.06168 236.22284 255.744
222.06955 236.22733 255.744
222.07132 236.22829 255.744
222.03961 236.21037 255.744
222.06299 236.22359 255.744
222.08128 236.23392 255.744
220.46736 234.52809 254.16486
212.35019 225.88275 244.78282
203.8742 216.87282 235.02657
185.74974 197.61545 214.18497
159.21234 169.38368 183.58711
132.6593 141.14313 152.98926
106.11709 112.90865 122.39141
91.902985 97.783394 105.99407
64.98691 69.14426 74.94913
37.50945 39.914387 43.271896
0 0 0
0 0 0
0 0 0
0 0 0
0 0 0
0 0 0
0 0 0
0 0 0
0 0 0
0 0 0
0 0 0
0 0 0
0 0 0
0 0 0
0 0 0
0 0 0
0 0 0
0 0 0
0 0 0
0 0 0
0 0 0
0 0 0
0 0 0
0 0 0
0 0 0
0 0 0
0 0 0
0 0 0
0 0 0
0 0 0
0 0 0
0 0 0
0 0 0
0 0 0
0 0 0
0 0 0
0 0 0
0 0 0
0 0 0
0 0 0
0 0 0
0 0 0
0 0 0
0 0 0
0 0 0
0 0 0
0 0 0
0 0 0
0 0 0
0 0 0
0 0 0
0 0 0
0 0 0
0 0 0
0 0 0
0 0 0
0 0 0
0 0 0
0 0 0
0 0 0
0 0 0
0 0 0
0 0 0
0 0 0
0 0 0
0 0 0
0 0 0
0 0 0
0 0 0
0 0 0
0 0 0
0 0 0
0 0 0
0 0 0
0 0 0
0 0 0
0 0 0
0 0 0
0 0 0
0 0 0
0 0 0
0 0 0
0 0 0
0 0 0
0 0 0
0 0 0
0 0 0
0 0 0
0 0 0
0 0 0
0 0 0
0 0 0
0 0 0
0 0 0
0 0 0
0 0 0
0 0 0
0 0 0
0 0 0
0 0 0
0 0 0
0 0 0
0 0 0
0 0 0
0 0 0
0 0 0
0 0 0
0 0 0
0 0 0
0 0 0
0 0 0
0 0 0
0 0 0
0 0 0
0 0 0
0 0 0
0 0 0
0 0 0
0 0 0
0 0 0
0 0 0
0 0 0
0 0 0
0 0 0
0 0 0
0 0 0
0 0 0
0 0 0
0 0 0
0 0 0
0 0 0
0 0 0
0 0 0
0 0 0
83.88248 89.25624 96.7589
129.97269 138.28786 149.89825
156.97827 167.01051 181.01933
196.82669 209.38358 226.91974
207.2962 220.51532 238.97687
222.08046 236.23344 255.744
222.08331 236.23506 255.744
222.05621 236.21977 255.744
222.0784 236.23228 255.744
222.06845 236.22668 255.744
222.06352 236.22388 255.744
222.08398 236.23541 255.744
222.05779 236.22064 255.744
222.0682 236.22652 255.744
222.07765 236.23184 255.744
220.47911 234.53471 254.16486
176.08182 187.29791 202.9632
99.35301 105.6669 114.48668
37.55281 39.938843 43.271896
0 0 0
0 0 0
0 0 0
0 0 0
0 0 0
0 0 0
0 0 0
0 0 0
0 0 0
0 0 0
0 0 0
0 0 0
0 0 0
0 0 0
0 0 0
0 0 0
0 0 0
0 0 0
0 0 0
0 0 0
0 0 0
0 0 0
0 0 0
0 0 0
0 0 0
0 0 0
0 0 0
0 0 0
0 0 0
0 0 0
0 0 0
0 0 0
0 0 0
0 0 0
0 0 0
0 0 0
0 0 0
0 0 0
0 0 0
0 0 0
0 0 0
0 0 0
0 0 0
0 0 0
0 0 0
0 0 0
0 0 0
0 0 0
0 0 0
0 0 0
0 0 0
0 0 0
0 0 0
0 0 0
0 0 0
0 0 0
0 0 0
0 0 0
0 0 0
0 0 0
0 0 0
0 0 0
0 0 0
0 0 0
0 0 0
0 0 0
0 0 0
0 0 0
0 0 0
0 0 0
0 0 0
0 0 0
0 0 0
0 0 0
0 0 0
0 0 0
0 0 0
0 0 0
0 0 0
0 0 0
0 0 0
0 0 0
0 0 0
0 0 0
0 0 0
0 0 0
0 0 0
0 0 0
0 0 0
0 0 0
0 0 0
0 0 0
0 0 0
0 0 0
0 0 0
0 0 0
0 0 0
0 0 0
0 0 0
37.55549 39.940353 43.271896
91.96121 97.81624 105.99407
185.82039 197.65527 214.18497
215.61867 229.3715 248.57813
222.06206 236.22308 255.744
222.06757 236.22617 255.744
222.08849 236.23796 255.744
222.07256 236.22899 255.744
222.0587 236.22119 255.744
222.05609 236.21968 255.744
222.06197 236.22302 255.744
222.08025 236.23332 255.744
222.06667 236.22563 255.744
222.05878 236.2212 255.744
222.07393 236.22975 255.744
222.08376 236.23529 255.744
222.05832 236.22096 255.744
222.04724 236.2147 255.744
222.07722 236.23163 255.744
222.06987 236.22746 255.744
222.07338 236.22943 255.744
222.09581 236.2421 255.744
222.07004 236.22755 255.744
222.08421 236.23555 255.744
222.06677 236.22574 255.744
222.06447 236.22443 255.744
222.06207 236.22308 255.744
222.04669 236.21437 255.744
222.06277 236.22346 255.744
222.07542 236.23059 255.744
222.07335 236.22946 255.744
222.0527 236.21782 255.744
222.07109 236.22816 255.744
222.06288 236.22356 255.744
222.05469 236.2189 255.744
222.0782 236.23216 255.744
222.06523 236.22485 255.744
222.071 236.22812 255.744
222.07623 236.23105 255.744
222.07013 236.22762 255.744
222.07166 236.22849 255.744
222.0798 236.23308 255.744
222.0592 236.22145 255.744
222.06705 236.22586 255.744
222.082 236.23431 255.744
222.06274 236.22346 255.744
222.07063 236.2279 255.744
222.07826 236.2322 255.744
222.06638 236.22551 255.744
222.06723 236.22598 255.744
222.07729 236.23163 255.744
222.07924 236.23274 255.744
222.05824 236.2209 255.744
222.08752 236.23743 255.744
222.05582 236.21956 255.744
222.07388 236.2297 255.744
222.06674 236.22568 255.744
222.0797 236.23302 255.744
222.07437 236.23 255.744
222.07892 236.23257 255.744
222.06013 236.22195 255.744
222.05911 236.2214 255.744
222.05544 236.21931 255.744
222.03679 236.20879 255.744
222.07495 236.23036 255.744
222.06784 236.2263 255.744
222.078 236.23207 255.744
222.05067 236.21664 255.744
222.07318 236.22935 255.744
222.0476 236.21489 255.744
222.06418 236.22426 255.744
222.07217 236.22878 255.744
222.07747 236.23177 255.744
222.06743 236.2261 255.744
222.07672 236.23134 255.744
222.05093 236.21681 255.744
222.07089 236.22809 255.744
222.09006 236.23888 255.744
222.06746 236.22609 255.744
222.05269 236.2178 255.744
222.07803 236.23212 255.744
222.06271 236.22342 255.744
222.05817 236.22087 255.744
222.04889 236.21562 255.744
222.06068 236.22227 255.744
222.05324 236.21812 255.744
222.08136 236.23396 255.744
222.0687 236.22682 255.744
222.07365 236.2296 255.744
222.0688 236.22688 255.744
222.07364 236.2296 255.744
222.06087 236.22238 255.744
222.05998 236.22186 255.744
222.05974 236.22174 255.744
222.0666 236.22559 255.744
222.06772 236.22624 255.744
222.0872 236.23724 255.744
222.06554 236.22504 255.744
222.06958 236.2273 255.744
222.07312 236.22928 255.744
222.06546 236.22496 255.744
222.07071 236.22794 255.744
222.07 236.22754 255.744
222.0637 236.22398 255.744
222.06253 236.22331 255.744
222.06969 236.22739 255.744
222.07303 236.22923 255.744
222.08119 236.23387 255.744
222.0704 236.22777 255.744
222.0674 236.22606 255.744
222.06093 236.22241 255.744
222.05817 236.22087 255.744
222.06337 236.22382 255.744
222.05092 236.21677 255.744
222.07808 236.23212 255.744
222.05577 236.21951 255.744
222.05775 236.22063 255.744
222.0724 236.2289 255.744
222.06284 236.22353 255.744
222.06052 236.2222 255.744
222.0676 236.2262 255.744
222.08073 236.23361 255.744
222.04918 236.21577 255.744
222.07646 236.23117 255.744
222.07582 236.23083 255.744
222.06407 236.2242 255.744
222.0573 236.2204 255.744
222.05368 236.21835 255.744
222.07162 236.22847 255.744
222.06714 236.22595 255.744
222.0642 236.22426 255.744
222.06616 236.22537 255.744
222.07323 236.22935 255.744
222.06744 236.2261 255.744
222.08154 236.23405 255.744
222.05568 236.21948 255.744
222.06734 236.22603 255.744
222.0533 236.21814 255.744
222.06491 236.22466 255.744
222.06538 236.22495 255.744
222.04443 236.21313 255.744
222.06337 236.22382 255.744
222.09659 236.24252 255.744
222.08327 236.23502 255.744
222.09128 236.2395 255.744
222.10213 236.24565 255.744
222.10117 236.24512 255.744
222.08827 236.2379 255.744
222.0912 236.23947 255.744
222.094 236.24106 255.744
222.11296 236.25175 255.744
222.08263 236.23465 255.744
222.0919 236.23991 255.744
222.10393 236.24669 255.744
222.09277 236.24039 255.744
222.09508 236.24167 255.744
222.0874 236.23738 255.744
222.1084 236.24924 255.744
222.09537 236.24187 255.744
222.10576 236.24768 255.744
222.07578 236.23079 255.744
222.08171 236.23415 255.744
222.10709 236.24844 255.744
222.1017 236.24542 255.744
222.08943 236.23848 255.744
222.07996 236.23317 255.744
222.07921 236.23274 255.744
222.10332 236.2463 255.744
222.09938 236.24411 255.744
222.0918 236.2398 255.744
222.0879 236.23767 255.744
222.11545 236.25319 255.744
222.09492 236.2416 255.744
222.09866 236.2437 255.744
222.09537 236.24184 255.744
222.09096 236.23933 255.744
222.09601 236.24223 255.744
222.08952 236.23854 255.744
222.09128 236.23953 255.744
222.07092 236.22807 255.744
222.06952 236.22725 255.744
222.09967 236.24428 255.744
222.0981 236.24338 255.744
222.08495 236.23601 255.744
222.09897 236.24388 255.744
222.0921 236.24 255.744
222.08679 236.23701 255.744
222.09929 236.24408 255.744
222.0944 236.24129 255.744
222.09161 236.23975 255.744
222.104 236.24675 255.744
222.09805 236.24335 255.744
222.09972 236.2443 255.744
222.10194 236.24554 255.744
222.09772 236.24316 255.744
222.08496 236.236 255.744
222.09805 236.24336 255.744
222.11108 236.2507 255.744
222.0957 236.24207 255.744
222.09726 236.24294 255.744
222.08937 236.23846 255.744
222.09398 236.24109 255.744
222.09496 236.24162 255.744
222.1056 236.2476 255.744
222.11073 236.25052 255.744
222.10446 236.24698 255.744
222.09969 236.24428 255.744
222.08221 236.23444 255.744
222.09828 236.24348 255.744
222.10321 236.24628 255.744
222.09193 236.2399 255.744
222.08919 236.23837 255.744
222.08707 236.23715 255.744
222.08858 236.238 255.744
222.10678 236.24826 255.744
222.08327 236.23502 255.744
222.08537 236.23622 255.744
222.10974 236.24994 255.744
222.10089 236.245 255.744
222.1071 236.24846 255.744
222.09052 236.23914 255.744
222.09697 236.24278 255.744
222.08406 236.2355 255.744
222.09033 236.23901 255.744
222.08154 236.23404 255.744
222.09969 236.2443 255.744
222.09393 236.24104 255.744
222.09888 236.24384 255.744
222.10147 236.2453 255.744
222.089 236.23827 255.744
222.1126 236.25159 255.744
222.09491 236.24158 255.744
222.0999 236.2444 255.744
222.10245 236.24582 255.744
222.09613 236.24228 255.744
222.10287 236.24608 255.744
222.09369 236.24092 255.744
222.09073 236.23921 255.744
222.10364 236.24654 255.744
222.11714 236.25412 255.744
222.10432 236.24692 255.744
222.1131 236.25185 255.744
222.10837 236.2492 255.744
222.11546 236.25319 255.744
222.10982 236.25 255.744
222.10031 236.24464 255.744
222.08347 236.23512 255.744
222.11172 236.25107 255.744
222.0996 236.24423 255.744
222.09268 236.24034 255.744
222.10063 236.24484 255.744
222.0875 236.2374 255.744
222.1089 236.24948 255.744
222.10104 236.24503 255.744
222.1117 236.25107 255.744
222.11104 236.25072 255.744
222.09848 236.24362 255.744
222.1137 236.25221 255.744
222.10963 236.2499 255.744
222.0863 236.23672 255.744
222.10867 236.24934 255.744
222.08981 236.23871 255.744
222.08821 236.23781 255.744
222.10706 236.24846 255.744
222.09956 236.24422 255.744
222.10269 236.24596 255.744
222.10092 236.24498 255.744
222.10751 236.24869 255.744
222.10513 236.24736 255.744
222.11093 236.25063 255.744
222.08905 236.23827 255.744
222.11794 236.2546 255.744
222.11902 236.2552 255.744
222.10532 236.24742 255.744
222.1096 236.24988 255.744
222.10463 236.24709 255.744
222.0866 236.23691 255.744
222.08057 236.23352 255.744
222.0796 236.23296 255.744
222.09706 236.24283 255.744
222.11615 236.25362 255.744
222.09735 236.24297 255.744
222.09578 236.24207 255.744
222.09128 236.23955 255.744
222.10925 236.24968 255.744
222.10674 236.24825 255.744
222.10849 236.24924 255.744
222.098 236.24332 255.744
222.09213 236.24004 255.744
222.09697 236.24277 255.744
222.0999 236.24443 255.744
222.09587 236.24216 255.744
222.11226 236.2514 255.744
222.10733 236.24861 255.744
222.09259 236.24028 255.744
222.07474 236.23018 255.744
222.09607 236.24223 255.744
222.12161 236.25664 255.744
222.10696 236.2484 255.744
222.10915 236.24962 255.744
222.10648 236.24814 255.744
222.10146 236.2453 255.744
222.09048 236.2391 255.744
222.10089 236.24493 255.744
222.11494 236.25288 255.744
222.10756 236.24873 255.744
222.10812 236.24904 255.744
222.117 236.25403 255.744
222.07655 236.23123 255.744
222.10464 236.2471 255.744
222.10355 236.24646 255.744
222.0931 236.24057 255.744
222.10757 236.24876 255.744
222.09998 236.24446 255.744
222.10475 236.24715 255.744
222.11703 236.25409 255.744
222.1101 236.25018 255.744
222.11629 236.25365 255.744
222.07565 236.23074 255.744
222.1172 236.25415 255.744
222.10092 236.245 255.744
222.11731 236.25423 255.744
222.10345 236.24641 255.744
222.10915 236.24965 255.744
222.09729 236.24295 255.744
222.11943 236.25539 255.744
222.10316 236.24625 255.744
222.11282 236.25171 255.744
222.09322 236.24068 255.744
222.09283 236.24042 255.744
222.09386 236.241 255.744
222.09396 236.24104 255.744
222.09467 236.24146 255.744
222.09608 236.24225 255.744
222.10414 236.24681 255.744
222.10728 236.2486 255.744
222.08177 236.2342 255.744
217.29037 231.12764 250.45422
212.36476 225.89098 244.78282
205.60373 218.7081 237.00995
165.7511 176.32133 191.08353
169.94527 180.78435 195.92184
118.66819 126.25019 136.83775
102.77039 109.33629 118.504974
53.06969 56.460613 61.195705
37.52646 39.923977 43.271896
26.531347 28.228334 30.597853
0 0 0
0 0 0
0 0 0
0 0 0
0 0 0
0 0 0
0 0 0
0 0 0
0 0 0
0 0 0
0 0 0
0 0 0
0 0 0
0 0 0
0 0 0
0 0 0
0 0 0
0 0 0
0 0 0
0 0 0
0 0 0
0 0 0
0 0 0
0 0 0
0 0 0
0 0 0
0 0 0
0 0 0
0 0 0
0 0 0
0 0 0
0 0 0
0 0 0
0 0 0
0 0 0
0 0 0
0 0 0
0 0 0
0 0 0
0 0 0
0 0 0
0 0 0
0 0 0
0 0 0
0 0 0
0 0 0
0 0 0
0 0 0
0 0 0
0 0 0
0 0 0
0 0 0
0 0 0
0 0 0
0 0 0
0 0 0
0 0 0
0 0 0
0 0 0
0 0 0
0 0 0
0 0 0
0 0 0
0 0 0
0 0 0
0 0 0
0 0 0
0 0 0
0 0 0
0 0 0
0 0 0
0 0 0
0 0 0
0 0 0
0 0 0
0 0 0
0 0 0
0 0 0
0 0 0
0 0 0
0 0 0
0 0 0
0 0 0
0 0 0
0 0 0
0 0 0
0 0 0
0 0 0
0 0 0
0 0 0
0 0 0
0 0 0
0 0 0
0 0 0
0 0 0
0 0 0
0 0 0
0 0 0
0 0 0
0 0 0
0 0 0
0 0 0
0 0 0
0 0 0
0 0 0
0 0 0
0 0 0
0 0 0
0 0 0
0 0 0
0 0 0
0 0 0
0 0 0
0 0 0
0 0 0
0 0 0
0 0 0
0 0 0
0 0 0
0 0 0
0 0 0
0 0 0
0 0 0
0 0 0
0 0 0
0 0 0
0 0 0
0 0 0
0 0 0
0 0 0
0 0 0
0 0 0
0 0 0
0 0 0
0 0 0
0 0 0
37.52002 39.920345 43.271896
79.58853 84.6819 91.79356
118.67823 126.25586 136.83775
163.60602 174.0426 188.61783
196.85745 209.40091 226.91974
218.91365 232.85046 252.31636
222.09106 236.23941 255.744
222.12433 236.25821 255.744
222.1117 236.25105 255.744
222.09943 236.24413 255.744
222.10652 236.24815 255.744
222.1152 236.25305 255.744
214.0195 227.65004 246.68777
165.81071 176.355 191.08353
79.66174 84.72319 91.79356
0 0 0
0 0 0
0 0 0
0 0 0
0 0 0
0 0 0
0 0 0
0 0 0
0 0 0
0 0 0
0 0 0
0 0 0
0 0 0
0 0 0
0 0 0
0 0 0
0 0 0
0 0 0
0 0 0
0 0 0
0 0 0
0 0 0
0 0 0
0 0 0
0 0 0
0 0 0
0 0 0
0 0 0
0 0 0
0 0 0
0 0 0
0 0 0
0 0 0
0 0 0
0 0 0
0 0 0
0 0 0
0 0 0
0 0 0
0 0 0
0 0 0
0 0 0
0 0 0
0 0 0
0 0 0
0 0 0
0 0 0
0 0 0
0 0 0
0 0 0
0 0 0
0 0 0
0 0 0
0 0 0
0 0 0
0 0 0
0 0 0
0 0 0
0 0 0
0 0 0
0 0 0
0 0 0
0 0 0
0 0 0
0 0 0
0 0 0
0 0 0
0 0 0
0 0 0
0 0 0
0 0 0
0 0 0
0 0 0
0 0 0
0 0 0
0 0 0
0 0 0
0 0 0
0 0 0
0 0 0
0 0 0
0 0 0
0 0 0
0 0 0
0 0 0
0 0 0
0 0 0
0 0 0
0 0 0
0 0 0
0 0 0
0 0 0
0 0 0
0 0 0
0 0 0
0 0 0
0 0 0
0 0 0
0 0 0
0 0 0
0 0 0
0 0 0
0 0 0
0 0 0
0 0 0
95.75805 101.83394 110.32213
174.10985 185.18011 200.64354
214.02719 227.65442 246.68777
222.10254 236.24588 255.744
222.09863 236.2437 255.744
222.10954 236.24988 255.744
222.11382 236.25223 255.744
222.10716 236.2485 255.744
222.11357 236.25212 255.744
222.10733 236.24861 255.744
222.09833 236.24352 255.744
222.0961 236.24226 255.744
222.11089 236.25061 255.744
222.11151 236.25095 255.744
222.1116 236.25104 255.744
222.09885 236.24382 255.744
222.10785 236.2489 255.744
222.09586 236.24213 255.744
222.1144 236.25256 255.744
222.1036 236.24652 255.744
222.10104 236.24507 255.744
222.10875 236.24939 255.744
222.08203 236.23434 255.744
222.08992 236.23878 255.744
222.09825 236.24345 255.744
222.11192 236.25117 255.744
222.0906 236.23917 255.744
222.09128 236.23955 255.744
222.08661 236.23691 255.744
222.1078 236.24886 255.744
222.06985 236.2275 255.744
222.09584 236.24213 255.744
222.09264 236.24033 255.744
222.05858 236.22113 255.744
222.09224 236.24008 255.744
222.10371 236.24655 255.744
222.09819 236.24345 255.744
222.09811 236.2434 255.744
222.0836 236.23521 255.744
222.0946 236.24138 255.744
222.10703 236.24843 255.744
222.10529 236.24745 255.744
222.11218 236.25134 255.744
222.09093 236.23933 255.744
222.09998 236.24443 255.744
222.10025 236.24461 255.744
222.10039 236.24464 255.744
222.10162 236.24538 255.744
222.0946 236.24142 255.744
222.10635 236.24805 255.744
222.10193 236.24556 255.744
222.09253 236.24026 255.744
222.09561 236.24202 255.744
222.10025 236.24461 255.744
222.09866 236.2437 255.744
222.08678 236.23698 255.744
222.08919 236.23836 255.744
222.08289 236.23485 255.744
222.09868 236.24371 255.744
222.1184 236.25484 255.744
222.09157 236.23969 255.744
222.08247 236.23459 255.744
222.08882 236.23813 255.744
222.09789 236.24326 255.744
222.09486 236.24155 255.744
222.10399 236.24675 255.744
222.08183 236.2342 255.744
222.07886 236.23253 255.744
222.09506 236.24167 255.744
222.10251 236.24586 255.744
222.09706 236.24275 255.744
222.10863 236.24931 255.744
222.10326 236.2463 255.744
222.1087 236.24936 255.744
222.10071 236.24487 255.744
222.11005 236.25014 255.744
222.1177 236.25447 255.744
222.09956 236.24422 255.744
222.08218 236.2344 255.744
222.08229 236.23447 255.744
222.07095 236.22806 255.744
222.09937 236.2441 255.744
222.09044 236.23906 255.744
222.07607 236.23096 255.744
222.10233 236.24577 255.744
222.09164 236.23975 255.744
222.09596 236.24214 255.744
222.10909 236.24959 255.744
222.10202 236.2456 255.744
222.10603 236.24785 255.744
222.10838 236.24918 255.744
222.09627 236.24234 255.744
222.10814 236.24904 255.744
222.08836 236.23792 255.744
222.10387 236.24664 255.744
222.10915 236.24962 255.744
222.0934 236.24072 255.744
222.09512 236.24173 255.744
222.08717 236.23723 255.744
222.10486 236.2472 255.744
222.08832 236.23787 255.744
222.07898 236.23262 255.744
222.0823 236.23447 255.744
222.09828 236.24348 255.744
222.10675 236.24828 255.744
222.09229 236.2401 255.744
222.08757 236.23744 255.744
222.08737 236.23737 255.744
222.0924 236.24016 255.744
222.08093 236.23367 255.744
222.08752 236.23744 255.744
222.08914 236.23831 255.744
222.08469 236.23582 255.744
222.10782 236.24887 255.744
222.10423 236.24684 255.744
222.07358 236.22955 255.744
222.10582 236.24773 255.744
222.08636 236.23677 255.744
222.07751 236.23178 255.744
222.09148 236.23964 255.744
222.08488 236.23593 255.744
222.08878 236.23813 255.744
222.07661 236.23128 255.744
222.08118 236.23387 255.744
222.09587 236.24213 255.744
222.08017 236.2333 255.744
222.0784 236.23227 255.744
222.08989 236.23875 255.744
222.06816 236.2265 255.744
222.09323 236.24066 255.744
222.07933 236.2328 255.744
222.06612 236.22534 255.744
222.09802 236.24335 255.744
222.08623 236.2367 255.744
222.09706 236.2428 255.744
222.09114 236.23944 255.744
222.0922 236.24008 255.744
222.09644 236.24243 255.744
222.08836 236.2379 255.744
222.11606 236.25354 255.744
222.13345 236.26332 255.744
222.10907 236.24959 255.744
222.103 236.24612 255.744
222.13881 236.26634 255.744
222.12527 236.25873 255.744
222.12706 236.25974 255.744
222.11635 236.2537 255.744
222.10432 236.2469 255.744
222.11006 236.25015 255.744
222.12837 236.26047 255.744
222.12138 236.2565 255.744
222.11076 236.25055 255.744
222.12025 236.25587 255.744
222.12146 236.25658 255.744
222.12268 236.25725 255.744
222.1266 236.2595 255.744
222.12216 236.25694 255.744
222.12411 236.25807 255.744
222.13506 236.26422 255.744
222.12453 236.25829 255.744
222.12036 236.25592 255.744
222.11732 236.25423 255.744
222.11002 236.25014 255.744
222.12982 236.26129 255.744
222.11961 236.2555 255.744
222.12715 236.25977 255.744
222.1226 236.25723 255.744
222.12288 236.25737 255.744
222.1284 236.2605 255.744
222.11731 236.25421 255.744
222.12311 236.25749 255.744
222.12454 236.25833 255.744
222.12993 236.26137 255.744
222.11423 236.25249 255.744
222.13124 236.2621 255.744
222.10617 236.24796 255.744
222.1247 236.25838 255.744
222.121 236.25632 255.744
222.12277 236.25728 255.744
222.13362 236.26341 255.744
222.12613 236.25923 255.744
222.1097 236.24992 255.744
222.12427 236.25818 255.744
222.11491 236.25288 255.744
222.12372 236.25786 255.744
222.11563 236.2533 255.744
222.13431 236.2638 255.744
222.12221 236.25699 255.744
222.13626 236.26492 255.744
222.12117 236.25641 255.744
222.13177 236.26237 255.744
222.12334 236.25763 255.744
222.1019 236.24553 255.744
222.13887 236.26636 255.744
222.12563 236.25891 255.744
222.12552 236.25887 255.744
222.12628 236.25928 255.744
222.12479 236.25845 255.744
222.13847 236.26619 255.744
222.1149 236.25288 255.744
222.13243 236.26277 255.744
222.1074 236.24866 255.744
222.13692 236.26529 255.744
222.11649 236.25377 255.744
222.12494 236.25853 255.744
222.12532 236.25877 255.744
222.11957 236.25554 255.744
222.1328 236.26295 255.744
222.12077 236.25618 255.744
222.13214 236.26262 255.744
222.12514 236.25864 255.744
222.14601 236.27043 255.744
222.13416 236.26372 255.744
222.1161 236.25359 255.744
222.14456 236.26958 255.744
222.11752 236.2543 255.744
222.13171 236.26239 255.744
222.1299 236.26134 255.744
222.11676 236.25392 255.744
222.1304 236.26164 255.744
222.11914 236.25523 255.744
222.12206 236.25688 255.744
222.11552 236.25325 255.744
222.127 236.2597 255.744
222.12349 236.25769 255.744
222.12985 236.26129 255.744
222.13419 236.26376 255.744
222.12868 236.26065 255.744
222.12059 236.25609 255.744
222.12067 236.25612 255.744
222.13507 236.26425 255.744
222.14233 236.26834 255.744
222.11937 236.25539 255.744
222.12999 236.26135 255.744
222.12343 236.25766 255.744
222.11072 236.25052 255.744
222.1198 236.25563 255.744
222.12677 236.25958 255.744
222.13943 236.26672 255.744
222.14404 236.2693 255.744
222.12755 236.26 255.744
222.13974 236.26686 255.744
222.12978 236.26125 255.744
222.12155 236.2566 255.744
222.11511 236.25302 255.744
222.12688 236.25963 255.744
222.1256 236.25891 255.744
222.12294 236.2574 255.744
222.1455 236.27011 255.744
222.12642 236.25935 255.744
222.15091 236.27318 255.744
222.12778 236.26013 255.744
222.12598 236.2591 255.744
222.14021 236.26714 255.744
222.13629 236.26492 255.744
222.1504 236.2729 255.744
222.13481 236.26411 255.744
222.13055 236.26169 255.744
222.14175 236.26805 255.744
222.14424 236.26944 255.744
222.14186 236.26808 255.744
222.12775 236.26012 255.744
222.15036 236.27287 255.744
222.12103 236.25633 255.744
222.13713 236.26541 255.744
222.12337 236.25766 255.744
222.11504 236.25293 255.744
222.12839 236.26048 255.744
222.1375 236.2656 255.744
222.13008 236.26141 255.744
222.13043 236.26166 255.744
222.12631 236.25931 255.744
222.12123 236.25647 255.744
222.13966 236.26683 255.744
222.12097 236.2563 255.744
222.13582 236.26465 255.744
222.11833 236.25482 255.744
222.1223 236.25705 255.744
222.13649 236.26505 255.744
222.12578 236.259 255.744
222.13516 236.26431 255.744
222.14171 236.26797 255.744
222.13089 236.26189 255.744
222.12634 236.25932 255.744
222.13159 236.26227 255.744
222.11307 236.25183 255.744
222.12732 236.25986 255.744
222.1392 236.26659 255.744
222.11827 236.25478 255.744
222.13116 236.26205 255.744
222.14864 236.2719 255.744
222.14178 236.26804 255.744
222.13646 236.26505 255.744
222.14282 236.26863 255.744
222.1368 236.26521 255.744
222.12646 236.25937 255.744
222.12769 236.26013 255.744
222.13377 236.26349 255.744
222.14838 236.27179 255.744
222.12668 236.2595 255.744
222.15295 236.27432 255.744
222.12427 236.25815 255.744
222.12106 236.25635 255.744
222.13042 236.2616 255.744
222.13739 236.26556 255.744
222.12553 236.25885 255.744
222.15408 236.27498 255.744
222.13164 236.2623 255.744
222.13242 236.26279 255.744
222.13402 236.26363 255.744
222.11478 236.25282 255.744
222.14824 236.27168 255.744
222.13196 236.26247 255.744
222.13995 236.267 255.744
222.14311 236.26878 255.744
222.13403 236.26364 255.744
222.14699 236.27097 255.744
222.11974 236.25558 255.744
222.13467 236.26404 255.744
222.14047 236.2673 255.744
222.14171 236.26799 255.744
222.14232 236.26833 255.744
222.13046 236.26164 255.744
222.11842 236.25487 255.744
222.13072 236.2618 255.744
222.14609 236.27046 255.744
222.15234 236.27397 255.744
222.16037 236.27853 255.744
222.13937 236.26668 255.744
222.13269 236.26291 255.744
222.12862 236.2606 255.744
222.13223 236.26265 255.744
222.14253 236.26845 255.744
220.5542 234.57704 254.16486
203.93463 216.9069 235.02657
187.72026 199.66953 216.3595
178.06529 189.41083 205.25664
152.47841 162.19745 175.77129
118.70449 126.27067 136.83775
79.62566 84.702835 91.79356
65.00645 69.155266 74.94913
26.53427 28.229982 30.597853
0 0 0
0 0 0
0 0 0
0 0 0
0 0 0
0 0 0
0 0 0
0 0 0
0 0 0
0 0 0
0 0 0
0 0 0
0 0 0
0 0 0
0 0 0
0 0 0
0 0 0
0 0 0
0 0 0
0 0 0
0 0 0
0 0 0
0 0 0
0 0 0
0 0 0
0 0 0
0 0 0
0 0 0
0 0 0
0 0 0
0 0 0
0 0 0
0 0 0
0 0 0
0 0 0
0 0 0
0 0 0
0 0 0
0 0 0
0 0 0
0 0 0
0 0 0
0 0 0
0 0 0
0 0 0
0 0 0
0 0 0
0 0 0
0 0 0
0 0 0
0 0 0
0 0 0
0 0 0
0 0 0
0 0 0
0 0 0
0 0 0
0 0 0
0 0 0
0 0 0
0 0 0
0 0 0
0 0 0
0 0 0
0 0 0
0 0 0
0 0 0
0 0 0
0 0 0
0 0 0
0 0 0
0 0 0
0 0 0
0 0 0
0 0 0
0 0 0
0 0 0
0 0 0
0 0 0
0 0 0
0 0 0
0 0 0
0 0 0
0 0 0
0 0 0
0 0 0
0 0 0
0 0 0
0 0 0
0 0 0
0 0 0
0 0 0
0 0 0
0 0 0
0 0 0
0 0 0
0 0 0
0 0 0
0 0 0
0 0 0
0 0 0
0 0 0
0 0 0
0 0 0
0 0 0
0 0 0
0 0 0
0 0 0
0 0 0
0 0 0
0 0 0
0 0 0
0 0 0
0 0 0
0 0 0
0 0 0
0 0 0
0 0 0
0 0 0
0 0 0
0 0 0
0 0 0
0 0 0
0 0 0
0 0 0
0 0 0
0 0 0
0 0 0
0 0 0
0 0 0
0 0 0
0 0 0
0 0 0
0 0 0
0 0 0
0 0 0
0 0 0
0 0 0
0 0 0
0 0 0
53.068325 56.459843 61.195705
127.273094 135.39708 146.74214
147.77286 157.19836 170.36163
185.81076 197.64983 214.18497
203.92244 216.90001 235.02657
218.92328 232.85588 252.31636
222.11938 236.25539 255.744
222.12923 236.26096 255.744
217.33833 231.15471 250.45422
163.67671 174.0825 188.61783
79.66847 84.72698 91.79356
26.563128 28.246262 30.597853
0 0 0
0 0 0
0 0 0
0 0 0
0 0 0
0 0 0
0 0 0
0 0 0
0 0 0
0 0 0
0 0 0
0 0 0
0 0 0
0 0 0
0 0 0
0 0 0
0 0 0
0 0 0
0 0 0
0 0 0
0 0 0
0 0 0
0 0 0
0 0 0
0 0 0
0 0 0
0 0 0
0 0 0
0 0 0
0 0 0
0 0 0
0 0 0
0 0 0
0 0 0
0 0 0
0 0 0
0 0 0
0 0 0
0 0 0
0 0 0
0 0 0
0 0 0
0 0 0
0 0 0
0 0 0
0 0 0
0 0 0
0 0 0
0 0 0
0 0 0
0 0 0
0 0 0
0 0 0
0 0 0
0 0 0
0 0 0
0 0 0
0 0 0
0 0 0
0 0 0
0 0 0
0 0 0
0 0 0
0 0 0
0 0 0
0 0 0
0 0 0
0 0 0
0 0 0
0 0 0
0 0 0
0 0 0
0 0 0
0 0 0
0 0 0
0 0 0
0 0 0
0 0 0
0 0 0
0 0 0
0 0 0
0 0 0
0 0 0
0 0 0
0 0 0
0 0 0
0 0 0
0 0 0
0 0 0
0 0 0
0 0 0
0 0 0
0 0 0
0 0 0
0 0 0
0 0 0
0 0 0
0 0 0
0 0 0
0 0 0
0 0 0
0 0 0
0 0 0
0 0 0
0 0 0
0 0 0
0 0 0
0 0 0
53.11638 56.48695 61.195705
180.07903 191.52985 207.52473
214.06015 227.67299 246.68777
222.11443 236.25261 255.744
222.13078 236.26183 255.744
222.14291 236.26866 255.744
222.11388 236.25229 255.744
222.14555 236.27014 255.744
222.1389 236.2664 255.744
222.13368 236.26347 255.744
222.1313 236.26213 255.744
222.13052 236.2617 255.744
222.15506 236.27554 255.744
222.1299 236.26132 255.744
222.12447 236.25829 255.744
222.14285 236.26863 255.744
222.13121 236.26208 255.744
222.1428 236.26865 255.744
222.13321 236.26318 255.744
222.14517 236.26996 255.744
222.11284 236.2517 255.744
222.15495 236.2754 255.744
222.1315 236.26225 255.744
222.1209 236.25624 255.744
222.13461 236.26399 255.744
222.11255 236.25156 255.744
222.14008 236.26709 255.744
222.11899 236.25519 255.744
222.11989 236.25566 255.744
222.13962 236.26677 255.744
222.12564 236.25893 255.744
222.11386 236.25226 255.744
222.14262 236.26852 255.744
222.14586 236.27032 255.744
222.15135 236.27339 255.744
222.14174 236.26802 255.744
222.12146 236.25659 255.744
222.13637 236.26498 255.744
222.12242 236.25706 255.744
222.13524 236.26431 255.744
222.13695 236.2653 255.744
222.11833 236.2548 255.744
222.11143 236.2509 255.744
222.11967 236.25557 255.744
222.12555 236.25885 255.744
222.13525 236.26437 255.744
222.13306 236.2631 255.744
222.12811 236.26033 255.744
222.12498 236.25856 255.744
222.14056 236.2673 255.744
222.13904 236.2665 255.744
222.1354 236.26442 255.744
222.14394 236.26926 255.744
222.12903 236.26085 255.744
222.1292 236.26094 255.744
222.12576 236.25896 255.744
222.13655 236.26509 255.744
222.11826 236.25476 255.744
222.11319 236.25192 255.744
222.11844 236.25487 255.744
222.13974 236.2669 255.744
222.14319 236.2688 255.744
222.10901 236.24957 255.744
222.12094 236.25627 255.744
222.14758 236.27132 255.744
222.14006 236.26704 255.744
222.13112 236.26201 255.744
222.12051 236.25604 255.744
222.12486 236.25851 255.744
222.11452 236.25266 255.744
222.12056 236.25606 255.744
222.1259 236.25906 255.744
222.13684 236.26526 255.744
222.146 236.2704 255.744
222.13136 236.26216 255.744
222.1293 236.26097 255.744
222.10832 236.24915 255.744
222.14064 236.26738 255.744
222.14168 236.26796 255.744
222.12924 236.26096 255.744
222.1339 236.26357 255.744
222.11841 236.25487 255.744
222.13744 236.26558 255.744
222.11142 236.2509 255.744
222.12605 236.25917 255.744
222.12628 236.25928 255.744
222.12476 236.25842 255.744
222.14342 236.26897 255.744
222.13855 236.26622 255.744
222.11583 236.25337 255.744
222.11188 236.25114 255.744
222.11104 236.2507 255.744
222.13908 236.26651 255.744
222.11632 236.25368 255.744
222.1223 236.25705 255.744
222.1146 236.2527 255.744
222.11838 236.25482 255.744
222.11673 236.25392 255.744
222.12567 236.25893 255.744
222.13243 236.26273 255.744
222.1359 236.26472 255.744
222.14026 236.2672 255.744
222.11649 236.25374 255.744
222.12968 236.26122 255.744
222.12746 236.25996 255.744
222.12778 236.2601 255.744
222.14716 236.27107 255.744
222.12117 236.2564 255.744
222.12381 236.25789 255.744
222.12628 236.25926 255.744
222.12202 236.25687 255.744
222.13258 236.26283 255.744
222.12186 236.25679 255.744
222.13289 236.26302 255.744
222.12358 236.25777 255.744
222.126 236.25917 255.744
222.11703 236.25409 255.744
222.1285 236.26051 255.744
222.13155 236.26228 255.744
222.11714 236.25414 255.744
222.13298 236.26306 255.744
222.11424 236.2525 255.744
222.12415 236.25809 255.744
222.11708 236.25407 255.744
222.13751 236.26561 255.744
222.13396 236.26363 255.744
222.11075 236.25055 255.744
222.1146 236.25269 255.744
222.12686 236.25963 255.744
222.12729 236.25986 255.744
222.10869 236.24936 255.744
222.13098 236.26198 255.744
222.10954 236.24983 255.744
222.12024 236.25587 255.744
222.132 236.26251 255.744
222.1203 236.25592 255.744
222.13306 236.26309 255.744
222.153 236.27435 255.744
222.1601 236.27837 255.744
222.16473 236.28099 255.744
222.15036 236.27289 255.744
222.13902 236.26648 255.744
222.16168 236.27928 255.744
222.16405 236.2806 255.744
222.14679 236.27089 255.744
222.16327 236.28014 255.744
222.16493 236.28113 255.744
222.15233 236.27396 255.744
222.13992 236.26698 255.744
222.15884 236.27766 255.744
222.16338 236.28021 255.744
222.17276 236.28552 255.744
222.15016 236.27277 255.744
222.16638 236.28192 255.744
222.16673 236.2821 255.744
222.14642 236.27066 255.744
222.15668 236.27643 255.744
222.16599 236.2817 255.744
222.15895 236.27773 255.744
222.13434 236.26384 255.744
222.16628 236.28185 255.744
222.13788 236.26581 255.744
222.15431 236.27512 255.744
222.14772 236.27136 255.744
222.15341 236.27461 255.744
222.16066 236.27867 255.744
222.14565 236.2702 255.744
222.1549 236.27542 255.744
222.14836 236.27173 255.744
222.15999 236.27829 255.744
222.14253 236.26846 255.744
222.16835 236.28302 255.744
222.15265 236.27417 255.744
222.15535 236.27567 255.744
222.14603 236.27043 255.744
222.15736 236.2768 255.744
222.14644 236.27066 255.744
222.16356 236.28032 255.744
222.15717 236.27673 255.744
222.1526 236.27415 255.744
222.15825 236.27734 255.744
222.13487 236.26411 255.744
222.15201 236.27382 255.744
222.14839 236.27177 255.744
222.14355 236.26904 255.744
222.16891 236.28333 255.744
222.1581 236.27724 255.744
222.14848 236.2718 255.744
222.15974 236.27818 255.744
222.14432 236.26949 255.744
222.15923 236.27786 255.744
222.15549 236.27576 255.744
222.156 236.27603 255.744
222.16612 236.28175 255.744
222.1465 236.2707 255.744
222.141 236.26761 255.744
222.17665 236.2877 255.744
222.16179 236.27933 255.744
222.1707 236.28438 255.744
222.16902 236.2834 255.744
222.15822 236.27733 255.744
222.157 236.27664 255.744
222.15825 236.27734 255.744
222.16025 236.27844 255.744
222.16302 236.28003 255.744
222.15895 236.2777 255.744
222.15466 236.2753 255.744
222.17108 236.28458 255.744
222.18388 236.29178 255.744
222.15071 236.27307 255.744
222.17253 236.28537 255.744
222.15295 236.27432 255.744
222.17004 236.28398 255.744
222.18915 236.29477 255.744
222.16286 236.2799 255.744
222.15352 236.27463 255.744
222.1721 236.28514 255.744
222.14034 236.2672 255.744
222.18633 236.29314 255.744
222.15479 236.27538 255.744
222.1871 236.2936 255.744
222.16895 236.28336 255.744
222.16179 236.27933 255.744
222.15175 236.27364 255.744
222.16544 236.28136 255.744
222.15451 236.27522 255.744
222.15501 236.27551 255.744
222.15681 236.27649 255.744
222.16214 236.27953 255.744
222.14613 236.27051 255.744
222.17235 236.28531 255.744
222.15138 236.27345 255.744
222.16531 236.28131 255.744
222.17548 236.28705 255.744
222.15564 236.27585 255.744
222.16524 236.28125 255.744
222.1593 236.2779 255.744
222.16772 236.28267 255.744
222.13553 236.26448 255.744
222.15457 236.27525 255.744
222.16632 236.28189 255.744
222.14902 236.27208 255.744
222.17557 236.28706 255.744
222.15485 236.2754 255.744
222.14908 236.27214 255.744
222.16418 236.28067 255.744
222.15244 236.27406 255.744
222.16557 236.28143 255.744
222.1699 236.28387 255.744
222.16808 236.28285 255.744
222.16714 236.28238 255.744
222.17453 236.2865 255.744
222.16208 236.27951 255.744
222.16069 236.27869 255.744
222.16046 236.27856 255.744
222.16165 236.27925 255.744
222.15276 236.27423 255.744
222.14397 236.26927 255.744
222.17195 236.28502 255.744
222.14243 236.26839 255.744
222.15323 236.27449 255.744
222.1691 236.28343 255.744
222.14665 236.27078 255.744
222.15688 236.27655 255.744
222.17212 236.28514 255.744
222.15237 236.27399 255.744
222.15755 236.27693 255.744
222.1774 236.28812 255.744
222.13821 236.266 255.744
222.14322 236.26886 255.744
222.15326 236.27452 255.744
222.18452 236.29214 255.744
222.17494 236.28676 255.744
222.15878 236.27759 255.744
222.16338 236.2802 255.744
222.15944 236.27795 255.744
222.19435 236.2977 255.744
222.15524 236.27562 255.744
222.13957 236.26677 255.744
222.14081 236.26747 255.744
222.16626 236.28186 255.744
222.15836 236.27739 255.744
222.19064 236.29561 255.744
222.15663 236.2764 255.744
222.17166 236.28488 255.744
222.18039 236.28984 255.744
222.17204 236.28508 255.744
222.16841 236.28305 255.744
222.16791 236.2828 255.744
222.15819 236.27728 255.744
222.1721 236.28516 255.744
222.15323 236.2745 255.744
222.1619 236.27937 255.744
222.1937 236.29732 255.744
222.15674 236.27646 255.744
222.15746 236.27686 255.744
222.17596 236.2873 255.744
222.14285 236.26866 255.744
222.15907 236.27777 255.744
222.15306 236.2744 255.744
222.18419 236.29195 255.744
222.15277 236.27422 255.744
222.16756 236.28256 255.744
222.15283 236.27428 255.744
222.18088 236.29008 255.744
222.17076 236.2844 255.744
222.1697 236.28378 255.744
222.16975 236.28381 255.744
222.18875 236.29454 255.744
222.16782 236.28271 255.744
222.181 236.29016 255.744
222.17723 236.28806 255.744
222.1647 236.28096 255.744
222.16647 236.28198 255.744
222.17212 236.28517 255.744
222.17822 236.28859 255.744
222.17331 236.28581 255.744
222.15213 236.27388 255.744
222.17032 236.28412 255.744
222.17426 236.28636 255.744
222.17554 236.28708 255.744
222.14734 236.27116 255.744
222.15363 236.2747 255.744
222.14716 236.27107 255.744
222.19064 236.29558 255.744
222.16629 236.28185 255.744
222.16028 236.27846 255.744
222.14668 236.2708 255.744
222.17177 236.28496 255.744
222.16707 236.28229 255.744
218.96387 232.87875 252.31636
214.10591 227.6988 246.68777
189.59825 201.66199 218.51237
165.79192 176.34438 191.08353
147.81613 157.22278 170.36163
118.70819 126.272766 136.83775
88.02852 93.64197 101.4816
59.33792 63.127262 68.41888
26.541887 28.234278 30.597853
0 0 0
0 0 0
0 0 0
0 0 0
0 0 0
0 0 0
0 0 0
0 0 0
0 0 0
0 0 0
0 0 0
0 0 0
0 0 0
0 0 0
0 0 0
0 0 0
0 0 0
0 0 0
0 0 0
0 0 0
0 0 0
0 0 0
0 0 0
0 0 0
0 0 0
0 0 0
0 0 0
0 0 0
0 0 0
0 0 0
0 0 0
0 0 0
0 0 0
0 0 0
0 0 0
0 0 0
0 0 0
0 0 0
0 0 0
0 0 0
0 0 0
0 0 0
0 0 0
0 0 0
0 0 0
0 0 0
0 0 0
0 0 0
0 0 0
0 0 0
0 0 0
0 0 0
0 0 0
0 0 0
0 0 0
0 0 0
0 0 0
0 0 0
0 0 0
0 0 0
0 0 0
0 0 0
0 0 0
0 0 0
0 0 0
0 0 0
0 0 0
0 0 0
0 0 0
0 0 0
0 0 0
0 0 0
0 0 0
0 0 0
0 0 0
0 0 0
0 0 0
0 0 0
0 0 0
0 0 0
0 0 0
0 0 0
0 0 0
0 0 0
0 0 0
0 0 0
0 0 0
0 0 0
0 0 0
0 0 0
0 0 0
0 0 0
0 0 0
0 0 0
0 0 0
0 0 0
0 0 0
0 0 0
0 0 0
0 0 0
0 0 0
0 0 0
0 0 0
0 0 0
0 0 0
0 0 0
0 0 0
0 0 0
0 0 0
0 0 0
0 0 0
0 0 0
0 0 0
0 0 0
0 0 0
0 0 0
0 0 0
0 0 0
0 0 0
0 0 0
0 0 0
0 0 0
0 0 0
0 0 0
0 0 0
0 0 0
0 0 0
0 0 0
0 0 0
0 0 0
0 0 0
0 0 0
0 0 0
0 0 0
0 0 0
0 0 0
0 0 0
0 0 0
0 0 0
0 0 0
0 0 0
0 0 0
0 0 0
79.63718 84.70933 91.79356
115.70449 123.076614 133.37296
172.05246 183.00237 198.29675
191.47716 203.6459 220.64426
217.35463 231.1639 250.45422
180.11061 191.54765 207.52473
79.67867 84.73274 91.79356
26.572197 28.251379 30.597853
0 0 0
0 0 0
0 0 0
0 0 0
0 0 0
0 0 0
0 0 0
0 0 0
0 0 0
0 0 0
0 0 0
0 0 0
0 0 0
0 0 0
0 0 0
0 0 0
0 0 0
0 0 0
0 0 0
0 0 0
0 0 0
0 0 0
0 0 0
0 0 0
0 0 0
0 0 0
0 0 0
0 0 0
0 0 0
0 0 0
0 0 0
0 0 0
0 0 0
0 0 0
0 0 0
0 0 0
0 0 0
0 0 0
0 0 0
0 0 0
0 0 0
0 0 0
0 0 0
0 0 0
0 0 0
0 0 0
0 0 0
0 0 0
0 0 0
0 0 0
0 0 0
0 0 0
0 0 0
0 0 0
0 0 0
0 0 0
0 0 0
0 0 0
0 0 0
0 0 0
0 0 0
0 0 0
0 0 0
0 0 0
0 0 0
0 0 0
0 0 0
0 0 0
0 0 0
0 0 0
0 0 0
0 0 0
0 0 0
0 0 0
0 0 0
0 0 0
0 0 0
0 0 0
0 0 0
0 0 0
0 0 0
0 0 0
0 0 0
0 0 0
0 0 0
0 0 0
0 0 0
0 0 0
0 0 0
0 0 0
0 0 0
0 0 0
0 0 0
0 0 0
0 0 0
0 0 0
0 0 0
0 0 0
0 0 0
0 0 0
0 0 0
0 0 0
0 0 0
0 0 0
0 0 0
0 0 0
0 0 0
0 0 0
0 0 0
0 0 0
0 0 0
0 0 0
102.85993 109.386795 118.504974
167.94545 178.61427 193.5178
220.57593 234.58931 254.16486
222.17233 236.28528 255.744
222.14119 236.26773 255.744
222.17656 236.28761 255.744
222.1634 236.28026 255.744
222.1736 236.286 255.744
222.17772 236.28828 255.744
222.15228 236.27394 255.744
222.16542 236.28139 255.744
222.15622 236.27618 255.744
222.1645 236.28085 255.744
222.15723 236.27673 255.744
222.18045 236.28986 255.744
222.16025 236.27843 255.744
222.14447 236.26953 255.744
222.18274 236.2911 255.744
222.16437 236.28079 255.744
222.17282 236.28555 255.744
222.14685 236.27089 255.744
222.14517 236.26994 255.744
222.19237 236.29655 255.744
222.16626 236.28183 255.744
222.17583 236.28722 255.744
222.1567 236.27644 255.744
222.1556 236.27582 255.744
222.16954 236.28369 255.744
222.1591 236.27779 255.744
222.16344 236.28026 255.744
222.17464 236.28659 255.744
222.14738 236.27121 255.744
222.15964 236.27812 255.744
222.15582 236.27594 255.744
222.15318 236.27444 255.744
222.16202 236.27945 255.744
222.15747 236.27686 255.744
222.17345 236.28586 255.744
222.16434 236.28076 255.744
222.16039 236.27849 255.744
222.15878 236.27763 255.744
222.16605 236.28172 255.744
222.17557 236.2871 255.744
222.15858 236.2775 255.744
222.18004 236.2896 255.744
222.16107 236.27892 255.744
222.16678 236.28215 255.744
222.1491 236.27216 255.744
222.1535 236.27463 255.744
222.14948 236.27235 255.744
222.14243 236.26837 255.744
222.16768 236.28265 255.744
222.17557 236.28706 255.744
222.15237 236.274 255.744
222.16542 236.28134 255.744
222.13312 236.2631 255.744
222.16907 236.28343 255.744
222.16087 236.27882 255.744
222.16391 236.28053 255.744
222.15207 236.27382 255.744
222.15483 236.27538 255.744
222.1734 236.28587 255.744
222.17093 236.28448 255.744
222.15842 236.27742 255.744
222.17363 236.286 255.744
222.15244 236.27403 255.744
222.14078 236.26747 255.744
222.18135 236.29033 255.744
222.15527 236.27567 255.744
222.17336 236.28584 255.744
222.14763 236.27132 255.744
222.16422 236.2807 255.744
222.15198 236.27379 255.744
222.15503 236.27551 255.744
222.17014 236.28401 255.744
222.15671 236.27647 255.744
222.14 236.26703 255.744
222.18025 236.28975 255.744
222.15778 236.27705 255.744
222.16641 236.2819 255.744
222.16167 236.27924 255.744
222.15016 236.27277 255.744
222.16183 236.27934 255.744
222.1606 236.27864 255.744
222.15659 236.27637 255.744
222.16916 236.28348 255.744
222.1541 236.27498 255.744
222.14066 236.2674 255.744
222.15639 236.27628 255.744
222.17018 236.28406 255.744
222.15576 236.27592 255.744
222.14304 236.26875 255.744
222.15265 236.27417 255.744
222.15475 236.27538 255.744
222.15355 236.27466 255.744
222.14262 236.26854 255.744
222.15643 236.27628 255.744
222.17313 236.28572 255.744
222.15413 236.27501 255.744
222.1507 236.27304 255.744
222.1517 236.27362 255.744
222.14201 236.26814 255.744
222.14285 236.26862 255.744
222.15315 236.27443 255.744
222.14565 236.27019 255.744
222.13431 236.26381 255.744
222.16096 236.27888 255.744
222.16142 236.27911 255.744
222.15613 236.27611 255.744
222.14029 236.26718 255.744
222.17245 236.28532 255.744
222.15862 236.27754 255.744
222.17714 236.28798 255.744
222.16655 236.282 255.744
222.14249 236.26842 255.744
222.16014 236.27841 255.744
222.14307 236.26875 255.744
222.1539 236.27487 255.744
222.16159 236.2792 255.744
222.15556 236.2758 255.744
222.13364 236.26344 255.744
222.16623 236.28178 255.744
222.17621 236.28746 255.744
222.14919 236.2722 255.744
222.15028 236.27283 255.744
222.15123 236.27338 255.744
222.16985 236.28387 255.744
222.15157 236.27354 255.744
222.1567 236.27644 255.744
222.15538 236.27574 255.744
222.18492 236.29237 255.744
222.16661 236.28204 255.744
222.15205 236.27383 255.744
222.15346 236.27461 255.744
222.16109 236.27893 255.744
222.17761 236.28825 255.744
222.19069 236.29561 255.744
222.20213 236.30206 255.744
222.1952 236.29819 255.744
222.18076 236.29001 255.744
222.17517 236.28685 255.744
222.18713 236.29361 255.744
222.18636 236.2932 255.744
222.17914 236.28906 255.744
222.18495 236.29236 255.744
222.1781 236.28851 255.744
222.17555 236.2871 255.744
222.20082 236.30133 255.744
222.18864 236.2945 255.744
222.19704 236.29921 255.744
222.18645 236.29321 255.744
222.17847 236.28873 255.744
222.18568 236.29282 255.744
222.17989 236.28952 255.744
222.21042 236.30676 255.744
222.19606 236.29865 255.744
222.1976 236.29951 255.744
222.20241 236.30223 255.744
222.20111 236.3015 255.744
222.17097 236.28453 255.744
222.18599 236.293 255.744
222.18863 236.29448 255.744
222.18527 236.29254 255.744
222.16946 236.28365 255.744
222.1948 236.29793 255.744
222.20555 236.30402 255.744
222.18866 236.29446 255.744
222.19966 236.30067 255.744
222.18417 236.29192 255.744
222.17613 236.28743 255.744
222.17848 236.28873 255.744
222.18379 236.29172 255.744
222.2154 236.30954 255.744
222.17494 236.28674 255.744
222.17538 236.287 255.744
222.18687 236.29347 255.744
222.18965 236.29506 255.744
222.17969 236.28943 255.744
222.1806 236.2899 255.744
222.16904 236.2834 255.744
222.18307 236.2913 255.744
222.1806 236.28995 255.744
222.1705 236.28426 255.744
222.1662 236.28183 255.744
222.17813 236.28854 255.744
222.19875 236.30017 255.744
222.19368 236.29732 255.744
222.17226 236.28525 255.744
222.17862 236.2888 255.744
222.18712 236.29362 255.744
222.19835 236.29997 255.744
222.19994 236.30084 255.744
222.16397 236.28052 255.744
222.17142 236.28476 255.744
222.18759 236.29387 255.744
222.19395 236.29747 255.744
222.18929 236.29483 255.744
222.17218 236.28517 255.744
222.18784 236.294 255.744
222.18199 236.29071 255.744
222.18639 236.2932 255.744
222.18858 236.29446 255.744
222.20721 236.30495 255.744
222.19124 236.29596 255.744
222.18369 236.2917 255.744
222.19742 236.29942 255.744
222.20682 236.30472 255.744
222.19095 236.29578 255.744
222.19676 236.29906 255.744
222.18353 236.2916 255.744
222.19551 236.29836 255.744
222.18956 236.29498 255.744
222.20256 236.30229 255.744
222.20422 236.30327 255.744
222.19556 236.29836 255.744
222.19162 236.29613 255.744
222.18169 236.29056 255.744
222.18568 236.29282 255.744
222.18123 236.29027 255.744
222.19164 236.29614 255.744
222.19339 236.29712 255.744
222.20213 236.30206 255.744
222.19644 236.29886 255.744
222.17395 236.28618 255.744
222.18497 236.29239 255.744
222.19133 236.29599 255.744
222.16635 236.28186 255.744
222.17424 236.28632 255.744
222.19061 236.29558 255.744
222.19647 236.2989 255.744
222.1933 236.29709 255.744
222.18942 236.2949 255.744
222.1821 236.29076 255.744
222.20537 236.30391 255.744
222.18892 236.29462 255.744
222.19641 236.29886 255.744
222.18774 236.29395 255.744
222.19238 236.29659 255.744
222.19434 236.29767 255.744
222.17978 236.28946 255.744
222.1917 236.29619 255.744
222.21172 236.30753 255.744
222.20473 236.30354 255.744
222.196 236.29863 255.744
222.19806 236.29977 255.744
222.19377 236.29736 255.744
222.19789 236.29968 255.744
222.17818 236.28857 255.744
222.18037 236.28981 255.744
222.19153 236.29608 255.744
222.21516 236.30942 255.744
222.21255 236.30797 255.744
222.1727 236.28546 255.744
222.17934 236.28923 255.744
222.18451 236.29214 255.744
222.18483 236.29231 255.744
222.18962 236.29503 255.744
222.19548 236.29836 255.744
222.20192 236.30197 255.744
222.18773 236.29393 255.744
222.20041 236.30112 255.744
222.20541 236.3039 255.744
222.19629 236.29877 255.744
222.1781 236.28853 255.744
222.22575 236.3154 255.744
222.18951 236.29497 255.744
222.20815 236.30547 255.744
222.19417 236.29759 255.744
222.193 236.29692 255.744
222.1811 236.29019 255.744
222.20273 236.30241 255.744
222.18597 236.29298 255.744
222.1926 236.2967 255.744
222.21277 236.30806 255.744
222.20682 236.30472 255.744
222.19229 236.29652 255.744
222.19334 236.29713 255.744
222.18034 236.28975 255.744
222.18575 236.2928 255.744
222.21268 236.30807 255.744
222.19955 236.30064 255.744
222.19931 236.30048 255.744
222.18958 236.295 255.744
222.20363 236.30292 255.744
222.21446 236.30902 255.744
222.19658 236.29897 255.744
222.20369 236.30295 255.744
222.1974 236.29938 255.744
222.20993 236.30647 255.744
222.20665 236.30463 255.744
222.19847 236.30003 255.744
222.17639 236.28757 255.744
222.18275 236.29114 255.744
222.18182 236.29063 255.744
222.20901 236.30595 255.744
222.2037 236.30298 255.744
222.21631 236.31009 255.744
222.19385 236.29741 255.744
222.19235 236.29655 255.744
222.19496 236.29799 255.744
222.1939 236.29744 255.744
222.19403 236.29752 255.744
222.20174 236.30186 255.744
222.19421 236.29762 255.744
222.19206 236.2964 255.744
222.19377 236.29736 255.744
222.21262 236.30798 255.744
222.19153 236.29611 255.744
222.20337 236.30276 255.744
222.20256 236.3023 255.744
222.22223 236.3134 255.744
222.18701 236.29355 255.744
222.20293 236.3025 255.744
222.22076 236.31258 255.744
222.19026 236.2954 255.744
222.19199 236.29636 255.744
222.18839 236.29428 255.744
222.21745 236.31073 255.744
222.2098 236.30638 255.744
222.21219 236.30777 255.744
222.20544 236.30396 255.744
222.21059 236.30685 255.744
222.19937 236.3005 255.744
222.2145 236.30904 255.744
222.20648 236.3045 255.744
222.19353 236.29721 255.744
222.18283 236.29117 255.744
222.2102 236.30664 255.744
209.1022 222.37965 240.92773
198.71854 211.34084 228.97336
167.9257 178.60313 193.5178
142.96822 152.06644 164.77448
121.659195 129.40207 140.21698
75.087105 79.86724 86.54379
53.083603 56.46846 61.195705
0 0 0
0 0 0
0 0 0
0 0 0
0 0 0
0 0 0
0 0 0
0 0 0
0 0 0
0 0 0
0 0 0
0 0 0
0 0 0
0 0 0
0 0 0
0 0 0
0 0 0
0 0 0
0 0 0
0 0 0
0 0 0
0 0 0
0 0 0
0 0 0
0 0 0
0 0 0
0 0 0
0 0 0
0 0 0
0 0 0
0 0 0
0 0 0
0 0 0
0 0 0
0 0 0
0 0 0
0 0 0
0 0 0
0 0 0
0 0 0
0 0 0
0 0 0
0 0 0
0 0 0
0 0 0
0 0 0
0 0 0
0 0 0
0 0 0
0 0 0
0 0 0
0 0 0
0 0 0
0 0 0
0 0 0
0 0 0
0 0 0
0 0 0
0 0 0
0 0 0
0 0 0
0 0 0
0 0 0
0 0 0
0 0 0
0 0 0
0 0 0
0 0 0
0 0 0
0 0 0
0 0 0
0 0 0
0 0 0
0 0 0
0 0 0
0 0 0
0 0 0
0 0 0
0 0 0
0 0 0
0 0 0
0 0 0
0 0 0
0 0 0
0 0 0
0 0 0
0 0 0
0 0 0
0 0 0
0 0 0
0 0 0
0 0 0
0 0 0
0 0 0
0 0 0
0 0 0
0 0 0
0 0 0
0 0 0
0 0 0
0 0 0
0 0 0
0 0 0
0 0 0
0 0 0
0 0 0
0 0 0
0 0 0
0 0 0
0 0 0
0 0 0
0 0 0
0 0 0
0 0 0
0 0 0
0 0 0
0 0 0
0 0 0
0 0 0
0 0 0
0 0 0
0 0 0
0 0 0
0 0 0
0 0 0
0 0 0
0 0 0
0 0 0
0 0 0
0 0 0
0 0 0
0 0 0
0 0 0
0 0 0
0 0 0
0 0 0
0 0 0
0 0 0
0 0 0
0 0 0
0 0 0
0 0 0
0 0 0
0 0 0
0 0 0
0 0 0
45.97136 48.902905 52.997036
121.650505 129.39717 140.21698
130.08061 138.34874 149.89825
83.99634 89.32046 96.7589
26.576828 28.253992 30.597853
0 0 0
0 0 0
0 0 0
0 0 0
0 0 0
0 0 0
0 0 0
0 0 0
0 0 0
0 0 0
0 0 0
0 0 0
0 0 0
0 0 0
0 0 0
0 0 0
0 0 0
0 0 0
0 0 0
0 0 0
0 0 0
0 0 0
0 0 0
0 0 0
0 0 0
0 0 0
0 0 0
0 0 0
0 0 0
0 0 0
0 0 0
0 0 0
0 0 0
0 0 0
0 0 0
0 0 0
0 0 0
0 0 0
0 0 0
0 0 0
0 0 0
0 0 0
0 0 0
0 0 0
0 0 0
0 0 0
0 0 0
0 0 0
0 0 0
0 0 0
0 0 0
0 0 0
0 0 0
0 0 0
0 0 0
0 0 0
0 0 0
0 0 0
0 0 0
0 0 0
0 0 0
0 0 0
0 0 0
0 0 0
0 0 0
0 0 0
0 0 0
0 0 0
0 0 0
0 0 0
0 0 0
0 0 0
0 0 0
0 0 0
0 0 0
0 0 0
0 0 0
0 0 0
0 0 0
0 0 0
0 0 0
0 0 0
0 0 0
0 0 0
0 0 0
0 0 0
0 0 0
0 0 0
0 0 0
0 0 0
0 0 0
0 0 0
0 0 0
0 0 0
0 0 0
0 0 0
0 0 0
0 0 0
0 0 0
0 0 0
0 0 0
0 0 0
0 0 0
0 0 0
0 0 0
0 0 0
0 0 0
0 0 0
0 0 0
0 0 0
0 0 0
0 0 0
0 0 0
0 0 0
0 0 0
26.573177 28.251932 30.597853
124.58765 132.48418 143.51665
189.67566 201.70564 218.51237
222.19489 236.29797 255.744
222.1879 236.29404 255.744
222.206 236.30424 255.744
222.19012 236.29532 255.744
222.18999 236.29523 255.744
222.20984 236.30646 255.744
222.1977 236.29958 255.744
222.19383 236.29738 255.744
222.19331 236.2971 255.744
222.20491 236.30365 255.744
222.18765 236.2939 255.744
222.19966 236.30066 255.744
222.19095 236.29578 255.744
222.18724 236.2937 255.744
222.19821 236.29985 255.744
222.189 236.2947 255.744
222.20192 236.30199 255.744
222.18697 236.2935 255.744
222.21603 236.30992 255.744
222.19743 236.29941 255.744
222.21727 236.31061 255.744
222.19174 236.29622 255.744
222.19324 236.29706 255.744
222.20688 236.30472 255.744
222.19144 236.29605 255.744
222.18541 236.29263 255.744
222.17474 236.28665 255.744
222.20345 236.30283 255.744
222.19379 236.29736 255.744
222.1937 236.2973 255.744
222.1923 236.29652 255.744
222.18925 236.29482 255.744
222.21199 236.30768 255.744
222.19957 236.30064 255.744
222.17314 236.28572 255.744
222.18166 236.29053 255.744
222.18964 236.29503 255.744
222.20284 236.30246 255.744
222.18129 236.29031 255.744
222.18915 236.29478 255.744
222.19402 236.29749 255.744
222.18393 236.29181 255.744
222.17223 236.28519 255.744
222.20256 236.30232 255.744
222.18025 236.28972 255.744
222.18973 236.29509 255.744
222.19339 236.29715 255.744
222.20317 236.30269 255.744
222.2041 236.3032 255.744
222.1881 236.29419 255.744
222.19666 236.29898 255.744
222.18384 236.29173 255.744
222.19502 236.29808 255.744
222.20078 236.30133 255.744
222.16397 236.28056 255.744
222.19061 236.29558 255.744
222.20233 236.30222 255.744
222.20969 236.30632 255.744
222.1944 236.29771 255.744
222.20833 236.30556 255.744
222.20123 236.30159 255.744
222.19153 236.2961 255.744
222.1859 236.29292 255.744
222.18152 236.29047 255.744
222.18233 236.2909 255.744
222.20256 236.30235 255.744
222.1878 236.29402 255.744
222.17584 236.28723 255.744
222.2163 236.31004 255.744
222.19666 236.29898 255.744
222.20264 236.30234 255.744
222.19514 236.29816 255.744
222.19475 236.29791 255.744
222.18788 236.29402 255.744
222.17874 236.28888 255.744
222.20782 236.30528 255.744
222.19296 236.2969 255.744
222.21404 236.30879 255.744
222.19678 236.29907 255.744
222.19324 236.29707 255.744
222.17554 236.2871 255.744
222.19214 236.29646 255.744
222.18637 236.29317 255.744
222.18227 236.29086 255.744
222.18237 236.29094 255.744
222.20352 236.30289 255.744
222.17432 236.28638 255.744
222.19289 236.29688 255.744
222.17209 236.28516 255.744
222.1822 236.29083 255.744
222.1976 236.29951 255.744
222.17886 236.28897 255.744
222.18524 236.29254 255.744
222.19318 236.29701 255.744
222.1827 236.29114 255.744
222.20657 236.3046 255.744
222.19948 236.30061 255.744
222.17703 236.28789 255.744
222.20894 236.3059 255.744
222.19011 236.29529 255.744
222.16292 236.27994 255.744
222.1903 236.29544 255.744
222.20593 236.30423 255.744
222.19505 236.29808 255.744
222.17673 236.28773 255.744
222.19493 236.29802 255.744
222.1863 236.29312 255.744
222.17934 236.28923 255.744
222.18974 236.29512 255.744
222.18118 236.29027 255.744
222.17827 236.28864 255.744
222.18463 236.29222 255.744
222.19179 236.29626 255.744
222.1888 236.29454 255.744
222.19151 236.29607 255.744
222.19688 236.29915 255.744
222.19835 236.29996 255.744
222.18668 236.29335 255.744
222.18765 236.29388 255.744
222.1866 236.29332 255.744
222.19568 236.29843 255.744
222.16853 236.28311 255.744
222.20027 236.30104 255.744
222.1848 236.29231 255.744
222.18738 236.29375 255.744
222.18784 236.294 255.744
222.18655 236.2933 255.744
222.19907 236.30035 255.744
222.18326 236.29144 255.744
222.1935 236.2972 255.744
222.18683 236.29344 255.744
222.21706 236.31049 255.744
222.23036 236.318 255.744
222.21407 236.30884 255.744
222.22266 236.31366 255.744
222.20248 236.30226 255.744
222.22676 236.31598 255.744
222.22018 236.31227 255.744
222.22447 236.31468 255.744
222.20215 236.30211 255.744
222.2165 236.31018 255.744
222.22258 236.31363 255.744
222.24773 236.32782 255.744
222.2059 236.30423 255.744
222.21901 236.31161 255.744
222.24095 236.32399 255.744
222.22713 236.31616 255.744
222.21239 236.30786 255.744
222.21017 236.30666 255.744
222.21112 236.30716 255.744
222.22633 236.31573 255.744
222.20197 236.30197 255.744
222.2262 236.31566 255.744
222.2222 236.31342 255.744
222.21931 236.31178 255.744
222.22034 236.31236 255.744
222.19974 236.30074 255.744
222.21902 236.31161 255.744
222.21272 236.30803 255.744
222.22725 236.31622 255.744
222.19786 236.29967 255.744
222.2329 236.31941 255.744
222.24287 236.32507 255.744
222.21805 236.31107 255.744
222.22379 236.3143 255.744
222.2308 236.3183 255.744
222.23047 236.31807 255.744
222.22887 236.31717 255.744
222.22412 236.31445 255.744
222.23125 236.31854 255.744
222.20969 236.30632 255.744
222.21909 236.31163 255.744
222.20676 236.30467 255.744
222.20718 236.30495 255.744
222.23647 236.32149 255.744
222.20395 236.30309 255.744
222.20839 236.30559 255.744
222.21884 236.3115 255.744
222.19402 236.29752 255.744
222.212 236.30765 255.744
222.20474 236.30356 255.744
222.22903 236.31728 255.744
222.21777 236.31088 255.744
222.22018 236.31224 255.744
222.20805 236.30544 255.744
222.22575 236.31543 255.744
222.21881 236.31148 255.744
222.21506 236.30939 255.744
222.22824 236.3168 255.744
222.22806 236.31671 255.744
222.2409 236.32397 255.744
222.2066 236.30461 255.744
222.21823 236.31117 255.744
222.23317 236.31958 255.744
222.22012 236.31221 255.744
222.23642 236.32144 255.744
222.22823 236.31682 255.744
222.21135 236.3073 255.744
222.23222 236.31906 255.744
222.22957 236.31758 255.744
222.23526 236.32079 255.744
222.2465 236.32709 255.744
222.21994 236.31215 255.744
222.2352 236.32072 255.744
222.21785 236.31093 255.744
222.2222 236.3134 255.744
222.2254 236.31517 255.744
222.24431 236.32587 255.744
222.23468 236.32042 255.744
222.2036 236.30293 255.744
222.22182 236.31316 255.744
222.23244 236.31915 255.744
222.24127 236.32419 255.744
222.22185 236.31319 255.744
222.23203 236.31894 255.744
222.23607 236.3212 255.744
222.2188 236.31146 255.744
222.2402 236.32356 255.744
222.21532 236.30951 255.744
222.21947 236.31186 255.744
222.23985 236.32336 255.744
222.21875 236.31146 255.744
222.21022 236.30663 255.744
222.22823 236.31682 255.744
222.2399 236.3234 255.744
222.20488 236.3036 255.744
222.22684 236.31604 255.744
222.22272 236.31367 255.744
222.2343 236.32022 255.744
222.24738 236.32764 255.744
222.24046 236.32372 255.744
222.21153 236.30736 255.744
222.25229 236.33041 255.744
222.2095 236.30626 255.744
222.22626 236.3157 255.744
222.23175 236.31879 255.744
222.2368 236.32166 255.744
222.23782 236.32219 255.744
222.23926 236.32304 255.744
222.23006 236.31783 255.744
222.23048 236.31807 255.744
222.2399 236.32336 255.744
222.24391 236.32564 255.744
222.23477 236.3205 255.744
222.22868 236.31705 255.744
222.23187 236.31888 255.744
222.21654 236.3102 255.744
222.21573 236.30977 255.744
222.24043 236.32367 255.744
222.22583 236.31544 255.744
222.2216 236.31305 255.744
222.22014 236.31224 255.744
222.21997 236.31216 255.744
222.24986 236.329 255.744
222.22423 236.31451 255.744
222.2439 236.32565 255.744
222.21272 236.30804 255.744
222.22719 236.31622 255.744
222.22227 236.31345 255.744
222.21857 236.31136 255.744
222.21783 236.31094 255.744
222.22 236.31216 255.744
222.24562 236.32661 255.744
222.21893 236.31155 255.744
222.23079 236.31827 255.744
222.22725 236.31627 255.744
222.23088 236.3183 255.744
222.22624 236.31566 255.744
222.23347 236.31978 255.744
222.22202 236.31328 255.744
222.24617 236.32693 255.744
222.24654 236.32715 255.744
222.22694 236.31609 255.744
222.2283 236.31686 255.744
222.24626 236.32701 255.744
222.22612 236.3156 255.744
222.22862 236.31702 255.744
222.2184 236.31126 255.744
222.22313 236.31392 255.744
222.20839 236.30565 255.744
222.23412 236.32011 255.744
222.21724 236.31061 255.744
222.23254 236.31921 255.744
222.2255 236.31526 255.744
222.22745 236.31633 255.744
222.21613 236.30995 255.744
222.22101 236.31274 255.744
222.23253 236.31921 255.744
222.2323 236.31912 255.744
222.23828 236.32248 255.744
222.22769 236.31647 255.744
222.22517 236.31508 255.744
222.22723 236.31624 255.744
222.22444 236.31465 255.744
222.23772 236.32216 255.744
222.22449 236.31471 255.744
222.22081 236.31262 255.744
222.2269 236.31604 255.744
222.22452 236.31471 255.744
222.23303 236.31949 255.744
222.23352 236.3198 255.744
222.22647 236.31583 255.744
222.24547 236.32652 255.744
222.21909 236.31165 255.744
222.23563 236.32098 255.744
222.22552 236.31528 255.744
222.23543 236.32089 255.744
222.22688 236.31606 255.744
222.217 236.31047 255.744
222.21466 236.30914 255.744
222.23463 236.3204 255.744
222.21532 236.30952 255.744
222.21321 236.30829 255.744
222.23174 236.31879 255.744
222.23532 236.3208 255.744
222.22841 236.31691 255.744
222.23969 236.32329 255.744
222.21407 236.30878 255.744
222.21246 236.30789 255.744
222.2289 236.31717 255.744
222.2357 236.32104 255.744
222.22784 236.31659 255.744
214.14055 227.71835 246.68777
205.74144 218.78575 237.00995
191.51053 203.66473 220.64426
161.55296 171.80162 186.11948
118.74802 126.29522 136.83775
124.530014 132.45168 143.51665
83.96174 89.30094 96.7589
26.542507 28.234629 30.597853
0 0 0
0 0 0
0 0 0
0 0 0
0 0 0
0 0 0
0 0 0
0 0 0
0 0 0
0 0 0
0 0 0
0 0 0
0 0 0
0 0 0
0 0 0
0 0 0
0 0 0
0 0 0
0 0 0
0 0 0
0 0 0
0 0 0
0 0 0
0 0 0
0 0 0
0 0 0
0 0 0
0 0 0
0 0 0
0 0 0
0 0 0
0 0 0
0 0 0
0 0 0
0 0 0
0 0 0
0 0 0
0 0 0
0 0 0
0 0 0
0 0 0
0 0 0
0 0 0
0 0 0
0 0 0
0 0 0
0 0 0
0 0 0
0 0 0
0 0 0
0 0 0
0 0 0
0 0 0
0 0 0
0 0 0
0 0 0
0 0 0
0 0 0
0 0 0
0 0 0
0 0 0
0 0 0
0 0 0
0 0 0
0 0 0
0 0 0
0 0 0
0 0 0
0 0 0
0 0 0
0 0 0
0 0 0
0 0 0
0 0 0
0 0 0
0 0 0
0 0 0
0 0 0
0 0 0
0 0 0
0 0 0
0 0 0
0 0 0
0 0 0
0 0 0
0 0 0
0 0 0
0 0 0
0 0 0
0 0 0
0 0 0
0 0 0
0 0 0
0 0 0
0 0 0
0 0 0
0 0 0
0 0 0
0 0 0
0 0 0
0 0 0
0 0 0
0 0 0
0 0 0
0 0 0
0 0 0
0 0 0
0 0 0
0 0 0
0 0 0
0 0 0
0 0 0
0 0 0
0 0 0
0 0 0
0 0 0
0 0 0
0 0 0
0 0 0
0 0 0
0 0 0
0 0 0
0 0 0
0 0 0
0 0 0
0 0 0
0 0 0
0 0 0
0 0 0
0 0 0
0 0 0
0 0 0
0 0 0
0 0 0
0 0 0
0 0 0
0 0 0
0 0 0
0 0 0
0 0 0
0 0 0
0 0 0
0 0 0
0 0 0
0 0 0
0 0 0
0 0 0
0 0 0
26.5485 28.238008 30.597853
0 0 0
0 0 0
0 0 0
0 0 0
0 0 0
0 0 0
0 0 0
0 0 0
0 0 0
0 0 0
0 0 0
0 0 0
0 0 0
0 0 0
0 0 0
0 0 0
0 0 0
0 0 0
0 0 0
0 0 0
0 0 0
0 0 0
0 0 0
0 0 0
0 0 0
0 0 0
0 0 0
0 0 0
0 0 0
0 0 0
0 0 0
0 0 0
0 0 0
0 0 0
0 0 0
0 0 0
0 0 0
0 0 0
0 0 0
0 0 0
0 0 0
0 0 0
0 0 0
0 0 0
0 0 0
0 0 0
0 0 0
0 0 0
0 0 0
0 0 0
0 0 0
0 0 0
0 0 0
0 0 0
0 0 0
0 0 0
0 0 0
0 0 0
0 0 0
0 0 0
0 0 0
0 0 0
0 0 0
0 0 0
0 0 0
0 0 0
0 0 0
0 0 0
0 0 0
0 0 0
0 0 0
0 0 0
0 0 0
0 0 0
0 0 0
0 0 0
0 0 0
0 0 0
0 0 0
0 0 0
0 0 0
0 0 0
0 0 0
0 0 0
0 0 0
0 0 0
0 0 0
0 0 0
0 0 0
0 0 0
0 0 0
0 0 0
0 0 0
0 0 0
0 0 0
0 0 0
0 0 0
0 0 0
0 0 0
0 0 0
0 0 0
0 0 0
0 0 0
0 0 0
0 0 0
0 0 0
0 0 0
0 0 0
0 0 0
0 0 0
0 0 0
0 0 0
0 0 0
0 0 0
0 0 0
0 0 0
0 0 0
0 0 0
0 0 0
0 0 0
37.573242 39.95037 43.271896
150.29309 159.80154 173.08759
204.02313 216.95685 235.02657
222.21443 236.30904 255.744
222.21288 236.30812 255.744
222.22812 236.31674 255.744
222.2394 236.32309 255.744
222.22174 236.31314 255.744
222.22128 236.31287 255.744
222.25162 236.33 255.744
222.21915 236.31168 255.744
222.2277 236.3165 255.744
222.23193 236.31888 255.744
222.25809 236.33366 255.744
222.21944 236.31186 255.744
222.2291 236.31729 255.744
222.22807 236.31673 255.744
222.24832 236.32813 255.744
222.22209 236.31332 255.744
222.23979 236.32333 255.744
222.22868 236.31708 255.744
222.21875 236.31146 255.744
222.21164 236.30745 255.744
222.22441 236.3146 255.744
222.24062 236.32379 255.744
222.2315 236.31865 255.744
222.20609 236.3043 255.744
222.22981 236.3177 255.744
222.23573 236.321 255.744
222.24382 236.32556 255.744
222.22632 236.31575 255.744
222.22041 236.31238 255.744
222.24484 236.32617 255.744
222.22417 236.3145 255.744
222.22498 236.31497 255.744
222.22601 236.31554 255.744
222.2292 236.31735 255.744
222.2312 236.31848 255.744
222.23361 236.31982 255.744
222.22589 236.31549 255.744
222.22534 236.31517 255.744
222.22366 236.31421 255.744
222.22665 236.31592 255.744
222.24492 236.3262 255.744
222.22171 236.31311 255.744
222.2244 236.31465 255.744
222.18436 236.29204 255.744
222.2268 236.31602 255.744
222.2208 236.31259 255.744
222.21373 236.30861 255.744
222.23145 236.3186 255.744
222.23117 236.31845 255.744
222.20503 236.30373 255.744
222.2121 236.3077 255.744
222.23494 236.32057 255.744
222.22942 236.31749 255.744
222.2223 236.31348 255.744
222.20886 236.30588 255.744
222.2175 236.31076 255.744
222.22195 236.31325 255.744
222.21227 236.30777 255.744
222.22137 236.31294 255.744
222.22821 236.31679 255.744
222.21672 236.3103 255.744
222.22905 236.31728 255.744
222.238 236.32231 255.744
222.22076 236.31259 255.744
222.23051 236.31812 255.744
222.22868 236.31703 255.744
222.20995 236.30649 255.744
222.22282 236.31374 255.744
222.23668 236.32158 255.744
222.20422 236.30325 255.744
222.23654 236.3215 255.744
222.2206 236.31252 255.744
222.22408 236.31448 255.744
222.21019 236.30661 255.744
222.21783 236.31093 255.744
222.21016 236.30661 255.744
222.22398 236.31442 255.744
222.20897 236.30594 255.744
222.23314 236.31956 255.744
222.22914 236.3173 255.744
222.22092 236.31271 255.744
222.22867 236.31706 255.744
222.23553 236.32094 255.744
222.21397 236.30876 255.744
222.22066 236.31252 255.744
222.21387 236.3087 255.744
222.21051 236.30681 255.744
222.23747 236.32202 255.744
222.21497 236.30934 255.744
222.20709 236.30489 255.744
222.21619 236.31 255.744
222.19995 236.30086 255.744
222.23709 236.3218 255.744
222.22066 236.31253 255.744
222.2252 236.3151 255.744
222.21515 236.30943 255.744
222.21245 236.3079 255.744
222.20927 236.30614 255.744
222.23135 236.31857 255.744
222.2088 236.30583 255.744
222.22968 236.31761 255.744
222.22606 236.3156 255.744
222.22699 236.3161 255.744
222.21733 236.31064 255.744
222.21222 236.30777 255.744
222.23381 236.31993 255.744
222.22246 236.31354 255.744
222.23236 236.31914 255.744
222.21498 236.30934 255.744
222.20811 236.30547 255.744
222.22047 236.31242 255.744
222.21448 236.30905 255.744
222.19788 236.29968 255.744
222.22833 236.31685 255.744
222.2133 236.30843 255.744
222.2152 236.30943 255.744
222.21355 236.30852 255.744
222.2361 236.32124 255.744
222.21965 236.31197 255.744
222.22983 236.31772 255.744
222.19736 236.29942 255.744
222.21565 236.3097 255.744
222.21889 236.31152 255.744
222.1896 236.295 255.744
222.2081 236.30544 255.744
222.20435 236.30334 255.744
222.22157 236.31305 255.744
222.21419 236.3089 255.744
222.22 236.31213 255.744
222.23724 236.3219 255.744
222.23549 236.3209 255.744
222.25125 236.3298 255.744
222.25691 236.333 255.744
222.24803 236.32796 255.744
222.25076 236.3295 255.744
222.22989 236.31772 255.744
222.25574 236.33234 255.744
222.2366 236.32152 255.744
222.2856 236.34918 255.744
222.23347 236.31973 255.744
222.24551 236.32657 255.744
222.26685 236.33858 255.744
222.27289 236.342 255.744
222.24446 236.32597 255.744
222.22966 236.3176 255.744
222.25595 236.33241 255.744
222.2435 236.32544 255.744
222.25226 236.33035 255.744
222.24966 236.3289 255.744
222.24405 236.32578 255.744
222.25345 236.33104 255.744
222.25497 236.33188 255.744
222.23454 236.32037 255.744
222.24185 236.32446 255.744
222.23837 236.32251 255.744
222.23315 236.31958 255.744
222.25305 236.3308 255.744
222.25963 236.33452 255.744
222.2375 236.32204 255.744
222.25427 236.33148 255.744
222.25996 236.3347 255.744
222.24641 236.32707 255.744
222.25645 236.33272 255.744
222.24162 236.32436 255.744
222.26508 236.3376 255.744
222.25616 236.33258 255.744
222.25174 236.3301 255.744
222.2314 236.3186 255.744
222.23149 236.31862 255.744
222.25261 236.33054 255.744
222.26424 236.3371 255.744
222.23491 236.32057 255.744
222.25905 236.33415 255.744
222.26242 236.33609 255.744
222.24599 236.32684 255.744
222.2598 236.33461 255.744
222.24588 236.32677 255.744
222.25555 236.33221 255.744
222.24324 236.32529 255.744
222.2563 236.33264 255.744
222.25597 236.33246 255.744
222.24702 236.32741 255.744
222.262 236.33588 255.744
222.24144 236.32425 255.744
222.25037 236.32932 255.744
222.26581 236.338 255.744
222.258 236.33359 255.744
222.2685 236.3395 255.744
222.25237 236.33044 255.744
222.258 236.33359 255.744
222.26225 236.33598 255.744
222.2486 236.3283 255.744
222.24957 236.32884 255.744
222.2382 236.32242 255.744
222.24916 236.32864 255.744
222.24951 236.32881 255.744
222.2741 236.3427 255.744
222.25064 236.32945 255.744
222.25221 236.33032 255.744
222.24352 236.32542 255.744
222.25716 236.33313 255.744
222.251 236.32965 255.744
222.26385 236.33688 255.744
222.25743 236.3333 255.744
222.2608 236.33517 255.744
222.24757 236.32773 255.744
222.25407 236.3314 255.744
222.25786 236.33351 255.744
222.25034 236.32928 255.744
222.23984 236.32335 255.744
222.25346 236.33107 255.744
222.25345 236.33102 255.744
222.26582 236.338 255.744
222.2531 236.33084 255.744
222.24165 236.3244 255.744
222.24825 236.3281 255.744
222.26595 236.33813 255.744
222.26903 236.33981 255.744
222.2503 236.32924 255.744
222.26176 236.33571 255.744
222.25507 236.33192 255.744
222.23093 236.31833 255.744
222.26631 236.33829 255.744
222.24672 236.32724 255.744
222.25935 236.33435 255.744
222.25694 236.33302 255.744
222.26357 236.33675 255.744
222.2787 236.34528 255.744
222.26857 236.33955 255.744
222.25703 236.33304 255.744
222.25331 236.33095 255.744
222.2475 236.32765 255.744
222.25745 236.3333 255.744
222.26309 236.33647 255.744
222.27228 236.34167 255.744
222.24919 236.32863 255.744
222.23848 236.32257 255.744
222.26118 236.33542 255.744
222.26529 236.33772 255.744
222.26552 236.33783 255.744
222.24568 236.32664 255.744
222.26054 236.33504 255.744
222.24953 236.32886 255.744
222.22926 236.31737 255.744
222.24992 236.32904 255.744
222.26895 236.33977 255.744
222.26521 236.33768 255.744
222.25575 236.33237 255.744
222.29117 236.35231 255.744
222.26544 236.3378 255.744
222.25117 236.32974 255.744
222.24556 236.32655 255.744
222.2601 236.33478 255.744
222.25378 236.3312 255.744
222.26396 236.33698 255.744
222.24933 236.3287 255.744
222.26671 236.3385 255.744
222.24693 236.32736 255.744
222.27133 236.34116 255.744
222.24107 236.32404 255.744
222.24435 236.32593 255.744
222.27731 236.3445 255.744
222.26962 236.34016 255.744
222.26234 236.33604 255.744
222.26672 236.33852 255.744
222.24165 236.32437 255.744
222.27647 236.34402 255.744
222.27469 236.343 255.744
222.25102 236.32965 255.744
222.23993 236.3234 255.744
222.26149 236.33557 255.744
222.26143 236.33553 255.744
222.25536 236.33209 255.744
222.25255 236.33052 255.744
222.26144 236.33551 255.744
222.24301 236.32513 255.744
222.24219 236.32466 255.744
222.26799 236.33925 255.744
222.25697 236.33302 255.744
222.24129 236.32417 255.744
222.26633 236.33829 255.744
222.27304 236.3421 255.744
222.26613 236.33818 255.744
222.2477 236.32777 255.744
222.26408 236.33704 255.744
222.25931 236.33434 255.744
222.25581 236.33237 255.744
222.25723 236.33318 255.744
222.25623 236.3326 255.744
222.2717 236.34134 255.744
222.2703 236.34056 255.744
222.26843 236.3395 255.744
222.2565 236.33278 255.744
222.26451 236.33728 255.744
222.2678 236.3391 255.744
222.27167 236.34132 255.744
222.25095 236.32965 255.744
222.26036 236.33492 255.744
222.28302 236.34772 255.744
222.25879 236.33403 255.744
222.26022 236.33488 255.744
222.24953 236.32878 255.744
222.25854 236.33391 255.744
222.25418 236.33142 255.744
222.26242 236.33606 255.744
222.2631 236.33647 255.744
222.27266 236.34186 255.744
222.2582 236.33372 255.744
222.25998 236.33472 255.744
222.26202 236.33588 255.744
222.27264 236.34187 255.744
222.24408 236.32573 255.744
222.24252 236.32486 255.744
222.28131 236.34674 255.744
222.26775 236.33913 255.744
222.27412 236.34268 255.744
222.26834 236.33943 255.744
222.26941 236.34003 255.744
222.26988 236.34029 255.744
217.42532 231.20383 250.45422
212.50755 225.97153 244.78282
198.77596 211.37325 228.97336
187.81888 199.72513 216.3595
127.3596 135.44586 146.74214
106.216576 112.964775 122.39141
59.37106 63.145947 68.41888
26.557238 28.242939 30.597853
0 0 0
0 0 0
0 0 0
0 0 0
0 0 0
0 0 0
0 0 0
0 0 0
0 0 0
0 0 0
0 0 0
0 0 0
0 0 0
0 0 0
0 0 0
0 0 0
0 0 0
0 0 0
0 0 0
0 0 0
0 0 0
0 0 0
0 0 0
0 0 0
0 0 0
0 0 0
0 0 0
0 0 0
0 0 0
0 0 0
0 0 0
0 0 0
0 0 0
0 0 0
0 0 0
0 0 0
0 0 0
0 0 0
0 0 0
0 0 0
0 0 0
0 0 0
0 0 0
0 0 0
0 0 0
0 0 0
0 0 0
0 0 0
0 0 0
0 0 0
0 0 0
0 0 0
0 0 0
0 0 0
0 0 0
0 0 0
0 0 0
0 0 0
0 0 0
0 0 0
0 0 0
0 0 0
0 0 0
0 0 0
0 0 0
0 0 0
0 0 0
0 0 0
0 0 0
0 0 0
0 0 0
0 0 0
0 0 0
0 0 0
0 0 0
0 0 0
0 0 0
0 0 0
0 0 0
0 0 0
0 0 0
0 0 0
0 0 0
0 0 0
0 0 0
0 0 0
0 0 0
0 0 0
0 0 0
0 0 0
0 0 0
0 0 0
0 0 0
0 0 0
0 0 0
0 0 0
0 0 0
0 0 0
0 0 0
0 0 0
0 0 0
0 0 0
0 0 0
0 0 0
0 0 0
0 0 0
0 0 0
0 0 0
0 0 0
0 0 0
0 0 0
0 0 0
0 0 0
0 0 0
0 0 0
0 0 0
0 0 0
0 0 0
0 0 0
0 0 0
0 0 0
0 0 0
0 0 0
0 0 0
0 0 0
0 0 0
0 0 0
0 0 0
0 0 0
0 0 0
0 0 0
0 0 0
0 0 0
0 0 0
0 0 0
0 0 0
0 0 0
0 0 0
0 0 0
0 0 0
0 0 0
0 0 0
0 0 0
0 0 0
0 0 0
0 0 0
0 0 0
0 0 0
0 0 0
0 0 0
0 0 0
0 0 0
0 0 0
0 0 0
0 0 0
0 0 0
0 0 0
0 0 0
0 0 0
0 0 0
0 0 0
0 0 0
0 0 0
0 0 0
0 0 0
0 0 0
0 0 0
0 0 0
0 0 0
0 0 0
0 0 0
0 0 0
0 0 0
0 0 0
0 0 0
0 0 0
0 0 0
0 0 0
0 0 0
0 0 0
0 0 0
0 0 0
0 0 0
0 0 0
0 0 0
0 0 0
0 0 0
0 0 0
0 0 0
0 0 0
0 0 0
0 0 0
0 0 0
0 0 0
0 0 0
0 0 0
0 0 0
0 0 0
0 0 0
0 0 0
0 0 0
0 0 0
0 0 0
0 0 0
0 0 0
0 0 0
0 0 0
0 0 0
0 0 0
0 0 0
0 0 0
0 0 0
0 0 0
0 0 0
0 0 0
0 0 0
0 0 0
0 0 0
0 0 0
0 0 0
0 0 0
0 0 0
0 0 0
0 0 0
0 0 0
0 0 0
0 0 0
0 0 0
0 0 0
0 0 0
0 0 0
0 0 0
0 0 0
0 0 0
0 0 0
0 0 0
0 0 0
0 0 0
0 0 0
0 0 0
0 0 0
0 0 0
0 0 0
0 0 0
0 0 0
0 0 0
0 0 0
0 0 0
0 0 0
0 0 0
0 0 0
0 0 0
0 0 0
0 0 0
0 0 0
0 0 0
0 0 0
0 0 0
0 0 0
0 0 0
0 0 0
0 0 0
0 0 0
0 0 0
0 0 0
0 0 0
0 0 0
0 0 0
0 0 0
0 0 0
0 0 0
0 0 0
79.719406 84.75573 91.79356
170.11739 180.88147 195.92184
217.44395 231.2143 250.45422
222.27863 236.34528 255.744
222.258 236.33357 255.744
222.26859 236.33958 255.744
222.24715 236.32745 255.744
222.25867 236.33397 255.744
222.25128 236.32983 255.744
222.28917 236.35118 255.744
222.27052 236.34067 255.744
222.2517 236.33003 255.744
222.24588 236.32678 255.744
222.24707 236.32742 255.744
222.2791 236.34549 255.744
222.2508 236.32956 255.744
222.26033 236.33492 255.744
222.26086 236.33517 255.744
222.24701 236.32742 255.744
222.23973 236.3233 255.744
222.26279 236.33627 255.744
222.27121 236.34106 255.744
222.24934 236.32874 255.744
222.26282 236.3363 255.744
222.25537 236.3321 255.744
222.2739 236.34259 255.744
222.25497 236.3319 255.744
222.26193 236.33582 255.744
222.26205 236.33586 255.744
222.2661 236.33818 255.744
222.249 236.32854 255.744
222.26671 236.33849 255.744
222.25415 236.33145 255.744
222.26733 236.33888 255.744
222.26454 236.3373 255.744
222.27908 236.3455 255.744
222.26988 236.3403 255.744
222.25655 236.3328 255.744
222.25978 236.33461 255.744
222.25461 236.33173 255.744
222.25894 236.33414 255.744
222.25667 236.33287 255.744
222.26279 236.33632 255.744
222.25572 236.3323 255.744
222.24419 236.32584 255.744
222.25795 236.33357 255.744
222.2575 236.33328 255.744
222.25618 236.33255 255.744
222.27187 236.34145 255.744
222.2677 236.33907 255.744
222.24297 236.32513 255.744
222.27509 236.34326 255.744
222.25311 236.33087 255.744
222.24625 236.32698 255.744
222.26605 236.33813 255.744
222.24832 236.32816 255.744
222.25294 236.33075 255.744
222.26561 236.3379 255.744
222.25644 236.33275 255.744
222.24905 236.32857 255.744
222.24268 236.32495 255.744
222.24449 236.32597 255.744
222.23878 236.32275 255.744
222.26117 236.33542 255.744
222.2703 236.34053 255.744
222.24535 236.32645 255.744
222.26576 236.338 255.744
222.23679 236.32161 255.744
222.24011 236.32352 255.744
222.26624 236.33826 255.744
222.24934 236.3287 255.744
222.25848 236.33388 255.744
222.27672 236.34416 255.744
222.24391 236.32565 255.744
222.27371 236.3425 255.744
222.24577 236.32672 255.744
222.25883 236.33408 255.744
222.2644 236.3372 255.744
222.26147 236.33559 255.744
222.25008 236.32913 255.744
222.25105 236.32967 255.744
222.24428 236.32587 255.744
222.2248 236.31483 255.744
222.24388 236.32564 255.744
222.24252 236.3249 255.744
222.23138 236.31859 255.744
222.24654 236.32712 255.744
222.24767 236.3278 255.744
222.26172 236.33571 255.744
222.25218 236.33032 255.744
222.25621 236.33258 255.744
222.25499 236.33191 255.744
222.24727 236.32755 255.744
222.25853 236.33386 255.744
222.26434 236.33716 255.744
222.23167 236.31874 255.744
222.25397 236.33133 255.744
222.25566 236.3323 255.744
222.25064 236.32945 255.744
222.24934 236.32872 255.744
222.24611 236.32686 255.744
222.25182 236.33011 255.744
222.2411 236.32407 255.744
222.24481 236.32619 255.744
222.2434 236.32538 255.744
222.24588 236.32677 255.744
222.23203 236.31892 255.744
222.24725 236.32755 255.744
222.25075 236.32953 255.744
222.23671 236.3216 255.744
222.25092 236.32962 255.744
222.25375 236.33119 255.744
222.24738 236.32762 255.744
222.23894 236.32286 255.744
222.2526 236.33054 255.744
222.26135 236.33548 255.744
222.24696 236.32738 255.744
222.2222 236.31342 255.744
222.23077 236.31822 255.744
222.25067 236.32945 255.744
222.25195 236.33018 255.744
222.23816 236.3224 255.744
222.22427 236.31459 255.744
222.24245 236.32483 255.744
222.23853 236.32262 255.744
222.25873 236.334 255.744
222.24721 236.32755 255.744
222.26059 236.33507 255.744
222.26186 236.3358 255.744
222.23955 236.32318 255.744
222.26793 236.33923 255.744
222.27428 236.34277 255.744
222.26595 236.33806 255.744
222.27435 236.34282 255.744
222.27544 236.34343 255.744
222.29262 236.35309 255.744
222.27777 236.34474 255.744
222.26578 236.33798 255.744
222.28662 236.34976 255.744
222.28293 236.34769 255.744
222.27356 236.34239 255.744
222.28001 236.34602 255.744
222.26653 236.33841 255.744
222.30629 236.36084 255.744
222.27676 236.34421 255.744
222.28545 236.34908 255.744
222.2845 236.34856 255.744
222.29291 236.35329 255.744
222.29268 236.35318 255.744
222.27068 236.34074 255.744
222.28796 236.35051 255.744
222.27925 236.34561 255.744
222.29657 236.35536 255.744
222.27719 236.34444 255.744
222.27325 236.34221 255.744
222.28828 236.35068 255.744
222.29062 236.35199 255.744
222.28685 236.34988 255.744
222.27887 236.34537 255.744
222.28946 236.35132 255.744
222.28001 236.34602 255.744
222.28328 236.34787 255.744
222.31427 236.36536 255.744
222.25328 236.33095 255.744
222.28522 236.34895 255.744
222.29248 236.35307 255.744
222.29033 236.35184 255.744
222.27737 236.34453 255.744
222.2846 236.34865 255.744
222.29044 236.35191 255.744
222.29434 236.35414 255.744
222.29541 236.35469 255.744
222.28212 236.34724 255.744
222.28981 236.35155 255.744
222.2935 236.35364 255.744
222.28337 236.34789 255.744
222.27573 236.3436 255.744
222.27835 236.34508 255.744
222.28813 236.35062 255.744
222.28116 236.34668 255.744
222.28604 236.34941 255.744
222.28389 236.34822 255.744
222.31328 236.36479 255.744
222.30815 236.3619 255.744
222.26234 236.33603 255.744
222.29172 236.35262 255.744
222.28838 236.35074 255.744
222.29352 236.35364 255.744
222.27515 236.34326 255.744
222.26686 236.33862 255.744
222.26775 236.33911 255.744
222.27669 236.34413 255.744
222.28047 236.34631 255.744
222.27437 236.34283 255.744
222.27216 236.3416 255.744
222.29399 236.35393 255.744
222.2789 236.3454 255.744
222.30406 236.3596 255.744
222.30217 236.3585 255.744
222.28984 236.35158 255.744
222.28049 236.3463 255.744
222.27939 236.3457 255.744
222.29303 236.35338 255.744
222.27719 236.34442 255.744
222.29169 236.3526 255.744
222.296 236.35504 255.744
222.29385 236.35384 255.744
222.27916 236.34554 255.744
222.28583 236.34933 255.744
222.2806 236.34637 255.744
222.29118 236.35234 255.744
222.29808 236.35625 255.744
222.29352 236.35365 255.744
222.29288 236.35327 255.744
222.29723 236.35571 255.744
222.28435 236.34846 255.744
222.28499 236.34883 255.744
222.28854 236.35085 255.744
222.2899 236.35158 255.744
222.28275 236.3476 255.744
222.2624 236.33609 255.744
222.28825 236.35068 255.744
222.29555 236.35477 255.744
222.306 236.36069 255.744
222.29443 236.35416 255.744
222.29446 236.35414 255.744
222.28342 236.34796 255.744
222.28581 236.34929 255.744
222.28523 236.34898 255.744
222.28815 236.3506 255.744
222.30418 236.35963 255.744
222.28795 236.35048 255.744
222.27682 236.34422 255.744
222.28134 236.34674 255.744
222.28737 236.35017 255.744
222.29492 236.35446 255.744
222.28036 236.34624 255.744
222.30159 236.3582 255.744
222.28983 236.35156 255.744
222.3018 236.35834 255.744
222.2858 236.34932 255.744
222.29909 236.35678 255.744
222.2796 236.3458 255.744
222.29904 236.35677 255.744
222.28767 236.35037 255.744
222.28964 236.35147 255.744
222.28648 236.34969 255.744
222.31062 236.36328 255.744
222.28899 236.35104 255.744
222.29265 236.35316 255.744
222.31528 236.3659 255.744
222.28938 236.3513 255.744
222.26811 236.3393 255.744
222.27835 236.34511 255.744
222.27995 236.34601 255.744
222.28157 236.34692 255.744
222.28253 236.34743 255.744
222.27124 236.34106 255.744
222.2923 236.35295 255.744
222.31384 236.3651 255.744
222.29626 236.35521 255.744
222.27647 236.34401 255.744
222.32176 236.36957 255.744
222.30328 236.35915 255.744
222.26723 236.3388 255.744
222.3069 236.3612 255.744
222.28796 236.35051 255.744
222.2798 236.3459 255.744
222.29463 236.35423 255.744
222.28476 236.34871 255.744
222.29762 236.35597 255.744
222.29846 236.35643 255.744
222.27477 236.34305 255.744
222.28214 236.34723 255.744
222.27711 236.3444 255.744
222.30817 236.36191 255.744
222.28139 236.34677 255.744
222.29486 236.3544 255.744
222.31084 236.36342 255.744
222.2838 236.34816 255.744
222.31 236.36293 255.744
222.29628 236.35521 255.744
222.29745 236.35588 255.744
222.27686 236.34425 255.744
222.30324 236.35913 255.744
222.30301 236.35901 255.744
222.29437 236.3541 255.744
222.28836 236.35074 255.744
222.29927 236.3569 255.744
222.29254 236.3531 255.744
222.29321 236.3535 255.744
222.28477 236.34872 255.744
222.29544 236.35472 255.744
222.27605 236.34378 255.744
222.29419 236.35399 255.744
222.27168 236.34134 255.744
222.28705 236.34999 255.744
222.28535 236.34906 255.744
222.30081 236.35776 255.744
222.29245 236.35304 255.744
222.2908 236.35214 255.744
222.28719 236.35008 255.744
222.29105 236.35226 255.744
222.29982 236.35721 255.744
222.29277 236.35323 255.744
222.28557 236.34917 255.744
222.29285 236.35327 255.744
222.29518 236.35461 255.744
222.29362 236.35368 255.744
222.28714 236.35004 255.744
222.29356 236.35368 255.744
222.2905 236.35196 255.744
222.29132 236.35239 255.744
222.31175 236.36394 255.744
222.30515 236.36021 255.744
222.26303 236.33647 255.744
222.29778 236.35605 255.744
222.29344 236.35359 255.744
220.69582 234.65697 254.16486
219.10883 232.96054 252.31636
204.06192 216.9787 235.02657
193.40205 205.6469 222.75572
161.58473 171.81955 186.11948
127.37222 135.45299 146.74214
95.7591 101.83453 110.32213
26.555902 28.242184 30.597853
26.553274 28.240704 30.597853
0 0 0
0 0 0
0 0 0
0 0 0
0 0 0
0 0 0
0 0 0
0 0 0
0 0 0
0 0 0
0 0 0
0 0 0
0 0 0
0 0 0
0 0 0
0 0 0
0 0 0
0 0 0
0 0 0
0 0 0
0 0 0
0 0 0
0 0 0
0 0 0
0 0 0
0 0 0
0 0 0
0 0 0
0 0 0
0 0 0
0 0 0
0 0 0
0 0 0
0 0 0
0 0 0
0 0 0
0 0 0
0 0 0
0 0 0
0 0 0
0 0 0
0 0 0
0 0 0
0 0 0
0 0 0
0 0 0
0 0 0
0 0 0
0 0 0
0 0 0
0 0 0
0 0 0
0 0 0
0 0 0
0 0 0
0 0 0
0 0 0
0 0 0
0 0 0
0 0 0
0 0 0
0 0 0
0 0 0
0 0 0
0 0 0
0 0 0
0 0 0
0 0 0
0 0 0
0 0 0
0 0 0
0 0 0
0 0 0
0 0 0
0 0 0
0 0 0
0 0 0
0 0 0
0 0 0
0 0 0
0 0 0
0 0 0
0 0 0
0 0 0
0 0 0
0 0 0
0 0 0
0 0 0
0 0 0
0 0 0
0 0 0
0 0 0
0 0 0
0 0 0
0 0 0
0 0 0
0 0 0
0 0 0
0 0 0
0 0 0
0 0 0
0 0 0
0 0 0
0 0 0
0 0 0
0 0 0
0 0 0
0 0 0
0 0 0
0 0 0
0 0 0
0 0 0
0 0 0
0 0 0
0 0 0
0 0 0
0 0 0
0 0 0
0 0 0
0 0 0
0 0 0
0 0 0
0 0 0
0 0 0
0 0 0
0 0 0
0 0 0
0 0 0
0 0 0
0 0 0
0 0 0
0 0 0
0 0 0
0 0 0
0 0 0
0 0 0
0 0 0
0 0 0
0 0 0
0 0 0
0 0 0
0 0 0
0 0 0
0 0 0
0 0 0
0 0 0
0 0 0
0 0 0
0 0 0
0 0 0
0 0 0
0 0 0
0 0 0
0 0 0
0 0 0
0 0 0
0 0 0
0 0 0
0 0 0
0 0 0
0 0 0
0 0 0
0 0 0
0 0 0
0 0 0
0 0 0
0 0 0
0 0 0
0 0 0
0 0 0
0 0 0
0 0 0
0 0 0
0 0 0
0 0 0
0 0 0
0 0 0
0 0 0
0 0 0
0 0 0
0 0 0
0 0 0
0 0 0
0 0 0
0 0 0
0 0 0
0 0 0
0 0 0
0 0 0
0 0 0
0 0 0
0 0 0
0 0 0
0 0 0
0 0 0
0 0 0
0 0 0
0 0 0
0 0 0
0 0 0
0 0 0
0 0 0
0 0 0
0 0 0
0 0 0
0 0 0
0 0 0
0 0 0
0 0 0
0 0 0
0 0 0
0 0 0
0 0 0
0 0 0
0 0 0
0 0 0
0 0 0
0 0 0
0 0 0
0 0 0
0 0 0
0 0 0
0 0 0
0 0 0
0 0 0
0 0 0
0 0 0
0 0 0
0 0 0
0 0 0
0 0 0
0 0 0
0 0 0
0 0 0
0 0 0
0 0 0
0 0 0
0 0 0
0 0 0
0 0 0
0 0 0
0 0 0
0 0 0
0 0 0
0 0 0
0 0 0
0 0 0
0 0 0
0 0 0
0 0 0
0 0 0
0 0 0
0 0 0
0 0 0
0 0 0
0 0 0
0 0 0
0 0 0
0 0 0
0 0 0
0 0 0
0 0 0
0 0 0
0 0 0
0 0 0
0 0 0
0 0 0
0 0 0
0 0 0
0 0 0
0 0 0
0 0 0
0 0 0
0 0 0
26.58244 28.257158 30.597853
109.56758 116.48771 126.15818
189.71577 201.72829 218.51237
220.67554 234.64554 254.16486
222.28477 236.34868 255.744
222.28378 236.34813 255.744
222.2808 236.34647 255.744
222.28754 236.35027 255.744
222.29408 236.35397 255.744
222.29756 236.35591 255.744
222.29344 236.35359 255.744
222.2799 236.34598 255.744
222.29376 236.35378 255.744
222.28609 236.34943 255.744
222.29652 236.35533 255.744
222.27318 236.34216 255.744
222.26978 236.34026 255.744
222.29143 236.35246 255.744
222.29579 236.35493 255.744
222.29825 236.35631 255.744
222.28044 236.34628 255.744
222.27342 236.34232 255.744
222.2842 236.34837 255.744
222.28241 236.34735 255.744
222.29907 236.35678 255.744
222.27983 236.34593 255.744
222.29001 236.35165 255.744
222.30348 236.35925 255.744
222.27667 236.34415 255.744
222.27882 236.34537 255.744
222.3114 236.36372 255.744
222.3043 236.35971 255.744
222.29308 236.35341 255.744
222.27231 236.3417 255.744
222.28534 236.34901 255.744
222.27472 236.34303 255.744
222.28873 236.35092 255.744
222.30621 236.36082 255.744
222.27542 236.34343 255.744
222.29259 236.35313 255.744
222.28635 236.34956 255.744
222.30249 236.35872 255.744
222.29857 236.35648 255.744
222.28262 236.34747 255.744
222.27484 236.3431 255.744
222.29384 236.35384 255.744
222.29614 236.35515 255.744
222.2948 236.35437 255.744
222.2836 236.34804 255.744
222.29416 236.35402 255.744
222.28305 236.34773 255.744
222.29466 236.3543 255.744
222.2981 236.35623 255.744
222.27722 236.34444 255.744
222.27823 236.34503 255.744
222.28221 236.34726 255.744
222.29156 236.35254 255.744
222.27751 236.34462 255.744
222.28583 236.34929 255.744
222.284 236.34828 255.744
222.26833 236.33942 255.744
222.27347 236.34235 255.744
222.27332 236.34222 255.744
222.30708 236.36133 255.744
222.28683 236.34988 255.744
222.29716 236.35571 255.744
222.30424 236.35974 255.744
222.3011 236.35793 255.744
222.2776 236.34468 255.744
222.28113 236.34662 255.744
222.28806 236.35057 255.744
222.2944 236.35416 255.744
222.2925 236.35306 255.744
222.29828 236.35632 255.744
222.28719 236.35007 255.744
222.28299 236.34769 255.744
222.28432 236.3485 255.744
222.28043 236.34628 255.744
222.27672 236.34413 255.744
222.27968 236.34583 255.744
222.27745 236.34457 255.744
222.28113 236.34663 255.744
222.31352 236.36491 255.744
222.27261 236.34187 255.744
222.30417 236.35963 255.744
222.28465 236.34863 255.744
222.28487 236.34875 255.744
222.27797 236.34488 255.744
222.27774 236.34474 255.744
222.29848 236.35643 255.744
222.28088 236.34653 255.744
222.27686 236.34422 255.744
222.29689 236.35555 255.744
222.27592 236.34375 255.744
222.28017 236.34612 255.744
222.28206 236.34718 255.744
222.29918 236.35683 255.744
222.26062 236.33505 255.744
222.27951 236.34575 255.744
222.28654 236.34969 255.744
222.28996 236.35162 255.744
222.26884 236.33969 255.744
222.27777 236.34474 255.744
222.2788 236.34532 255.744
222.3002 236.35742 255.744
222.29305 236.35336 255.744
222.26085 236.33522 255.744
222.29234 236.35298 255.744
222.28189 236.34708 255.744
222.2413 236.32419 255.744
222.27765 236.3447 255.744
222.2755 236.34346 255.744
222.28246 236.34743 255.744
222.29027 236.35184 255.744
222.28603 236.34943 255.744
222.28032 236.34619 255.744
222.27614 236.34386 255.744
222.28285 236.34761 255.744
222.29117 236.35234 255.744
222.26747 236.33891 255.744
222.26569 236.33797 255.744
222.27528 236.34335 255.744
222.28918 236.3512 255.744
222.28055 236.3463 255.744
222.27516 236.34326 255.744
222.2889 236.35106 255.744
222.27782 236.34479 255.744
222.26013 236.33484 255.744
222.28484 236.34874 255.744
222.32349 236.37057 255.744
222.31049 236.3632 255.744
222.31741 236.36714 255.744
222.30742 236.36153 255.744
222.31161 236.36386 255.744
222.30522 236.36021 255.744
222.3152 236.3659 255.744
222.31177 236.36392 255.744
222.30968 236.36276 255.744
222.32182 236.36963 255.744
222.29701 236.3556 255.744
222.30794 236.36179 255.744
222.3052 236.36023 255.744
222.312 236.36409 255.744
222.31085 236.36343 255.744
222.32657 236.37228 255.744
222.31818 236.36758 255.744
222.30026 236.35747 255.744
222.27986 236.34595 255.744
222.31496 236.36577 255.744
222.29884 236.35667 255.744
222.3245 236.37114 255.744
222.31499 236.36574 255.744
222.31339 236.36484 255.744
222.30391 236.3595 255.744
222.30794 236.36179 255.744
222.30405 236.3596 255.744
222.32457 236.37117 255.744
222.3139 236.36516 255.744
222.31313 236.36472 255.744
222.30717 236.36133 255.744
222.32762 236.3729 255.744
222.3139 236.36514 255.744
222.31871 236.36787 255.744
222.3109 236.36345 255.744
222.31816 236.36755 255.744
222.3124 236.3643 255.744
222.31645 236.36658 255.744
222.30644 236.36093 255.744
222.30765 236.36165 255.744
222.31627 236.36649 255.744
222.30904 236.36237 255.744
222.30292 236.35896 255.744
222.30186 236.35837 255.744
222.31856 236.36777 255.744
222.29956 236.35707 255.744
222.32079 236.36903 255.744
222.31927 236.36818 255.744
222.32848 236.37335 255.744
222.3068 236.36111 255.744
222.30722 236.36139 255.744
222.33073 236.37465 255.744
222.30605 236.36072 255.744
222.32512 236.37148 255.744
222.3189 236.36795 255.744
222.31615 236.36642 255.744
222.33827 236.37889 255.744
222.31148 236.36377 255.744
222.32178 236.36958 255.744
222.31183 236.36395 255.744
222.33124 236.37492 255.744
222.31078 236.36334 255.744
222.33595 236.37758 255.744
222.31813 236.36752 255.744
222.3282 236.37321 255.744
222.32314 236.37035 255.744
222.31819 236.36758 255.744
222.29478 236.35434 255.744
222.30867 236.3622 255.744
222.3111 236.36354 255.744
222.31529 236.36594 255.744
222.32161 236.3695 255.744
222.312 236.36407 255.744
222.31993 236.36855 255.744
222.32608 236.37202 255.744
222.321 236.36914 255.744
222.33014 236.37433 255.744
222.31723 236.36703 255.744
222.33255 236.37566 255.744
222.31505 236.3658 255.744
222.31578 236.3662 255.744
222.31848 236.3677 255.744
222.33244 236.37563 255.744
222.31839 236.36765 255.744
222.33194 236.37534 255.744
222.3186 236.3678 255.744
222.30861 236.36215 255.744
222.31584 236.36623 255.744
222.33942 236.37956 255.744
222.31694 236.36687 255.744
222.31667 236.36671 255.744
222.32832 236.37326 255.744
222.31805 236.36748 255.744
222.32042 236.36882 255.744
222.32053 236.36888 255.744
222.30666 236.36104 255.744
222.33095 236.37477 255.744
222.3228 236.37015 255.744
222.32419 236.37096 255.744
222.31345 236.36488 255.744
222.3156 236.36612 255.744
222.31439 236.36542 255.744
222.31921 236.36816 255.744
222.3213 236.36934 255.744
222.32536 236.37164 255.744
222.31659 236.36667 255.744
222.31888 236.36795 255.744
222.33722 236.37828 255.744
222.33301 236.3759 255.744
222.32906 236.37369 255.744
222.3359 236.37758 255.744
222.33127 236.37494 255.744
222.31448 236.36546 255.744
222.32211 236.36977 255.744
222.33778 236.37863 255.744
222.3381 236.37881 255.744
222.34315 236.38165 255.744
222.33272 236.37578 255.744
222.32129 236.36931 255.744
222.33348 236.37619 255.744
222.34164 236.38083 255.744
222.33177 236.37521 255.744
222.31505 236.36577 255.744
222.32368 236.37067 255.744
222.31364 236.365 255.744
222.29738 236.3558 255.744
222.30704 236.36127 255.744
222.30684 236.36118 255.744
222.33067 236.37459 255.744
222.32584 236.3719 255.744
222.32144 236.3694 255.744
222.30502 236.36017 255.744
222.31442 236.36545 255.744
222.32303 236.37027 255.744
222.3237 236.37068 255.744
222.32957 236.374 255.744
222.32176 236.36957 255.744
222.32758 236.37286 255.744
222.32207 236.36975 255.744
222.32684 236.37245 255.744
222.32939 236.37387 255.744
222.32574 236.37184 255.744
222.3351 236.37712 255.744
222.32344 236.37054 255.744
222.33247 236.37564 255.744
222.31142 236.36374 255.744
222.33131 236.37498 255.744
222.32848 236.37338 255.744
222.33415 236.37659 255.744
222.29712 236.35567 255.744
222.31673 236.36676 255.744
222.33786 236.37863 255.744
222.33304 236.37596 255.744
222.33376 236.37636 255.744
222.32852 236.37338 255.744
222.32446 236.37108 255.744
222.32271 236.37009 255.744
222.32529 236.37158 255.744
222.33191 236.37532 255.744
222.3137 236.36507 255.744
222.31439 236.36542 255.744
222.32254 236.37 255.744
222.32233 236.36992 255.744
222.31955 236.36833 255.744
222.3115 236.3638 255.744
222.32481 236.37129 255.744
222.33202 236.37535 255.744
222.33942 236.37956 255.744
222.32533 236.37158 255.744
222.3468 236.38371 255.744
222.30899 236.36238 255.744
222.33131 236.37495 255.744
222.32397 236.37086 255.744
222.31973 236.36845 255.744
222.34259 236.38133 255.744
222.31532 236.36598 255.744
222.31683 236.36679 255.744
222.3184 236.36769 255.744
222.32591 236.37193 255.744
222.33609 236.37766 255.744
222.30623 236.36081 255.744
222.32312 236.37035 255.744
222.35432 236.38797 255.744
222.32027 236.36874 255.744
222.32124 236.36928 255.744
222.33179 236.37526 255.744
222.32942 236.37389 255.744
222.33109 236.37485 255.744
217.51103 231.25215 250.45422
200.6018 213.2854 231.00871
193.43394 205.66492 222.75572
154.92363 164.72253 178.41461
143.0666 152.12196 164.77448
75.13815 79.896034 86.54379
59.387993 63.155502 68.41888
26.554482 28.241383 30.597853
0 0 0
0 0 0
0 0 0
0 0 0
0 0 0
0 0 0
0 0 0
0 0 0
0 0 0
0 0 0
0 0 0
0 0 0
0 0 0
0 0 0
0 0 0
0 0 0
0 0 0
0 0 0
0 0 0
0 0 0
0 0 0
0 0 0
0 0 0
0 0 0
0 0 0
0 0 0
0 0 0
0 0 0
0 0 0
0 0 0
0 0 0
0 0 0
0 0 0
0 0 0
0 0 0
0 0 0
0 0 0
0 0 0
0 0 0
0 0 0
0 0 0
0 0 0
0 0 0
0 0 0
0 0 0
0 0 0
0 0 0
0 0 0
0 0 0
0 0 0
0 0 0
0 0 0
0 0 0
0 0 0
0 0 0
0 0 0
0 0 0
0 0 0
0 0 0
0 0 0
0 0 0
0 0 0
0 0 0
0 0 0
0 0 0
0 0 0
0 0 0
0 0 0
0 0 0
0 0 0
0 0 0
0 0 0
0 0 0
0 0 0
0 0 0
0 0 0
0 0 0
0 0 0
0 0 0
0 0 0
0 0 0
0 0 0
0 0 0
0 0 0
0 0 0
0 0 0
0 0 0
0 0 0
0 0 0
0 0 0
0 0 0
0 0 0
0 0 0
0 0 0
0 0 0
0 0 0
0 0 0
0 0 0
0 0 0
0 0 0
0 0 0
0 0 0
0 0 0
0 0 0
0 0 0
0 0 0
0 0 0
0 0 0
0 0 0
0 0 0
0 0 0
0 0 0
0 0 0
0 0 0
0 0 0
0 0 0
0 0 0
0 0 0
0 0 0
0 0 0
0 0 0
0 0 0
0 0 0
0 0 0
0 0 0
0 0 0
0 0 0
0 0 0
0 0 0
0 0 0
0 0 0
0 0 0
0 0 0
0 0 0
0 0 0
0 0 0
0 0 0
0 0 0
0 0 0
0 0 0
0 0 0
0 0 0
0 0 0
0 0 0
0 0 0
0 0 0
0 0 0
0 0 0
0 0 0
0 0 0
0 0 0
0 0 0
0 0 0
0 0 0
0 0 0
0 0 0
0 0 0
0 0 0
0 0 0
0 0 0
0 0 0
0 0 0
0 0 0
0 0 0
0 0 0
0 0 0
0 0 0
0 0 0
0 0 0
0 0 0
0 0 0
0 0 0
0 0 0
0 0 0
0 0 0
0 0 0
0 0 0
0 0 0
0 0 0
0 0 0
0 0 0
0 0 0
0 0 0
0 0 0
0 0 0
0 0 0
0 0 0
0 0 0
0 0 0
0 0 0
0 0 0
0 0 0
0 0 0
0 0 0
0 0 0
0 0 0
0 0 0
0 0 0
0 0 0
0 0 0
0 0 0
0 0 0
0 0 0
0 0 0
0 0 0
0 0 0
0 0 0
0 0 0
0 0 0
0 0 0
0 0 0
0 0 0
0 0 0
0 0 0
0 0 0
0 0 0
0 0 0
0 0 0
0 0 0
0 0 0
0 0 0
0 0 0
0 0 0
0 0 0
0 0 0
0 0 0
0 0 0
0 0 0
0 0 0
0 0 0
0 0 0
0 0 0
0 0 0
0 0 0
0 0 0
0 0 0
0 0 0
0 0 0
0 0 0
0 0 0
0 0 0
0 0 0
0 0 0
0 0 0
0 0 0
0 0 0
0 0 0
0 0 0
0 0 0
0 0 0
0 0 0
0 0 0
0 0 0
0 0 0
0 0 0
0 0 0
0 0 0
0 0 0
0 0 0
0 0 0
0 0 0
0 0 0
0 0 0
0 0 0
0 0 0
0 0 0
0 0 0
0 0 0
0 0 0
0 0 0
0 0 0
0 0 0
0 0 0
0 0 0
0 0 0
0 0 0
0 0 0
59.447033 63.18882 68.41888
161.66615 171.8655 186.11948
215.8703 229.51344 248.57813
222.32254 236.37003 255.744
222.30806 236.36185 255.744
222.32019 236.3687 255.744
222.3211 236.36919 255.744
222.3372 236.37828 255.744
222.34062 236.38028 255.744
222.33665 236.37796 255.744
222.31015 236.36302 255.744
222.30011 236.35735 255.744
222.32808 236.37314 255.744
222.31216 236.36417 255.744
222.31392 236.36517 255.744
222.30452 236.35986 255.744
222.32985 236.37416 255.744
222.31346 236.36491 255.744
222.31595 236.3663 255.744
222.31757 236.3672 255.744
222.32051 236.36887 255.744
222.33601 236.37761 255.744
222.34224 236.38113 255.744
222.32014 236.36865 255.744
222.31252 236.36436 255.744
222.31665 236.3667 255.744
222.32272 236.37012 255.744
222.30167 236.35825 255.744
222.31787 236.3674 255.744
222.32684 236.37247 255.744
222.34048 236.38014 255.744
222.31857 236.36778 255.744
222.33867 236.3791 255.744
222.30914 236.36247 255.744
222.308 236.36183 255.744
222.32137 236.36934 255.744
222.32957 236.37398 255.744
222.32982 236.37411 255.744
222.30846 236.36208 255.744
222.32602 236.37198 255.744
222.31775 236.36731 255.744
222.3197 236.36842 255.744
222.32236 236.3699 255.744
222.31259 236.36438 255.744
222.32181 236.36961 255.744
222.29443 236.35414 255.744
222.32869 236.37349 255.744
222.30797 236.36179 255.744
222.30824 236.36195 255.744
222.33086 236.37473 255.744
222.32472 236.37123 255.744
222.31052 236.36324 255.744
222.3159 236.36626 255.744
222.3395 236.37961 255.744
222.31721 236.36699 255.744
222.32365 236.37067 255.744
222.32846 236.37335 255.744
222.31711 236.36696 255.744
222.30246 236.3587 255.744
222.31863 236.36784 255.744
222.32692 236.37247 255.744
222.31631 236.36652 255.744
222.31636 236.36656 255.744
222.32188 236.36966 255.744
222.32272 236.37013 255.744
222.30923 236.36252 255.744
222.31657 236.36665 255.744
222.33508 236.3771 255.744
222.32013 236.36867 255.744
222.3203 236.36877 255.744
222.30545 236.36037 255.744
222.33133 236.37502 255.744
222.30043 236.35753 255.744
222.30865 236.36218 255.744
222.32182 236.36961 255.744
222.32162 236.36949 255.744
222.31444 236.36542 255.744
222.31003 236.36293 255.744
222.31036 236.36316 255.744
222.31114 236.3636 255.744
222.29585 236.35495 255.744
222.33391 236.37642 255.744
222.30524 236.36024 255.744
222.31763 236.36725 255.744
222.32066 236.36896 255.744
222.3188 236.3679 255.744
222.3133 236.36479 255.744
222.29335 236.35355 255.744
222.30997 236.3629 255.744
222.31252 236.36432 255.744
222.31844 236.3677 255.744
222.3101 236.363 255.744
222.31845 236.3677 255.744
222.29973 236.35713 255.744
222.30557 236.36044 255.744
222.3046 236.35986 255.744
222.31062 236.3633 255.744
222.30891 236.36234 255.744
222.31502 236.36577 255.744
222.30034 236.35747 255.744
222.30415 236.35965 255.744
222.31558 236.3661 255.744
222.31242 236.36432 255.744
222.31294 236.36461 255.744
222.32202 236.36974 255.744
222.29688 236.35555 255.744
222.34196 236.381 255.744
222.31042 236.36317 255.744
222.29527 236.35463 255.744
222.31796 236.36746 255.744
222.30779 236.36171 255.744
222.31375 236.36507 255.744
222.29692 236.35558 255.744
222.30643 236.36095 255.744
222.31721 236.36702 255.744
222.30539 236.36035 255.744
222.30826 236.36194 255.744
222.30597 236.36066 255.744
222.31163 236.36386 255.744
222.29987 236.35721 255.744
222.30484 236.36003 255.744
222.31015 236.36302 255.744
222.30379 236.35944 255.744
222.31029 236.36308 255.744
222.3075 236.36153 255.744
222.30925 236.36255 255.744
222.30267 236.35883 255.744
222.34048 236.38016 255.744
222.33945 236.37956 255.744
222.33876 236.3792 255.744
222.34166 236.38083 255.744
222.34734 236.384 255.744
222.35124 236.38623 255.744
222.35669 236.3893 255.744
222.34982 236.3854 255.744
222.33456 236.37682 255.744
222.34471 236.38252 255.744
222.32242 236.36992 255.744
222.336 236.37762 255.744
222.36028 236.39133 255.744
222.35498 236.38832 255.744
222.35298 236.38719 255.744
222.3511 236.38614 255.744
222.34174 236.38084 255.744
222.3459 236.38321 255.744
222.33807 236.3788 255.744
222.32924 236.37383 255.744
222.32826 236.37325 255.744
222.34592 236.3832 255.744
222.34538 236.38293 255.744
222.33253 236.37566 255.744
222.33841 236.37895 255.744
222.35167 236.38644 255.744
222.35678 236.38933 255.744
222.33846 236.37897 255.744
222.3396 236.37965 255.744
222.33154 236.37509 255.744
222.34456 236.38245 255.744
222.34938 236.38518 255.744
222.3574 236.38968 255.744
222.32298 236.37024 255.744
222.3576 236.3898 255.744
222.33998 236.37985 255.744
222.34943 236.3852 255.744
222.3318 236.37524 255.744
222.34244 236.38126 255.744
222.32744 236.37277 255.744
222.34799 236.3844 255.744
222.36159 236.39203 255.744
222.35454 236.38809 255.744
222.33939 236.37952 255.744
222.35487 236.38826 255.744
222.32724 236.37268 255.744
222.3298 236.37413 255.744
222.36684 236.39503 255.744
222.37239 236.39815 255.744
222.36232 236.39246 255.744
222.34793 236.38435 255.744
222.34479 236.38258 255.744
222.33856 236.37904 255.744
222.35483 236.38823 255.744
222.35959 236.39091 255.744
222.35214 236.38672 255.744
222.32805 236.37314 255.744
222.34229 236.38115 255.744
222.35674 236.38931 255.744
222.35231 236.38683 255.744
222.3663 236.39468 255.744
222.34882 236.38487 255.744
222.35394 236.38774 255.744
222.35188 236.38657 255.744
222.35567 236.3887 255.744
222.35078 236.38596 255.744
222.34961 236.38533 255.744
222.35063 236.38586 255.744
222.34557 236.38303 255.744
222.34215 236.38104 255.744
222.343 236.38156 255.744
222.36105 236.39175 255.744
222.34647 236.38354 255.744
222.35025 236.38564 255.744
222.35724 236.38959 255.744
222.33247 236.37558 255.744
222.32065 236.36894 255.744
222.33434 236.37668 255.744
222.35326 236.38731 255.744
222.36539 236.39423 255.744
222.33932 236.37952 255.744
222.3335 236.3762 255.744
222.34949 236.38524 255.744
222.33534 236.37724 255.744
222.34727 236.38397 255.744
222.35553 236.3886 255.744
222.35228 236.38681 255.744
222.34322 236.38168 255.744
222.34453 236.38243 255.744
222.34433 236.38234 255.744
222.33672 236.37802 255.744
222.35683 236.38939 255.744
222.3366 236.37796 255.744
222.34126 236.38058 255.744
222.36235 236.39247 255.744
222.36443 236.39366 255.744
222.33612 236.37766 255.744
222.35655 236.38922 255.744
222.36993 236.39676 255.744
222.34836 236.3846 255.744
222.33673 236.37804 255.744
222.36157 236.39207 255.744
222.34102 236.38042 255.744
222.34106 236.3805 255.744
222.34476 236.38255 255.744
222.3643 236.39359 255.744
222.36264 236.39264 255.744
222.35474 236.38818 255.744
222.34952 236.38524 255.744
222.35765 236.38985 255.744
222.35402 236.38776 255.744
222.32245 236.36998 255.744
222.35771 236.3899 255.744
222.33865 236.37909 255.744
222.34282 236.38145 255.744
222.36562 236.39433 255.744
222.34966 236.38535 255.744
222.3589 236.39053 255.744
222.36266 236.39265 255.744
222.37038 236.39703 255.744
222.36813 236.39574 255.744
222.35493 236.38829 255.744
222.34334 236.38176 255.744
222.35858 236.39037 255.744
222.33044 236.37448 255.744
222.33109 236.37485 255.744
222.36565 236.39433 255.744
222.35268 236.38701 255.744
222.34401 236.38216 255.744
222.35121 236.38622 255.744
222.35844 236.39029 255.744
222.35925 236.39076 255.744
222.3693 236.39644 255.744
222.3459 236.38321 255.744
222.33968 236.37968 255.744
222.35153 236.38641 255.744
222.36351 236.39314 255.744
222.35753 236.38979 255.744
222.36325 236.39299 255.744
222.35422 236.3879 255.744
222.35237 236.38683 255.744
222.35408 236.38783 255.744
222.36523 236.39413 255.744
222.36545 236.39424 255.744
222.35489 236.38829 255.744
222.3622 236.3924 255.744
222.35657 236.38922 255.744
222.361 236.39175 255.744
222.34995 236.3855 255.744
222.34866 236.38478 255.744
222.3516 236.38641 255.744
222.37631 236.40036 255.744
222.32814 236.37317 255.744
222.36845 236.39595 255.744
222.34413 236.38223 255.744
222.34242 236.38126 255.744
222.3734 236.39873 255.744
222.35413 236.38785 255.744
222.35593 236.38889 255.744
222.35672 236.38936 255.744
222.37306 236.39853 255.744
222.36032 236.39133 255.744
222.35048 236.38577 255.744
222.36961 236.3966 255.744
222.37776 236.40118 255.744
222.36021 236.39127 255.744
222.36974 236.39667 255.744
222.38148 236.40327 255.744
222.35493 236.3883 255.744
222.36035 236.39137 255.744
222.35689 236.38942 255.744
222.35088 236.38599 255.744
222.35516 236.38841 255.744
222.36249 236.39256 255.744
222.34868 236.38475 255.744
222.36647 236.39479 255.744
222.34332 236.38173 255.744
222.34506 236.38274 255.744
222.35104 236.38612 255.744
222.35222 236.38678 255.744
222.36243 236.39252 255.744
222.36668 236.39493 255.744
222.35675 236.3893 255.744
222.37071 236.39723 255.744
222.36264 236.39262 255.744
222.3623 236.39247 255.744
222.37883 236.40175 255.744
220.77539 234.70187 254.16486
217.53728 231.26694 250.45422
198.88428 211.43436 228.97336
168.05634 178.67685 193.5178
138.0722 146.79791 158.9911
92.042534 97.86212 105.99407
59.406395 63.165886 68.41888
0 0 0
0 0 0
0 0 0
0 0 0
0 0 0
0 0 0
0 0 0
0 0 0
0 0 0
0 0 0
0 0 0
0 0 0
0 0 0
0 0 0
0 0 0
0 0 0
0 0 0
0 0 0
0 0 0
0 0 0
0 0 0
0 0 0
0 0 0
0 0 0
0 0 0
0 0 0
0 0 0
0 0 0
0 0 0
0 0 0
0 0 0
0 0 0
0 0 0
0 0 0
0 0 0
0 0 0
0 0 0
0 0 0
0 0 0
0 0 0
0 0 0
0 0 0
0 0 0
0 0 0
0 0 0
0 0 0
0 0 0
0 0 0
0 0 0
0 0 0
0 0 0
0 0 0
0 0 0
0 0 0
0 0 0
0 0 0
0 0 0
0 0 0
0 0 0
0 0 0
0 0 0
0 0 0
0 0 0
0 0 0
0 0 0
0 0 0
0 0 0
0 0 0
0 0 0
0 0 0
0 0 0
0 0 0
0 0 0
0 0 0
0 0 0
0 0 0
0 0 0
0 0 0
0 0 0
0 0 0
0 0 0
0 0 0
0 0 0
0 0 0
0 0 0
0 0 0
0 0 0
0 0 0
0 0 0
0 0 0
0 0 0
0 0 0
0 0 0
0 0 0
0 0 0
0 0 0
0 0 0
0 0 0
0 0 0
0 0 0
0 0 0
0 0 0
0 0 0
0 0 0
0 0 0
0 0 0
0 0 0
0 0 0
0 0 0
0 0 0
0 0 0
0 0 0
0 0 0
0 0 0
0 0 0
0 0 0
0 0 0
0 0 0
0 0 0
0 0 0
0 0 0
0 0 0
0 0 0
0 0 0
0 0 0
0 0 0
0 0 0
0 0 0
0 0 0
0 0 0
0 0 0
0 0 0
0 0 0
0 0 0
0 0 0
0 0 0
0 0 0
0 0 0
0 0 0
0 0 0
0 0 0
0 0 0
0 0 0
0 0 0
0 0 0
0 0 0
0 0 0
0 0 0
0 0 0
0 0 0
0 0 0
0 0 0
0 0 0
0 0 0
0 0 0
0 0 0
0 0 0
0 0 0
0 0 0
0 0 0
0 0 0
0 0 0
0 0 0
0 0 0
0 0 0
0 0 0
0 0 0
0 0 0
0 0 0
0 0 0
0 0 0
0 0 0
0 0 0
0 0 0
0 0 0
0 0 0
0 0 0
0 0 0
0 0 0
0 0 0
0 0 0
0 0 0
0 0 0
0 0 0
0 0 0
0 0 0
0 0 0
0 0 0
0 0 0
0 0 0
0 0 0
0 0 0
0 0 0
0 0 0
0 0 0
0 0 0
0 0 0
0 0 0
0 0 0
0 0 0
0 0 0
0 0 0
0 0 0
0 0 0
0 0 0
0 0 0
0 0 0
0 0 0
0 0 0
0 0 0
0 0 0
0 0 0
0 0 0
0 0 0
0 0 0
0 0 0
0 0 0
0 0 0
0 0 0
0 0 0
0 0 0
0 0 0
0 0 0
0 0 0
0 0 0
0 0 0
0 0 0
0 0 0
0 0 0
0 0 0
0 0 0
0 0 0
0 0 0
0 0 0
0 0 0
0 0 0
0 0 0
0 0 0
0 0 0
0 0 0
0 0 0
0 0 0
0 0 0
0 0 0
0 0 0
0 0 0
0 0 0
0 0 0
0 0 0
0 0 0
0 0 0
0 0 0
0 0 0
0 0 0
0 0 0
0 0 0
0 0 0
0 0 0
0 0 0
0 0 0
0 0 0
0 0 0
0 0 0
0 0 0
0 0 0
0 0 0
0 0 0
0 0 0
0 0 0
0 0 0
0 0 0
0 0 0
0 0 0
0 0 0
0 0 0
0 0 0
0 0 0
0 0 0
0 0 0
0 0 0
26.587582 28.260063 30.597853
109.592545 116.50181 126.15818
193.49554 205.69968 222.75572
220.7734 234.70074 254.16486
222.34303 236.38158 255.744
222.35104 236.38611 255.744
222.34663 236.38364 255.744
222.35252 236.38693 255.744
222.35555 236.38866 255.744
222.33781 236.37865 255.744
222.35501 236.38832 255.744
222.34685 236.38371 255.744
222.35423 236.3879 255.744
222.349 236.38496 255.744
222.35512 236.3884 255.744
222.35826 236.39018 255.744
222.34598 236.38322 255.744
222.34833 236.38458 255.744
222.33409 236.37653 255.744
222.34537 236.38292 255.744
222.35011 236.38559 255.744
222.35196 236.38661 255.744
222.328 236.37311 255.744
222.35997 236.39114 255.744
222.3764 236.4004 255.744
222.34337 236.38179 255.744
222.33382 236.37636 255.744
222.34186 236.3809 255.744
222.35158 236.3864 255.744
222.34322 236.38171 255.744
222.34013 236.37994 255.744
222.34215 236.3811 255.744
222.33371 236.37633 255.744
222.34846 236.38464 255.744
222.36494 236.39397 255.744
222.36125 236.39186 255.744
222.35925 236.39072 255.744
222.3489 236.38492 255.744
222.368 236.39569 255.744
222.35081 236.386 255.744
222.35088 236.38602 255.744
222.34303 236.38159 255.744
222.35637 236.38911 255.744
222.32657 236.37231 255.744
222.34969 236.38533 255.744
222.3418 236.38087 255.744
222.35736 236.3897 255.744
222.345 236.3827 255.744
222.36073 236.39157 255.744
222.36781 236.39555 255.744
222.3564 236.38911 255.744
222.36533 236.3942 255.744
222.3337 236.37631 255.744
222.35815 236.39015 255.744
222.34456 236.38246 255.744
222.37048 236.3971 255.744
222.34663 236.38364 255.744
222.34137 236.38065 255.744
222.34848 236.38467 255.744
222.34581 236.38318 255.744
222.34453 236.38243 255.744
222.3615 236.39203 255.744
222.34561 236.38307 255.744
222.34703 236.38387 255.744
222.35963 236.39096 255.744
222.32907 236.3737 255.744
222.3376 236.37852 255.744
222.34323 236.3817 255.744
222.34749 236.3841 255.744
222.34827 236.38454 255.744
222.34369 236.38194 255.744
222.35556 236.38866 255.744
222.34024 236.38002 255.744
222.3565 236.3892 255.744
222.34589 236.38318 255.744
222.33197 236.37532 255.744
222.34355 236.38188 255.744
222.34943 236.3852 255.744
222.3474 236.38405 255.744
222.34583 236.38318 255.744
222.35141 236.3863 255.744
222.34047 236.38014 255.744
222.35175 236.38652 255.744
222.34862 236.38477 255.744
222.33571 236.37746 255.744
222.3391 236.37938 255.744
222.35481 236.38826 255.744
222.35553 236.38861 255.744
222.33932 236.3795 255.744
222.3539 236.38771 255.744
222.34073 236.38031 255.744
222.3439 236.38208 255.744
222.33266 236.37572 255.744
222.35378 236.38765 255.744
222.33885 236.37924 255.744
222.35272 236.38707 255.744
222.33669 236.37802 255.744
222.34212 236.38106 255.744
222.32881 236.37357 255.744
222.34421 236.38226 255.744
222.33838 236.37895 255.744
222.34235 236.3812 255.744
222.32887 236.3736 255.744
222.33429 236.37663 255.744
222.33742 236.3784 255.744
222.35031 236.38571 255.744
222.33974 236.37971 255.744
222.35233 236.38683 255.744
222.34465 236.3825 255.744
222.34654 236.38358 255.744
222.33405 236.37651 255.744
222.31622 236.36646 255.744
222.34462 236.3825 255.744
222.34554 236.383 255.744
222.34552 236.38301 255.744
222.34657 236.38358 255.744
222.33171 236.37518 255.744
222.34497 236.38268 255.744
222.35031 236.38568 255.744
222.3496 236.38528 255.744
222.35072 236.38593 255.744
222.34831 236.38455 255.744
222.32819 236.37318 255.744
222.33633 236.3778 255.744
222.35016 236.38562 255.744
222.34152 236.38074 255.744
222.36499 236.39398 255.744
222.37434 236.39928 255.744
222.3648 236.39388 255.744
222.36871 236.39604 255.744
222.38687 236.40631 255.744
222.35597 236.38887 255.744
222.37717 236.40086 255.744
222.38786 236.40689 255.744
222.35081 236.386 255.744
222.37286 236.3984 255.744
222.35924 236.39073 255.744
222.37311 236.39854 255.744
222.3482 236.38449 255.744
222.38173 236.40343 255.744
222.36888 236.39616 255.744
222.38441 236.40492 255.744
222.37474 236.3995 255.744
222.36678 236.395 255.744
222.37775 236.40118 255.744
222.36456 236.3937 255.744
222.36371 236.39323 255.744
222.36765 236.39546 255.744
222.34717 236.38393 255.744
222.3677 236.3955 255.744
222.38123 236.40314 255.744
222.37381 236.39897 255.744
222.37514 236.39973 255.744
222.37859 236.40163 255.744
222.3724 236.39813 255.744
222.38567 236.40565 255.744
222.37895 236.40187 255.744
222.3814 236.40324 255.744
222.397 236.41205 255.744
222.35905 236.39063 255.744
222.38205 236.40361 255.744
222.36555 236.39432 255.744
222.36153 236.39203 255.744
222.37431 236.39926 255.744
222.38272 236.40396 255.744
222.37274 236.39836 255.744
222.38434 236.40489 255.744
222.36592 236.39449 255.744
222.3866 236.40619 255.744
222.3716 236.39774 255.744
222.3737 236.39888 255.744
222.3885 236.40726 255.744
222.36432 236.39359 255.744
222.37949 236.40215 255.744
222.37354 236.39879 255.744
222.40677 236.41753 255.744
222.37927 236.40205 255.744
222.37173 236.39781 255.744
222.37898 236.40187 255.744
222.37962 236.40225 255.744
222.38214 236.40366 255.744
222.37723 236.40091 255.744
222.36551 236.39427 255.744
222.36653 236.39482 255.744
222.36922 236.39636 255.744
222.3708 236.39723 255.744
222.37827 236.40146 255.744
222.38368 236.40451 255.744
222.36671 236.39497 255.744
222.40169 236.41467 255.744
222.40121 236.41443 255.744
222.3876 236.40674 255.744
222.38731 236.40656 255.744
222.39177 236.4091 255.744
222.37234 236.39812 255.744
222.38861 236.4073 255.744
222.38531 236.40546 255.744
222.36621 236.39467 255.744
222.37729 236.40091 255.744
222.3773 236.40094 255.744
222.39186 236.40912 255.744
222.4019 236.41483 255.744
222.37936 236.4021 255.744
222.3515 236.38637 255.744
222.38324 236.40428 255.744
222.3658 236.39442 255.744
222.38568 236.40565 255.744
222.36139 236.39195 255.744
222.38257 236.40392 255.744
222.38914 236.40762 255.744
222.38794 236.40692 255.744
222.38597 236.40582 255.744
222.37476 236.3995 255.744
222.3676 236.39545 255.744
222.36726 236.39528 255.744
222.37091 236.39732 255.744
222.35995 236.39114 255.744
222.38606 236.40588 255.744
222.3871 236.40646 255.744
222.39334 236.40999 255.744
222.40776 236.4181 255.744
222.38213 236.40363 255.744
222.3799 236.4024 255.744
222.3777 236.40114 255.744
222.37335 236.39873 255.744
222.39273 236.40965 255.744
222.40857 236.41858 255.744
222.38495 236.40526 255.744
222.37624 236.40031 255.744
222.3811 236.40312 255.744
222.38055 236.40274 255.744
222.38188 236.4035 255.744
222.37752 236.40103 255.744
222.38504 236.40526 255.744
222.39174 236.40909 255.744
222.35907 236.39066 255.744
222.38898 236.40753 255.744
222.3766 236.40056 255.744
222.38799 236.40695 255.744
222.37941 236.4021 255.744
222.38545 236.40552 255.744
222.3746 236.39938 255.744
222.38042 236.4027 255.744
222.38963 236.4079 255.744
222.39029 236.40825 255.744
222.38838 236.4072 255.744
222.40076 236.41417 255.744
222.37585 236.40012 255.744
222.35657 236.3892 255.744
222.37988 236.40236 255.744
222.39287 236.40971 255.744
222.39125 236.40883 255.744
222.3907 236.40851 255.744
222.37938 236.40211 255.744
222.39896 236.41316 255.744
222.37466 236.39944 255.744
222.38937 236.40773 255.744
222.36453 236.39374 255.744
222.39598 236.4115 255.744
222.38083 236.40295 255.744
222.382 236.40356 255.744
222.38069 236.40286 255.744
222.40257 236.41519 255.744
222.42131 236.42577 255.744
222.39072 236.40848 255.744
222.36824 236.39581 255.744
222.40102 236.4143 255.744
222.38608 236.4059 255.744
222.3877 236.4068 255.744
222.376 236.4002 255.744
222.39822 236.41273 255.744
222.39247 236.40948 255.744
222.38223 236.40372 255.744
222.3988 236.41309 255.744
222.37312 236.39857 255.744
222.38571 236.40569 255.744
222.38777 236.40686 255.744
222.38121 236.40314 255.744
222.38599 236.40584 255.744
222.37846 236.40163 255.744
222.38019 236.40257 255.744
222.3836 236.40445 255.744
222.38342 236.40436 255.744
222.36932 236.39642 255.744
222.37747 236.40103 255.744
222.39589 236.41142 255.744
222.41231 236.42073 255.744
222.40271 236.41525 255.744
222.3652 236.3941 255.744
222.41257 236.42085 255.744
222.3716 236.39772 255.744
222.3995 236.41347 255.744
222.39503 236.41093 255.744
222.40572 236.41696 255.744
222.39984 236.41368 255.744
222.38681 236.4063 255.744
222.36621 236.39465 255.744
222.36433 236.39359 255.744
222.38405 236.40474 255.744
222.41174 236.42036 255.744
222.3946 236.41069 255.744
222.39421 236.41048 255.744
222.37723 236.40086 255.744
222.37956 236.4022 255.744
222.38391 236.40465 255.744
222.39606 236.4115 255.744
222.39023 236.4082 255.744
222.3864 236.40604 255.744
222.40952 236.41911 255.744
222.3751 236.39967 255.744
222.39494 236.41089 255.744
222.4085 236.41855 255.744
222.38922 236.40765 255.744
209.28549 222.48308 240.92773
197.10385 209.53993 226.91974
174.27718 185.27452 200.64354
147.94557 157.29582 170.36163
118.82724 126.33993 136.83775
65.083435 69.19871 74.94913
53.139008 56.499718 61.195705
0 0 0
0 0 0
0 0 0
0 0 0
0 0 0
0 0 0
0 0 0
0 0 0
0 0 0
0 0 0
0 0 0
0 0 0
0 0 0
0 0 0
0 0 0
0 0 0
0 0 0
0 0 0
0 0 0
0 0 0
0 0 0
0 0 0
0 0 0
0 0 0
0 0 0
0 0 0
0 0 0
0 0 0
0 0 0
0 0 0
0 0 0
0 0 0
0 0 0
0 0 0
0 0 0
0 0 0
0 0 0
0 0 0
0 0 0
0 0 0
0 0 0
0 0 0
0 0 0
0 0 0
0 0 0
0 0 0
0 0 0
0 0 0
0 0 0
0 0 0
0 0 0
0 0 0
0 0 0
0 0 0
0 0 0
0 0 0
0 0 0
0 0 0
0 0 0
0 0 0
0 0 0
0 0 0
0 0 0
0 0 0
0 0 0
0 0 0
0 0 0
0 0 0
0 0 0
0 0 0
0 0 0
0 0 0
0 0 0
0 0 0
0 0 0
0 0 0
0 0 0
0 0 0
0 0 0
0 0 0
0 0 0
0 0 0
0 0 0
0 0 0
0 0 0
0 0 0
0 0 0
0 0 0
0 0 0
0 0 0
0 0 0
0 0 0
0 0 0
0 0 0
0 0 0
0 0 0
0 0 0
0 0 0
0 0 0
0 0 0
0 0 0
0 0 0
0 0 0
0 0 0
0 0 0
0 0 0
0 0 0
0 0 0
0 0 0
0 0 0
0 0 0
0 0 0
0 0 0
0 0 0
0 0 0
0 0 0
0 0 0
0 0 0
0 0 0
0 0 0
0 0 0
0 0 0
0 0 0
0 0 0
0 0 0
0 0 0
0 0 0
0 0 0
0 0 0
0 0 0
0 0 0
0 0 0
0 0 0
0 0 0
0 0 0
0 0 0
0 0 0
0 0 0
0 0 0
0 0 0
0 0 0
0 0 0
0 0 0
0 0 0
0 0 0
0 0 0
0 0 0
0 0 0
0 0 0
0 0 0
0 0 0
0 0 0
0 0 0
0 0 0
0 0 0
0 0 0
0 0 0
0 0 0
0 0 0
0 0 0
0 0 0
0 0 0
0 0 0
0 0 0
0 0 0
0 0 0
0 0 0
0 0 0
0 0 0
0 0 0
0 0 0
0 0 0
0 0 0
0 0 0
0 0 0
0 0 0
0 0 0
0 0 0
0 0 0
0 0 0
0 0 0
0 0 0
0 0 0
0 0 0
0 0 0
0 0 0
0 0 0
0 0 0
0 0 0
0 0 0
0 0 0
0 0 0
0 0 0
0 0 0
0 0 0
0 0 0
0 0 0
0 0 0
0 0 0
0 0 0
0 0 0
0 0 0
0 0 0
0 0 0
0 0 0
0 0 0
0 0 0
0 0 0
0 0 0
0 0 0
0 0 0
0 0 0
0 0 0
0 0 0
0 0 0
0 0 0
0 0 0
0 0 0
0 0 0
0 0 0
0 0 0
0 0 0
0 0 0
0 0 0
0 0 0
0 0 0
0 0 0
0 0 0
0 0 0
0 0 0
0 0 0
0 0 0
0 0 0
0 0 0
0 0 0
0 0 0
0 0 0
0 0 0
0 0 0
0 0 0
0 0 0
0 0 0
0 0 0
0 0 0
0 0 0
0 0 0
0 0 0
0 0 0
0 0 0
0 0 0
0 0 0
0 0 0
0 0 0
0 0 0
0 0 0
0 0 0
0 0 0
0 0 0
0 0 0
0 0 0
0 0 0
0 0 0
0 0 0
0 0 0
0 0 0
0 0 0
0 0 0
0 0 0
0 0 0
0 0 0
0 0 0
0 0 0
0 0 0
0 0 0
0 0 0
0 0 0
0 0 0
0 0 0
0 0 0
0 0 0
0 0 0
0 0 0
53.186184 56.526344 61.195705
155.00418 164.76797 178.41461
220.79439 234.7126 254.16486
222.3759 236.40013 255.744
222.39772 236.41241 255.744
222.39279 236.40965 255.744
222.3976 236.4124 255.744
222.37343 236.39873 255.744
222.37343 236.39873 255.744
222.40775 236.4181 255.744
222.38078 236.40286 255.744
222.3847 236.40509 255.744
222.37653 236.40047 255.744
222.40045 236.41399 255.744
222.38286 236.4041 255.744
222.38338 236.40436 255.744
222.38142 236.40323 255.744
222.38374 236.40456 255.744
222.40018 236.41383 255.744
222.3867 236.40623 255.744
222.36664 236.39491 255.744
222.39244 236.40948 255.744
222.37566 236.40002 255.744
222.37344 236.39873 255.744
222.37352 236.39877 255.744
222.37547 236.39989 255.744
222.37927 236.40202 255.744
222.37418 236.39917 255.744
222.37645 236.40045 255.744
222.38857 236.4073 255.744
222.38225 236.40372 255.744
222.39157 236.40897 255.744
222.37996 236.40242 255.744
222.3763 236.40034 255.744
222.39166 236.40903 255.744
222.36864 236.39603 255.744
222.38167 236.4034 255.744
222.3894 236.40776 255.744
222.39186 236.40912 255.744
222.37907 236.40192 255.744
222.37668 236.40056 255.744
222.38022 236.4026 255.744
222.37302 236.39851 255.744
222.38292 236.4041 255.744
222.38652 236.40611 255.744
222.39308 236.40984 255.744
222.38477 236.40512 255.744
222.39308 236.40984 255.744
222.39148 236.40892 255.744
222.36162 236.3921 255.744
222.3842 236.40482 255.744
222.38947 236.40776 255.744
222.36708 236.39516 255.744
222.37898 236.40187 255.744
222.38672 236.40625 255.744
222.37347 236.39877 255.744
222.3516 236.38641 255.744
222.38173 236.4034 255.744
222.37857 236.40164 255.744
222.38045 236.40274 255.744
222.36063 236.39151 255.744
222.38385 236.40463 255.744
222.39041 236.40831 255.744
222.39336 236.40999 255.744
222.37383 236.39896 255.744
222.39684 236.41196 255.744
222.38454 236.40497 255.744
222.37724 236.40088 255.744
222.39581 236.41135 255.744
222.37985 236.40237 255.744
222.36996 236.39677 255.744
222.3828 236.40404 255.744
222.376 236.4002 255.744
222.38507 236.40532 255.744
222.37311 236.39854 255.744
222.38148 236.4033 255.744
222.35896 236.39061 255.744
222.37933 236.40202 255.744
222.38747 236.40666 255.744
222.3722 236.39803 255.744
222.37761 236.40108 255.744
222.37723 236.40091 255.744
222.37944 236.40213 255.744
222.37013 236.39687 255.744
222.3962 236.41158 255.744
222.38484 236.4052 255.744
222.37267 236.39832 255.744
222.37543 236.39987 255.744
222.3807 236.4029 255.744
222.37733 236.40092 255.744
222.37688 236.4007 255.744
222.38206 236.40363 255.744
222.3674 236.39537 255.744
222.37022 236.39696 255.744
222.36884 236.39616 255.744
222.37024 236.39696 255.744
222.38885 236.40744 255.744
222.3526 236.387 255.744
222.37016 236.3969 255.744
222.38289 236.4041 255.744
222.36185 236.3922 255.744
222.38962 236.4079 255.744
222.35994 236.39111 255.744
222.37457 236.39938 255.744
222.36055 236.39146 255.744
222.39548 236.41121 255.744
222.36139 236.39195 255.744
222.373 236.39851 255.744
222.36682 236.39503 255.744
222.37479 236.39949 255.744
222.37718 236.40086 255.744
222.35919 236.3907 255.744
222.39041 236.40833 255.744
222.37302 236.39854 255.744
222.38756 236.40672 255.744
222.35168 236.38649 255.744
222.35304 236.38724 255.744
222.3865 236.40613 255.744
222.37483 236.39952 255.744
222.3858 236.40573 255.744
222.36395 236.3934 255.744
222.36679 236.395 255.744
222.368 236.39566 255.744
222.35823 236.39015 255.744
222.4045 236.4163 255.744
222.38982 236.408 255.744
222.39838 236.41286 255.744
222.40651 236.41742 255.744
222.41661 236.42314 255.744
222.41975 236.4249 255.744
222.40106 236.41435 255.744
222.4024 236.4151 255.744
222.39995 236.41371 255.744
222.41249 236.42079 255.744
222.405 236.41656 255.744
222.39267 236.40959 255.744
222.409 236.41882 255.744
222.40987 236.4193 255.744
222.38997 236.40807 255.744
222.39616 236.41159 255.744
222.36899 236.39626 255.744
222.40453 236.41629 255.744
222.39566 236.41129 255.744
222.40834 236.41846 255.744
222.40489 236.4165 255.744
222.40771 236.4181 255.744
222.39014 236.40816 255.744
222.41064 236.41977 255.744
222.41885 236.4244 255.744
222.39369 236.41017 255.744
222.40373 236.41583 255.744
222.39658 236.4118 255.744
222.39874 236.41304 255.744
222.40681 236.41762 255.744
222.41695 236.42334 255.744
222.41153 236.42021 255.744
222.41112 236.42 255.744
222.3866 236.40619 255.744
222.40912 236.4189 255.744
222.38832 236.40714 255.744
222.39386 236.41028 255.744
222.41296 236.42107 255.744
222.42079 236.42548 255.744
222.3993 236.41335 255.744
222.42453 236.4276 255.744
222.40707 236.41772 255.744
222.40105 236.41434 255.744
222.41678 236.4232 255.744
222.41681 236.42322 255.744
222.40126 236.41446 255.744
222.41068 236.41978 255.744
222.41289 236.421 255.744
222.41154 236.42026 255.744
222.41747 236.42361 255.744
222.39389 236.41028 255.744
222.4121 236.42056 255.744
222.42786 236.42944 255.744
222.38652 236.40613 255.744
222.39764 236.4124 255.744
222.40309 236.41547 255.744
222.40594 236.4171 255.744
222.40892 236.41878 255.744
222.41043 236.4196 255.744
222.40298 236.41544 255.744
222.40862 236.41858 255.744
222.41675 236.42317 255.744
222.39012 236.40819 255.744
222.4146 236.42198 255.744
222.40773 236.4181 255.744
222.40512 236.41663 255.744
222.41833 236.42407 255.744
222.40251 236.41516 255.744
222.42757 236.4293 255.744
222.41315 236.42113 255.744
222.41591 236.4227 255.744
222.41113 236.42001 255.744
222.39711 236.41212 255.744
222.41191 236.42041 255.744
222.42159 236.4259 255.744
222.42288 236.42665 255.744
222.4198 236.42491 255.744
222.42403 236.4273 255.744
222.42758 236.4293 255.744
222.41193 236.42049 255.744
222.42366 236.42708 255.744
222.41049 236.41966 255.744
222.40741 236.41792 255.744
222.41667 236.42316 255.744
222.4077 236.41808 255.744
222.40588 236.41705 255.744
222.41942 236.42468 255.744
222.39674 236.4119 255.744
222.39726 236.41219 255.744
222.40356 236.41577 255.744
222.42476 236.42773 255.744
222.41876 236.42429 255.744
222.40472 236.41641 255.744
222.42004 236.42506 255.744
222.42169 236.42598 255.744
222.40327 236.4156 255.744
222.41476 236.42209 255.744
222.42863 236.4299 255.744
222.40811 236.41833 255.744
222.39293 236.40974 255.744
222.41446 236.42186 255.744
222.42293 236.42668 255.744
222.41177 236.42038 255.744
222.40718 236.41777 255.744
222.40128 236.41446 255.744
222.40259 236.4152 255.744
222.41476 236.42207 255.744
222.42908 236.43013 255.744
222.43459 236.43327 255.744
222.4081 236.41832 255.744
222.43054 236.431 255.744
222.41068 236.41975 255.744
222.41832 236.42406 255.744
222.4114 236.42018 255.744
222.40488 236.41649 255.744
222.4195 236.42473 255.744
222.4175 236.42363 255.744
222.41829 236.42409 255.744
222.4212 236.42567 255.744
222.40956 236.41913 255.744
222.396 236.41147 255.744
222.42267 236.42654 255.744
222.42891 236.43005 255.744
222.41588 236.4227 255.744
222.42297 236.42671 255.744
222.41383 236.42155 255.744
222.40596 236.41711 255.744
222.42468 236.42766 255.744
222.42834 236.42976 255.744
222.39275 236.40965 255.744
222.40114 236.41438 255.744
222.43254 236.43208 255.744
222.41444 236.4219 255.744
222.42252 236.42644 255.744
222.41399 236.42165 255.744
222.40361 236.41576 255.744
222.41899 236.42445 255.744
222.40628 236.41727 255.744
222.41502 236.42224 255.744
222.42574 236.42827 255.744
222.42204 236.42616 255.744
222.42807 236.42957 255.744
222.4309 236.4312 255.744
222.42067 236.42542 255.744
222.41048 236.41965 255.744
222.39543 236.41115 255.744
222.4241 236.42735 255.744
222.39825 236.41273 255.744
222.43867 236.43556 255.744
222.41602 236.42278 255.744
222.40079 236.41418 255.744
222.41751 236.42363 255.744
222.43394 236.43292 255.744
222.4198 236.42496 255.744
222.42673 236.4288 255.744
222.40988 236.41931 255.744
222.42328 236.4269 255.744
222.42264 236.4265 255.744
222.40826 236.4184 255.744
222.41316 236.42116 255.744
222.41606 236.42279 255.744
222.42543 236.42812 255.744
222.42053 236.42534 255.744
222.40903 236.41882 255.744
222.42215 236.42624 255.744
222.41962 236.42482 255.744
222.44263 236.43779 255.744
222.42276 236.42657 255.744
222.40482 236.41647 255.744
222.40208 236.41492 255.744
222.4096 236.41914 255.744
222.42157 236.42595 255.744
222.41174 236.42033 255.744
222.40572 236.41696 255.744
222.40715 236.4178 255.744
222.42644 236.42865 255.744
222.41524 236.42235 255.744
222.41747 236.42358 255.744
222.41373 236.4215 255.744
222.43456 236.43326 255.744
222.44815 236.44092 255.744
222.42792 236.4295 255.744
222.41447 236.4219 255.744
222.40788 236.41818 255.744
222.42099 236.4256 255.744
220.84209 234.73953 254.16486
214.32024 227.81976 246.68777
204.18672 217.04915 235.02657
178.31169 189.54985 205.25664
170.18103 180.91739 195.92184
109.57093 116.48961 126.15818
88.12836 93.69829 101.4816
0 0 0
0 0 0
0 0 0
0 0 0
0 0 0
0 0 0
0 0 0
0 0 0
0 0 0
0 0 0
0 0 0
0 0 0
0 0 0
0 0 0
0 0 0
0 0 0
0 0 0
0 0 0
0 0 0
0 0 0
0 0 0
0 0 0
0 0 0
0 0 0
0 0 0
0 0 0
0 0 0
0 0 0
0 0 0
0 0 0
0 0 0
0 0 0
0 0 0
0 0 0
0 0 0
0 0 0
0 0 0
0 0 0
0 0 0
0 0 0
0 0 0
0 0 0
0 0 0
0 0 0
0 0 0
0 0 0
0 0 0
0 0 0
0 0 0
0 0 0
0 0 0
0 0 0
0 0 0
0 0 0
0 0 0
0 0 0
0 0 0
0 0 0
0 0 0
0 0 0
0 0 0
0 0 0
0 0 0
0 0 0
0 0 0
0 0 0
0 0 0
0 0 0
0 0 0
0 0 0
0 0 0
0 0 0
0 0 0
0 0 0
0 0 0
0 0 0
0 0 0
0 0 0
0 0 0
0 0 0
0 0 0
0 0 0
0 0 0
0 0 0
0 0 0
0 0 0
0 0 0
0 0 0
0 0 0
0 0 0
0 0 0
0 0 0
0 0 0
0 0 0
0 0 0
0 0 0
0 0 0
0 0 0
0 0 0
0 0 0
0 0 0
0 0 0
0 0 0
0 0 0
0 0 0
0 0 0
0 0 0
0 0 0
0 0 0
0 0 0
0 0 0
0 0 0
0 0 0
0 0 0
0 0 0
0 0 0
0 0 0
0 0 0
0 0 0
0 0 0
0 0 0
0 0 0
0 0 0
0 0 0
0 0 0
0 0 0
0 0 0
0 0 0
0 0 0
0 0 0
0 0 0
0 0 0
0 0 0
0 0 0
0 0 0
0 0 0
0 0 0
0 0 0
0 0 0
0 0 0
0 0 0
0 0 0
0 0 0
0 0 0
0 0 0
0 0 0
0 0 0
0 0 0
0 0 0
0 0 0
0 0 0
0 0 0
0 0 0
0 0 0
0 0 0
0 0 0
0 0 0
0 0 0
0 0 0
0 0 0
0 0 0
0 0 0
0 0 0
0 0 0
0 0 0
0 0 0
0 0 0
0 0 0
0 0 0
0 0 0
0 0 0
0 0 0
0 0 0
0 0 0
0 0 0
0 0 0
0 0 0
0 0 0
0 0 0
0 0 0
0 0 0
0 0 0
0 0 0
0 0 0
0 0 0
0 0 0
0 0 0
0 0 0
0 0 0
0 0 0
0 0 0
0 0 0
0 0 0
0 0 0
0 0 0
0 0 0
0 0 0
0 0 0
0 0 0
0 0 0
0 0 0
0 0 0
0 0 0
0 0 0
0 0 0
0 0 0
0 0 0
0 0 0
0 0 0
0 0 0
0 0 0
0 0 0
0 0 0
0 0 0
0 0 0
0 0 0
0 0 0
0 0 0
0 0 0
0 0 0
0 0 0
0 0 0
0 0 0
0 0 0
0 0 0
0 0 0
0 0 0
0 0 0
0 0 0
0 0 0
0 0 0
0 0 0
0 0 0
0 0 0
0 0 0
0 0 0
0 0 0
0 0 0
0 0 0
0 0 0
0 0 0
0 0 0
0 0 0
0 0 0
0 0 0
0 0 0
0 0 0
0 0 0
0 0 0
0 0 0
0 0 0
0 0 0
0 0 0
0 0 0
0 0 0
0 0 0
0 0 0
0 0 0
0 0 0
0 0 0
0 0 0
0 0 0
0 0 0
0 0 0
0 0 0
0 0 0
0 0 0
0 0 0
0 0 0
0 0 0
0 0 0
0 0 0
0 0 0
0 0 0
0 0 0
0 0 0
0 0 0
0 0 0
0 0 0
0 0 0
0 0 0
0 0 0
0 0 0
0 0 0
0 0 0
0 0 0
121.813065 129.48889 140.21698
200.72916 213.35728 231.00871
222.42007 236.42505 255.744
222.42146 236.42584 255.744
222.40788 236.4182 255.744
222.4137 236.42146 255.744
222.43037 236.4309 255.744
222.3991 236.41322 255.744
222.41364 236.42145 255.744
222.421 236.4256 255.744
222.40228 236.41501 255.744
222.43 236.4307 255.744
222.42828 236.42969 255.744
222.42726 236.42912 255.744
222.39616 236.41156 255.744
222.4245 236.42755 255.744
222.41089 236.4199 255.744
222.40652 236.4174 255.744
222.41606 236.42284 255.744
222.40683 236.41759 255.744
222.42902 236.43013 255.744
222.40414 236.41608 255.744
222.41214 236.4206 255.744
222.41718 236.42345 255.744
222.41052 236.4197 255.744
222.41605 236.4228 255.744
222.42337 236.42694 255.744
222.41396 236.42163 255.744
222.40187 236.41481 255.744
222.41315 236.42117 255.744
222.40892 236.4188 255.744
222.39474 236.41077 255.744
222.4165 236.42305 255.744
222.39589 236.41144 255.744
222.40187 236.41478 255.744
222.4132 236.4212 255.744
222.40123 236.41443 255.744
222.41644 236.42305 255.744
222.42899 236.43013 255.744
222.425 236.42784 255.744
222.41943 236.4247 255.744
222.41992 236.42499 255.744
222.41643 236.42299 255.744
222.42384 236.4272 255.744
222.4141 236.4217 255.744
222.40619 236.41722 255.744
222.41525 236.42235 255.744
222.39665 236.41185 255.744
222.41495 236.42218 255.744
222.40338 236.41562 255.744
222.41078 236.41983 255.744
222.41815 236.42397 255.744
222.4146 236.42198 255.744
222.40466 236.41638 255.744
222.41125 236.42007 255.744
222.39763 236.41238 255.744
222.42697 236.42896 255.744
222.4069 236.41763 255.744
222.40204 236.41489 255.744
222.4007 236.41414 255.744
222.41194 236.42049 255.744
222.41763 236.42369 255.744
222.40218 236.41493 255.744
222.40308 236.4155 255.744
222.41537 236.42241 255.744
222.41539 236.42244 255.744
222.38846 236.40721 255.744
222.40535 236.41675 255.744
222.42058 236.42535 255.744
222.40323 236.41557 255.744
222.41377 236.42151 255.744
222.42142 236.42581 255.744
222.41956 236.42477 255.744
222.40181 236.41478 255.744
222.40425 236.41617 255.744
222.41379 236.42152 255.744
222.41643 236.42299 255.744
222.3971 236.41208 255.744
222.41728 236.42351 255.744
222.39233 236.40942 255.744
222.39885 236.41307 255.744
222.40494 236.41653 255.744
222.40898 236.41881 255.744
222.41368 236.42148 255.744
222.4101 236.41943 255.744
222.39006 236.40814 255.744
222.4017 236.41467 255.744
222.39777 236.41248 255.744
222.40234 236.41505 255.744
222.41359 236.4214 255.744
222.40913 236.41885 255.744
222.40257 236.41519 255.744
222.40805 236.41829 255.744
222.3922 236.40932 255.744
222.40477 236.41641 255.744
222.39967 236.41353 255.744
222.41669 236.42314 255.744
222.41629 236.42291 255.744
222.39908 236.41318 255.744
222.42693 236.42892 255.744
222.40837 236.41847 255.744
222.4146 236.42198 255.744
222.41066 236.41977 255.744
222.42326 236.42686 255.744
222.39082 236.40858 255.744
222.42346 236.42699 255.744
222.39145 236.4089 255.744
222.39722 236.4122 255.744
222.40454 236.41632 255.744
222.40358 236.41576 255.744
222.40327 236.41559 255.744
222.40791 236.4182 255.744
222.40253 236.41519 255.744
222.40672 236.41751 255.744
222.39995 236.41368 255.744
222.3839 236.40465 255.744
222.38995 236.40807 255.744
222.39085 236.40855 255.744
222.39764 236.41243 255.744
222.4103 236.41956 255.744
222.41258 236.42085 255.744
222.39919 236.41327 255.744
222.44658 236.44003 255.744
222.43652 236.43436 255.744
222.43472 236.43332 255.744
222.4373 236.43478 255.744
222.43324 236.43254 255.744
222.43433 236.43315 255.744
222.43433 236.43314 255.744
222.43988 236.43625 255.744
222.43741 236.43486 255.744
222.4375 236.43488 255.744
222.44179 236.43733 255.744
222.42322 236.42685 255.744
222.43835 236.4354 255.744
222.42105 236.42561 255.744
222.4344 236.43312 255.744
222.43295 236.43234 255.744
222.43315 236.43246 255.744
222.43771 236.43503 255.744
222.44316 236.43808 255.744
222.43268 236.43219 255.744
222.4488 236.44125 255.744
222.43663 236.43442 255.744
222.43327 236.43253 255.744
222.45796 236.44646 255.744
222.4578 236.44637 255.744
222.4387 236.43558 255.744
222.44206 236.43745 255.744
222.42747 236.42923 255.744
222.45848 236.44675 255.744
222.45253 236.44344 255.744
222.44199 236.43745 255.744
222.44382 236.43848 255.744
222.437 236.43462 255.744
222.42282 236.42662 255.744
222.44016 236.43639 255.744
222.43112 236.43129 255.744
222.43365 236.43274 255.744
222.4384 236.43541 255.744
222.42404 236.4273 255.744
222.43904 236.43576 255.744
222.41615 236.42288 255.744
222.43413 236.433 255.744
222.46257 236.44907 255.744
222.44609 236.43974 255.744
222.42758 236.4293 255.744
222.4368 236.4345 255.744
222.42503 236.42787 255.744
222.41988 236.42493 255.744
222.43362 236.43271 255.744
222.43921 236.43585 255.744
222.4365 236.43433 255.744
222.4433 236.43819 255.744
222.41983 236.42496 255.744
222.44312 236.43805 255.744
222.43376 236.43283 255.744
222.44354 236.43831 255.744
222.44234 236.43762 255.744
222.45822 236.44661 255.744
222.42798 236.42955 255.744
222.43793 236.43512 255.744
222.432 236.43181 255.744
222.45331 236.44383 255.744
222.44936 236.4416 255.744
222.45308 236.44371 255.744
222.43803 236.4352 255.744
222.421 236.42561 255.744
222.44518 236.43924 255.744
222.43826 236.43533 255.744
222.4269 236.42892 255.744
222.4472 236.44035 255.744
222.43088 236.43117 255.744
222.44139 236.43709 255.744
222.44902 236.44142 255.744
222.43755 236.43492 255.744
222.43974 236.43617 255.744
222.45741 236.44615 255.744
222.43187 236.4317 255.744
222.44286 236.43796 255.744
222.44864 236.44122 255.744
222.43555 236.43379 255.744
222.44109 236.43692 255.744
222.43776 236.43507 255.744
222.44377 236.43846 255.744
222.45448 236.44449 255.744
222.45522 236.4449 255.744
222.44586 236.43965 255.744
222.45605 236.44534 255.744
222.44386 236.43849 255.744
222.46512 236.45049 255.744
222.45273 236.44351 255.744
222.43509 236.43356 255.744
222.4309 236.43115 255.744
222.42157 236.42593 255.744
222.45503 236.4448 255.744
222.44626 236.43985 255.744
222.46608 236.45103 255.744
222.45432 236.44438 255.744
222.44763 236.44061 255.744
222.44753 236.44055 255.744
222.4412 236.43697 255.744
222.46622 236.45111 255.744
222.44551 236.43944 255.744
222.4372 236.43474 255.744
222.4439 236.43852 255.744
222.45149 236.44281 255.744
222.44551 236.43942 255.744
222.4468 236.44016 255.744
222.44217 236.43753 255.744
222.45007 236.442 255.744
222.45874 236.44693 255.744
222.43808 236.43524 255.744
222.4412 236.43697 255.744
222.44536 236.43935 255.744
222.43646 236.4343 255.744
222.43422 236.43306 255.744
222.45717 236.446 255.744
222.45041 236.44218 255.744
222.44981 236.44185 255.744
222.44464 236.43895 255.744
222.44955 236.44168 255.744
222.43141 236.43147 255.744
222.4529 236.4436 255.744
222.44177 236.43733 255.744
222.44958 236.44173 255.744
222.45224 236.44324 255.744
222.45837 236.44672 255.744
222.4562 236.44545 255.744
222.42299 236.42676 255.744
222.44205 236.43747 255.744
222.44875 236.44127 255.744
222.466 236.45097 255.744
222.43703 236.43466 255.744
222.45854 236.44678 255.744
222.44704 236.4403 255.744
222.45221 236.4432 255.744
222.43062 236.43102 255.744
222.43584 236.434 255.744
222.44264 236.4378 255.744
222.44783 236.44072 255.744
222.45064 236.44235 255.744
222.45773 236.44633 255.744
222.4509 236.44244 255.744
222.42911 236.43018 255.744
222.44893 236.44136 255.744
222.44824 236.44096 255.744
222.47305 236.45494 255.744
222.45045 236.44225 255.744
222.46112 236.44826 255.744
222.43436 236.43314 255.744
222.44545 236.43938 255.744
222.45746 236.4462 255.744
222.44402 236.43858 255.744
222.45409 236.44427 255.744
222.44589 236.43964 255.744
222.4576 236.44626 255.744
222.46454 236.45015 255.744
222.44702 236.44028 255.744
222.44984 236.44188 255.744
222.44922 236.44151 255.744
222.46487 236.45033 255.744
222.46077 236.44806 255.744
222.45486 236.44472 255.744
222.45468 236.44458 255.744
222.43478 236.43335 255.744
222.45007 236.44197 255.744
222.46292 236.44925 255.744
222.46695 236.45155 255.744
222.45079 236.44241 255.744
222.43608 236.4341 255.744
222.4582 236.4466 255.744
222.44266 236.43785 255.744
222.46246 236.44899 255.744
222.43114 236.43134 255.744
222.45721 236.44604 255.744
222.4652 236.45052 255.744
222.457 236.44586 255.744
222.46162 236.4485 255.744
222.44232 236.43765 255.744
222.45236 236.4433 255.744
222.43953 236.43608 255.744
222.45409 236.44427 255.744
222.46992 236.4532 255.744
222.44212 236.43753 255.744
222.45372 236.44406 255.744
222.46492 236.45036 255.744
220.85112 234.7446 254.16486
209.35251 222.5209 240.92773
182.2675 193.73686 209.76831
166.0021 176.46298 191.08353
130.21872 138.42667 149.89825
53.152172 56.50715 61.195705
26.572397 28.251492 30.597853
0 0 0
0 0 0
0 0 0
0 0 0
0 0 0
0 0 0
0 0 0
0 0 0
0 0 0
0 0 0
0 0 0
0 0 0
0 0 0
0 0 0
0 0 0
0 0 0
0 0 0
0 0 0
0 0 0
0 0 0
0 0 0
0 0 0
0 0 0
0 0 0
0 0 0
0 0 0
0 0 0
0 0 0
0 0 0
0 0 0
0 0 0
0 0 0
0 0 0
0 0 0
0 0 0
0 0 0
0 0 0
0 0 0
0 0 0
0 0 0
0 0 0
0 0 0
0 0 0
0 0 0
0 0 0
0 0 0
0 0 0
0 0 0
0 0 0
0 0 0
0 0 0
0 0 0
0 0 0
0 0 0
0 0 0
0 0 0
0 0 0
0 0 0
0 0 0
0 0 0
0 0 0
0 0 0
0 0 0
0 0 0
0 0 0
0 0 0
0 0 0
0 0 0
0 0 0
0 0 0
0 0 0
0 0 0
0 0 0
0 0 0
0 0 0
0 0 0
0 0 0
0 0 0
0 0 0
0 0 0
0 0 0
0 0 0
0 0 0
0 0 0
0 0 0
0 0 0
0 0 0
0 0 0
0 0 0
0 0 0
0 0 0
0 0 0
0 0 0
0 0 0
0 0 0
0 0 0
0 0 0
0 0 0
0 0 0
0 0 0
0 0 0
0 0 0
0 0 0
0 0 0
0 0 0
0 0 0
0 0 0
0 0 0
0 0 0
0 0 0
0 0 0
0 0 0
0 0 0
0 0 0
0 0 0
0 0 0
0 0 0
0 0 0
0 0 0
0 0 0
0 0 0
0 0 0
0 0 0
0 0 0
0 0 0
0 0 0
0 0 0
0 0 0
0 0 0
0 0 0
0 0 0
0 0 0
0 0 0
0 0 0
0 0 0
0 0 0
0 0 0
0 0 0
0 0 0
0 0 0
0 0 0
0 0 0
0 0 0
0 0 0
0 0 0
0 0 0
0 0 0
0 0 0
0 0 0
0 0 0
0 0 0
0 0 0
0 0 0
0 0 0
0 0 0
0 0 0
0 0 0
0 0 0
0 0 0
0 0 0
0 0 0
0 0 0
0 0 0
0 0 0
0 0 0
0 0 0
0 0 0
0 0 0
0 0 0
0 0 0
0 0 0
0 0 0
0 0 0
0 0 0
0 0 0
0 0 0
0 0 0
0 0 0
0 0 0
0 0 0
0 0 0
0 0 0
0 0 0
0 0 0
0 0 0
0 0 0
0 0 0
0 0 0
0 0 0
0 0 0
0 0 0
0 0 0
0 0 0
0 0 0
0 0 0
0 0 0
0 0 0
0 0 0
0 0 0
0 0 0
0 0 0
0 0 0
0 0 0
0 0 0
0 0 0
0 0 0
0 0 0
0 0 0
0 0 0
0 0 0
0 0 0
0 0 0
0 0 0
0 0 0
0 0 0
0 0 0
0 0 0
0 0 0
0 0 0
0 0 0
0 0 0
0 0 0
0 0 0
0 0 0
0 0 0
0 0 0
0 0 0
0 0 0
0 0 0
0 0 0
0 0 0
0 0 0
0 0 0
0 0 0
0 0 0
0 0 0
0 0 0
0 0 0
0 0 0
0 0 0
0 0 0
0 0 0
0 0 0
0 0 0
0 0 0
0 0 0
0 0 0
0 0 0
0 0 0
0 0 0
0 0 0
0 0 0
0 0 0
0 0 0
0 0 0
0 0 0
0 0 0
0 0 0
0 0 0
0 0 0
0 0 0
0 0 0
0 0 0
0 0 0
0 0 0
0 0 0
0 0 0
0 0 0
0 0 0
0 0 0
0 0 0
0 0 0
0 0 0
0 0 0
0 0 0
0 0 0
0 0 0
0 0 0
0 0 0
0 0 0
0 0 0
0 0 0
0 0 0
0 0 0
0 0 0
0 0 0
0 0 0
75.228035 79.94676 86.54379
174.36633 185.32486 200.64354
220.85667 234.74774 254.16486
222.45306 236.44366 255.744
222.43867 236.43558 255.744
222.45332 236.44385 255.744
222.46057 236.4479 255.744
222.43234 236.43199 255.744
222.43486 236.43343 255.744
222.45961 236.44739 255.744
222.44957 236.44171 255.744
222.43683 236.43452 255.744
222.45345 236.44392 255.744
222.44138 236.43707 255.744
222.46027 236.44774 255.744
222.4635 236.44957 255.744
222.44864 236.44121 255.744
222.46541 236.45068 255.744
222.4298 236.43056 255.744
222.42914 236.43018 255.744
222.44609 236.43977 255.744
222.43703 236.43465 255.744
222.46207 236.44876 255.744
222.44206 236.43747 255.744
222.4296 236.43044 255.744
222.43488 236.43344 255.744
222.44742 236.4405 255.744
222.43983 236.43623 255.744
222.45746 236.4462 255.744
222.43608 236.43413 255.744
222.43788 236.43513 255.744
222.42757 236.42929 255.744
222.43561 236.43384 255.744
222.44058 236.43663 255.744
222.45535 236.44499 255.744
222.45 236.44196 255.744
222.4413 236.43706 255.744
222.44083 236.43677 255.744
222.44182 236.43735 255.744
222.44225 236.43759 255.744
222.43619 236.43416 255.744
222.43997 236.43631 255.744
222.42915 236.43019 255.744
222.4365 236.43434 255.744
222.44328 236.43814 255.744
222.45245 236.44336 255.744
222.43892 236.43571 255.744
222.44402 236.4386 255.744
222.44263 236.43784 255.744
222.44893 236.44136 255.744
222.45015 236.44203 255.744
222.4482 236.44093 255.744
222.4255 236.42813 255.744
222.45183 236.44295 255.744
222.44225 236.43758 255.744
222.43169 236.43163 255.744
222.44864 236.44118 255.744
222.42087 236.4255 255.744
222.45784 236.4464 255.744
222.44063 236.43668 255.744
222.42464 236.42766 255.744
222.44597 236.43968 255.744
222.43211 236.43185 255.744
222.45172 236.44292 255.744
222.43909 236.43582 255.744
222.43636 236.43427 255.744
222.4575 236.4462 255.744
222.44818 236.44093 255.744
222.41547 236.42249 255.744
222.42496 236.42783 255.744
222.42793 236.42949 255.744
222.44353 236.43828 255.744
222.45308 236.4437 255.744
222.43141 236.43146 255.744
222.4481 236.44087 255.744
222.44731 236.44043 255.744
222.43365 236.43274 255.744
222.42873 236.42996 255.744
222.45078 236.4424 255.744
222.43736 236.43483 255.744
222.42549 236.42813 255.744
222.44441 236.4388 255.744
222.43967 236.43613 255.744
222.45506 236.44481 255.744
222.43172 236.43164 255.744
222.42561 236.4282 255.744
222.4482 236.44093 255.744
222.42737 236.42918 255.744
222.43068 236.43106 255.744
222.4373 236.43477 255.744
222.42899 236.43011 255.744
222.42374 236.42714 255.744
222.44012 236.43639 255.744
222.44124 236.43701 255.744
222.43188 236.43173 255.744
222.43083 236.43115 255.744
222.43039 236.4309 255.744
222.42691 236.4289 255.744
222.43887 236.43573 255.744
222.45128 236.4427 255.744
222.42285 236.42665 255.744
222.45471 236.44463 255.744
222.42308 236.42676 255.744
222.42984 236.43057 255.744
222.431 236.43124 255.744
222.4377 236.43503 255.744
222.42519 236.42793 255.744
222.45403 236.44421 255.744
222.44334 236.43819 255.744
222.43898 236.43576 255.744
222.45052 236.44228 255.744
222.41888 236.4244 255.744
222.43951 236.43608 255.744
222.4354 236.43372 255.744
222.4244 236.42752 255.744
222.43915 236.43582 255.744
222.42918 236.43024 255.744
222.44223 236.43756 255.744
222.43703 236.43465 255.744
222.4607 236.448 255.744
222.43887 236.4357 255.744
222.45026 236.4421 255.744
222.4677 236.45195 255.744
222.47673 236.45706 255.744
222.46265 236.4491 255.744
222.46466 236.45024 255.744
222.47397 236.45547 255.744
222.46187 236.4487 255.744
222.47601 236.45665 255.744
222.46326 236.44946 255.744
222.48601 236.46227 255.744
222.46666 236.45137 255.744
222.4836 236.46094 255.744
222.46199 236.44873 255.744
222.47025 236.45341 255.744
222.45052 236.44221 255.744
222.46815 236.45221 255.744
222.47797 236.45775 255.744
222.4548 236.44466 255.744
222.47131 236.45403 255.744
222.48593 236.46225 255.744
222.46635 236.45122 255.744
222.46552 236.45074 255.744
222.46384 236.44977 255.744
222.46603 236.451 255.744
222.48106 236.4595 255.744
222.47122 236.45395 255.744
222.47908 236.45839 255.744
222.46426 236.45001 255.744
222.47807 236.45782 255.744
222.45804 236.44652 255.744
222.48497 236.46169 255.744
222.47905 236.45836 255.744
222.47365 236.45529 255.744
222.48009 236.45894 255.744
222.47266 236.45473 255.744
222.47527 236.4562 255.744
222.46799 236.45212 255.744
222.45178 236.44295 255.744
222.4596 236.4474 255.744
222.48468 236.46153 255.744
222.46063 236.44797 255.744
222.47711 236.45729 255.744
222.46849 236.45238 255.744
222.48558 236.46205 255.744
222.4878 236.46332 255.744
222.4775 236.4575 255.744
222.47574 236.45653 255.744
222.46574 236.45084 255.744
222.47192 236.45433 255.744
222.46362 236.44966 255.744
222.47171 236.45421 255.744
222.47514 236.45615 255.744
222.48055 236.45918 255.744
222.47435 236.4557 255.744
222.46196 236.44872 255.744
222.47595 236.4566 255.744
222.47415 236.4556 255.744
222.46135 236.44835 255.744
222.46468 236.45026 255.744
222.46259 236.44908 255.744
222.46042 236.44781 255.744
222.47853 236.45807 255.744
222.48868 236.46379 255.744
222.46849 236.4524 255.744
222.46307 236.44934 255.744
222.46838 236.45233 255.744
222.47113 236.4539 255.744
222.47215 236.45447 255.744
222.49083 236.465 255.744
222.485 236.46172 255.744
222.47577 236.45651 255.744
222.4941 236.46686 255.744
222.47543 236.45633 255.744
222.4735 236.4552 255.744
222.46892 236.45262 255.744
222.4812 236.4596 255.744
222.46953 236.453 255.744
222.47656 236.457 255.744
222.45212 236.44315 255.744
222.45811 236.44655 255.744
222.48544 236.46196 255.744
222.46532 236.4506 255.744
222.47743 236.45747 255.744
222.47592 236.45659 255.744
222.46849 236.45241 255.744
222.49284 236.46613 255.744
222.47801 236.45776 255.744
222.47794 236.45773 255.744
222.47078 236.4537 255.744
222.47679 236.45709 255.744
222.48207 236.46005 255.744
222.47389 236.45543 255.744
222.49893 236.4696 255.744
222.49092 236.46504 255.744
222.48218 236.46011 255.744
222.48438 236.4614 255.744
222.477 236.4572 255.744
222.47179 236.45425 255.744
222.48096 236.45944 255.744
222.45877 236.44691 255.744
222.49478 236.46721 255.744
222.49455 236.4671 255.744
222.473 236.45494 255.744
222.50252 236.47159 255.744
222.47476 236.45595 255.744
222.46692 236.45154 255.744
222.46744 236.45178 255.744
222.48431 236.46132 255.744
222.47385 236.45541 255.744
222.47212 236.45442 255.744
222.49751 236.46878 255.744
222.47014 236.45332 255.744
222.48154 236.45976 255.744
222.48749 236.46313 255.744
222.51086 236.4763 255.744
222.46855 236.45242 255.744
222.46703 236.45157 255.744
222.475 236.45607 255.744
222.47772 236.4576 255.744
222.47357 236.45526 255.744
222.48067 236.45926 255.744
222.46626 236.45116 255.744
222.49397 236.4668 255.744
222.46622 236.45111 255.744
222.47765 236.45755 255.744
222.48883 236.46387 255.744
222.48643 236.46254 255.744
222.46465 236.45023 255.744
222.46933 236.4529 255.744
222.473 236.45497 255.744
222.48349 236.4609 255.744
222.48096 236.45944 255.744
222.48244 236.4603 255.744
222.47789 236.45772 255.744
222.49661 236.46828 255.744
222.4875 236.46313 255.744
222.48189 236.45998 255.744
222.48207 236.46007 255.744
222.47281 236.4548 255.744
222.47339 236.45517 255.744
222.48047 236.4592 255.744
222.48068 236.45932 255.744
222.48578 236.46216 255.744
222.48225 236.46016 255.744
222.49255 236.46596 255.744
222.48148 236.45973 255.744
222.46529 236.4506 255.744
222.48463 236.46155 255.744
222.48553 236.46202 255.744
222.49606 236.46797 255.744
222.48132 236.45967 255.744
222.47859 236.4581 255.744
222.47533 236.45627 255.744
222.48943 236.4642 255.744
222.4665 236.45128 255.744
222.48904 236.46402 255.744
222.49652 236.46823 255.744
222.46161 236.44847 255.744
222.4893 236.46414 255.744
222.48318 236.46066 255.744
222.48029 236.45906 255.744
222.49945 236.4699 255.744
222.46751 236.45181 255.744
222.4961 236.46796 255.744
222.48041 236.45914 255.744
222.4837 236.46098 255.744
222.46562 236.4508 255.744
222.47304 236.45497 255.744
222.48247 236.46027 255.744
222.48976 236.4644 255.744
222.48486 236.46164 255.744
222.4656 236.45078 255.744
222.47449 236.45576 255.744
222.47218 236.45447 255.744
222.50667 236.47395 255.744
222.50162 236.47112 255.744
222.47473 236.45592 255.744
222.48885 236.46391 255.744
222.48723 236.46297 255.744
222.49153 236.46538 255.744
222.47119 236.45395 255.744
222.46455 236.4502 255.744
222.48866 236.46382 255.744
222.48772 236.46324 255.744
219.27692 233.05545 252.31636
204.24733 217.08333 235.02657
188.013 199.83469 216.3595
176.35202 187.4504 202.9632
115.88478 123.17836 133.37296
75.19403 79.927574 86.54379
0 0 0
0 0 0
0 0 0
0 0 0
0 0 0
0 0 0
0 0 0
0 0 0
0 0 0
0 0 0
0 0 0
0 0 0
0 0 0
0 0 0
0 0 0
0 0 0
0 0 0
0 0 0
0 0 0
0 0 0
0 0 0
0 0 0
0 0 0
0 0 0
0 0 0
0 0 0
0 0 0
0 0 0
0 0 0
0 0 0
0 0 0
0 0 0
0 0 0
0 0 0
0 0 0
0 0 0
0 0 0
0 0 0
0 0 0
0 0 0
0 0 0
0 0 0
0 0 0
0 0 0
0 0 0
0 0 0
0 0 0
0 0 0
0 0 0
0 0 0
0 0 0
0 0 0
0 0 0
0 0 0
0 0 0
0 0 0
0 0 0
0 0 0
0 0 0
0 0 0
0 0 0
0 0 0
0 0 0
0 0 0
0 0 0
0 0 0
0 0 0
0 0 0
0 0 0
0 0 0
0 0 0
0 0 0
0 0 0
0 0 0
0 0 0
0 0 0
0 0 0
0 0 0
0 0 0
0 0 0
0 0 0
0 0 0
0 0 0
0 0 0
0 0 0
0 0 0
0 0 0
0 0 0
0 0 0
0 0 0
0 0 0
0 0 0
0 0 0
0 0 0
0 0 0
0 0 0
0 0 0
0 0 0
0 0 0
0 0 0
0 0 0
0 0 0
0 0 0
0 0 0
0 0 0
0 0 0
0 0 0
0 0 0
0 0 0
0 0 0
0 0 0
0 0 0
0 0 0
0 0 0
0 0 0
0 0 0
0 0 0
0 0 0
0 0 0
0 0 0
0 0 0
0 0 0
0 0 0
0 0 0
0 0 0
0 0 0
0 0 0
0 0 0
0 0 0
0 0 0
0 0 0
0 0 0
0 0 0
0 0 0
0 0 0
0 0 0
0 0 0
0 0 0
0 0 0
0 0 0
0 0 0
0 0 0
0 0 0
0 0 0
0 0 0
0 0 0
0 0 0
0 0 0
0 0 0
0 0 0
0 0 0
0 0 0
0 0 0
0 0 0
0 0 0
0 0 0
0 0 0
0 0 0
0 0 0
0 0 0
0 0 0
0 0 0
0 0 0
0 0 0
0 0 0
0 0 0
0 0 0
0 0 0
0 0 0
0 0 0
0 0 0
0 0 0
0 0 0
0 0 0
0 0 0
0 0 0
0 0 0
0 0 0
0 0 0
0 0 0
0 0 0
0 0 0
0 0 0
0 0 0
0 0 0
0 0 0
0 0 0
0 0 0
0 0 0
0 0 0
0 0 0
0 0 0
0 0 0
0 0 0
0 0 0
0 0 0
0 0 0
0 0 0
0 0 0
0 0 0
0 0 0
0 0 0
0 0 0
0 0 0
0 0 0
0 0 0
0 0 0
0 0 0
0 0 0
0 0 0
0 0 0
0 0 0
0 0 0
0 0 0
0 0 0
0 0 0
0 0 0
0 0 0
0 0 0
0 0 0
0 0 0
0 0 0
0 0 0
0 0 0
0 0 0
0 0 0
0 0 0
0 0 0
0 0 0
0 0 0
0 0 0
0 0 0
0 0 0
0 0 0
0 0 0
0 0 0
0 0 0
0 0 0
0 0 0
0 0 0
0 0 0
0 0 0
0 0 0
0 0 0
0 0 0
0 0 0
0 0 0
0 0 0
0 0 0
0 0 0
0 0 0
0 0 0
0 0 0
0 0 0
0 0 0
0 0 0
0 0 0
0 0 0
0 0 0
0 0 0
0 0 0
0 0 0
0 0 0
0 0 0
0 0 0
0 0 0
0 0 0
0 0 0
0 0 0
0 0 0
0 0 0
0 0 0
0 0 0
0 0 0
0 0 0
0 0 0
0 0 0
0 0 0
0 0 0
0 0 0
0 0 0
0 0 0
0 0 0
0 0 0
0 0 0
0 0 0
0 0 0
0 0 0
0 0 0
0 0 0
0 0 0
124.73562 132.5677 143.51665
216.03506 229.60646 248.57813
222.47249 236.45467 255.744
222.46089 236.4481 255.744
222.48317 236.4607 255.744
222.48424 236.46129 255.744
222.46428 236.45003 255.744
222.49121 236.46521 255.744
222.50308 236.47195 255.744
222.46687 236.4515 255.744
222.47716 236.4573 255.744
222.47516 236.45615 255.744
222.49693 236.46846 255.744
222.48836 236.46361 255.744
222.4798 236.4588 255.744
222.45598 236.44534 255.744
222.48232 236.46022 255.744
222.4773 236.4574 255.744
222.46642 236.4512 255.744
222.50122 236.47087 255.744
222.48837 236.46361 255.744
222.47285 236.45486 255.744
222.45602 236.44534 255.744
222.46448 236.45013 255.744
222.48453 236.46141 255.744
222.49702 236.46852 255.744
222.47054 236.45355 255.744
222.46844 236.4524 255.744
222.4708 236.4537 255.744
222.47235 236.45457 255.744
222.46686 236.4515 255.744
222.48013 236.45895 255.744
222.46269 236.44913 255.744
222.46248 236.449 255.744
222.48067 236.45927 255.744
222.47713 236.45726 255.744
222.47632 236.4568 255.744
222.48856 236.46375 255.744
222.47627 236.45676 255.744
222.4699 236.45319 255.744
222.4784 236.45801 255.744
222.48572 236.4621 255.744
222.46983 236.45317 255.744
222.4585 236.44675 255.744
222.48111 236.45956 255.744
222.47798 236.45775 255.744
222.47336 236.45514 255.744
222.4774 236.45743 255.744
222.48201 236.46004 255.744
222.46748 236.4518 255.744
222.47758 236.45753 255.744
222.46628 236.45114 255.744
222.46475 236.4503 255.744
222.47383 236.4554 255.744
222.45013 236.44206 255.744
222.47618 236.45674 255.744
222.46841 236.4524 255.744
222.45543 236.44504 255.744
222.48828 236.46358 255.744
222.48132 236.45966 255.744
222.47926 236.45848 255.744
222.49115 236.46516 255.744
222.46942 236.45291 255.744
222.4771 236.45726 255.744
222.46793 236.45206 255.744
222.4675 236.45184 255.744
222.47203 236.4544 255.744
222.48521 236.46182 255.744
222.49312 236.46628 255.744
222.46724 236.45172 255.744
222.48535 236.46191 255.744
222.4748 236.45596 255.744
222.47908 236.45836 255.744
222.45143 236.44276 255.744
222.45818 236.44658 255.744
222.47481 236.45601 255.744
222.46437 236.45009 255.744
222.47836 236.45798 255.744
222.45952 236.44734 255.744
222.46086 236.4481 255.744
222.4551 236.44482 255.744
222.47757 236.45753 255.744
222.4769 236.45715 255.744
222.4641 236.44995 255.744
222.47678 236.45708 255.744
222.45929 236.4472 255.744
222.47249 236.45467 255.744
222.4643 236.45004 255.744
222.4879 236.46338 255.744
222.47208 236.45442 255.744
222.45244 236.44333 255.744
222.46712 236.45163 255.744
222.48209 236.4601 255.744
222.4676 236.45189 255.744
222.45229 236.44327 255.744
222.47142 236.45404 255.744
222.46097 236.44817 255.744
222.45314 236.44373 255.744
222.45871 236.44687 255.744
222.47461 236.45584 255.744
222.4622 236.44882 255.744
222.46437 236.4501 255.744
222.47195 236.45439 255.744
222.46721 236.45169 255.744
222.47983 236.45876 255.744
222.4774 236.4574 255.744
222.46251 236.44904 255.744
222.46054 236.44792 255.744
222.4636 236.44965 255.744
222.4804 236.45912 255.744
222.45248 236.44334 255.744
222.47586 236.45654 255.744
222.4642 236.44997 255.744
222.45604 236.44536 255.744
222.476 236.45662 255.744
222.4732 236.45505 255.744
222.45554 236.4451 255.744
222.46327 236.44946 255.744
222.48198 236.46002 255.744
222.48302 236.4606 255.744
222.49814 236.46913 255.744
222.51175 236.47684 255.744
222.50235 236.47154 255.744
222.49275 236.46613 255.744
222.50674 236.474 255.744
222.497 236.46849 255.744
222.49268 236.46603 255.744
222.49368 236.46663 255.744
222.49112 236.46516 255.744
222.49846 236.46928 255.744
222.48248 236.46033 255.744
222.50073 236.47061 255.744
222.48814 236.46349 255.744
222.4847 236.46155 255.744
222.5282 236.48611 255.744
222.48967 236.46439 255.744
222.51106 236.47643 255.744
222.49312 236.46631 255.744
222.50136 236.47095 255.744
222.50046 236.47044 255.744
222.52144 236.4823 255.744
222.48843 236.46362 255.744
222.49129 236.46527 255.744
222.5039 236.47241 255.744
222.49727 236.46866 255.744
222.50041 236.47041 255.744
222.49901 236.46964 255.744
222.49977 236.4701 255.744
222.50752 236.47441 255.744
222.5029 236.47182 255.744
222.49321 236.46632 255.744
222.49673 236.46832 255.744
222.50032 236.47037 255.744
222.49536 236.46756 255.744
222.54256 236.49423 255.744
222.4973 236.46866 255.744
222.49976 236.47003 255.744
222.50749 236.4744 255.744
222.49678 236.46835 255.744
222.4786 236.45811 255.744
222.50174 236.47118 255.744
222.50706 236.47415 255.744
222.49095 236.46509 255.744
222.49509 236.46744 255.744
222.51256 236.47728 255.744
222.49612 236.46799 255.744
222.50409 236.47252 255.744
222.49524 236.46748 255.744
222.52303 236.48318 255.744
222.4864 236.46252 255.744
222.50975 236.47566 255.744
222.50671 236.47397 255.744
222.50038 236.47041 255.744
222.50043 236.47044 255.744
222.49251 236.46593 255.744
222.50267 236.47168 255.744
222.49976 236.47005 255.744
222.52045 236.48172 255.744
222.50174 236.47118 255.744
222.5125 236.47723 255.744
222.50461 236.47278 255.744
222.48586 236.46219 255.744
222.5295 236.48682 255.744
222.50517 236.4731 255.744
222.50833 236.4749 255.744
222.49391 236.46674 255.744
222.5038 236.47232 255.744
222.50998 236.47583 255.744
222.51433 236.47829 255.744
222.50864 236.47504 255.744
222.48848 236.46371 255.744
222.49635 236.46812 255.744
222.49022 236.46463 255.744
222.48306 236.46062 255.744
222.5083 236.47488 255.744
222.49007 236.46454 255.744
222.50095 236.47073 255.744
222.4703 236.45343 255.744
222.49255 236.46599 255.744
222.50362 236.47223 255.744
222.50107 236.4708 255.744
222.5108 236.47627 255.744
222.49815 236.46916 255.744
222.49904 236.46965 255.744
222.52605 236.4849 255.744
222.51654 236.4795 255.744
222.49329 236.46642 255.744
222.51573 236.4791 255.744
222.49722 236.46861 255.744
222.4807 236.45926 255.744
222.50752 236.47443 255.744
222.50916 236.47534 255.744
222.52307 236.4832 255.744
222.50389 236.47237 255.744
222.49481 236.46727 255.744
222.50444 236.4727 255.744
222.51251 236.47722 255.744
222.50848 236.47499 255.744
222.50517 236.47313 255.744
222.51334 236.47772 255.744
222.52248 236.48286 255.744
222.52206 236.48262 255.744
222.49402 236.46683 255.744
222.51132 236.4766 255.744
222.49846 236.46928 255.744
222.51505 236.47867 255.744
222.52174 236.48248 255.744
222.52513 236.48436 255.744
222.49455 236.46712 255.744
222.52025 236.48163 255.744
222.50768 236.47452 255.744
222.49803 236.46909 255.744
222.50317 236.47195 255.744
222.49698 236.46849 255.744
222.49132 236.46529 255.744
222.4989 236.46954 255.744
222.50218 236.47142 255.744
222.51013 236.47592 255.744
222.51132 236.4766 255.744
222.51811 236.48036 255.744
222.5065 236.47386 255.744
222.50179 236.47122 255.744
222.51598 236.4792 255.744
222.51253 236.47725 255.744
222.51537 236.47887 255.744
222.52167 236.4824 255.744
222.49997 236.4702 255.744
222.51643 236.47948 255.744
222.4978 236.46893 255.744
222.5184 236.48059 255.744
222.52063 236.48183 255.744
222.51877 236.48082 255.744
222.52783 236.48592 255.744
222.51736 236.47998 255.744
222.51944 236.48117 255.744
222.52681 236.48529 255.744
222.50365 236.47224 255.744
222.50916 236.47536 255.744
222.5041 236.4725 255.744
222.50949 236.47554 255.744
222.52014 236.48155 255.744
222.5318 236.48814 255.744
222.51086 236.47633 255.744
222.49355 236.46654 255.744
222.52866 236.48636 255.744
222.52936 236.48674 255.744
222.50754 236.47444 255.744
222.51389 236.47803 255.744
222.50317 236.47198 255.744
222.53134 236.48787 255.744
222.50795 236.4747 255.744
222.53056 236.48746 255.744
222.5182 236.48047 255.744
222.50874 236.47511 255.744
222.53381 236.48924 255.744
222.51585 236.47914 255.744
222.51471 236.47849 255.744
222.51303 236.47752 255.744
222.50597 236.47353 255.744
222.51944 236.48116 255.744
222.51286 236.47745 255.744
222.50569 236.47342 255.744
222.51854 236.48065 255.744
222.51596 236.4792 255.744
222.51547 236.47893 255.744
222.51442 236.47833 255.744
222.52155 236.48235 255.744
222.51273 236.47739 255.744
222.51555 236.47896 255.744
222.53758 236.49141 255.744
222.51076 236.47626 255.744
222.51445 236.47835 255.744
222.51004 236.47585 255.744
222.52812 236.48605 255.744
222.51512 236.47873 255.744
222.51147 236.47667 255.744
222.52213 236.48268 255.744
222.49666 236.46828 255.744
222.51445 236.4784 255.744
222.53876 236.49207 255.744
222.50952 236.47556 255.744
222.52052 236.48178 255.744
222.50919 236.4754 255.744
217.70828 231.3635 250.45422
202.5127 215.23787 233.0263
178.37044 189.58301 205.25664
150.41241 159.8689 173.08759
95.85969 101.8913 110.32213
70.33464 74.76374 80.95431
0 0 0
0 0 0
0 0 0
0 0 0
0 0 0
0 0 0
0 0 0
0 0 0
0 0 0
0 0 0
0 0 0
0 0 0
0 0 0
0 0 0
0 0 0
0 0 0
0 0 0
0 0 0
0 0 0
0 0 0
0 0 0
0 0 0
0 0 0
0 0 0
0 0 0
0 0 0
0 0 0
0 0 0
0 0 0
0 0 0
0 0 0
0 0 0
0 0 0
0 0 0
0 0 0
0 0 0
0 0 0
0 0 0
0 0 0
0 0 0
0 0 0
0 0 0
0 0 0
0 0 0
0 0 0
0 0 0
0 0 0
0 0 0
0 0 0
0 0 0
0 0 0
0 0 0
0 0 0
0 0 0
0 0 0
0 0 0
0 0 0
0 0 0
0 0 0
0 0 0
0 0 0
0 0 0
0 0 0
0 0 0
0 0 0
0 0 0
0 0 0
0 0 0
0 0 0
0 0 0
0 0 0
0 0 0
0 0 0
0 0 0
0 0 0
0 0 0
0 0 0
0 0 0
0 0 0
0 0 0
0 0 0
0 0 0
0 0 0
0 0 0
0 0 0
0 0 0
0 0 0
0 0 0
0 0 0
0 0 0
0 0 0
0 0 0
0 0 0
0 0 0
0 0 0
0 0 0
0 0 0
0 0 0
0 0 0
0 0 0
0 0 0
0 0 0
0 0 0
0 0 0
0 0 0
0 0 0
0 0 0
0 0 0
0 0 0
0 0 0
0 0 0
0 0 0
0 0 0
0 0 0
0 0 0
0 0 0
0 0 0
0 0 0
0 0 0
0 0 0
0 0 0
0 0 0
0 0 0
0 0 0
0 0 0
0 0 0
0 0 0
0 0 0
0 0 0
0 0 0
0 0 0
0 0 0
0 0 0
0 0 0
0 0 0
0 0 0
0 0 0
0 0 0
0 0 0
0 0 0
0 0 0
0 0 0
0 0 0
0 0 0
0 0 0
0 0 0
0 0 0
0 0 0
0 0 0
0 0 0
0 0 0
0 0 0
0 0 0
0 0 0
0 0 0
0 0 0
0 0 0
0 0 0
0 0 0
0 0 0
0 0 0
0 0 0
0 0 0
0 0 0
0 0 0
0 0 0
0 0 0
0 0 0
0 0 0
0 0 0
0 0 0
0 0 0
0 0 0
0 0 0
0 0 0
0 0 0
0 0 0
0 0 0
0 0 0
0 0 0
0 0 0
0 0 0
0 0 0
0 0 0
0 0 0
0 0 0
0 0 0
0 0 0
0 0 0
0 0 0
0 0 0
0 0 0
0 0 0
0 0 0
0 0 0
0 0 0
0 0 0
0 0 0
0 0 0
0 0 0
0 0 0
0 0 0
0 0 0
0 0 0
0 0 0
0 0 0
0 0 0
0 0 0
0 0 0
0 0 0
0 0 0
0 0 0
0 0 0
0 0 0
0 0 0
0 0 0
0 0 0
0 0 0
0 0 0
0 0 0
0 0 0
0 0 0
0 0 0
0 0 0
0 0 0
0 0 0
0 0 0
0 0 0
0 0 0
0 0 0
0 0 0
0 0 0
0 0 0
0 0 0
0 0 0
0 0 0
0 0 0
0 0 0
0 0 0
0 0 0
0 0 0
0 0 0
0 0 0
0 0 0
0 0 0
0 0 0
0 0 0
0 0 0
0 0 0
0 0 0
0 0 0
0 0 0
0 0 0
0 0 0
0 0 0
0 0 0
0 0 0
0 0 0
0 0 0
0 0 0
0 0 0
0 0 0
0 0 0
0 0 0
0 0 0
0 0 0
0 0 0
0 0 0
0 0 0
0 0 0
0 0 0
0 0 0
0 0 0
0 0 0
0 0 0
0 0 0
0 0 0
0 0 0
0 0 0
0 0 0
0 0 0
0 0 0
0 0 0
0 0 0
0 0 0
0 0 0
0 0 0
0 0 0
0 0 0
0 0 0
0 0 0
0 0 0
112.855446 119.92771 129.8157
207.73409 220.76245 238.97687
222.50429 236.47263 255.744
222.5075 236.47444 255.744
222.51915 236.48102 255.744
222.50468 236.47284 255.744
222.51503 236.47871 255.744
222.51062 236.4762 255.744
222.51503 236.47865 255.744
222.51962 236.48126 255.744
222.52348 236.48343 255.744
222.51115 236.47646 255.744
222.50476 236.47285 255.744
222.50226 236.47145 255.744
222.52454 236.48404 255.744
222.51302 236.47752 255.744
222.50027 236.47032 255.744
222.51581 236.47911 255.744
222.50447 236.47275 255.744
222.50674 236.47398 255.744
222.52562 236.48463 255.744
222.51572 236.47906 255.744
222.51666 236.4796 255.744
222.51607 236.47925 255.744
222.5047 236.47282 255.744
222.49083 236.46503 255.744
222.49706 236.46854 255.744
222.52448 236.48402 255.744
222.50652 236.47386 255.744
222.49828 236.46924 255.744
222.49373 236.46666 255.744
222.52188 236.48254 255.744
222.50462 236.47278 255.744
222.51671 236.47961 255.744
222.48909 236.46404 255.744
222.51485 236.47859 255.744
222.50267 236.47171 255.744
222.50305 236.47192 255.744
222.51486 236.47856 255.744
222.4849 236.46164 255.744
222.50795 236.47469 255.744
222.48917 236.46407 255.744
222.5086 236.47505 255.744
222.49883 236.46953 255.744
222.50172 236.47116 255.744
222.51102 236.4764 255.744
222.51158 236.47672 255.744
222.50607 236.4736 255.744
222.50375 236.4723 255.744
222.49414 236.46689 255.744
222.51036 236.47603 255.744
222.49629 236.46808 255.744
222.50818 236.47484 255.744
222.50941 236.4755 255.744
222.5083 236.47485 255.744
222.5106 236.47618 255.744
222.50932 236.47545 255.744
222.51291 236.47751 255.744
222.49397 236.46678 255.744
222.49837 236.4693 255.744
222.51927 236.48105 255.744
222.50847 236.475 255.744
222.50096 236.47073 255.744
222.51816 236.48042 255.744
222.4936 236.46658 255.744
222.50873 236.47511 255.744
222.49706 236.46855 255.744
222.4989 236.46959 255.744
222.49216 236.46574 255.744
222.50284 236.47179 255.744
222.48233 236.4602 255.744
222.51453 236.47838 255.744
222.50262 236.47165 255.744
222.50049 236.47046 255.744
222.51932 236.48111 255.744
222.50333 236.47208 255.744
222.50548 236.47333 255.744
222.48393 236.4611 255.744
222.5205 236.48175 255.744
222.51086 236.47632 255.744
222.51494 236.47862 255.744
222.50015 236.47026 255.744
222.49733 236.46869 255.744
222.50558 236.47333 255.744
222.49414 236.46687 255.744
222.50853 236.475 255.744
222.51071 236.47623 255.744
222.48236 236.46024 255.744
222.50792 236.47464 255.744
222.50063 236.47055 255.744
222.5038 236.47234 255.744
222.50658 236.4739 255.744
222.50388 236.47234 255.744
222.50699 236.47415 255.744
222.48424 236.4613 255.744
222.48453 236.46144 255.744
222.5189 236.48088 255.744
222.49817 236.46916 255.744
222.49991 236.47014 255.744
222.49292 236.46622 255.744
222.48587 236.46217 255.744
222.4776 236.45752 255.744
222.49606 236.46797 255.744
222.48753 236.46312 255.744
222.49007 236.4646 255.744
222.51874 236.48076 255.744
222.486 236.46227 255.744
222.4896 236.4643 255.744
222.49359 236.46657 255.744
222.48183 236.45993 255.744
222.50035 236.47041 255.744
222.49547 236.46762 255.744
222.50546 236.47327 255.744
222.49728 236.46866 255.744
222.49094 236.46506 255.744
222.51292 236.47748 255.744
222.49805 236.46909 255.744
222.51395 236.47806 255.744
222.52536 236.48451 255.744
222.51595 236.4792 255.744
222.511 236.4764 255.744
222.53111 236.48773 255.744
222.53246 236.48851 255.744
222.51224 236.47711 255.744
222.5369 236.49103 255.744
222.52185 236.48251 255.744
222.5152 236.47876 255.744
222.55424 236.50082 255.744
222.53609 236.49054 255.744
222.52434 236.4839 255.744
222.50859 236.47507 255.744
222.54 236.49275 255.744
222.50279 236.47177 255.744
222.54068 236.49316 255.744
222.54536 236.49582 255.744
222.55284 236.50003 255.744
222.53825 236.49182 255.744
222.53877 236.49208 255.744
222.53403 236.48941 255.744
222.53513 236.49 255.744
222.53601 236.49052 255.744
222.53627 236.49065 255.744
222.52254 236.48291 255.744
222.52428 236.4839 255.744
222.51164 236.47676 255.744
222.5515 236.49925 255.744
222.52515 236.48439 255.744
222.51765 236.48015 255.744
222.52644 236.48514 255.744
222.52827 236.48613 255.744
222.51778 236.48024 255.744
222.54236 236.49411 255.744
222.5346 236.48973 255.744
222.54446 236.49529 255.744
222.53685 236.49098 255.744
222.53835 236.49184 255.744
222.52979 236.48701 255.744
222.51494 236.47859 255.744
222.52425 236.48387 255.744
222.55695 236.50235 255.744
222.54259 236.49423 255.744
222.5313 236.48787 255.744
222.51305 236.47755 255.744
222.52489 236.48424 255.744
222.53877 236.49211 255.744
222.53625 236.49066 255.744
222.54663 236.49652 255.744
222.54378 236.4949 255.744
222.5164 236.47942 255.744
222.5268 236.48532 255.744
222.54135 236.49353 255.744
222.54065 236.49312 255.744
222.52866 236.48636 255.744
222.5316 236.48804 255.744
222.52605 236.48488 255.744
222.52155 236.48235 255.744
222.53285 236.48874 255.744
222.5342 236.48947 255.744
222.52771 236.48581 255.744
222.53787 236.49158 255.744
222.54012 236.49284 255.744
222.5414 236.49356 255.744
222.5445 236.49533 255.744
222.5186 236.48071 255.744
222.53828 236.49178 255.744
222.5237 236.48355 255.744
222.52837 236.4862 255.744
222.53699 236.49107 255.744
222.54561 236.49594 255.744
222.5304 236.48738 255.744
222.54285 236.49435 255.744
222.5309 236.48766 255.744
222.51518 236.47876 255.744
222.5351 236.49002 255.744
222.52719 236.48552 255.744
222.54074 236.49316 255.744
222.53188 236.48816 255.744
222.53848 236.49193 255.744
222.53275 236.48865 255.744
222.55267 236.49992 255.744
222.54079 236.49323 255.744
222.52762 236.48578 255.744
222.5346 236.48973 255.744
222.53351 236.48912 255.744
222.56474 236.50674 255.744
222.5321 236.48833 255.744
222.53552 236.49023 255.744
222.55017 236.49855 255.744
222.53368 236.4892 255.744
222.5564 236.50203 255.744
222.52911 236.48663 255.744
222.53217 236.48834 255.744
222.55632 236.50198 255.744
222.54419 236.49516 255.744
222.55632 236.50195 255.744
222.55078 236.49887 255.744
222.56383 236.50623 255.744
222.52386 236.48366 255.744
222.5464 236.49638 255.744
222.55676 236.50223 255.744
222.54951 236.49814 255.744
222.51971 236.48132 255.744
222.52536 236.4845 255.744
222.54018 236.49287 255.744
222.54858 236.49762 255.744
222.54173 236.49376 255.744
222.55038 236.49861 255.744
222.53531 236.49013 255.744
222.53398 236.48936 255.744
222.54578 236.49603 255.744
222.55367 236.50047 255.744
222.53928 236.49234 255.744
222.54164 236.4937 255.744
222.5425 236.4942 255.744
222.53911 236.49226 255.744
222.55249 236.49982 255.744
222.5468 236.49661 255.744
222.52284 236.4831 255.744
222.54608 236.49619 255.744
222.57321 236.51152 255.744
222.55562 236.5016 255.744
222.5358 236.49037 255.744
222.55693 236.50235 255.744
222.55482 236.50114 255.744
222.54796 236.49728 255.744
222.53918 236.49231 255.744
222.52274 236.48306 255.744
222.54076 236.49321 255.744
222.55807 236.50299 255.744
222.55124 236.49913 255.744
222.57611 236.51315 255.744
222.5501 236.49847 255.744
222.56078 236.5045 255.744
222.5389 236.49213 255.744
222.56042 236.50432 255.744
222.54178 236.49376 255.744
222.54358 236.49478 255.744
222.54651 236.49643 255.744
222.54948 236.49811 255.744
222.54839 236.49747 255.744
222.56242 236.50543 255.744
222.54259 236.49423 255.744
222.54231 236.49406 255.744
222.55492 236.50117 255.744
222.5467 236.49655 255.744
222.5222 236.48273 255.744
222.57217 236.51093 255.744
222.5505 236.4987 255.744
222.54497 236.49557 255.744
222.53813 236.49171 255.744
222.5542 236.5008 255.744
222.54301 236.49448 255.744
222.53694 236.49104 255.744
222.55058 236.49875 255.744
222.53795 236.49161 255.744
222.55324 236.50023 255.744
222.55702 236.50241 255.744
222.53923 236.49232 255.744
222.57364 236.51176 255.744
222.54869 236.49765 255.744
222.54906 236.49788 255.744
222.55165 236.49934 255.744
222.54558 236.49591 255.744
222.5354 236.49017 255.744
222.54788 236.49722 255.744
222.54272 236.49432 255.744
222.54042 236.49301 255.744
222.54701 236.4967 255.744
222.54735 236.49693 255.744
222.5445 236.49535 255.744
222.52936 236.48676 255.744
222.54405 236.49504 255.744
222.53891 236.49216 255.744
222.5354 236.49016 255.744
222.52724 236.48557 255.744
222.53372 236.48926 255.744
222.57591 236.51302 255.744
222.56047 236.50432 255.744
222.55472 236.50107 255.744
222.54355 236.49478 255.744
222.5522 236.49966 255.744
216.10866 229.64798 248.57813
202.57571 215.27344 233.0263
172.35309 183.17201 198.29675
143.2072 152.2013 164.77448
112.81633 119.905624 129.8157
53.17388 56.5194 61.195705
0 0 0
0 0 0
0 0 0
0 0 0
0 0 0
0 0 0
0 0 0
0 0 0
0 0 0
0 0 0
0 0 0
0 0 0
0 0 0
0 0 0
0 0 0
0 0 0
0 0 0
0 0 0
0 0 0
0 0 0
0 0 0
0 0 0
0 0 0
0 0 0
0 0 0
0 0 0
0 0 0
0 0 0
0 0 0
0 0 0
0 0 0
0 0 0
0 0 0
0 0 0
0 0 0
0 0 0
0 0 0
0 0 0
0 0 0
0 0 0
0 0 0
0 0 0
0 0 0
0 0 0
0 0 0
0 0 0
0 0 0
0 0 0
0 0 0
0 0 0
0 0 0
0 0 0
0 0 0
0 0 0
0 0 0
0 0 0
0 0 0
0 0 0
0 0 0
0 0 0
0 0 0
0 0 0
0 0 0
0 0 0
0 0 0
0 0 0
0 0 0
0 0 0
0 0 0
0 0 0
0 0 0
0 0 0
0 0 0
0 0 0
0 0 0
0 0 0
0 0 0
0 0 0
0 0 0
0 0 0
0 0 0
0 0 0
0 0 0
0 0 0
0 0 0
0 0 0
0 0 0
0 0 0
0 0 0
0 0 0
0 0 0
0 0 0
0 0 0
0 0 0
0 0 0
0 0 0
0 0 0
0 0 0
0 0 0
0 0 0
0 0 0
0 0 0
0 0 0
0 0 0
0 0 0
0 0 0
0 0 0
0 0 0
0 0 0
0 0 0
0 0 0
0 0 0
0 0 0
0 0 0
0 0 0
0 0 0
0 0 0
0 0 0
0 0 0
0 0 0
0 0 0
0 0 0
0 0 0
0 0 0
0 0 0
0 0 0
0 0 0
0 0 0
0 0 0
0 0 0
0 0 0
0 0 0
0 0 0
0 0 0
0 0 0
0 0 0
0 0 0
0 0 0
0 0 0
0 0 0
0 0 0
0 0 0
0 0 0
0 0 0
0 0 0
0 0 0
0 0 0
0 0 0
0 0 0
0 0 0
0 0 0
0 0 0
0 0 0
0 0 0
0 0 0
0 0 0
0 0 0
0 0 0
0 0 0
0 0 0
0 0 0
0 0 0
0 0 0
0 0 0
0 0 0
0 0 0
0 0 0
0 0 0
0 0 0
0 0 0
0 0 0
0 0 0
0 0 0
0 0 0
0 0 0
0 0 0
0 0 0
0 0 0
0 0 0
0 0 0
0 0 0
0 0 0
0 0 0
0 0 0
0 0 0
0 0 0
0 0 0
0 0 0
0 0 0
0 0 0
0 0 0
0 0 0
0 0 0
0 0 0
0 0 0
0 0 0
0 0 0
0 0 0
0 0 0
0 0 0
0 0 0
0 0 0
0 0 0
0 0 0
0 0 0
0 0 0
0 0 0
0 0 0
0 0 0
0 0 0
0 0 0
0 0 0
0 0 0
0 0 0
0 0 0
0 0 0
0 0 0
0 0 0
0 0 0
0 0 0
0 0 0
0 0 0
0 0 0
0 0 0
0 0 0
0 0 0
0 0 0
0 0 0
0 0 0
0 0 0
0 0 0
0 0 0
0 0 0
0 0 0
0 0 0
0 0 0
0 0 0
0 0 0
0 0 0
0 0 0
0 0 0
0 0 0
0 0 0
0 0 0
0 0 0
0 0 0
0 0 0
0 0 0
0 0 0
0 0 0
0 0 0
0 0 0
0 0 0
0 0 0
0 0 0
0 0 0
0 0 0
0 0 0
0 0 0
0 0 0
0 0 0
0 0 0
0 0 0
0 0 0
0 0 0
0 0 0
0 0 0
0 0 0
0 0 0
0 0 0
0 0 0
0 0 0
0 0 0
0 0 0
0 0 0
0 0 0
0 0 0
0 0 0
0 0 0
0 0 0
0 0 0
0 0 0
0 0 0
0 0 0
0 0 0
0 0 0
0 0 0
0 0 0
0 0 0
0 0 0
0 0 0
0 0 0
0 0 0
0 0 0
103.05266 109.495575 118.504974
195.4777 207.72447 224.84738
220.94914 234.79994 254.16486
222.52815 236.48605 255.744
222.52338 236.48341 255.744
222.55276 236.49995 255.744
222.53052 236.4874 255.744
222.54556 236.49591 255.744
222.5282 236.4861 255.744
222.53741 236.49132 255.744
222.54425 236.49521 255.744
222.54462 236.4954 255.744
222.53433 236.48958 255.744
222.5292 236.48668 255.744
222.54607 236.49619 255.744
222.55936 236.5037 255.744
222.54591 236.49611 255.744
222.54362 236.49483 255.744
222.53043 236.48738 255.744
222.54256 236.49419 255.744
222.5365 236.4908 255.744
222.54863 236.49765 255.744
222.5318 236.48814 255.744
222.54509 236.49564 255.744
222.54721 236.49683 255.744
222.52805 236.48602 255.744
222.53375 236.48926 255.744
222.51675 236.47964 255.744
222.5355 236.49022 255.744
222.5483 236.49747 255.744
222.5565 236.50208 255.744
222.5334 236.48904 255.744
222.52655 236.48517 255.744
222.54552 236.4959 255.744
222.54688 236.49664 255.744
222.53601 236.49054 255.744
222.53445 236.48965 255.744
222.55013 236.49847 255.744
222.53232 236.48845 255.744
222.55685 236.50229 255.744
222.52412 236.48376 255.744
222.5528 236.50002 255.744
222.53152 236.488 255.744
222.53008 236.4872 255.744
222.50867 236.4751 255.744
222.53656 236.49083 255.744
222.55235 236.49974 255.744
222.5244 236.48396 255.744
222.51231 236.47714 255.744
222.53314 236.48888 255.744
222.54909 236.4979 255.744
222.54175 236.49374 255.744
222.539 236.49222 255.744
222.54799 236.49725 255.744
222.54286 236.4944 255.744
222.56512 236.50696 255.744
222.53392 236.48933 255.744
222.53616 236.49062 255.744
222.53096 236.48766 255.744
222.5464 236.49634 255.744
222.51889 236.48087 255.744
222.52898 236.48657 255.744
222.5491 236.4979 255.744
222.55632 236.50198 255.744
222.53682 236.49097 255.744
222.52812 236.48608 255.744
222.53142 236.4879 255.744
222.51523 236.47876 255.744
222.55632 236.50197 255.744
222.52809 236.48604 255.744
222.5493 236.49802 255.744
222.54715 236.49681 255.744
222.54024 236.49292 255.744
222.54836 236.49748 255.744
222.54752 236.49702 255.744
222.51436 236.47829 255.744
222.53793 236.49161 255.744
222.55014 236.49852 255.744
222.52051 236.48178 255.744
222.52312 236.48323 255.744
222.53145 236.48795 255.744
222.54312 236.49454 255.744
222.529 236.48657 255.744
222.53262 236.4886 255.744
222.52267 236.48296 255.744
222.54848 236.49757 255.744
222.53328 236.48898 255.744
222.52237 236.48282 255.744
222.52734 236.4856 255.744
222.5308 236.4876 255.744
222.52939 236.48677 255.744
222.51846 236.48059 255.744
222.53552 236.49025 255.744
222.53 236.4871 255.744
222.52956 236.48685 255.744
222.53116 236.4878 255.744
222.5271 236.4855 255.744
222.52377 236.4836 255.744
222.52971 236.48695 255.744
222.53482 236.48984 255.744
222.52513 236.48439 255.744
222.5272 236.48553 255.744
222.5111 236.47644 255.744
222.5201 236.48154 255.744
222.53358 236.48914 255.744
222.52853 236.4863 255.744
222.54185 236.49384 255.744
222.52698 236.48544 255.744
222.53299 236.48882 255.744
222.52933 236.48676 255.744
222.52156 236.48239 255.744
222.52838 236.48622 255.744
222.51416 236.47815 255.744
222.509 236.47528 255.744
222.55107 236.49904 255.744
222.5363 236.49066 255.744
222.5375 236.49136 255.744
222.56035 236.50427 255.744
222.55515 236.50134 255.744
222.56642 236.50768 255.744
222.57262 236.51117 255.744
222.56482 236.50679 255.744
222.56381 236.5062 255.744
222.55072 236.49883 255.744
222.54405 236.49503 255.744
222.56241 236.50543 255.744
222.56421 236.50644 255.744
222.5394 236.49245 255.744
222.56343 236.50598 255.744
222.571 236.51025 255.744
222.5694 236.50937 255.744
222.53264 236.48863 255.744
222.55524 236.50137 255.744
222.56586 236.50739 255.744
222.54529 236.49574 255.744
222.56126 236.50478 255.744
222.57368 236.5118 255.744
222.57025 236.50984 255.744
222.56609 236.50748 255.744
222.56146 236.5049 255.744
222.5801 236.51541 255.744
222.55623 236.50195 255.744
222.56503 236.5069 255.744
222.55687 236.50229 255.744
222.55905 236.50352 255.744
222.553 236.50012 255.744
222.58266 236.51685 255.744
222.55872 236.50334 255.744
222.57138 236.51048 255.744
222.57655 236.51344 255.744
222.56584 236.50735 255.744
222.56096 236.50461 255.744
222.56113 236.50468 255.744
222.55931 236.50368 255.744
222.55464 236.50104 255.744
222.5755 236.51282 255.744
222.55014 236.49854 255.744
222.5561 236.50185 255.744
222.56175 236.50508 255.744
222.53673 236.49092 255.744
222.57304 236.51144 255.744
222.5652 236.507 255.744
222.55792 236.50288 255.744
222.55734 236.50255 255.744
222.57314 236.5115 255.744
222.55032 236.49855 255.744
222.56363 236.50609 255.744
222.54434 236.49524 255.744
222.57529 236.5127 255.744
222.57442 236.51219 255.744
222.56818 236.50868 255.744
222.54979 236.49829 255.744
222.55632 236.50198 255.744
222.56374 236.50618 255.744
222.55722 236.50249 255.744
222.5787 236.51462 255.744
222.56918 236.50926 255.744
222.57129 236.51044 255.744
222.57747 236.51395 255.744
222.57677 236.51355 255.744
222.56145 236.50485 255.744
222.5639 236.50629 255.744
222.57095 236.51024 255.744
222.58687 236.5192 255.744
222.56053 236.50436 255.744
222.57712 236.51372 255.744
222.5875 236.5196 255.744
222.56639 236.50768 255.744
222.56177 236.50508 255.744
222.57753 236.51395 255.744
222.56895 236.5091 255.744
222.5625 236.50548 255.744
222.54634 236.49635 255.744
222.57585 236.513 255.744
222.55647 236.5021 255.744
222.57062 236.51006 255.744
222.57086 236.5102 255.744
222.57231 236.51105 255.744
222.5753 236.51271 255.744
222.57701 236.51366 255.744
222.5949 236.52376 255.744
222.571 236.51027 255.744
222.57094 236.51022 255.744
222.5851 236.51826 255.744
222.57643 236.51335 255.744
222.57225 236.51099 255.744
222.57803 236.51424 255.744
222.57118 236.51038 255.744
222.58159 236.51625 255.744
222.5665 236.50774 255.744
222.5835 236.51732 255.744
222.58052 236.51566 255.744
222.55974 236.50394 255.744
222.59966 236.52643 255.744
222.56738 236.50824 255.744
222.59053 236.52129 255.744
222.57437 236.51218 255.744
222.58983 236.5209 255.744
222.58202 236.51651 255.744
222.57468 236.51237 255.744
222.58788 236.51979 255.744
222.56839 236.50882 255.744
222.58965 236.52081 255.744
222.57028 236.50987 255.744
222.5758 236.51299 255.744
222.56482 236.50676 255.744
222.58281 236.51695 255.744
222.56349 236.50604 255.744
222.55965 236.50389 255.744
222.557 236.50235 255.744
222.56866 236.50896 255.744
222.57362 236.51176 255.744
222.5948 236.52373 255.744
222.57254 236.51115 255.744
222.57146 236.51053 255.744
222.55867 236.50331 255.744
222.59268 236.52252 255.744
222.58006 236.51537 255.744
222.58432 236.51779 255.744
222.56474 236.50676 255.744
222.57906 236.51482 255.744
222.55476 236.50111 255.744
222.59923 236.52621 255.744
222.5705 236.51 255.744
222.56212 236.50525 255.744
222.5901 236.52107 255.744
222.58025 236.5155 255.744
222.57318 236.5115 255.744
222.57637 236.51328 255.744
222.5831 236.5171 255.744
222.59157 236.52188 255.744
222.5928 236.5226 255.744
222.58466 236.518 255.744
222.5735 236.5117 255.744
222.57909 236.51485 255.744
222.58125 236.51605 255.744
222.58543 236.51842 255.744
222.58995 236.52098 255.744
222.57907 236.51482 255.744
222.58669 236.51915 255.744
222.59113 236.52164 255.744
222.57948 236.51506 255.744
222.57469 236.51236 255.744
222.57848 236.51448 255.744
222.5831 236.5171 255.744
222.58292 236.517 255.744
222.58907 236.52048 255.744
222.58345 236.51729 255.744
222.60115 236.52728 255.744
222.56787 236.5085 255.744
222.58858 236.5202 255.744
222.58112 236.51599 255.744
222.56152 236.50494 255.744
222.57234 236.51103 255.744
222.57516 236.5126 255.744
222.56734 236.50824 255.744
222.5736 236.51172 255.744
222.58748 236.51958 255.744
222.56233 236.50539 255.744
222.5743 236.51213 255.744
222.59067 236.52138 255.744
222.56749 236.50829 255.744
222.55699 236.50235 255.744
222.56735 236.50824 255.744
222.56195 236.50517 255.744
222.58417 236.5177 255.744
222.56915 236.50925 255.744
222.56522 236.507 255.744
222.58264 236.51685 255.744
222.5772 236.51378 255.744
222.57759 236.51398 255.744
222.59084 236.52147 255.744
222.58601 236.51872 255.744
222.56183 236.50508 255.744
222.55688 236.5023 255.744
222.5919 236.52208 255.744
222.5813 236.51608 255.744
222.56628 236.50763 255.744
222.5718 236.51071 255.744
220.97845 234.81653 254.16486
214.46295 227.90031 246.68777
202.59592 215.28485 233.0263
145.69379 154.82489 167.59134
106.38881 113.061966 122.39141
65.14862 69.235504 74.94913
0 0 0
0 0 0
0 0 0
0 0 0
0 0 0
0 0 0
0 0 0
0 0 0
0 0 0
0 0 0
0 0 0
0 0 0
0 0 0
0 0 0
0 0 0
0 0 0
0 0 0
0 0 0
0 0 0
0 0 0
0 0 0
0 0 0
0 0 0
0 0 0
0 0 0
0 0 0
0 0 0
0 0 0
0 0 0
0 0 0
0 0 0
0 0 0
0 0 0
0 0 0
0 0 0
0 0 0
0 0 0
0 0 0
0 0 0
0 0 0
0 0 0
0 0 0
0 0 0
0 0 0
0 0 0
0 0 0
0 0 0
0 0 0
0 0 0
0 0 0
0 0 0
0 0 0
0 0 0
0 0 0
0 0 0
0 0 0
0 0 0
0 0 0
0 0 0
0 0 0
0 0 0
0 0 0
0 0 0
0 0 0
0 0 0
0 0 0
0 0 0
0 0 0
0 0 0
0 0 0
0 0 0
0 0 0
0 0 0
0 0 0
0 0 0
0 0 0
0 0 0
0 0 0
0 0 0
0 0 0
0 0 0
0 0 0
0 0 0
0 0 0
0 0 0
0 0 0
0 0 0
0 0 0
0 0 0
0 0 0
0 0 0
0 0 0
0 0 0
0 0 0
0 0 0
0 0 0
0 0 0
0 0 0
0 0 0
0 0 0
0 0 0
0 0 0
0 0 0
0 0 0
0 0 0
0 0 0
0 0 0
0 0 0
0 0 0
0 0 0
0 0 0
0 0 0
0 0 0
0 0 0
0 0 0
0 0 0
0 0 0
0 0 0
0 0 0
0 0 0
0 0 0
0 0 0
0 0 0
0 0 0
0 0 0
0 0 0
0 0 0
0 0 0
0 0 0
0 0 0
0 0 0
0 0 0
0 0 0
0 0 0
0 0 0
0 0 0
0 0 0
0 0 0
0 0 0
0 0 0
0 0 0
0 0 0
0 0 0
0 0 0
0 0 0
0 0 0
0 0 0
0 0 0
0 0 0
0 0 0
0 0 0
0 0 0
0 0 0
0 0 0
0 0 0
0 0 0
0 0 0
0 0 0
0 0 0
0 0 0
0 0 0
0 0 0
0 0 0
0 0 0
0 0 0
0 0 0
0 0 0
0 0 0
0 0 0
0 0 0
0 0 0
0 0 0
0 0 0
0 0 0
0 0 0
0 0 0
0 0 0
0 0 0
0 0 0
0 0 0
0 0 0
0 0 0
0 0 0
0 0 0
0 0 0
0 0 0
0 0 0
0 0 0
0 0 0
0 0 0
0 0 0
0 0 0
0 0 0
0 0 0
0 0 0
0 0 0
0 0 0
0 0 0
0 0 0
0 0 0
0 0 0
0 0 0
0 0 0
0 0 0
0 0 0
0 0 0
0 0 0
0 0 0
0 0 0
0 0 0
0 0 0
0 0 0
0 0 0
0 0 0
0 0 0
0 0 0
0 0 0
0 0 0
0 0 0
0 0 0
0 0 0
0 0 0
0 0 0
0 0 0
0 0 0
0 0 0
0 0 0
0 0 0
0 0 0
0 0 0
0 0 0
0 0 0
0 0 0
0 0 0
0 0 0
0 0 0
0 0 0
0 0 0
0 0 0
0 0 0
0 0 0
0 0 0
0 0 0
0 0 0
0 0 0
0 0 0
0 0 0
0 0 0
0 0 0
0 0 0
0 0 0
0 0 0
0 0 0
0 0 0
0 0 0
0 0 0
0 0 0
0 0 0
0 0 0
0 0 0
0 0 0
0 0 0
0 0 0
0 0 0
0 0 0
0 0 0
0 0 0
0 0 0
0 0 0
0 0 0
0 0 0
0 0 0
0 0 0
0 0 0
0 0 0
0 0 0
0 0 0
0 0 0
0 0 0
0 0 0
0 0 0
0 0 0
0 0 0
0 0 0
0 0 0
0 0 0
0 0 0
0 0 0
0 0 0
0 0 0
0 0 0
0 0 0
0 0 0
0 0 0
0 0 0
0 0 0
70.40428 74.803055 80.95431
172.42651 183.21349 198.29675
220.98337 234.81929 254.16486
222.5619 236.50513 255.744
222.55887 236.50343 255.744
222.56714 236.50807 255.744
222.59016 236.5211 255.744
222.57849 236.51451 255.744
222.58272 236.5169 255.744
222.55904 236.50352 255.744
222.5773 236.5138 255.744
222.56642 236.50768 255.744
222.57895 236.51477 255.744
222.58356 236.51736 255.744
222.57602 236.51309 255.744
222.54715 236.49681 255.744
222.57744 236.5139 255.744
222.58505 236.51817 255.744
222.57742 236.51392 255.744
222.59395 236.52322 255.744
222.57649 236.51338 255.744
222.56444 236.50655 255.744
222.5731 236.51147 255.744
222.57196 236.5108 255.744
222.57625 236.51323 255.744
222.55115 236.49907 255.744
222.58487 236.51808 255.744
222.58891 236.5204 255.744
222.57568 236.51294 255.744
222.58673 236.51917 255.744
222.55286 236.50005 255.744
222.58585 236.51865 255.744
222.55229 236.49971 255.744
222.5707 236.51009 255.744
222.56358 236.5061 255.744
222.56917 236.50925 255.744
222.5599 236.50404 255.744
222.57405 236.512 255.744
222.57533 236.51271 255.744
222.56427 236.50647 255.744
222.5574 236.5026 255.744
222.57259 236.51115 255.744
222.56523 236.50703 255.744
222.56598 236.50745 255.744
222.59073 236.5214 255.744
222.54974 236.49829 255.744
222.5407 236.49316 255.744
222.58234 236.51666 255.744
222.56978 236.5096 255.744
222.56642 236.50768 255.744
222.56796 236.50856 255.744
222.56581 236.50734 255.744
222.55663 236.50214 255.744
222.55836 236.50316 255.744
222.59993 236.52661 255.744
222.56248 236.50546 255.744
222.571 236.51027 255.744
222.56068 236.50446 255.744
222.55891 236.50346 255.744
222.56104 236.50464 255.744
222.56807 236.5086 255.744
222.56216 236.5053 255.744
222.56854 236.50888 255.744
222.55922 236.50362 255.744
222.5579 236.50285 255.744
222.54785 236.49721 255.744
222.56313 236.50584 255.744
222.5644 236.50656 255.744
222.55833 236.50314 255.744
222.57149 236.51054 255.744
222.55661 236.50215 255.744
222.55887 236.50345 255.744
222.55847 236.5032 255.744
222.57198 236.51085 255.744
222.5656 236.50722 255.744
222.55678 236.50223 255.744
222.55916 236.50357 255.744
222.55783 236.50285 255.744
222.56119 236.50475 255.744
222.57204 236.51088 255.744
222.53706 236.4911 255.744
222.57043 236.50998 255.744
222.55728 236.50255 255.744
222.55443 236.50093 255.744
222.55255 236.49985 255.744
222.56165 236.50502 255.744
222.55153 236.49927 255.744
222.57486 236.51247 255.744
222.54509 236.49565 255.744
222.55591 236.50175 255.744
222.55428 236.5008 255.744
222.54926 236.49802 255.744
222.56978 236.50958 255.744
222.56364 236.50613 255.744
222.54324 236.49458 255.744
222.56506 236.5069 255.744
222.56505 236.50693 255.744
222.56046 236.50432 255.744
222.54318 236.49458 255.744
222.54561 236.49594 255.744
222.56721 236.50816 255.744
222.53969 236.49261 255.744
222.55939 236.50371 255.744
222.56393 236.50629 255.744
222.5582 236.50305 255.744
222.55301 236.50012 255.744
222.5635 236.50606 255.744
222.56348 236.50601 255.744
222.562 236.5052 255.744
222.5617 236.50505 255.744
222.55937 236.50371 255.744
222.56973 236.50957 255.744
222.55295 236.50009 255.744
222.55632 236.50197 255.744
222.57352 236.51167 255.744
222.55003 236.49846 255.744
222.59525 236.52397 255.744
222.5807 236.51578 255.744
222.58824 236.52002 255.744
222.57893 236.51477 255.744
222.58644 236.51898 255.744
222.58571 236.5186 255.744
222.58972 236.52083 255.744
222.59068 236.5214 255.744
222.57272 236.51125 255.744
222.59766 236.52533 255.744
222.58394 236.51761 255.744
222.58945 236.5207 255.744
222.59833 236.52573 255.744
222.5946 236.52357 255.744
222.56955 236.50946 255.744
222.59537 236.52405 255.744
222.59085 236.52147 255.744
222.58966 236.52083 255.744
222.58513 236.51826 255.744
222.59189 236.52206 255.744
222.5901 236.52106 255.744
222.5933 236.52287 255.744
222.59618 236.5245 255.744
222.60869 236.53154 255.744
222.58852 236.52017 255.744
222.57883 236.51466 255.744
222.5942 236.5234 255.744
222.60684 236.53052 255.744
222.5948 236.52373 255.744
222.59094 236.52153 255.744
222.60736 236.53082 255.744
222.59596 236.52438 255.744
222.59064 236.52133 255.744
222.58795 236.51985 255.744
222.61194 236.53337 255.744
222.57588 236.51302 255.744
222.59795 236.52551 255.744
222.60344 236.5286 255.744
222.59023 236.52112 255.744
222.57973 236.5152 255.744
222.58554 236.5185 255.744
222.5927 236.5225 255.744
222.59456 236.52356 255.744
222.60222 236.52788 255.744
222.59012 236.52107 255.744
222.5903 236.5212 255.744
222.5899 236.52095 255.744
222.59784 236.52547 255.744
222.59076 236.52142 255.744
222.6025 236.52805 255.744
222.58946 236.52069 255.744
222.59644 236.52463 255.744
222.5908 236.52145 255.744
222.59145 236.52184 255.744
222.58873 236.52031 255.744
222.59467 236.52364 255.744
222.59601 236.5244 255.744
222.5976 236.52531 255.744
222.58867 236.52025 255.744
222.59085 236.5215 255.744
222.59375 236.52313 255.744
222.62106 236.53854 255.744
222.5899 236.52094 255.744
222.60161 236.5276 255.744
222.6096 236.53209 255.744
222.60233 236.52794 255.744
222.60056 236.52695 255.744
222.60197 236.52774 255.744
222.5796 236.51515 255.744
222.6075 236.53088 255.744
222.61499 236.53511 255.744
222.59366 236.5231 255.744
222.61113 236.53294 255.744
222.5888 236.52031 255.744
222.59297 236.52267 255.744
222.61725 236.53639 255.744
222.62227 236.53922 255.744
222.60837 236.53139 255.744
222.59091 236.52151 255.744
222.60133 236.52742 255.744
222.61032 236.53247 255.744
222.58467 236.51797 255.744
222.60727 236.53073 255.744
222.60126 236.52736 255.744
222.58817 236.51997 255.744
222.5983 236.52568 255.744
222.59224 236.52225 255.744
222.58511 236.51825 255.744
222.6005 236.52692 255.744
222.59863 236.52585 255.744
222.59807 236.52554 255.744
222.6062 236.53015 255.744
222.61327 236.53413 255.744
222.60236 236.52798 255.744
222.59906 236.52611 255.744
222.6231 236.53967 255.744
222.61731 236.53638 255.744
222.60158 236.52753 255.744
222.61018 236.53235 255.744
222.58376 236.51747 255.744
222.61557 236.53545 255.744
222.59782 236.52542 255.744
222.61566 236.53548 255.744
222.61261 236.5338 255.744
222.61816 236.53688 255.744
222.59009 236.52106 255.744
222.6146 236.5349 255.744
222.59303 236.5227 255.744
222.61278 236.53387 255.744
222.59601 236.52438 255.744
222.61702 236.53625 255.744
222.60683 236.5305 255.744
222.61536 236.53532 255.744
222.60008 236.5267 255.744
222.59274 236.5225 255.744
222.61008 236.53233 255.744
222.62276 236.53952 255.744
222.59225 236.52228 255.744
222.60379 236.5288 255.744
222.6217 236.53893 255.744
222.61273 236.53384 255.744
222.5913 236.52171 255.744
222.62027 236.53809 255.744
222.61572 236.5355 255.744
222.59872 236.52591 255.744
222.62123 236.53864 255.744
222.6022 236.5279 255.744
222.59106 236.52164 255.744
222.60553 236.5298 255.744
222.59695 236.52495 255.744
222.61827 236.53696 255.744
222.60023 236.52678 255.744
222.5889 236.52037 255.744
222.59767 236.52533 255.744
222.59372 236.5231 255.744
222.60156 236.52753 255.744
222.62209 236.53914 255.744
222.6155 236.5354 255.744
222.61253 236.53372 255.744
222.61218 236.53354 255.744
222.6155 236.5354 255.744
222.61913 236.53748 255.744
222.60454 236.5292 255.744
222.61417 236.53465 255.744
222.60738 236.53082 255.744
222.61394 236.53453 255.744
222.60808 236.53122 255.744
222.62408 236.54024 255.744
222.58759 236.51962 255.744
222.60664 236.53041 255.744
222.61987 236.53787 255.744
222.57887 236.51474 255.744
222.62173 236.53893 255.744
222.62474 236.54062 255.744
222.59796 236.5255 255.744
222.60266 236.52815 255.744
222.60498 236.52945 255.744
222.60912 236.53178 255.744
222.60515 236.52956 255.744
222.60164 236.52759 255.744
222.62221 236.53918 255.744
222.61449 236.53484 255.744
222.59508 236.5239 255.744
222.59729 236.52512 255.744
222.60762 236.53096 255.744
222.60498 236.52948 255.744
222.59247 236.5224 255.744
222.61665 236.53607 255.744
222.61966 236.53775 255.744
222.62502 236.54077 255.744
222.60555 236.52977 255.744
222.59747 236.5252 255.744
222.62181 236.53899 255.744
222.59392 236.52322 255.744
222.60188 236.52773 255.744
222.60887 236.53163 255.744
222.62485 236.54068 255.744
222.60468 236.52928 255.744
222.60802 236.53117 255.744
222.60362 236.52866 255.744
222.60565 236.52983 255.744
221.02118 234.84062 254.16486
211.1793 224.39023 242.86292
207.77817 220.78728 238.97687
166.14844 176.5456 191.08353
118.95969 126.41469 136.83775
88.21875 93.74931 101.4816
0 0 0
0 0 0
0 0 0
0 0 0
0 0 0
0 0 0
0 0 0
0 0 0
0 0 0
0 0 0
0 0 0
0 0 0
0 0 0
0 0 0
0 0 0
0 0 0
0 0 0
0 0 0
0 0 0
0 0 0
0 0 0
0 0 0
0 0 0
0 0 0
0 0 0
0 0 0
0 0 0
0 0 0
0 0 0
0 0 0
0 0 0
0 0 0
0 0 0
0 0 0
0 0 0
0 0 0
0 0 0
0 0 0
0 0 0
0 0 0
0 0 0
0 0 0
0 0 0
0 0 0
0 0 0
0 0 0
0 0 0
0 0 0
0 0 0
0 0 0
0 0 0
0 0 0
0 0 0
0 0 0
0 0 0
0 0 0
0 0 0
0 0 0
0 0 0
0 0 0
0 0 0
0 0 0
0 0 0
0 0 0
0 0 0
0 0 0
0 0 0
0 0 0
0 0 0
0 0 0
0 0 0
0 0 0
0 0 0
0 0 0
0 0 0
0 0 0
0 0 0
0 0 0
0 0 0
0 0 0
0 0 0
0 0 0
0 0 0
0 0 0
0 0 0
0 0 0
0 0 0
0 0 0
0 0 0
0 0 0
0 0 0
0 0 0
0 0 0
0 0 0
0 0 0
0 0 0
0 0 0
0 0 0
0 0 0
0 0 0
0 0 0
0 0 0
0 0 0
0 0 0
0 0 0
0 0 0
0 0 0
0 0 0
0 0 0
0 0 0
0 0 0
0 0 0
0 0 0
0 0 0
0 0 0
0 0 0
0 0 0
0 0 0
0 0 0
0 0 0
0 0 0
0 0 0
0 0 0
0 0 0
0 0 0
0 0 0
0 0 0
0 0 0
0 0 0
0 0 0
0 0 0
0 0 0
0 0 0
0 0 0
0 0 0
0 0 0
0 0 0
0 0 0
0 0 0
0 0 0
0 0 0
0 0 0
0 0 0
0 0 0
0 0 0
0 0 0
0 0 0
0 0 0
0 0 0
0 0 0
0 0 0
0 0 0
0 0 0
0 0 0
0 0 0
0 0 0
0 0 0
0 0 0
0 0 0
0 0 0
0 0 0
0 0 0
0 0 0
0 0 0
0 0 0
0 0 0
0 0 0
0 0 0
0 0 0
0 0 0
0 0 0
0 0 0
0 0 0
0 0 0
0 0 0
0 0 0
0 0 0
0 0 0
0 0 0
0 0 0
0 0 0
0 0 0
0 0 0
0 0 0
0 0 0
0 0 0
0 0 0
0 0 0
0 0 0
0 0 0
0 0 0
0 0 0
0 0 0
0 0 0
0 0 0
0 0 0
0 0 0
0 0 0
0 0 0
0 0 0
0 0 0
0 0 0
0 0 0
0 0 0
0 0 0
0 0 0
0 0 0
0 0 0
0 0 0
0 0 0
0 0 0
0 0 0
0 0 0
0 0 0
0 0 0
0 0 0
0 0 0
0 0 0
0 0 0
0 0 0
0 0 0
0 0 0
0 0 0
0 0 0
0 0 0
0 0 0
0 0 0
0 0 0
0 0 0
0 0 0
0 0 0
0 0 0
0 0 0
0 0 0
0 0 0
0 0 0
0 0 0
0 0 0
0 0 0
0 0 0
0 0 0
0 0 0
0 0 0
0 0 0
0 0 0
0 0 0
0 0 0
0 0 0
0 0 0
0 0 0
0 0 0
0 0 0
0 0 0
0 0 0
0 0 0
0 0 0
0 0 0
0 0 0
0 0 0
0 0 0
0 0 0
0 0 0
0 0 0
0 0 0
0 0 0
0 0 0
0 0 0
0 0 0
0 0 0
0 0 0
0 0 0
0 0 0
0 0 0
0 0 0
0 0 0
0 0 0
0 0 0
0 0 0
0 0 0
0 0 0
0 0 0
0 0 0
0 0 0
0 0 0
0 0 0
0 0 0
0 0 0
0 0 0
0 0 0
0 0 0
0 0 0
0 0 0
0 0 0
0 0 0
0 0 0
0 0 0
0 0 0
0 0 0
37.631424 39.98321 43.271896
152.83185 162.39693 175.77129
217.78568 231.40718 250.45422
222.6002 236.52676 255.744
222.59863 236.52586 255.744
222.60013 236.52672 255.744
222.59995 236.52664 255.744
222.6029 236.5283 255.744
222.60764 236.53099 255.744
222.58836 236.52008 255.744
222.60782 236.53108 255.744
222.60458 236.52922 255.744
222.6068 236.5305 255.744
222.60881 236.53165 255.744
222.60196 236.52776 255.744
222.60808 236.5312 255.744
222.61516 236.53522 255.744
222.62192 236.539 255.744
222.59457 236.52359 255.744
222.61467 236.53493 255.744
222.61134 236.53305 255.744
222.59122 236.52165 255.744
222.60098 236.52719 255.744
222.60226 236.52794 255.744
222.60472 236.52931 255.744
222.59264 236.52249 255.744
222.60664 236.5304 255.744
222.60585 236.52994 255.744
222.60132 236.52739 255.744
222.58466 236.51799 255.744
222.60197 236.52779 255.744
222.61746 236.5365 255.744
222.57893 236.51476 255.744
222.6048 236.52934 255.744
222.59329 236.52286 255.744
222.60526 236.52962 255.744
222.61293 236.53398 255.744
222.59088 236.5215 255.744
222.59868 236.52592 255.744
222.58636 236.51897 255.744
222.60574 236.5299 255.744
222.59392 236.52322 255.744
222.62086 236.53844 255.744
222.58768 236.51968 255.744
222.6097 236.53214 255.744
222.59532 236.52402 255.744
222.61516 236.5352 255.744
222.60162 236.52759 255.744
222.60144 236.52745 255.744
222.596 236.52438 255.744
222.5948 236.52371 255.744
222.6067 236.53044 255.744
222.58786 236.5198 255.744
222.59274 236.52258 255.744
222.6105 236.53256 255.744
222.58904 236.52048 255.744
222.58244 236.51677 255.744
222.58864 236.52022 255.744
222.59314 236.5228 255.744
222.59305 236.5227 255.744
222.60442 236.52916 255.744
222.59825 236.52568 255.744
222.583 236.51706 255.744
222.59718 236.52509 255.744
222.58543 236.51843 255.744
222.59906 236.52612 255.744
222.59962 236.52641 255.744
222.5999 236.52658 255.744
222.58723 236.51947 255.744
222.57938 236.515 255.744
222.58345 236.5173 255.744
222.59032 236.5212 255.744
222.59715 236.52505 255.744
222.60559 236.52983 255.744
222.59445 236.52353 255.744
222.59544 236.52408 255.744
222.60117 236.52733 255.744
222.56682 236.50793 255.744
222.5784 236.51443 255.744
222.57686 236.51357 255.744
222.58916 236.52055 255.744
222.58206 236.51656 255.744
222.58841 236.52011 255.744
222.61078 236.5327 255.744
222.586 236.5187 255.744
222.60703 236.53062 255.744
222.60732 236.53076 255.744
222.6014 236.52745 255.744
222.60724 236.53073 255.744
222.59198 236.52213 255.744
222.59349 236.52298 255.744
222.57776 236.51411 255.744
222.60368 236.52875 255.744
222.58737 236.51953 255.744
222.58075 236.51581 255.744
222.59201 236.52216 255.744
222.58856 236.52017 255.744
222.59761 236.52531 255.744
222.58942 236.52066 255.744
222.60214 236.5279 255.744
222.59999 236.52666 255.744
222.57915 236.51486 255.744
222.58875 236.52031 255.744
222.5787 236.5146 255.744
222.59468 236.52364 255.744
222.57263 236.5112 255.744
222.59604 236.52441 255.744
222.59148 236.52182 255.744
222.60583 236.52992 255.744
222.58824 236.52002 255.744
222.5955 236.52414 255.744
222.5842 236.51772 255.744
222.60286 236.52823 255.744
222.59723 236.52509 255.744
222.58067 236.51573 255.744
222.62259 236.53941 255.744
222.6501 236.55493 255.744
222.63281 236.54517 255.744
222.61943 236.53761 255.744
222.61842 236.53705 255.744
222.60687 236.53053 255.744
222.61276 236.53386 255.744
222.61087 236.5328 255.744
222.62717 236.54198 255.744
222.6201 236.53798 255.744
222.6367 236.54738 255.744
222.63304 236.54533 255.744
222.62215 236.53915 255.744
222.62186 236.53896 255.744
222.6014 236.52744 255.744
222.6179 236.53674 255.744
222.60953 236.53201 255.744
222.62384 236.54008 255.744
222.62498 236.54074 255.744
222.63066 236.54396 255.744
222.61696 236.53622 255.744
222.62854 236.54277 255.744
222.63736 236.54774 255.744
222.6025 236.52805 255.744
222.61974 236.53778 255.744
222.61946 236.53766 255.744
222.63268 236.5451 255.744
222.61012 236.53235 255.744
222.61385 236.53452 255.744
222.6296 236.54338 255.744
222.62631 236.54152 255.744
222.63509 236.54648 255.744
222.61768 236.53667 255.744
222.64365 236.5513 255.744
222.6325 236.54503 255.744
222.6252 236.54086 255.744
222.64598 236.55263 255.744
222.62128 236.53868 255.744
222.63905 236.54872 255.744
222.61765 236.5366 255.744
222.62192 236.53905 255.744
222.6288 236.54294 255.744
222.62003 236.53795 255.744
222.62071 236.53836 255.744
222.641 236.54982 255.744
222.61125 236.53299 255.744
222.61346 236.53426 255.744
222.64267 236.55078 255.744
222.6113 236.53304 255.744
222.64383 236.55139 255.744
222.65237 236.55624 255.744
222.61855 236.53712 255.744
222.62262 236.53941 255.744
222.63803 236.54813 255.744
222.6254 236.54099 255.744
222.65057 236.5552 255.744
222.60948 236.53201 255.744
222.61884 236.53731 255.744
222.62668 236.5417 255.744
222.63928 236.54883 255.744
222.62955 236.54335 255.744
222.63983 236.54916 255.744
222.6254 236.54099 255.744
222.6318 236.5446 255.744
222.62146 236.53879 255.744
222.63057 236.54395 255.744
222.63512 236.54648 255.744
222.62288 236.53957 255.744
222.61827 236.53696 255.744
222.62386 236.54012 255.744
222.63914 236.54875 255.744
222.63065 236.54395 255.744
222.63428 236.54604 255.744
222.6264 236.54155 255.744
222.63156 236.54448 255.744
222.63599 236.54697 255.744
222.6111 236.53291 255.744
222.62907 236.54308 255.744
222.60924 236.53189 255.744
222.64561 236.5524 255.744
222.62987 236.5435 255.744
222.6331 236.54533 255.744
222.6383 236.5483 255.744
222.61621 236.53581 255.744
222.63223 236.54486 255.744
222.62398 236.54016 255.744
222.64223 236.55049 255.744
222.6341 236.54594 255.744
222.64523 236.5522 255.744
222.62762 236.54225 255.744
222.63332 236.54547 255.744
222.639 236.54869 255.744
222.63176 236.54459 255.744
222.64206 236.55042 255.744
222.61984 236.53784 255.744
222.62779 236.54236 255.744
222.63113 236.54419 255.744
222.62445 236.54045 255.744
222.63037 236.5438 255.744
222.65155 236.55576 255.744
222.63327 236.54543 255.744
222.63618 236.54709 255.744
222.61218 236.53352 255.744
222.63826 236.54826 255.744
222.62772 236.5423 255.744
222.62065 236.53831 255.744
222.6358 236.54688 255.744
222.66428 236.56294 255.744
222.63882 236.54858 255.744
222.6515 236.55574 255.744
222.62492 236.5407 255.744
222.6537 236.55696 255.744
222.63477 236.54626 255.744
222.63292 236.54524 255.744
222.63716 236.5476 255.744
222.61734 236.53645 255.744
222.6351 236.54646 255.744
222.64995 236.55484 255.744
222.63145 236.54439 255.744
222.64323 236.55109 255.744
222.61726 236.53642 255.744
222.64317 236.55103 255.744
222.64035 236.54944 255.744
222.63432 236.546 255.744
222.64732 236.55336 255.744
222.63701 236.54758 255.744
222.64738 236.5534 255.744
222.63771 236.54796 255.744
222.63435 236.54605 255.744
222.63994 236.54918 255.744
222.63394 236.54584 255.744
222.63953 236.549 255.744
222.63567 236.54678 255.744
222.62595 236.54126 255.744
222.64265 236.55077 255.744
222.63867 236.5485 255.744
222.63286 236.5452 255.744
222.63843 236.54836 255.744
222.65225 236.55612 255.744
222.64755 236.5535 255.744
222.63939 236.5489 255.744
222.64932 236.55449 255.744
222.65764 236.5592 255.744
222.64906 236.55438 255.744
222.61548 236.5354 255.744
222.6264 236.54155 255.744
222.62549 236.54103 255.744
222.63155 236.54446 255.744
222.63422 236.54596 255.744
222.6211 236.53854 255.744
222.62463 236.54056 255.744
222.64717 236.55327 255.744
222.63985 236.54916 255.744
222.62576 236.54117 255.744
222.64218 236.55043 255.744
222.63957 236.54898 255.744
222.64404 236.55156 255.744
222.63922 236.54881 255.744
222.63986 236.54916 255.744
222.63809 236.54817 255.744
222.64262 236.5507 255.744
222.64954 236.55463 255.744
222.64574 236.55246 255.744
222.64023 236.54936 255.744
222.64261 236.5507 255.744
222.65399 236.55713 255.744
222.6677 236.56488 255.744
222.64551 236.55237 255.744
222.65039 236.5551 255.744
222.62791 236.5424 255.744
222.63643 236.54724 255.744
222.64102 236.54984 255.744
222.6277 236.54228 255.744
222.64825 236.55392 255.744
222.61884 236.53728 255.744
222.6209 236.53844 255.744
222.63521 236.54654 255.744
222.63661 236.54733 255.744
222.6469 236.55315 255.744
222.65579 236.55814 255.744
222.6471 236.55324 255.744
219.42322 233.13803 252.31636
211.20172 224.4029 242.86292
188.14308 199.90813 216.3595
133.02863 141.35153 152.98926
103.04 109.48843 118.504974
65.15746 69.24049 74.94913
0 0 0
0 0 0
0 0 0
0 0 0
0 0 0
0 0 0
0 0 0
0 0 0
0 0 0
0 0 0
0 0 0
0 0 0
0 0 0
0 0 0
0 0 0
0 0 0
0 0 0
0 0 0
0 0 0
0 0 0
0 0 0
0 0 0
0 0 0
0 0 0
0 0 0
0 0 0
0 0 0
0 0 0
0 0 0
0 0 0
0 0 0
0 0 0
0 0 0
0 0 0
0 0 0
0 0 0
0 0 0
0 0 0
0 0 0
0 0 0
0 0 0
0 0 0
0 0 0
0 0 0
0 0 0
0 0 0
0 0 0
0 0 0
0 0 0
0 0 0
0 0 0
0 0 0
0 0 0
0 0 0
0 0 0
0 0 0
0 0 0
0 0 0
0 0 0
0 0 0
0 0 0
0 0 0
0 0 0
0 0 0
0 0 0
0 0 0
0 0 0
0 0 0
0 0 0
0 0 0
0 0 0
0 0 0
0 0 0
0 0 0
0 0 0
0 0 0
0 0 0
0 0 0
0 0 0
0 0 0
0 0 0
0 0 0
0 0 0
0 0 0
0 0 0
0 0 0
0 0 0
0 0 0
0 0 0
0 0 0
0 0 0
0 0 0
0 0 0
0 0 0
0 0 0
0 0 0
0 0 0
0 0 0
0 0 0
0 0 0
0 0 0
0 0 0
0 0 0
0 0 0
0 0 0
0 0 0
0 0 0
0 0 0
0 0 0
0 0 0
0 0 0
0 0 0
0 0 0
0 0 0
0 0 0
0 0 0
0 0 0
0 0 0
0 0 0
0 0 0
0 0 0
0 0 0
0 0 0
0 0 0
0 0 0
0 0 0
0 0 0
0 0 0
0 0 0
0 0 0
0 0 0
0 0 0
0 0 0
0 0 0
0 0 0
0 0 0
0 0 0
0 0 0
0 0 0
0 0 0
0 0 0
0 0 0
0 0 0
0 0 0
0 0 0
0 0 0
0 0 0
0 0 0
0 0 0
0 0 0
0 0 0
0 0 0
0 0 0
0 0 0
0 0 0
0 0 0
0 0 0
0 0 0
0 0 0
0 0 0
0 0 0
0 0 0
0 0 0
0 0 0
0 0 0
0 0 0
0 0 0
0 0 0
0 0 0
0 0 0
0 0 0
0 0 0
0 0 0
0 0 0
0 0 0
0 0 0
0 0 0
0 0 0
0 0 0
0 0 0
0 0 0
0 0 0
0 0 0
0 0 0
0 0 0
0 0 0
0 0 0
0 0 0
0 0 0
0 0 0
0 0 0
0 0 0
0 0 0
0 0 0
0 0 0
0 0 0
0 0 0
0 0 0
0 0 0
0 0 0
0 0 0
0 0 0
0 0 0
0 0 0
0 0 0
0 0 0
0 0 0
0 0 0
0 0 0
0 0 0
0 0 0
0 0 0
0 0 0
0 0 0
0 0 0
0 0 0
0 0 0
0 0 0
0 0 0
0 0 0
0 0 0
0 0 0
0 0 0
0 0 0
0 0 0
0 0 0
0 0 0
0 0 0
0 0 0
0 0 0
0 0 0
0 0 0
0 0 0
0 0 0
0 0 0
0 0 0
0 0 0
0 0 0
0 0 0
0 0 0
0 0 0
0 0 0
0 0 0
0 0 0
0 0 0
0 0 0
0 0 0
0 0 0
0 0 0
0 0 0
0 0 0
0 0 0
0 0 0
0 0 0
0 0 0
0 0 0
0 0 0
0 0 0
0 0 0
0 0 0
0 0 0
0 0 0
0 0 0
0 0 0
0 0 0
0 0 0
0 0 0
0 0 0
0 0 0
0 0 0
0 0 0
0 0 0
0 0 0
0 0 0
0 0 0
0 0 0
0 0 0
0 0 0
0 0 0
0 0 0
0 0 0
0 0 0
0 0 0
0 0 0
0 0 0
0 0 0
0 0 0
0 0 0
0 0 0
0 0 0
0 0 0
0 0 0
0 0 0
0 0 0
0 0 0
0 0 0
0 0 0
0 0 0
0 0 0
46.10476 48.978195 52.997036
106.458595 113.10138 122.39141
216.16913 229.68216 248.57813
222.6265 236.5416 255.744
222.62794 236.54245 255.744
222.63193 236.54468 255.744
222.64006 236.54926 255.744
222.6396 236.54901 255.744
222.64879 236.55421 255.744
222.6454 236.55229 255.744
222.64148 236.55008 255.744
222.63593 236.5469 255.744
222.64655 236.55292 255.744
222.64224 236.5505 255.744
222.6558 236.55817 255.744
222.65388 236.55707 255.744
222.63536 236.54665 255.744
222.61427 236.5347 255.744
222.6282 236.54259 255.744
222.62154 236.53883 255.744
222.63321 236.54538 255.744
222.64348 236.55122 255.744
222.63113 236.54427 255.744
222.63402 236.54584 255.744
222.64789 236.5537 255.744
222.65038 236.55508 255.744
222.62686 236.5418 255.744
222.653 236.5566 255.744
222.63206 236.54477 255.744
222.63824 236.54823 255.744
222.63129 236.54428 255.744
222.63896 236.54863 255.744
222.6321 236.54478 255.744
222.62146 236.53877 255.744
222.63748 236.54782 255.744
222.63666 236.54735 255.744
222.6365 236.54726 255.744
222.64352 236.55121 255.744
222.62685 236.54182 255.744
222.63054 236.54393 255.744
222.61107 236.53291 255.744
222.64328 236.5511 255.744
222.60844 236.5314 255.744
222.63948 236.54893 255.744
222.63681 236.54747 255.744
222.6497 236.55469 255.744
222.6242 236.54031 255.744
222.63155 236.54448 255.744
222.6231 236.53969 255.744
222.61963 236.53772 255.744
222.61644 236.53593 255.744
222.64429 236.55168 255.744
222.61517 236.53522 255.744
222.61995 236.53793 255.744
222.62224 236.53923 255.744
222.618 236.5368 255.744
222.65152 236.55573 255.744
222.63072 236.544 255.744
222.62115 236.53859 255.744
222.60672 236.53044 255.744
222.61417 236.53464 255.744
222.64635 236.55281 255.744
222.614 236.53455 255.744
222.6363 236.54715 255.744
222.6194 236.53761 255.744
222.61343 236.53423 255.744
222.63153 236.54443 255.744
222.62903 236.54303 255.744
222.628 236.54247 255.744
222.62903 236.54306 255.744
222.61343 236.53426 255.744
222.63702 236.54755 255.744
222.63847 236.54837 255.744
222.62492 236.54071 255.744
222.64337 236.55115 255.744
222.62888 236.54295 255.744
222.61351 236.5343 255.744
222.61269 236.53381 255.744
222.63242 236.54497 255.744
222.59943 236.52634 255.744
222.61397 236.53455 255.744
222.63362 236.54567 255.744
222.62062 236.5383 255.744
222.63434 236.54604 255.744
222.6354 236.54666 255.744
222.61179 236.53333 255.744
222.63306 236.54533 255.744
222.6454 236.55228 255.744
222.62584 236.54124 255.744
222.63857 236.54842 255.744
222.6134 236.53423 255.744
222.62479 236.54063 255.744
222.6259 236.54128 255.744
222.6175 236.53653 255.744
222.6405 236.54956 255.744
222.6149 236.53503 255.744
222.634 236.54585 255.744
222.60852 236.53146 255.744
222.62642 236.54158 255.744
222.61052 236.53261 255.744
222.62398 236.54019 255.744
222.61372 236.53442 255.744
222.6175 236.53651 255.744
222.61111 236.53296 255.744
222.62515 236.54085 255.744
222.62247 236.53935 255.744
222.6148 236.535 255.744
222.61314 236.53406 255.744
222.6191 236.53741 255.744
222.63037 236.5438 255.744
222.62607 236.54138 255.744
222.63335 236.5455 255.744
222.62268 236.53947 255.744
222.60681 236.5305 255.744
222.65672 236.55867 255.744
222.66533 236.56354 255.744
222.65717 236.55891 255.744
222.63826 236.54826 255.744
222.6487 236.55414 255.744
222.65282 236.55649 255.744
222.63953 236.54898 255.744
222.65578 236.55815 255.744
222.64546 236.5523 255.744
222.64177 236.55022 255.744
222.65164 236.5558 255.744
222.65207 236.55603 255.744
222.65756 236.55916 255.744
222.64494 236.55202 255.744
222.65651 236.55855 255.744
222.66283 236.56213 255.744
222.64067 236.54962 255.744
222.65302 236.5566 255.744
222.65993 236.56049 255.744
222.66367 236.56262 255.744
222.65424 236.55728 255.744
222.64746 236.55342 255.744
222.6544 236.55739 255.744
222.65408 236.5572 255.744
222.65611 236.55833 255.744
222.647 236.55319 255.744
222.63832 236.5483 255.744
222.64565 236.55243 255.744
222.65129 236.5556 255.744
222.6384 236.54831 255.744
222.64737 236.5534 255.744
222.6289 236.54298 255.744
222.6559 236.55826 255.744
222.65594 236.55823 255.744
222.64127 236.54996 255.744
222.65929 236.5601 255.744
222.65494 236.55766 255.744
222.64674 236.55302 255.744
222.66936 236.56584 255.744
222.64093 236.54973 255.744
222.6474 236.55342 255.744
222.66115 236.56117 255.744
222.66039 236.56076 255.744
222.65582 236.55817 255.744
222.6431 236.55098 255.744
222.6688 236.56552 255.744
222.65912 236.56004 255.744
222.67055 236.5665 255.744
222.66373 236.56268 255.744
222.6559 236.5582 255.744
222.6444 236.55171 255.744
222.65038 236.5551 255.744
222.64647 236.5529 255.744
222.6522 236.55615 255.744
222.65002 236.55489 255.744
222.65475 236.55757 255.744
222.66765 236.56487 255.744
222.66023 236.56065 255.744
222.64026 236.54938 255.744
222.66084 236.56099 255.744
222.63739 236.54778 255.744
222.67224 236.56741 255.744
222.66255 236.56195 255.744
222.66315 236.56229 255.744
222.67265 236.56769 255.744
222.67642 236.56981 255.744
222.66568 236.56374 255.744
222.66231 236.56187 255.744
222.666 236.56392 255.744
222.6421 236.55042 255.744
222.66083 236.56097 255.744
222.66771 236.5649 255.744
222.65228 236.55617 255.744
222.66702 236.56448 255.744
222.66515 236.56345 255.744
222.64873 236.55415 255.744
222.66318 236.56233 255.744
222.64911 236.5544 255.744
222.65732 236.55904 255.744
222.66628 236.56409 255.744
222.6636 236.56256 255.744
222.65706 236.5589 255.744
222.6799 236.57182 255.744
222.67935 236.57146 255.744
222.64767 236.55359 255.744
222.66608 236.56398 255.744
222.66232 236.56183 255.744
222.64757 236.55351 255.744
222.65747 236.55908 255.744
222.6432 236.55104 255.744
222.66231 236.5618 255.744
222.6586 236.55975 255.744
222.64081 236.5497 255.744
222.65504 236.55774 255.744
222.68289 236.57349 255.744
222.6674 236.5647 255.744
222.66544 236.56363 255.744
222.68518 236.57474 255.744
222.66087 236.56102 255.744
222.68503 236.57468 255.744
222.63626 236.5471 255.744
222.68106 236.5724 255.744
222.68034 236.57202 255.744
222.6718 236.56717 255.744
222.69766 236.58179 255.744
222.67163 236.56708 255.744
222.67229 236.56747 255.744
222.65529 236.55786 255.744
222.66449 236.56306 255.744
222.66129 236.56125 255.744
222.67226 236.56744 255.744
222.6806 236.57217 255.744
222.66945 236.56589 255.744
222.68149 236.57268 255.744
222.67578 236.56943 255.744
222.66748 236.56476 255.744
222.66602 236.56393 255.744
222.67616 236.56966 255.744
222.66837 236.56528 255.744
222.66621 236.56401 255.744
222.66824 236.5652 255.744
222.67699 236.57013 255.744
222.66563 236.5637 255.744
222.68826 236.57649 255.744
222.66266 236.56204 255.744
222.69019 236.57759 255.744
222.68742 236.57603 255.744
222.66325 236.56236 255.744
222.66731 236.56465 255.744
222.66405 236.56284 255.744
222.682 236.57298 255.744
222.68457 236.57439 255.744
222.67041 236.56642 255.744
222.66315 236.56232 255.744
222.64906 236.55437 255.744
222.65935 236.56015 255.744
222.67764 236.5705 255.744
222.68573 236.57506 255.744
222.69249 236.57887 255.744
222.66025 236.56067 255.744
222.66551 236.56364 255.744
222.67723 236.57027 255.744
222.68161 236.57274 255.744
222.66891 236.56557 255.744
222.66403 236.56279 255.744
222.6672 236.56459 255.744
222.66928 236.56577 255.744
222.66716 236.56458 255.744
222.68037 236.57202 255.744
222.70366 236.58517 255.744
222.66904 236.56566 255.744
222.66745 236.56474 255.744
222.68613 236.5753 255.744
222.68245 236.5732 255.744
222.66748 236.56479 255.744
222.67188 236.56726 255.744
222.67633 236.56973 255.744
222.67113 236.56682 255.744
222.68805 236.57635 255.744
222.68356 236.57385 255.744
222.68097 236.57237 255.744
222.67291 236.56781 255.744
222.68536 236.57483 255.744
222.66602 236.56393 255.744
222.67702 236.57016 255.744
222.66489 236.56326 255.744
222.66425 236.56294 255.744
222.67075 236.5666 255.744
222.6753 236.56915 255.744
222.67427 236.56857 255.744
222.67657 236.56989 255.744
222.66887 236.56555 255.744
222.68605 236.57524 255.744
222.65408 236.5572 255.744
222.65758 236.55916 255.744
222.6824 236.57318 255.744
222.65352 236.55687 255.744
222.67484 236.56891 255.744
222.69052 236.57773 255.744
222.67998 236.57184 255.744
219.4688 233.16379 252.31636
207.84302 220.82394 238.97687
180.49895 191.76686 207.52473
159.64966 169.63046 183.58711
115.97726 123.23056 133.37296
84.13495 89.398705 96.7589
37.622215 39.978012 43.271896
0 0 0
0 0 0
0 0 0
0 0 0
0 0 0
0 0 0
0 0 0
0 0 0
0 0 0
0 0 0
0 0 0
0 0 0
0 0 0
0 0 0
0 0 0
0 0 0
0 0 0
0 0 0
0 0 0
0 0 0
0 0 0
0 0 0
0 0 0
0 0 0
0 0 0
0 0 0
0 0 0
0 0 0
0 0 0
0 0 0
0 0 0
0 0 0
0 0 0
0 0 0
0 0 0
0 0 0
0 0 0
0 0 0
0 0 0
0 0 0
0 0 0
0 0 0
0 0 0
0 0 0
0 0 0
0 0 0
0 0 0
0 0 0
0 0 0
0 0 0
0 0 0
0 0 0
0 0 0
0 0 0
0 0 0
0 0 0
0 0 0
0 0 0
0 0 0
0 0 0
0 0 0
0 0 0
0 0 0
0 0 0
0 0 0
0 0 0
0 0 0
0 0 0
0 0 0
0 0 0
0 0 0
0 0 0
0 0 0
0 0 0
0 0 0
0 0 0
0 0 0
0 0 0
0 0 0
0 0 0
0 0 0
0 0 0
0 0 0
0 0 0
0 0 0
0 0 0
0 0 0
0 0 0
0 0 0
0 0 0
0 0 0
0 0 0
0 0 0
0 0 0
0 0 0
0 0 0
0 0 0
0 0 0
0 0 0
0 0 0
0 0 0
0 0 0
0 0 0
0 0 0
0 0 0
0 0 0
0 0 0
0 0 0
0 0 0
0 0 0
0 0 0
0 0 0
0 0 0
0 0 0
0 0 0
0 0 0
0 0 0
0 0 0
0 0 0
0 0 0
0 0 0
0 0 0
0 0 0
0 0 0
0 0 0
0 0 0
0 0 0
0 0 0
0 0 0
0 0 0
0 0 0
0 0 0
0 0 0
0 0 0
0 0 0
0 0 0
0 0 0
0 0 0
0 0 0
0 0 0
0 0 0
0 0 0
0 0 0
0 0 0
0 0 0
0 0 0
0 0 0
0 0 0
0 0 0
0 0 0
0 0 0
0 0 0
0 0 0
0 0 0
0 0 0
0 0 0
0 0 0
0 0 0
0 0 0
0 0 0
0 0 0
0 0 0
0 0 0
0 0 0
0 0 0
0 0 0
0 0 0
0 0 0
0 0 0
0 0 0
0 0 0
0 0 0
0 0 0
0 0 0
0 0 0
0 0 0
0 0 0
0 0 0
0 0 0
0 0 0
0 0 0
0 0 0
0 0 0
0 0 0
0 0 0
0 0 0
0 0 0
0 0 0
0 0 0
0 0 0
0 0 0
0 0 0
0 0 0
0 0 0
0 0 0
0 0 0
0 0 0
0 0 0
0 0 0
0 0 0
0 0 0
0 0 0
0 0 0
0 0 0
0 0 0
0 0 0
0 0 0
0 0 0
0 0 0
0 0 0
0 0 0
0 0 0
0 0 0
0 0 0
0 0 0
0 0 0
0 0 0
0 0 0
0 0 0
0 0 0
0 0 0
0 0 0
0 0 0
0 0 0
0 0 0
0 0 0
0 0 0
0 0 0
0 0 0
0 0 0
0 0 0
0 0 0
0 0 0
0 0 0
0 0 0
0 0 0
0 0 0
0 0 0
0 0 0
0 0 0
0 0 0
0 0 0
0 0 0
0 0 0
0 0 0
0 0 0
0 0 0
0 0 0
0 0 0
0 0 0
0 0 0
0 0 0
0 0 0
0 0 0
0 0 0
0 0 0
0 0 0
0 0 0
0 0 0
0 0 0
0 0 0
0 0 0
0 0 0
0 0 0
0 0 0
0 0 0
0 0 0
0 0 0
0 0 0
0 0 0
0 0 0
0 0 0
0 0 0
0 0 0
0 0 0
0 0 0
0 0 0
0 0 0
0 0 0
0 0 0
0 0 0
0 0 0
0 0 0
0 0 0
0 0 0
0 0 0
0 0 0
0 0 0
0 0 0
0 0 0
0 0 0
0 0 0
0 0 0
0 0 0
0 0 0
0 0 0
0 0 0
0 0 0
0 0 0
0 0 0
26.626432 28.282 30.597853
116.03077 123.26079 133.37296
206.15883 219.02138 237.00995
222.67014 236.56628 255.744
222.64807 236.55379 255.744
222.65771 236.55923 255.744
222.68115 236.57246 255.744
222.68823 236.57646 255.744
222.66527 236.56349 255.744
222.6526 236.55634 255.744
222.66628 236.56409 255.744
222.67007 236.56621 255.744
222.66722 236.56462 255.744
222.6594 236.5602 255.744
222.67004 236.56618 255.744
222.67267 236.56769 255.744
222.65451 236.55745 255.744
222.68372 236.57394 255.744
222.66678 236.56439 255.744
222.67125 236.5669 255.744
222.65067 236.55524 255.744
222.66698 236.56447 255.744
222.66217 236.56174 255.744
222.65697 236.55882 255.744
222.65683 236.55875 255.744
222.66344 236.56247 255.744
222.65561 236.55804 255.744
222.67276 236.56776 255.744
222.67021 236.5663 255.744
222.65877 236.55984 255.744
222.62848 236.54274 255.744
222.65938 236.56017 255.744
222.65607 236.55832 255.744
222.657 236.55884 255.744
222.66403 236.56282 255.744
222.6852 236.5748 255.744
222.64397 236.55147 255.744
222.6646 236.56316 255.744
222.64969 236.55472 255.744
222.67458 236.56876 255.744
222.66486 236.56325 255.744
222.66603 236.56392 255.744
222.65361 236.55692 255.744
222.67284 236.56775 255.744
222.69327 236.57936 255.744
222.66924 236.56577 255.744
222.66916 236.56569 255.744
222.66629 236.5641 255.744
222.6688 236.5655 255.744
222.66582 236.56383 255.744
222.6638 236.56267 255.744
222.65695 236.55882 255.744
222.66179 236.56154 255.744
222.66933 236.56578 255.744
222.6723 236.56747 255.744
222.66432 236.56302 255.744
222.67415 236.56853 255.744
222.65474 236.55756 255.744
222.65088 236.55539 255.744
222.65907 236.56003 255.744
222.6711 236.56682 255.744
222.66025 236.56065 255.744
222.66096 236.56108 255.744
222.64441 236.55171 255.744
222.6488 236.55421 255.744
222.64876 236.55418 255.744
222.66824 236.5652 255.744
222.64828 236.55391 255.744
222.63924 236.54881 255.744
222.66223 236.56181 255.744
222.6402 236.54936 255.744
222.65881 236.55984 255.744
222.65765 236.55922 255.744
222.6511 236.5555 255.744
222.64673 236.55307 255.744
222.65608 236.5583 255.744
222.66484 236.5633 255.744
222.64084 236.54973 255.744
222.65453 236.55745 255.744
222.66466 236.56317 255.744
222.63605 236.54698 255.744
222.63484 236.54631 255.744
222.65602 236.55829 255.744
222.64177 236.55022 255.744
222.66008 236.56056 255.744
222.64868 236.55412 255.744
222.64478 236.55196 255.744
222.66185 236.56157 255.744
222.66357 236.56255 255.744
222.64072 236.54965 255.744
222.6632 236.56235 255.744
222.64925 236.55447 255.744
222.6352 236.5465 255.744
222.64449 236.5518 255.744
222.64513 236.55211 255.744
222.64653 236.55293 255.744
222.6429 236.5509 255.744
222.65178 236.5559 255.744
222.64877 236.55421 255.744
222.69879 236.58247 255.744
222.64714 236.55328 255.744
222.63776 236.54799 255.744
222.65033 236.5551 255.744
222.66772 236.56488 255.744
222.63786 236.54802 255.744
222.65823 236.55951 255.744
222.6467 236.55302 255.744
222.64575 236.55249 255.744
222.6563 236.55841 255.744
222.64471 236.55191 255.744
222.64613 236.55269 255.744
222.63934 236.54887 255.744
222.65204 236.55603 255.744
222.68031 236.572 255.744
222.67363 236.5682 255.744
222.67523 236.56918 255.744
222.68924 236.57703 255.744
222.68506 236.57468 255.744
222.66672 236.56433 255.744
222.67728 236.5703 255.744
222.69174 236.57849 255.744
222.68272 236.57338 255.744
222.67232 236.56747 255.744
222.69698 236.58139 255.744
222.68384 236.57399 255.744
222.67145 236.567 255.744
222.68123 236.57253 255.744
222.69173 236.57846 255.744
222.67429 236.56859 255.744
222.69017 236.57758 255.744
222.67845 236.57097 255.744
222.66927 236.56575 255.744
222.67546 236.56927 255.744
222.69168 236.57845 255.744
222.69661 236.58122 255.744
222.68567 236.57506 255.744
222.69939 236.58278 255.744
222.6997 236.58295 255.744
222.67303 236.5679 255.744
222.67487 236.56895 255.744
222.69171 236.57845 255.744
222.67175 236.56717 255.744
222.68747 236.57605 255.744
222.67493 236.56897 255.744
222.67767 236.57051 255.744
222.68912 236.57697 255.744
222.68192 236.5729 255.744
222.6842 236.57422 255.744
222.68335 236.57373 255.744
222.68471 236.57448 255.744
222.67181 236.5672 255.744
222.65958 236.56032 255.744
222.6982 236.58214 255.744
222.69661 236.58118 255.744
222.69144 236.57826 255.744
222.67442 236.56868 255.744
222.68532 236.57483 255.744
222.69942 236.5828 255.744
222.68503 236.57468 255.744
222.68556 236.57501 255.744
222.68408 236.57416 255.744
222.68361 236.57387 255.744
222.68027 236.57199 255.744
222.69861 236.58232 255.744
222.68939 236.57712 255.744
222.71382 236.59094 255.744
222.68861 236.57669 255.744
222.71045 236.58904 255.744
222.69597 236.58087 255.744
222.67305 236.5679 255.744
222.69489 236.58022 255.744
222.67836 236.57092 255.744
222.71407 236.59103 255.744
222.68816 236.57643 255.744
222.68965 236.57727 255.744
222.69136 236.57825 255.744
222.70723 236.58722 255.744
222.67549 236.56927 255.744
222.69809 236.58206 255.744
222.68694 236.57574 255.744
222.68016 236.57193 255.744
222.69017 236.57756 255.744
222.69273 236.579 255.744
222.7014 236.58392 255.744
222.69101 236.57803 255.744
222.69122 236.57814 255.744
222.70712 236.58716 255.744
222.68106 236.57245 255.744
222.69035 236.57765 255.744
222.69403 236.57976 255.744
222.70169 236.58409 255.744
222.68329 236.57368 255.744
222.7024 236.58449 255.744
222.67487 236.56892 255.744
222.69235 236.5788 255.744
222.70137 236.58392 255.744
222.68484 236.57457 255.744
222.69978 236.583 255.744
222.68903 236.57692 255.744
222.70454 236.58565 255.744
222.70207 236.58429 255.744
222.71979 236.5943 255.744
222.66635 236.5641 255.744
222.6995 236.58281 255.744
222.67279 236.56776 255.744
222.68535 236.57483 255.744
222.672 236.5673 255.744
222.70938 236.5884 255.744
222.69388 236.57967 255.744
222.69373 236.5796 255.744
222.71024 236.58888 255.744
222.70088 236.5836 255.744
222.6946 236.58008 255.744
222.69803 236.58203 255.744
222.68925 236.57706 255.744
222.68558 236.57498 255.744
222.69281 236.57904 255.744
222.70702 236.58711 255.744
222.70775 236.5875 255.744
222.6968 236.58133 255.744
222.69484 236.58023 255.744
222.69781 236.5819 255.744
222.71477 236.59145 255.744
222.70306 236.58487 255.744
222.6952 236.58038 255.744
222.70757 236.58739 255.744
222.6988 236.58244 255.744
222.70071 236.58354 255.744
222.70963 236.58856 255.744
222.70792 236.5876 255.744
222.69576 236.58072 255.744
222.69937 236.58276 255.744
222.69897 236.58252 255.744
222.70154 236.58398 255.744
222.68626 236.57536 255.744
222.70323 236.58495 255.744
222.71407 236.59108 255.744
222.71597 236.5921 255.744
222.70047 236.58337 255.744
222.70079 236.58357 255.744
222.70337 236.585 255.744
222.70111 236.58374 255.744
222.69566 236.58067 255.744
222.70413 236.58545 255.744
222.69522 236.58044 255.744
222.69775 236.58186 255.744
222.70277 236.58467 255.744
222.70512 236.58601 255.744
222.70998 236.58876 255.744
222.7204 236.59462 255.744
222.69807 236.58203 255.744
222.70679 236.58698 255.744
222.6836 236.57388 255.744
222.6942 236.57985 255.744
222.70226 236.58441 255.744
222.70195 236.5842 255.744
222.69649 236.58112 255.744
222.69904 236.58258 255.744
222.7089 236.58812 255.744
222.71808 236.59334 255.744
222.71263 236.59024 255.744
222.70108 236.58374 255.744
222.69525 236.58044 255.744
222.69254 236.57892 255.744
222.69781 236.5819 255.744
222.6999 236.58308 255.744
222.68639 236.57544 255.744
222.7002 236.58328 255.744
222.7234 236.59636 255.744
222.70432 236.58557 255.744
222.71495 236.59155 255.744
222.68666 236.57559 255.744
222.69258 236.57893 255.744
222.70927 236.58836 255.744
222.70558 236.58627 255.744
222.70377 236.58524 255.744
222.71696 236.59273 255.744
222.713 236.59047 255.744
222.7027 236.58463 255.744
222.72926 236.59964 255.744
222.7228 236.59601 255.744
222.6944 236.57997 255.744
222.69836 236.58218 255.744
222.69962 236.58292 255.744
222.73032 236.60027 255.744
222.7084 236.58789 255.744
222.6777 236.57057 255.744
222.6979 236.58195 255.744
222.72128 236.59514 255.744
222.69505 236.58032 255.744
222.72813 236.599 255.744
222.71214 236.58997 255.744
222.69815 236.58206 255.744
217.87715 231.45883 250.45422
199.1673 211.59415 228.97336
188.20102 199.9408 216.3595
145.77322 154.86975 167.59134
95.93813 101.93558 110.32213
37.623592 39.978794 43.271896
0 0 0
0 0 0
0 0 0
0 0 0
0 0 0
0 0 0
0 0 0
0 0 0
0 0 0
0 0 0
0 0 0
0 0 0
0 0 0
0 0 0
0 0 0
0 0 0
0 0 0
0 0 0
0 0 0
0 0 0
0 0 0
0 0 0
0 0 0
0 0 0
0 0 0
0 0 0
0 0 0
0 0 0
0 0 0
0 0 0
0 0 0
0 0 0
0 0 0
0 0 0
0 0 0
0 0 0
0 0 0
0 0 0
0 0 0
0 0 0
0 0 0
0 0 0
0 0 0
0 0 0
0 0 0
0 0 0
0 0 0
0 0 0
0 0 0
0 0 0
0 0 0
0 0 0
0 0 0
0 0 0
0 0 0
0 0 0
0 0 0
0 0 0
0 0 0
0 0 0
0 0 0
0 0 0
0 0 0
0 0 0
0 0 0
0 0 0
0 0 0
0 0 0
0 0 0
0 0 0
0 0 0
0 0 0
0 0 0
0 0 0
0 0 0
0 0 0
0 0 0
0 0 0
0 0 0
0 0 0
0 0 0
0 0 0
0 0 0
0 0 0
0 0 0
0 0 0
0 0 0
0 0 0
0 0 0
0 0 0
0 0 0
0 0 0
0 0 0
0 0 0
0 0 0
0 0 0
0 0 0
0 0 0
0 0 0
0 0 0
0 0 0
0 0 0
0 0 0
0 0 0
0 0 0
0 0 0
0 0 0
0 0 0
0 0 0
0 0 0
0 0 0
0 0 0
0 0 0
0 0 0
0 0 0
0 0 0
0 0 0
0 0 0
0 0 0
0 0 0
0 0 0
0 0 0
0 0 0
0 0 0
0 0 0
0 0 0
0 0 0
0 0 0
0 0 0
0 0 0
0 0 0
0 0 0
0 0 0
0 0 0
0 0 0
0 0 0
0 0 0
0 0 0
0 0 0
0 0 0
0 0 0
0 0 0
0 0 0
0 0 0
0 0 0
0 0 0
0 0 0
0 0 0
0 0 0
0 0 0
0 0 0
0 0 0
0 0 0
0 0 0
0 0 0
0 0 0
0 0 0
0 0 0
0 0 0
0 0 0
0 0 0
0 0 0
0 0 0
0 0 0
0 0 0
0 0 0
0 0 0
0 0 0
0 0 0
0 0 0
0 0 0
0 0 0
0 0 0
0 0 0
0 0 0
0 0 0
0 0 0
0 0 0
0 0 0
0 0 0
0 0 0
0 0 0
0 0 0
0 0 0
0 0 0
0 0 0
0 0 0
0 0 0
0 0 0
0 0 0
0 0 0
0 0 0
0 0 0
0 0 0
0 0 0
0 0 0
0 0 0
0 0 0
0 0 0
0 0 0
0 0 0
0 0 0
0 0 0
0 0 0
0 0 0
0 0 0
0 0 0
0 0 0
0 0 0
0 0 0
0 0 0
0 0 0
0 0 0
0 0 0
0 0 0
0 0 0
0 0 0
0 0 0
0 0 0
0 0 0
0 0 0
0 0 0
0 0 0
0 0 0
0 0 0
0 0 0
0 0 0
0 0 0
0 0 0
0 0 0
0 0 0
0 0 0
0 0 0
0 0 0
0 0 0
0 0 0
0 0 0
0 0 0
0 0 0
0 0 0
0 0 0
0 0 0
0 0 0
0 0 0
0 0 0
0 0 0
0 0 0
0 0 0
0 0 0
0 0 0
0 0 0
0 0 0
0 0 0
0 0 0
0 0 0
0 0 0
0 0 0
0 0 0
0 0 0
0 0 0
0 0 0
0 0 0
0 0 0
0 0 0
0 0 0
0 0 0
0 0 0
0 0 0
0 0 0
0 0 0
0 0 0
0 0 0
0 0 0
0 0 0
0 0 0
0 0 0
0 0 0
0 0 0
0 0 0
0 0 0
0 0 0
0 0 0
0 0 0
0 0 0
0 0 0
0 0 0
0 0 0
0 0 0
0 0 0
0 0 0
0 0 0
0 0 0
0 0 0
0 0 0
0 0 0
0 0 0
0 0 0
0 0 0
0 0 0
0 0 0
0 0 0
0 0 0
0 0 0
121.991486 129.58963 140.21698
200.96658 213.49133 231.00871
222.70175 236.5841 255.744
222.69363 236.57951 255.744
222.6948 236.58014 255.744
222.70819 236.58777 255.744
222.68573 236.57504 255.744
222.70589 236.58643 255.744
222.7012 236.58379 255.744
222.69684 236.58133 255.744
222.69987 236.58308 255.744
222.68568 236.57506 255.744
222.70096 236.58365 255.744
222.71516 236.59169 255.744
222.68953 236.57721 255.744
222.70421 236.58553 255.744
222.6883 236.5765 255.744
222.68137 236.5726 255.744
222.69957 236.58287 255.744
222.6954 236.58054 255.744
222.70416 236.5855 255.744
222.69197 236.57857 255.744
222.67336 236.56808 255.744
222.70313 236.58488 255.744
222.69963 236.58289 255.744
222.69974 236.58298 255.744
222.71013 236.58885 255.744
222.70378 236.58527 255.744
222.7037 236.58522 255.744
222.68733 236.57597 255.744
222.70456 236.58571 255.744
222.71288 236.59038 255.744
222.69682 236.58131 255.744
222.69022 236.57759 255.744
222.6982 236.58214 255.744
222.6879 236.57628 255.744
222.70569 236.58635 255.744
222.70209 236.58429 255.744
222.70215 236.58434 255.744
222.68425 236.57425 255.744
222.70453 236.58571 255.744
222.70084 236.58362 255.744
222.70013 236.58319 255.744
222.6851 236.57469 255.744
222.69017 236.57758 255.744
222.68684 236.57571 255.744
222.69197 236.57858 255.744
222.70221 236.58434 255.744
222.69968 236.58293 255.744
222.69577 236.58073 255.744
222.70595 236.58649 255.744
222.6988 236.58243 255.744
222.68158 236.57272 255.744
222.68385 236.57399 255.744
222.68764 236.57614 255.744
222.6967 236.58127 255.744
222.69197 236.57857 255.744
222.68411 236.57416 255.744
222.69856 236.58234 255.744
222.69351 236.57944 255.744
222.68776 236.57622 255.744
222.68405 236.57413 255.744
222.69887 236.58249 255.744
222.68405 236.57411 255.744
222.69821 236.58214 255.744
222.68166 236.57278 255.744
222.6852 236.57475 255.744
222.70374 236.58524 255.744
222.70364 236.58517 255.744
222.67876 236.57115 255.744
222.68384 236.57397 255.744
222.68098 236.57239 255.744
222.69362 236.5795 255.744
222.6984 236.58221 255.744
222.68198 236.57295 255.744
222.68918 236.57697 255.744
222.67657 236.56992 255.744
222.68837 236.57654 255.744
222.68063 236.57216 255.744
222.6913 236.57822 255.744
222.6837 236.5739 255.744
222.68271 236.57333 255.744
222.71724 236.59285 255.744
222.67966 236.57166 255.744
222.69258 236.57893 255.744
222.67221 236.56743 255.744
222.66 236.56053 255.744
222.71175 236.58977 255.744
222.68936 236.57712 255.744
222.68555 236.57494 255.744
222.69864 236.58237 255.744
222.68614 236.5753 255.744
222.68889 236.57684 255.744
222.6826 236.57327 255.744
222.67717 236.57022 255.744
222.69046 236.57773 255.744
222.6731 236.56793 255.744
222.69017 236.57756 255.744
222.69366 236.57953 255.744
222.66454 236.56306 255.744
222.69075 236.5779 255.744
222.70528 236.58609 255.744
222.6843 236.57425 255.744
222.68968 236.5773 255.744
222.6659 236.56386 255.744
222.69061 236.57782 255.744
222.67395 236.5684 255.744
222.66284 236.56215 255.744
222.69809 236.58203 255.744
222.69044 236.57773 255.744
222.6829 236.57347 255.744
222.7101 236.58885 255.744
222.68466 236.57448 255.744
222.7223 236.59573 255.744
222.72252 236.59584 255.744
222.68954 236.57722 255.744
222.72552 236.59755 255.744
222.70776 236.58751 255.744
222.717 236.59271 255.744
222.71945 236.59409 255.744
222.72644 236.59807 255.744
222.71106 236.5894 255.744
222.70552 236.58623 255.744
222.72997 236.60004 255.744
222.73224 236.60133 255.744
222.70157 236.58403 255.744
222.71642 236.59242 255.744
222.72073 236.59485 255.744
222.73425 236.6025 255.744
222.70792 236.5876 255.744
222.70581 236.58643 255.744
222.72754 236.59866 255.744
222.7168 236.5926 255.744
222.72758 236.59871 255.744
222.70267 236.58464 255.744
222.70941 236.58841 255.744
222.72958 236.59982 255.744
222.70784 236.58754 255.744
222.71494 236.59155 255.744
222.71245 236.59012 255.744
222.73685 236.60393 255.744
222.70657 236.58682 255.744
222.71428 236.5912 255.744
222.7174 236.59297 255.744
222.70117 236.58377 255.744
222.7132 236.59055 255.744
222.7049 236.58589 255.744
222.70929 236.5884 255.744
222.71233 236.59007 255.744
222.72353 236.5964 255.744
222.72731 236.59854 255.744
222.70985 236.58864 255.744
222.73929 236.6053 255.744
222.72124 236.5951 255.744
222.71577 236.59203 255.744
222.72945 236.59975 255.744
222.7357 236.60327 255.744
222.72293 236.59604 255.744
222.72269 236.59593 255.744
222.7261 236.59787 255.744
222.73642 236.60367 255.744
222.73293 236.60173 255.744
222.73149 236.60089 255.744
222.73216 236.6013 255.744
222.73419 236.60242 255.744
222.73476 236.60277 255.744
222.71286 236.59038 255.744
222.72203 236.59555 255.744
222.7336 236.60208 255.744
222.70645 236.58673 255.744
222.72296 236.59608 255.744
222.73756 236.60434 255.744
222.72566 236.59763 255.744
222.70602 236.58656 255.744
222.71317 236.59055 255.744
222.72162 236.59535 255.744
222.71623 236.5923 255.744
222.74074 236.60614 255.744
222.73906 236.60516 255.744
222.7249 236.59718 255.744
222.72623 236.59793 255.744
222.7491 236.61084 255.744
222.72961 236.59982 255.744
222.72615 236.59789 255.744
222.72112 236.59506 255.744
222.74318 236.6075 255.744
222.71739 236.59294 255.744
222.70255 236.58458 255.744
222.71397 236.591 255.744
222.73067 236.60043 255.744
222.73152 236.6009 255.744
222.73401 236.60234 255.744
222.7249 236.5972 255.744
222.7117 236.58975 255.744
222.72644 236.59807 255.744
222.73042 236.60028 255.744
222.7508 236.61182 255.744
222.72145 236.59523 255.744
222.73653 236.60374 255.744
222.71574 236.59201 255.744
222.7242 236.59677 255.744
222.71906 236.59387 255.744
222.72577 236.59769 255.744
222.73216 236.60127 255.744
222.71457 236.59138 255.744
222.71875 236.5937 255.744
222.74886 236.61073 255.744
222.72298 236.59607 255.744
222.70567 236.5863 255.744
222.72142 236.59521 255.744
222.70732 236.58725 255.744
222.74979 236.6112 255.744
222.71846 236.59357 255.744
222.72377 236.59654 255.744
222.73683 236.60396 255.744
222.73677 236.60387 255.744
222.72269 236.59592 255.744
222.71675 236.59258 255.744
222.73587 236.60336 255.744
222.71054 236.5891 255.744
222.76129 236.61772 255.744
222.71335 236.59067 255.744
222.7125 236.59018 255.744
222.739 236.60516 255.744
222.73857 236.60492 255.744
222.7501 236.61143 255.744
222.73795 236.60454 255.744
222.72746 236.59866 255.744
222.73038 236.60028 255.744
222.73392 236.60228 255.744
222.74728 236.60983 255.744
222.7275 236.59865 255.744
222.71596 236.59215 255.744
222.71475 236.59145 255.744
222.7367 236.60384 255.744
222.73262 236.60158 255.744
222.71971 236.59424 255.744
222.74393 236.60793 255.744
222.74083 236.60619 255.744
222.73009 236.60011 255.744
222.74594 236.60905 255.744
222.72733 236.59856 255.744
222.74326 236.60756 255.744
222.7323 236.60136 255.744
222.72363 236.59647 255.744
222.72026 236.59456 255.744
222.72664 236.59813 255.744
222.76071 236.6174 255.744
222.74284 236.60732 255.744
222.74028 236.60582 255.744
222.72287 236.59605 255.744
222.74075 236.60616 255.744
222.74284 236.60732 255.744
222.73856 236.60489 255.744
222.72711 236.59843 255.744
222.73395 236.6023 255.744
222.75179 236.61237 255.744
222.7225 236.59584 255.744
222.74309 236.60747 255.744
222.7265 236.59811 255.744
222.73756 236.60437 255.744
222.73055 236.60037 255.744
222.72646 236.59805 255.744
222.73604 236.60347 255.744
222.73077 236.6005 255.744
222.74046 236.60597 255.744
222.7451 236.60861 255.744
222.7088 236.58806 255.744
222.74298 236.60742 255.744
222.73769 236.6044 255.744
222.74147 236.60657 255.744
222.7354 236.60312 255.744
222.75319 236.61316 255.744
222.74484 236.60846 255.744
222.75627 236.61488 255.744
222.74496 236.60855 255.744
222.74504 236.60855 255.744
222.72461 236.59702 255.744
222.73177 236.60107 255.744
222.73407 236.60237 255.744
222.73717 236.60411 255.744
222.74403 236.60799 255.744
222.7097 236.5886 255.744
222.74615 236.60919 255.744
222.73984 236.60562 255.744
222.74196 236.60681 255.744
222.72702 236.59842 255.744
222.74242 236.60709 255.744
222.75127 236.61208 255.744
222.72913 236.59956 255.744
221.15277 234.91495 254.16486
216.27086 229.73961 248.57813
188.24533 199.96585 216.3595
148.20412 157.44176 170.36163
127.649 135.60924 146.74214
37.65337 39.99561 43.271896
0 0 0
0 0 0
0 0 0
0 0 0
0 0 0
0 0 0
0 0 0
0 0 0
0 0 0
0 0 0
0 0 0
0 0 0
0 0 0
0 0 0
0 0 0
0 0 0
0 0 0
0 0 0
0 0 0
0 0 0
0 0 0
0 0 0
0 0 0
0 0 0
0 0 0
0 0 0
0 0 0
0 0 0
0 0 0
0 0 0
0 0 0
0 0 0
0 0 0
0 0 0
0 0 0
0 0 0
0 0 0
0 0 0
0 0 0
0 0 0
0 0 0
0 0 0
0 0 0
0 0 0
0 0 0
0 0 0
0 0 0
0 0 0
0 0 0
0 0 0
0 0 0
0 0 0
0 0 0
0 0 0
0 0 0
0 0 0
0 0 0
0 0 0
0 0 0
0 0 0
0 0 0
0 0 0
0 0 0
0 0 0
0 0 0
0 0 0
0 0 0
0 0 0
0 0 0
0 0 0
0 0 0
0 0 0
0 0 0
0 0 0
0 0 0
0 0 0
0 0 0
0 0 0
0 0 0
0 0 0
0 0 0
0 0 0
0 0 0
0 0 0
0 0 0
0 0 0
0 0 0
0 0 0
0 0 0
0 0 0
0 0 0
0 0 0
0 0 0
0 0 0
0 0 0
0 0 0
0 0 0
0 0 0
0 0 0
0 0 0
0 0 0
0 0 0
0 0 0
0 0 0
0 0 0
0 0 0
0 0 0
0 0 0
0 0 0
0 0 0
0 0 0
0 0 0
0 0 0
0 0 0
0 0 0
0 0 0
0 0 0
0 0 0
0 0 0
0 0 0
0 0 0
0 0 0
0 0 0
0 0 0
0 0 0
0 0 0
0 0 0
0 0 0
0 0 0
0 0 0
0 0 0
0 0 0
0 0 0
0 0 0
0 0 0
0 0 0
0 0 0
0 0 0
0 0 0
0 0 0
0 0 0
0 0 0
0 0 0
0 0 0
0 0 0
0 0 0
0 0 0
0 0 0
0 0 0
0 0 0
0 0 0
0 0 0
0 0 0
0 0 0
0 0 0
0 0 0
0 0 0
0 0 0
0 0 0
0 0 0
0 0 0
0 0 0
0 0 0
0 0 0
0 0 0
0 0 0
0 0 0
0 0 0
0 0 0
0 0 0
0 0 0
0 0 0
0 0 0
0 0 0
0 0 0
0 0 0
0 0 0
0 0 0
0 0 0
0 0 0
0 0 0
0 0 0
0 0 0
0 0 0
0 0 0
0 0 0
0 0 0
0 0 0
0 0 0
0 0 0
0 0 0
0 0 0
0 0 0
0 0 0
0 0 0
0 0 0
0 0 0
0 0 0
0 0 0
0 0 0
0 0 0
0 0 0
0 0 0
0 0 0
0 0 0
0 0 0
0 0 0
0 0 0
0 0 0
0 0 0
0 0 0
0 0 0
0 0 0
0 0 0
0 0 0
0 0 0
0 0 0
0 0 0
0 0 0
0 0 0
0 0 0
0 0 0
0 0 0
0 0 0
0 0 0
0 0 0
0 0 0
0 0 0
0 0 0
0 0 0
0 0 0
0 0 0
0 0 0
0 0 0
0 0 0
0 0 0
0 0 0
0 0 0
0 0 0
0 0 0
0 0 0
0 0 0
0 0 0
0 0 0
0 0 0
0 0 0
0 0 0
0 0 0
0 0 0
0 0 0
0 0 0
0 0 0
0 0 0
0 0 0
0 0 0
0 0 0
0 0 0
0 0 0
0 0 0
0 0 0
0 0 0
0 0 0
0 0 0
0 0 0
0 0 0
0 0 0
0 0 0
0 0 0
0 0 0
0 0 0
0 0 0
0 0 0
0 0 0
0 0 0
0 0 0
0 0 0
0 0 0
0 0 0
0 0 0
0 0 0
0 0 0
0 0 0
0 0 0
0 0 0
0 0 0
0 0 0
0 0 0
0 0 0
0 0 0
0 0 0
0 0 0
0 0 0
0 0 0
0 0 0
0 0 0
0 0 0
0 0 0
0 0 0
0 0 0
0 0 0
0 0 0
0 0 0
0 0 0
0 0 0
0 0 0
84.19588 89.43311 96.7589
200.98708 213.50291 231.00871
222.72868 236.59932 255.744
222.72292 236.59605 255.744
222.7172 236.59283 255.744
222.7351 236.60292 255.744
222.73051 236.60036 255.744
222.71878 236.59377 255.744
222.71843 236.59354 255.744
222.72473 236.59709 255.744
222.72466 236.59708 255.744
222.71402 236.59102 255.744
222.73445 236.60257 255.744
222.72823 236.59908 255.744
222.71255 236.59018 255.744
222.72096 236.59494 255.744
222.7053 236.58615 255.744
222.7388 236.60507 255.744
222.75272 236.61287 255.744
222.72382 236.59656 255.744
222.73465 236.60269 255.744
222.72554 236.59755 255.744
222.73888 236.60507 255.744
222.72781 236.59882 255.744
222.71774 236.59314 255.744
222.72418 236.59676 255.744
222.72365 236.59648 255.744
222.73 236.60007 255.744
222.72307 236.59616 255.744
222.74426 236.60814 255.744
222.71925 236.594 255.744
222.7316 236.601 255.744
222.73383 236.60225 255.744
222.72987 236.59998 255.744
222.72942 236.59973 255.744
222.7313 236.6008 255.744
222.72511 236.5973 255.744
222.73041 236.6003 255.744
222.72159 236.59534 255.744
222.71786 236.59322 255.744
222.73064 236.60043 255.744
222.71954 236.59413 255.744
222.75433 236.61382 255.744
222.71863 236.59361 255.744
222.73503 236.60289 255.744
222.73253 236.60149 255.744
222.73375 236.60219 255.744
222.72063 236.59476 255.744
222.72461 236.59702 255.744
222.69876 236.58243 255.744
222.73267 236.6016 255.744
222.73358 236.60208 255.744
222.7099 236.58867 255.744
222.72589 236.59776 255.744
222.72955 236.59982 255.744
222.70723 236.58722 255.744
222.72719 236.59846 255.744
222.71445 236.5913 255.744
222.71732 236.5929 255.744
222.71811 236.59334 255.744
222.72845 236.5992 255.744
222.71754 236.59299 255.744
222.7267 236.5982 255.744
222.71469 236.59143 255.744
222.71344 236.5907 255.744
222.72258 236.5959 255.744
222.73729 236.6042 255.744
222.73772 236.60443 255.744
222.70735 236.58727 255.744
222.71146 236.58958 255.744
222.70781 236.58751 255.744
222.71112 236.58939 255.744
222.73392 236.60228 255.744
222.72626 236.59795 255.744
222.73186 236.60109 255.744
222.70222 236.5844 255.744
222.71295 236.59044 255.744
222.70375 236.58524 255.744
222.71147 236.5896 255.744
222.71643 236.59242 255.744
222.71942 236.5941 255.744
222.69907 236.5826 255.744
222.69023 236.57764 255.744
222.71045 236.589 255.744
222.71915 236.59395 255.744
222.71797 236.59326 255.744
222.71165 236.5897 255.744
222.71397 236.59102 255.744
222.71643 236.59242 255.744
222.71217 236.58998 255.744
222.7218 236.59541 255.744
222.71492 236.59154 255.744
222.73296 236.60175 255.744
222.72185 236.59546 255.744
222.7202 236.59451 255.744
222.70518 236.58604 255.744
222.71312 236.59052 255.744
222.70764 236.58743 255.744
222.72467 236.59706 255.744
222.73381 236.60222 255.744
222.71153 236.58961 255.744
222.72008 236.59444 255.744
222.68977 236.57735 255.744
222.71191 236.58984 255.744
222.71855 236.59361 255.744
222.71564 236.59196 255.744
222.70717 236.58717 255.744
222.69135 236.57822 255.744
222.71696 236.59273 255.744
222.69214 236.57864 255.744
222.73883 236.60507 255.744
222.76073 236.6174 255.744
222.74512 236.60863 255.744
222.7377 236.6044 255.744
222.74034 236.60591 255.744
222.74356 236.60771 255.744
222.74615 236.6092 255.744
222.71971 236.59425 255.744
222.7568 236.61519 255.744
222.77219 236.62389 255.744
222.75475 236.61406 255.744
222.7367 236.60387 255.744
222.73296 236.60176 255.744
222.75826 236.616 255.744
222.73526 236.60303 255.744
222.7397 236.60553 255.744
222.76236 236.61835 255.744
222.74684 236.60957 255.744
222.75146 236.61221 255.744
222.7348 236.60277 255.744
222.75131 236.61209 255.744
222.7629 236.61864 255.744
222.77576 236.62595 255.744
222.75143 236.61217 255.744
222.75604 236.61476 255.744
222.73344 236.60199 255.744
222.77025 236.6228 255.744
222.76434 236.61949 255.744
222.74782 236.61015 255.744
222.76778 236.6214 255.744
222.75386 236.61353 255.744
222.75818 236.61601 255.744
222.74591 236.60902 255.744
222.75497 236.61418 255.744
222.75996 236.61699 255.744
222.75488 236.61412 255.744
222.74486 236.60846 255.744
222.75964 236.6168 255.744
222.745 236.60855 255.744
222.74525 236.60867 255.744
222.75362 236.61339 255.744
222.75583 236.61464 255.744
222.74974 236.61125 255.744
222.7559 236.61473 255.744
222.7455 236.60883 255.744
222.73695 236.60399 255.744
222.75179 236.61237 255.744
222.73447 236.60257 255.744
222.76079 236.61746 255.744
222.74187 236.60672 255.744
222.75932 236.61664 255.744
222.76591 236.62035 255.744
222.74837 236.61043 255.744
222.75508 236.61424 255.744
222.74927 236.61095 255.744
222.74893 236.61076 255.744
222.76834 236.62172 255.744
222.74664 236.60945 255.744
222.74792 236.6102 255.744
222.7489 236.61073 255.744
222.75864 236.61626 255.744
222.76506 236.61989 255.744
222.76337 236.61891 255.744
222.75471 236.61403 255.744
222.73862 236.60493 255.744
222.74625 236.60925 255.744
222.77779 236.62709 255.744
222.76076 236.61745 255.744
222.76378 236.61917 255.744
222.74251 236.60715 255.744
222.75468 236.61398 255.744
222.76685 236.62088 255.744
222.75356 236.61339 255.744
222.75528 236.61433 255.744
222.74576 236.60895 255.744
222.75648 236.61504 255.744
222.73045 236.60033 255.744
222.7639 236.61922 255.744
222.74023 236.60582 255.744
222.77231 236.62398 255.744
222.75562 236.61452 255.744
222.73972 236.60558 255.744
222.77684 236.62653 255.744
222.76447 236.6195 255.744
222.76993 236.62263 255.744
222.75046 236.6116 255.744
222.76808 236.62158 255.744
222.74739 236.6099 255.744
222.74599 236.60907 255.744
222.77655 236.62637 255.744
222.74261 236.60718 255.744
222.75507 236.61424 255.744
222.73964 236.60551 255.744
222.76053 236.61732 255.744
222.75528 236.61436 255.744
222.76796 236.62152 255.744
222.77814 236.62726 255.744
222.76994 236.62265 255.744
222.75455 236.61392 255.744
222.76697 236.62099 255.744
222.7658 236.62029 255.744
222.75513 236.61427 255.744
222.75714 236.61539 255.744
222.76712 236.62105 255.744
222.75545 236.61444 255.744
222.74046 236.60599 255.744
222.7717 236.62361 255.744
222.76958 236.62244 255.744
222.76903 236.62212 255.744
222.7575 236.6156 255.744
222.76335 236.61888 255.744
222.76584 236.62033 255.744
222.76717 236.62105 255.744
222.7589 236.6164 255.744
222.7681 236.62158 255.744
222.77766 236.62701 255.744
222.75499 236.61417 255.744
222.77393 236.62486 255.744
222.75983 236.61691 255.744
222.76675 236.62082 255.744
222.76578 236.62029 255.744
222.76624 236.62053 255.744
222.7476 236.60999 255.744
222.76227 236.61827 255.744
222.76845 236.62177 255.744
222.75456 236.61392 255.744
222.7848 236.63103 255.744
222.7528 236.61296 255.744
222.76637 236.62062 255.744
222.76596 236.62035 255.744
222.76213 236.6182 255.744
222.77301 236.62434 255.744
222.76878 236.622 255.744
222.7659 236.62035 255.744
222.78331 236.63019 255.744
222.77292 236.6243 255.744
222.76793 236.62149 255.744
222.7618 236.61806 255.744
222.74565 236.60893 255.744
222.78479 236.63101 255.744
222.76024 236.61713 255.744
222.76285 236.6186 255.744
222.77335 236.62456 255.744
222.76665 236.62076 255.744
222.761 236.61757 255.744
222.75958 236.61678 255.744
222.77315 236.62444 255.744
222.76935 236.6223 255.744
222.76723 236.62112 255.744
222.7615 236.61786 255.744
222.75536 236.6144 255.744
222.76622 236.62054 255.744
222.75352 236.61334 255.744
222.76648 236.62065 255.744
222.77983 236.62822 255.744
222.77357 236.62466 255.744
222.75064 236.61174 255.744
222.77788 236.62709 255.744
222.76196 236.61812 255.744
222.76071 236.61742 255.744
222.78236 236.6296 255.744
222.77611 236.62611 255.744
222.7715 236.62352 255.744
222.75502 236.61418 255.744
222.76878 236.62195 255.744
222.76541 236.62007 255.744
222.77376 236.62476 255.744
222.76859 236.62187 255.744
222.77611 236.6261 255.744
222.76642 236.62062 255.744
222.77246 236.62405 255.744
222.75812 236.61592 255.744
222.7557 236.61456 255.744
222.76202 236.61815 255.744
222.76376 236.61914 255.744
222.78134 236.62907 255.744
222.76732 236.62114 255.744
222.79039 236.63417 255.744
222.75916 236.6165 255.744
221.15169 234.91434 254.16486
197.45628 209.73895 226.91974
166.25974 176.60847 191.08353
143.35106 152.28253 164.77448
79.85821 84.83408 91.79356
26.621815 28.279394 30.597853
0 0 0
0 0 0
0 0 0
0 0 0
0 0 0
0 0 0
0 0 0
0 0 0
0 0 0
0 0 0
0 0 0
0 0 0
0 0 0
0 0 0
0 0 0
0 0 0
0 0 0
0 0 0
0 0 0
0 0 0
0 0 0
0 0 0
0 0 0
0 0 0
0 0 0
0 0 0
0 0 0
0 0 0
0 0 0
0 0 0
0 0 0
0 0 0
0 0 0
0 0 0
0 0 0
0 0 0
0 0 0
0 0 0
0 0 0
0 0 0
0 0 0
0 0 0
0 0 0
0 0 0
0 0 0
0 0 0
0 0 0
0 0 0
0 0 0
0 0 0
0 0 0
0 0 0
0 0 0
0 0 0
0 0 0
0 0 0
0 0 0
0 0 0
0 0 0
0 0 0
0 0 0
0 0 0
0 0 0
0 0 0
0 0 0
0 0 0
0 0 0
0 0 0
0 0 0
0 0 0
0 0 0
0 0 0
0 0 0
0 0 0
0 0 0
0 0 0
0 0 0
0 0 0
0 0 0
0 0 0
0 0 0
0 0 0
0 0 0
0 0 0
0 0 0
0 0 0
0 0 0
0 0 0
0 0 0
0 0 0
0 0 0
0 0 0
0 0 0
0 0 0
0 0 0
0 0 0
0 0 0
0 0 0
0 0 0
0 0 0
0 0 0
0 0 0
0 0 0
0 0 0
0 0 0
0 0 0
0 0 0
0 0 0
0 0 0
0 0 0
0 0 0
0 0 0
0 0 0
0 0 0
0 0 0
0 0 0
0 0 0
0 0 0
0 0 0
0 0 0
0 0 0
0 0 0
0 0 0
0 0 0
0 0 0
0 0 0
0 0 0
0 0 0
0 0 0
0 0 0
0 0 0
0 0 0
0 0 0
0 0 0
0 0 0
0 0 0
0 0 0
0 0 0
0 0 0
0 0 0
0 0 0
0 0 0
0 0 0
0 0 0
0 0 0
0 0 0
0 0 0
0 0 0
0 0 0
0 0 0
0 0 0
0 0 0
0 0 0
0 0 0
0 0 0
0 0 0
0 0 0
0 0 0
0 0 0
0 0 0
0 0 0
0 0 0
0 0 0
0 0 0
0 0 0
0 0 0
0 0 0
0 0 0
0 0 0
0 0 0
0 0 0
0 0 0
