P3
600 400
255
220.76302 235.49138 255.744
220.78262 235.50238 255.744
220.75252 235.48546 255.744
220.75154 235.48492 255.744
220.77226 235.49654 255.744
220.76523 235.4926 255.744
220.7654 235.49274 255.744
220.76364 235.4917 255.744
220.76727 235.49376 255.744
220.76547 235.49275 255.744
220.74776 235.48277 255.744
220.74301 235.48012 255.744
220.75859 235.48888 255.744
220.74072 235.47884 255.744
220.74696 235.48233 255.744
220.73744 235.47699 255.744
220.78189 235.50195 255.744
220.76625 235.49318 255.744
220.75682 235.48788 255.744
220.75989 235.48962 255.744
220.77419 235.49768 255.744
220.7442 235.48077 255.744
220.76863 235.49454 255.744
220.74832 235.48312 255.744
220.76317 235.49146 255.744
220.7533 235.48589 255.744
220.76451 235.4922 255.744
220.75317 235.48581 255.744
220.74669 235.48218 255.744
220.75392 235.48624 255.744
220.77153 235.49615 255.744
220.76105 235.49026 255.744
220.75868 235.48894 255.744
220.76343 235.4916 255.744
220.74767 235.48274 255.744
220.74724 235.4825 255.744
220.7537 235.48613 255.744
220.76279 235.49123 255.744
220.75592 235.48737 255.744
220.73422 235.47517 255.744
220.75491 235.48683 255.744
220.74454 235.48099 255.744
220.7561 235.48749 255.744
220.76727 235.49377 255.744
220.74269 235.47995 255.744
220.77237 235.4966 255.744
220.75185 235.48508 255.744
220.76013 235.48973 255.744
220.75511 235.48692 255.744
220.75206 235.4852 255.744
220.75272 235.48555 255.744
220.77412 235.49763 255.744
220.75766 235.48833 255.744
220.76048 235.48994 255.744
220.76106 235.49025 255.744
220.75049 235.48436 255.744
220.76062 235.48999 255.744
220.75635 235.4876 255.744
220.75594 235.4874 255.744
220.76845 235.49442 255.744
220.75372 235.48615 255.744
220.73813 235.47736 255.744
220.73917 235.47795 255.744
220.76451 235.49222 255.744
220.7453 235.48141 255.744
220.73683 235.47662 255.744
220.7524 235.48538 255.744
220.7324 235.47414 255.744
220.78242 235.50227 255.744
220.7629 235.49132 255.744
220.76567 235.49286 255.744
220.76463 235.49226 255.744
220.7432 235.48022 255.744
220.7542 235.48643 255.744
220.741 235.47899 255.744
220.75398 235.48627 255.744
220.74501 235.48123 255.744
220.75009 235.48412 255.744
220.75102 235.48462 255.744
220.73021 235.47293 255.744
220.77168 235.49625 255.744
220.75043 235.48431 255.744
220.74944 235.48375 255.744
220.7453 235.48141 255.744
220.75851 235.48883 255.744
220.75995 235.48964 255.744
220.73961 235.47821 255.744
220.75829 235.4887 255.744
220.75397 235.48627 255.744
220.75793 235.48854 255.744
220.75198 235.48518 255.744
220.74869 235.48328 255.744
220.7507 235.48447 255.744
220.74936 235.48367 255.744
220.76273 235.49118 255.744
220.76118 235.49036 255.744
220.74832 235.4831 255.744
220.75218 235.48529 255.744
220.7331 235.47456 255.744
220.74696 235.48233 255.744
220.75574 235.48727 255.744
220.76231 235.49098 255.744
220.74547 235.48149 255.744
220.75436 235.48651 255.744
220.74397 235.48065 255.744
220.74062 235.47878 255.744
220.74585 235.4817 255.744
220.74269 235.47992 255.744
220.7509 235.48454 255.744
220.73972 235.47827 255.744
220.751 235.48462 255.744
220.72456 235.46974 255.744
220.75822 235.48863 255.744
220.73595 235.47614 255.744
220.76123 235.49036 255.744
220.74205 235.47958 255.744
220.74098 235.47899 255.744
220.74445 235.48094 255.744
220.72449 235.4697 255.744
220.73409 235.47508 255.744
220.74501 235.48125 255.744
220.7303 235.47298 255.744
220.73103 235.47336 255.744
220.73163 235.4737 255.744
220.7279 235.47162 255.744
220.7355 235.47589 255.744
220.74533 235.4814 255.744
220.74031 235.47859 255.744
220.75374 235.48613 255.744
220.74913 235.48355 255.744
220.7556 235.48721 255.744
220.73737 235.47694 255.744
220.73419 235.47513 255.744
220.7505 235.48436 255.744
220.73376 235.47491 255.744
220.73384 235.47499 255.744
220.74454 235.48097 255.744
220.73459 235.47537 255.744
220.7607 235.49008 255.744
220.74638 235.48204 255.744
220.7401 235.4785 255.744
220.73918 235.47797 255.744
220.74516 235.48132 255.744
220.74963 235.48384 255.744
220.7364 235.4764 255.744
220.73326 235.47464 255.744
220.75934 235.48929 255.744
220.73325 235.47466 255.744
220.73727 235.47688 255.744
220.73227 235.47406 255.744
220.7529 235.4857 255.744
220.7249 235.46991 255.744
220.7334 235.4747 255.744
220.73663 235.47652 255.744
220.7485 235.48322 255.744
220.73405 235.47508 255.744
220.74353 235.48041 255.744
220.73923 235.47797 255.744
220.74278 235.47997 255.744
220.72446 235.46971 255.744
220.72006 235.46722 255.744
220.74135 235.47919 255.744
220.75658 235.48776 255.744
220.7404 235.47864 255.744
220.73784 235.47722 255.744
220.73584 235.47607 255.744
220.73381 235.47493 255.744
220.75012 235.48413 255.744
220.72234 235.46848 255.744
220.73769 235.47713 255.744
220.72168 235.46812 255.744
220.7385 235.47757 255.744
220.73859 235.47762 255.744
220.7408 235.47885 255.744
220.74405 235.4807 255.744
220.73846 235.47755 255.744
220.74251 235.47983 255.744
220.71829 235.46623 255.744
220.72603 235.47057 255.744
220.71939 235.46683 255.744
220.72849 235.47195 255.744
220.74858 235.48326 255.744
220.74516 235.48131 255.744
220.7345 235.47536 255.744
220.7507 235.48447 255.744
220.74261 235.47989 255.744
220.72897 235.47221 255.744
220.72551 235.47029 255.744
220.7518 235.48508 255.744
220.74759 235.4827 255.744
220.7475 235.48259 255.744
220.73746 235.47699 255.744
220.738 235.47731 255.744
220.71881 235.46655 255.744
220.72824 235.47182 255.744
220.74629 235.48195 255.744
220.72658 235.47086 255.744
220.73476 235.47548 255.744
220.74109 235.47906 255.744
220.75029 235.48422 255.744
220.73532 235.4758 255.744
220.75888 235.48901 255.744
220.74066 235.47879 255.744
220.7371 235.47679 255.744
220.73701 235.47679 255.744
220.73672 235.47656 255.744
220.75653 235.48769 255.744
220.71512 235.46442 255.744
220.73225 235.47406 255.744
220.73506 235.47563 255.744
220.74313 235.48021 255.744
220.73389 235.475 255.744
220.74713 235.48244 255.744
220.75891 235.48906 255.744
220.74576 235.48169 255.744
220.73564 235.47598 255.744
220.73016 235.47289 255.744
220.72423 235.46954 255.744
220.72144 235.46799 255.744
220.74094 235.47897 255.744
220.72653 235.47086 255.744
220.75066 235.4844 255.744
220.76021 235.4898 255.744
220.74184 235.47945 255.744
220.72874 235.47209 255.744
220.74603 235.4818 255.744
220.74522 235.48135 255.744
220.71294 235.46321 255.744
220.71996 235.46713 255.744
220.74242 235.4798 255.744
220.72919 235.47232 255.744
220.7555 235.48712 255.744
220.75835 235.48872 255.744
220.73984 235.47832 255.744
220.74628 235.48196 255.744
220.7395 235.47812 255.744
220.7536 235.48607 255.744
220.71346 235.46352 255.744
220.7261 235.47061 255.744
220.72643 235.47078 255.744
220.74417 235.48076 255.744
220.73967 235.47824 255.744
220.74864 235.48328 255.744
220.73187 235.47386 255.744
220.72794 235.47165 255.744
220.74449 235.48096 255.744
220.73767 235.47714 255.744
220.72551 235.47029 255.744
220.72925 235.47237 255.744
220.73497 235.47559 255.744
220.71745 235.46571 255.744
220.7265 235.47084 255.744
220.72557 235.4703 255.744
220.7166 235.46529 255.744
220.71738 235.46573 255.744
220.73578 235.47603 255.744
220.73766 235.47711 255.744
220.7142 235.46393 255.744
220.73868 235.47768 255.744
220.7286 235.47205 255.744
220.72415 235.46954 255.744
220.71933 235.46681 255.744
220.74799 235.4829 255.744
220.74803 235.48297 255.744
220.74506 235.4813 255.744
220.73984 235.47832 255.744
220.73566 235.47598 255.744
220.74101 235.47899 255.744
220.75713 235.48807 255.744
220.71306 235.46327 255.744
220.72433 235.4696 255.744
220.7292 235.47238 255.744
220.72679 235.47098 255.744
220.72139 235.46796 255.744
220.70274 235.45747 255.744
220.72295 235.46883 255.744
220.74133 235.47919 255.744
220.73448 235.47531 255.744
220.7369 235.47668 255.744
220.74057 235.47878 255.744
220.73027 235.47292 255.744
220.74033 235.4786 255.744
220.73088 235.47325 255.744
220.71056 235.46187 255.744
220.73376 235.47493 255.744
220.73581 235.47606 255.744
220.7347 235.47545 255.744
220.73534 235.47578 255.744
220.7278 235.47157 255.744
220.72644 235.4708 255.744
220.736 235.47618 255.744
220.72166 235.46811 255.744
220.70798 235.46042 255.744
220.72649 235.47083 255.744
220.73883 235.47777 255.744
220.73434 235.47525 255.744
220.7302 235.4729 255.744
220.74121 235.4791 255.744
220.74536 235.48143 255.744
220.74466 235.48105 255.744
220.7313 235.47356 255.744
220.74889 235.48341 255.744
220.74 235.47841 255.744
220.73619 235.47627 255.744
220.73863 235.47765 255.744
220.73457 235.47536 255.744
220.7332 235.47462 255.744
220.74748 235.48265 255.744
220.72797 235.47168 255.744
220.71419 235.46394 255.744
220.72992 235.47275 255.744
220.75613 235.48752 255.744
220.73384 235.47498 255.744
220.74387 235.48059 255.744
220.74388 235.48059 255.744
220.74635 235.48201 255.744
220.73996 235.47838 255.744
220.72177 235.4682 255.744
220.72923 235.47237 255.744
220.72235 235.4685 255.744
220.73662 235.47652 255.744
220.73917 235.47795 255.744
220.72935 235.47244 255.744
220.73784 235.4772 255.744
220.73293 235.47443 255.744
220.73262 235.47427 255.744
220.74283 235.48001 255.744
220.71582 235.46483 255.744
220.7345 235.47528 255.744
220.727 235.47112 255.744
220.73245 235.47415 255.744
220.74312 235.4802 255.744
220.73883 235.47778 255.744
220.73032 235.47298 255.744
220.71947 235.46686 255.744
220.74033 235.47859 255.744
220.73189 235.47386 255.744
220.72758 235.47144 255.744
220.7323 235.47409 255.744
220.72374 235.4693 255.744
220.72945 235.47249 255.744
220.72348 235.46916 255.744
220.73285 235.47438 255.744
220.74126 235.47911 255.744
220.73463 235.4754 255.744
220.75381 235.4862 255.744
220.73032 235.47299 255.744
220.74127 235.47916 255.744
220.75774 235.48839 255.744
220.74776 235.48279 255.744
220.72678 235.471 255.744
220.7232 235.46896 255.744
220.74043 235.47868 255.744
220.7381 235.47737 255.744
220.7302 235.47287 255.744
220.73376 235.47491 255.744
220.75298 235.48573 255.744
220.74724 235.4825 255.744
220.73973 235.47826 255.744
220.73271 235.47432 255.744
220.72244 235.46855 255.744
220.72717 235.47122 255.744
220.73813 235.47739 255.744
220.75584 235.48732 255.744
220.74847 235.48322 255.744
220.72311 235.46892 255.744
220.7389 235.47784 255.744
220.7435 235.4804 255.744
220.74255 235.47986 255.744
220.73656 235.47649 255.744
220.73053 235.47308 255.744
220.73038 235.47298 255.744
220.74861 235.48329 255.744
220.7283 235.47183 255.744
220.74098 235.47899 255.744
220.7364 235.47641 255.744
220.74426 235.4808 255.744
220.71945 235.46684 255.744
220.74442 235.48087 255.744
220.75656 235.48773 255.744
220.72649 235.47081 255.744
220.74565 235.48161 255.744
220.74792 235.48288 255.744
220.73322 235.47462 255.744
220.73503 235.4756 255.744
220.75218 235.48529 255.744
220.74318 235.48022 255.744
220.73602 235.47618 255.744
220.75029 235.48422 255.744
220.72432 235.46959 255.744
220.74298 235.48012 255.744
220.7483 235.4831 255.744
220.74028 235.47859 255.744
220.74077 235.47888 255.744
220.74327 235.48024 255.744
220.74821 235.48303 255.744
220.7232 235.46898 255.744
220.73293 235.47444 255.744
220.72792 235.47162 255.744
220.74918 235.4836 255.744
220.75015 235.48415 255.744
220.74277 235.47997 255.744
220.74556 235.48157 255.744
220.73293 235.47446 255.744
220.75526 235.48701 255.744
220.72266 235.46866 255.744
220.7343 235.47522 255.744
220.73935 235.47806 255.744
220.70518 235.45886 255.744
220.74467 235.48103 255.744
220.73387 235.475 255.744
220.75325 235.48592 255.744
220.7351 235.47566 255.744
220.73407 235.4751 255.744
220.73326 235.47466 255.744
220.74092 235.47894 255.744
220.72897 235.47224 255.744
220.74704 235.48236 255.744
220.74132 235.47917 255.744
220.7373 235.4769 255.744
220.73685 235.47667 255.744
220.71974 235.46703 255.744
220.75728 235.48813 255.744
220.70457 235.4585 255.744
220.73796 235.47728 255.744
220.74297 235.48007 255.744
220.7435 235.48038 255.744
220.73769 235.47714 255.744
220.74048 235.4787 255.744
220.7435 235.48041 255.744
220.73897 235.47784 255.744
220.7456 235.48157 255.744
220.71796 235.46605 255.744
220.75447 235.48656 255.744
220.73537 235.47581 255.744
220.74892 235.48343 255.744
220.74338 235.48033 255.744
220.73842 235.47751 255.744
220.74329 235.4803 255.744
220.74161 235.47934 255.744
220.7385 235.47757 255.744
220.73589 235.47609 255.744
220.73016 235.47287 255.744
220.75223 235.48529 255.744
220.72816 235.47179 255.744
220.75159 235.48492 255.744
220.7573 235.48814 255.744
220.73724 235.47688 255.744
220.7491 235.4835 255.744
220.72896 235.47223 255.744
220.72997 235.47278 255.744
220.74832 235.48311 255.744
220.73892 235.47783 255.744
220.76137 235.49046 255.744
220.75296 235.48572 255.744
220.73518 235.47574 255.744
220.7449 235.48119 255.744
220.73378 235.47493 255.744
220.74965 235.48383 255.744
220.75096 235.48459 255.744
220.73314 235.47455 255.744
220.73166 235.47374 255.744
220.75613 235.48752 255.744
220.74686 235.48227 255.744
220.73303 235.47453 255.744
220.73993 235.47836 255.744
220.75049 235.48433 255.744
220.73906 235.47789 255.744
220.74802 235.4829 255.744
220.75345 235.48598 255.744
220.73358 235.47484 255.744
220.74033 235.47862 255.744
220.73639 235.4764 255.744
220.76044 235.4899 255.744
220.73956 235.47821 255.744
220.74165 235.47937 255.744
220.74715 235.48244 255.744
220.74738 235.48259 255.744
220.74452 235.48099 255.744
220.7383 235.47746 255.744
220.76843 235.49442 255.744
220.74312 235.48016 255.744
220.75604 235.48746 255.744
220.73659 235.47652 255.744
220.76276 235.49127 255.744
220.71924 235.46677 255.744
220.75085 235.48451 255.744
220.7377 235.47713 255.744
220.74382 235.48059 255.744
220.74829 235.48311 255.744
220.73871 235.47768 255.744
220.74873 235.48332 255.744
220.76195 235.49077 255.744
220.76134 235.49042 255.744
220.75381 235.48618 255.744
220.74179 235.47942 255.744
220.74234 235.47977 255.744
220.72632 235.47073 255.744
220.73479 235.47548 255.744
220.75749 235.48825 255.744
220.75735 235.4882 255.744
220.75279 235.48561 255.744
220.7479 235.48288 255.744
220.74474 235.48111 255.744
220.75217 235.48528 255.744
220.74353 235.48041 255.744
220.75174 235.48503 255.744
220.76051 235.48996 255.744
220.76215 235.4909 255.744
220.76593 235.49303 255.744
220.74783 235.4828 255.744
220.75865 235.48892 255.744
220.75839 235.48877 255.744
220.73734 235.47694 255.744
220.73758 235.4771 255.744
220.76338 235.49156 255.744
220.75864 235.48888 255.744
220.75534 235.48701 255.744
220.74646 235.48206 255.744
220.75519 235.48697 255.744
220.74507 235.48128 255.744
220.74593 235.4817 255.744
220.76183 235.4907 255.744
220.76755 235.49391 255.744
220.76666 235.49342 255.744
220.7437 235.48053 255.744
220.7564 235.48764 255.744
220.74716 235.48245 255.744
220.7529 235.48567 255.744
220.74799 235.4829 255.744
220.76692 235.49359 255.744
220.76051 235.48996 255.744
220.75157 235.48492 255.744
220.75824 235.4887 255.744
220.73611 235.47624 255.744
220.76692 235.49356 255.744
220.74438 235.48091 255.744
220.75052 235.48433 255.744
220.77013 235.49536 255.744
220.75218 235.48529 255.744
220.74617 235.4819 255.744
220.75435 235.48647 255.744
220.7553 235.48706 255.744
220.7511 235.48465 255.744
220.74924 235.48363 255.744
220.75052 235.48433 255.744
220.76048 235.48994 255.744
220.7529 235.48566 255.744
220.74664 235.48213 255.744
220.76024 235.48979 255.744
220.76268 235.49118 255.744
220.76265 235.49115 255.744
220.75612 235.48747 255.744
220.77464 235.49791 255.744
220.76564 235.49284 255.744
220.74812 235.48299 255.744
220.75989 235.48962 255.744
220.75732 235.48816 255.744
220.76399 235.49194 255.744
220.76369 235.49174 255.744
220.76039 235.48985 255.744
220.76888 235.49464 255.744
220.75154 235.48491 255.744
220.76224 235.49094 255.744
220.77188 235.49634 255.744
220.75505 235.4869 255.744
220.75217 235.48528 255.744
220.75093 235.48454 255.744
220.75926 235.48927 255.744
220.75899 235.4891 255.744
220.77058 235.49564 255.744
220.75514 235.48697 255.744
220.76091 235.49016 255.744
220.7657 235.49287 255.744
220.74489 235.48119 255.744
220.77768 235.49962 255.744
220.77292 235.49693 255.744
220.75505 235.48691 255.744
220.73651 235.47647 255.744
220.76422 235.49203 255.744
220.76169 235.49063 255.744
220.75705 235.48798 255.744
220.75604 235.48744 255.744
220.76581 235.49297 255.744
220.74878 235.48337 255.744
220.73317 235.4746 255.744
220.74959 235.48384 255.744
220.7649 235.49243 255.744
220.76425 235.49207 255.744
220.76596 235.49301 255.744
220.77235 235.4966 255.744
220.75739 235.4882 255.744
220.75102 235.48463 255.744
220.76337 235.49156 255.744
220.78374 235.503 255.744
220.78223 235.50217 255.744
220.76184 235.49072 255.744
220.76672 235.49345 255.744
220.7622 235.4909 255.744
220.75586 235.48735 255.744
220.7955 235.50967 255.744
220.78763 235.5052 255.744
220.78705 235.5049 255.744
220.79578 235.5098 255.744
220.80428 235.51456 255.744
220.80344 235.51408 255.744
220.78444 235.50342 255.744
220.79446 235.50905 255.744
220.7848 235.50362 255.744
220.78926 235.50613 255.744
220.79082 235.50703 255.744
220.78537 235.50395 255.744
220.79437 235.509 255.744
220.79161 235.50745 255.744
220.7958 235.5098 255.744
220.78572 235.50415 255.744
220.80386 235.51437 255.744
220.79604 235.50996 255.744
220.80058 235.5125 255.744
220.79375 235.50865 255.744
220.80392 235.51437 255.744
220.76813 235.49423 255.744
220.7878 235.50528 255.744
220.78552 235.50404 255.744
220.80826 235.51683 255.744
220.77956 235.50067 255.744
220.81987 235.52335 255.744
220.80447 235.51468 255.744
220.78604 235.50432 255.744
220.79683 235.5104 255.744
220.80388 235.51431 255.744
220.80687 235.51604 255.744
220.7818 235.50194 255.744
220.79224 235.5078 255.744
220.77681 235.4991 255.744
220.7891 235.50607 255.744
220.77031 235.49548 255.744
220.78065 235.50128 255.744
220.78479 235.50359 255.744
220.79677 235.51033 255.744
220.79301 235.50824 255.744
220.7911 235.50717 255.744
220.78499 235.50371 255.744
220.77663 235.49904 255.744
220.77144 235.49611 255.744
220.78145 235.50174 255.744
220.77449 235.49782 255.744
220.79932 235.5118 255.744
220.78288 235.50253 255.744
220.80424 235.51456 255.744
220.78304 235.50261 255.744
220.79454 235.5091 255.744
220.77574 235.49854 255.744
220.76926 235.49489 255.744
220.77896 235.50035 255.744
220.78674 235.50471 255.744
220.78151 235.50179 255.744
220.79411 235.50887 255.744
220.7654 235.4927 255.744
220.7701 235.49535 255.744
220.80215 235.51338 255.744
220.80203 235.51329 255.744
220.78188 235.50197 255.744
220.7686 235.4945 255.744
220.79504 235.50937 255.744
220.78943 235.50623 255.744
220.77036 235.49548 255.744
220.78342 235.50284 255.744
220.78284 235.50249 255.744
220.79004 235.50656 255.744
220.79279 235.50813 255.744
220.77304 235.497 255.744
220.78256 235.5024 255.744
220.78186 235.50197 255.744
220.79407 235.50883 255.744
220.78438 235.5034 255.744
220.79938 235.51184 255.744
220.79295 235.50818 255.744
220.78368 235.50299 255.744
220.76659 235.49341 255.744
220.78519 235.50385 255.744
220.78114 235.50157 255.744
220.78368 235.50299 255.744
220.78711 235.50491 255.744
220.79283 235.50812 255.744
220.78511 235.50377 255.744
220.76572 235.49289 255.744
220.78786 235.50533 255.744
220.80403 235.51443 255.744
220.78021 235.50107 255.744
220.78394 235.50311 255.744
220.77989 235.50089 255.744
220.77753 235.49954 255.744
220.78534 235.50394 255.744
220.78773 235.5053 255.744
220.79492 235.5093 255.744
220.77205 235.49646 255.744
220.77997 235.50092 255.744
220.77553 235.49841 255.744
220.75629 235.48758 255.744
220.78087 235.50139 255.744
220.78265 235.50241 255.744
220.76439 235.49216 255.744
220.77759 235.49957 255.744
220.75972 235.48953 255.744
220.76791 235.49413 255.744
220.78271 235.50244 255.744
220.76614 235.49312 255.744
220.77791 235.49973 255.744
220.76433 235.49211 255.744
220.78302 235.50264 255.744
220.77014 235.49536 255.744
220.76822 235.4943 255.744
220.77057 235.49562 255.744
220.77415 235.49763 255.744
220.77531 235.4983 255.744
220.78441 235.5034 255.744
220.79495 235.50934 255.744
220.7863 235.50444 255.744
220.77757 235.49956 255.744
220.77371 235.49739 255.744
220.79695 235.51044 255.744
220.78119 235.5016 255.744
220.76451 235.49222 255.744
220.77992 235.50087 255.744
220.78139 235.50168 255.744
220.77287 235.49693 255.744
220.77902 235.50037 255.744
220.767 235.49359 255.744
220.76167 235.4906 255.744
220.77356 235.49731 255.744
220.786 235.5043 255.744
220.77011 235.49536 255.744
220.766 235.49309 255.744
220.79182 235.50757 255.744
220.77907 235.5004 255.744
220.7641 235.49197 255.744
220.7742 235.49767 255.744
220.79416 235.5089 255.744
220.7721 235.49649 255.744
220.76555 235.49281 255.744
220.77213 235.49649 255.744
220.77458 235.49786 255.744
220.79337 235.50845 255.744
220.7813 235.50165 255.744
220.7762 235.49881 255.744
220.78624 235.50443 255.744
220.7565 235.4877 255.744
220.78015 235.50102 255.744
220.79936 235.51183 255.744
220.78203 235.50206 255.744
220.77165 235.49626 255.744
220.7854 235.50398 255.744
220.76953 235.49501 255.744
220.77277 235.49683 255.744
220.78638 235.5045 255.744
220.76436 235.49213 255.744
220.77408 235.4976 255.744
220.78677 235.50473 255.744
220.77725 235.49939 255.744
220.75371 235.48616 255.744
220.78323 235.50275 255.744
220.76889 235.49467 255.744
220.78568 235.50412 255.744
220.77786 235.49971 255.744
220.7748 235.49802 255.744
220.77054 235.49564 255.744
220.77818 235.4999 255.744
220.78122 235.5016 255.744
220.76505 235.49252 255.744
220.7746 235.49788 255.744
220.76761 235.49397 255.744
220.77718 235.49933 255.744
220.77565 235.49847 255.744
220.76833 235.49438 255.744
220.76096 235.49022 255.744
220.76483 235.49243 255.744
220.78735 235.50507 255.744
220.76083 235.49013 255.744
220.78427 235.50333 255.744
220.77231 235.49661 255.744
220.7905 235.50685 255.744
220.77687 235.49915 255.744
220.76567 235.49289 255.744
220.77248 235.49669 255.744
220.7829 235.50256 255.744
220.76866 235.49455 255.744
220.77385 235.49747 255.744
220.78058 235.50124 255.744
220.77336 235.4972 255.744
220.7598 235.48956 255.744
220.76756 235.49393 255.744
220.77983 235.50089 255.744
220.75671 235.48784 255.744
220.772 235.49643 255.744
220.76283 235.49126 255.744
220.76147 235.49052 255.744
220.78127 235.50166 255.744
220.76549 235.49275 255.744
220.75829 235.48872 255.744
220.75757 235.48833 255.744
220.76964 235.49509 255.744
220.77097 235.49588 255.744
220.76068 235.49007 255.744
220.7899 235.50647 255.744
220.75711 235.48807 255.744
220.75302 235.48576 255.744
220.75789 235.48846 255.744
220.74844 235.48318 255.744
220.74866 235.48325 255.744
220.77466 235.49791 255.744
220.76045 235.48993 255.744
220.75682 235.48787 255.744
220.76282 235.49127 255.744
220.77608 235.49873 255.744
220.75728 235.48814 255.744
220.76808 235.49423 255.744
220.79094 235.50708 255.744
220.7767 235.49908 255.744
220.77672 235.49905 255.744
220.75739 235.48817 255.744
220.7792 235.5005 255.744
220.77408 235.49756 255.744
220.7682 235.49431 255.744
220.76216 235.49088 255.744
220.76965 235.49509 255.744
220.7744 235.49779 255.744
220.76617 235.49312 255.744
220.75806 235.4886 255.744
220.78368 235.50298 255.744
220.77853 235.50012 255.744
220.7779 235.49977 255.744
220.76218 235.4909 255.744
220.76825 235.49434 255.744
220.75839 235.48877 255.744
220.79195 235.50766 255.744
220.76572 235.49289 255.744
220.767 235.4936 255.744
220.7822 235.50215 255.744
220.76547 235.49275 255.744
220.75462 235.48665 255.744
220.77989 235.50084 255.744
220.76448 235.49219 255.744
220.74535 235.48141 255.744
220.75372 235.48613 255.744
220.7613 235.49042 255.744
220.76907 235.4948 255.744
220.78844 235.50568 255.744
220.77165 235.49625 255.744
220.75285 235.48564 255.744
220.76395 235.49188 255.744
220.77586 235.4986 255.744
220.77841 235.50005 255.744
220.7711 235.49593 255.744
220.75134 235.48482 255.744
220.75888 235.48903 255.744
220.77437 235.49776 255.744
220.77303 235.497 255.744
220.76315 235.49146 255.744
220.76251 235.4911 255.744
220.76456 235.49225 255.744
220.76923 235.49487 255.744
220.7875 235.50514 255.744
220.77946 235.50063 255.744
220.76477 235.49236 255.744
220.76216 235.4909 255.744
220.78313 235.50272 255.744
220.7859 235.50423 255.744
220.75041 235.4843 255.744
220.78 235.50092 255.744
220.75111 235.4847 255.744
220.74937 235.48369 255.744
220.77812 235.49986 255.744
220.75015 235.48416 255.744
220.77617 235.49872 255.744
220.77019 235.49544 255.744
220.76831 235.49431 255.744
220.77826 235.49995 255.744
220.76115 235.49036 255.744
220.76222 235.49092 255.744
220.7604 235.48991 255.744
220.77039 235.4955 255.744
220.77414 235.49763 255.744
220.77364 235.49734 255.744
220.75854 235.48888 255.744
220.762 235.49081 255.744
220.77917 235.50047 255.744
220.76848 235.49446 255.744
220.78401 235.50317 255.744
220.75803 235.48859 255.744
220.77856 235.5001 255.744
220.75424 235.48643 255.744
220.75919 235.48921 255.744
220.75224 235.48532 255.744
220.75293 235.48572 255.744
220.76384 235.49185 255.744
220.75568 235.48727 255.744
220.7765 235.49893 255.744
220.77448 235.49783 255.744
220.78127 235.50163 255.744
220.76454 235.49223 255.744
220.7716 235.4962 255.744
220.7698 235.49518 255.744
220.77458 235.49785 255.744
220.75319 235.48584 255.744
220.76543 235.49274 255.744
220.78125 235.5016 255.744
220.76079 235.49013 255.744
220.75926 235.48924 255.744
220.77054 235.4956 255.744
220.75627 235.48758 255.744
220.767 235.49359 255.744
220.74094 235.47896 255.744
220.76268 235.4912 255.744
220.77824 235.49995 255.744
220.7741 235.49759 255.744
220.76413 235.49199 255.744
220.76866 235.49454 255.744
220.7558 235.48732 255.744
220.76186 235.49072 255.744
220.7695 235.49503 255.744
220.76755 235.49388 255.744
220.76434 235.49213 255.744
220.77039 235.4955 255.744
220.76237 235.49097 255.744
220.76935 235.49493 255.744
220.78586 235.50421 255.744
220.75656 235.48773 255.744
220.76285 235.49129 255.744
220.76115 235.49033 255.744
220.77968 235.50072 255.744
220.76672 235.49345 255.744
220.75308 235.48578 255.744
220.77092 235.4958 255.744
220.7509 235.48456 255.744
220.75883 235.48906 255.744
220.77681 235.49913 255.744
220.75694 235.48795 255.744
220.75377 235.48613 255.744
220.75713 235.48805 255.744
220.75026 235.48418 255.744
220.75784 235.48845 255.744
220.76686 235.49353 255.744
220.77132 235.496 255.744
220.78014 235.501 255.744
220.78902 235.50601 255.744
220.7787 235.50017 255.744
220.77469 235.49792 255.744
220.78468 235.50356 255.744
220.76907 235.4948 255.744
220.76082 235.49011 255.744
220.76575 235.49289 255.744
220.77968 235.50073 255.744
220.74944 235.48376 255.744
220.77074 235.49573 255.744
220.78783 235.50533 255.744
220.76935 235.49492 255.744
220.77353 235.49725 255.744
220.7697 235.49512 255.744
220.76372 235.49178 255.744
220.74593 235.48175 255.744
220.7607 235.49008 255.744
220.75989 235.48961 255.744
220.7677 235.49402 255.744
220.76357 235.49168 255.744
220.78342 235.50282 255.744
220.78085 235.5014 255.744
220.78078 235.50137 255.744
220.74405 235.4807 255.744
220.76576 235.4929 255.744
220.77046 235.49556 255.744
220.7687 235.49458 255.744
220.77957 235.50067 255.744
220.77956 235.50069 255.744
220.77524 235.49826 255.744
220.79027 235.5067 255.744
220.77898 235.50035 255.744
220.7675 235.4939 255.744
220.7634 235.4916 255.744
220.76404 235.49194 255.744
220.7607 235.49004 255.744
220.76903 235.49474 255.744
220.78683 235.50476 255.744
220.73828 235.47746 255.744
220.77087 235.49577 255.744
220.77792 235.49976 255.744
220.76581 235.49297 255.744
220.76495 235.49246 255.744
220.77856 235.50012 255.744
220.76584 235.49297 255.744
220.76978 235.49516 255.744
220.7842 235.50325 255.744
220.76399 235.49193 255.744
220.76515 235.49255 255.744
220.76355 235.49167 255.744
220.77736 235.49942 255.744
220.76259 235.49113 255.744
220.76653 235.49335 255.744
220.77855 235.5001 255.744
220.75174 235.48502 255.744
220.75859 235.48885 255.744
220.76868 235.49457 255.744
220.76215 235.49089 255.744
220.77884 235.50026 255.744
220.75963 235.48947 255.744
220.78368 235.50298 255.744
220.7654 235.49269 255.744
220.77344 235.49727 255.744
220.7671 235.49367 255.744
220.78082 235.50137 255.744
220.76233 235.49098 255.744
220.76732 235.49377 255.744
220.77966 235.50075 255.744
220.7835 235.50287 255.744
220.77771 235.49963 255.744
220.77437 235.49774 255.744
220.76587 235.49298 255.744
220.77357 235.4973 255.744
220.75772 235.48839 255.744
220.77031 235.49547 255.744
220.7706 235.49565 255.744
220.76775 235.49402 255.744
220.77039 235.4955 255.744
220.76784 235.49406 255.744
220.7774 235.49947 255.744
220.78532 235.50394 255.744
220.78214 235.5021 255.744
220.77565 235.49846 255.744
220.76292 235.4913 255.744
220.7621 235.49089 255.744
220.76624 235.49316 255.744
220.777 235.49927 255.744
220.76389 235.49185 255.744
220.77513 235.49817 255.744
220.78664 235.50467 255.744
220.77808 235.49985 255.744
220.77515 235.49821 255.744
220.7642 235.49205 255.744
220.75316 235.48581 255.744
220.76556 235.49281 255.744
220.77435 235.49774 255.744
220.76866 235.49455 255.744
220.76785 235.49405 255.744
220.76117 235.49033 255.744
220.78604 235.50432 255.744
220.78273 235.50247 255.744
220.78558 235.50406 255.744
220.7767 235.49908 255.744
220.77539 235.4983 255.744
220.77335 235.49716 255.744
220.75552 235.48714 255.744
220.76987 235.49525 255.744
220.77733 235.4994 255.744
220.78586 235.50423 255.744
220.76369 235.49176 255.744
220.78316 235.50272 255.744
220.78473 235.50359 255.744
220.7537 235.48613 255.744
220.7894 235.50621 255.744
220.76624 235.49318 255.744
220.77998 235.50089 255.744
220.78015 235.50099 255.744
220.76012 235.48973 255.744
220.7901 235.5066 255.744
220.7716 235.4962 255.744
220.76666 235.49341 255.744
220.7764 235.49892 255.744
220.78618 235.5044 255.744
220.7877 235.5052 255.744
220.79254 235.50798 255.744
220.76889 235.49466 255.744
220.78395 235.50316 255.744
220.78072 235.50134 255.744
220.77464 235.49791 255.744
220.78035 235.50111 255.744
220.79335 235.50844 255.744
220.80034 235.51234 255.744
220.7835 235.5029 255.744
220.77148 235.49611 255.744
220.78368 235.503 255.744
220.7746 235.49788 255.744
220.79022 235.50668 255.744
220.7738 235.49744 255.744
220.77948 235.50063 255.744
220.76973 235.49516 255.744
220.75766 235.48836 255.744
220.76636 235.49323 255.744
220.78735 235.50505 255.744
220.78288 235.50252 255.744
220.783 235.50261 255.744
220.78784 235.50531 255.744
220.76614 235.49313 255.744
220.78572 235.50412 255.744
220.78084 235.50137 255.744
220.78166 235.50183 255.744
220.78845 235.50568 255.744
220.77893 235.50032 255.744
220.78186 235.50197 255.744
220.77357 235.4973 255.744
220.75888 235.48903 255.744
220.79924 235.51176 255.744
220.77737 235.49947 255.744
220.79523 235.5095 255.744
220.78522 235.50386 255.744
220.7751 235.49818 255.744
220.80334 235.51407 255.744
220.77719 235.49934 255.744
220.76872 235.49457 255.744
220.77101 235.49585 255.744
220.79431 235.50894 255.744
220.77228 235.49658 255.744
220.78911 235.50609 255.744
220.78629 235.50444 255.744
220.77585 235.4986 255.744
220.78432 235.50336 255.744
220.77452 235.49785 255.744
220.79703 235.51053 255.744
220.77187 235.49634 255.744
220.7667 235.4934 255.744
220.77551 235.49843 255.744
220.77113 235.49597 255.744
220.79466 235.50919 255.744
220.78558 235.50406 255.744
220.77829 235.49994 255.744
220.78563 235.50409 255.744
220.77875 235.50021 255.744
220.78894 235.50597 255.744
220.77596 235.49869 255.744
220.7723 235.49657 255.744
220.78229 235.50221 255.744
220.78046 235.50116 255.744
220.76991 235.49522 255.744
220.76665 235.4934 255.744
220.75862 235.48889 255.744
220.77841 235.50005 255.744
220.77843 235.50005 255.744
220.78452 235.50346 255.744
220.78809 235.50551 255.744
220.77344 235.49724 255.744
220.7908 235.507 255.744
220.78593 235.50427 255.744
220.79329 235.5084 255.744
220.7692 235.49486 255.744
220.79694 235.51047 255.744
220.76561 235.49283 255.744
220.7833 235.50279 255.744
220.77419 235.49765 255.744
220.7938 235.50868 255.744
220.78242 235.50227 255.744
220.80182 235.51318 255.744
220.78448 235.50343 255.744
220.78651 235.50456 255.744
220.78917 235.50607 255.744
220.8021 235.51334 255.744
220.78273 235.50244 255.744
220.77058 235.49564 255.744
220.78996 235.50653 255.744
220.77722 235.49936 255.744
220.79095 235.50708 255.744
220.78398 235.50316 255.744
220.79985 235.51212 255.744
220.79814 235.51111 255.744
220.7914 235.50734 255.744
220.7967 235.51035 255.744
220.80357 235.51416 255.744
220.78406 235.50322 255.744
220.78157 235.50179 255.744
220.79942 235.51187 255.744
220.81375 235.51993 255.744
220.80121 235.51285 255.744
220.7895 235.50626 255.744
220.78888 235.5059 255.744
220.78702 235.5049 255.744
220.77794 235.49974 255.744
220.78606 235.50433 255.744
220.79262 235.50801 255.744
220.78578 235.50418 255.744
220.78471 235.50356 255.744
220.79059 235.50685 255.744
220.78049 235.50119 255.744
220.8021 235.5133 255.744
220.80428 235.51459 255.744
220.80504 235.51501 255.744
220.78294 235.5026 255.744
220.78598 235.50429 255.744
220.78703 235.5049 255.744
220.78198 235.50203 255.744
220.78535 235.50395 255.744
220.78427 235.50333 255.744
220.81068 235.51819 255.744
220.80717 235.51619 255.744
220.79546 235.5096 255.744
220.78757 235.50516 255.744
220.7807 235.5013 255.744
220.78653 235.50461 255.744
220.79587 235.50986 255.744
220.77171 235.49625 255.744
220.78407 235.50327 255.744
220.79022 235.50668 255.744
220.80272 235.51369 255.744
220.82054 235.52373 255.744
220.80432 235.5146 255.744
220.82068 235.5238 255.744
220.84041 235.53491 255.744
220.82324 235.52525 255.744
220.83846 235.53381 255.744
220.82048 235.52368 255.744
220.84035 235.53487 255.744
220.81827 235.52245 255.744
220.84473 235.53731 255.744
220.83012 235.52914 255.744
220.82187 235.52448 255.744
220.83635 235.53262 255.744
220.80374 235.51428 255.744
220.82162 235.52434 255.744
220.82275 235.525 255.744
220.8092 235.51733 255.744
220.81561 235.52094 255.744
220.82204 235.52455 255.744
220.84222 235.53592 255.744
220.83275 235.5306 255.744
220.8309 235.52954 255.744
220.81914 235.52295 255.744
220.81117 235.51845 255.744
220.83475 235.53172 255.744
220.82307 235.52518 255.744
220.82457 235.52597 255.744
220.85141 235.54109 255.744
220.80783 235.5166 255.744
220.81497 235.52058 255.744
220.82463 235.52606 255.744
220.81693 235.5217 255.744
220.82103 235.52397 255.744
220.82521 235.52632 255.744
220.78271 235.50243 255.744
220.82834 235.52812 255.744
220.8136 235.51979 255.744
220.80272 235.5137 255.744
220.81752 235.52202 255.744
220.82726 235.52753 255.744
220.83908 235.53416 255.744
220.8329 235.5307 255.744
220.82 235.52342 255.744
220.80705 235.51614 255.744
220.82335 235.52531 255.744
220.80035 235.51237 255.744
220.8143 235.52019 255.744
220.83191 235.53012 255.744
220.81207 235.51898 255.744
220.82039 235.5236 255.744
220.82242 235.5248 255.744
220.81242 235.51917 255.744
220.80998 235.51779 255.744
220.8308 235.52951 255.744
220.81085 235.51828 255.744
220.81143 235.51863 255.744
220.83627 235.53258 255.744
220.82039 235.52365 255.744
220.81548 235.52089 255.744
220.79445 235.50908 255.744
220.80719 235.51619 255.744
220.79936 235.51183 255.744
220.81462 235.5204 255.744
220.78577 235.50417 255.744
220.80363 235.51419 255.744
220.81044 235.51807 255.744
220.81679 235.5216 255.744
220.8081 235.51675 255.744
220.81201 235.51892 255.744
220.81349 235.51978 255.744
220.80252 235.51358 255.744
220.81313 235.51958 255.744
220.79463 235.50919 255.744
220.80664 235.51593 255.744
220.81247 235.51921 255.744
220.81693 235.52173 255.744
220.81796 235.5223 255.744
220.81435 235.52023 255.744
220.82413 235.52574 255.744
220.81549 235.52087 255.744
220.80608 235.5156 255.744
220.83154 235.5299 255.744
220.82402 235.5257 255.744
220.80507 235.51501 255.744
220.82492 235.5262 255.744
220.79854 235.51137 255.744
220.80305 235.51392 255.744
220.80444 235.5147 255.744
220.81729 235.52191 255.744
220.80624 235.51569 255.744
220.82619 235.52692 255.744
220.7905 235.50679 255.744
220.8158 235.52106 255.744
220.80505 235.51503 255.744
220.82245 235.52481 255.744
220.81166 235.51872 255.744
220.81139 235.51862 255.744
220.8104 235.518 255.744
220.81297 235.51945 255.744
220.81352 235.51978 255.744
220.79797 235.51102 255.744
220.80765 235.51646 255.744
220.80865 235.51707 255.744
220.80992 235.51775 255.744
220.80647 235.51581 255.744
220.8235 235.52539 255.744
220.82184 235.52446 255.744
220.79694 235.51044 255.744
220.78122 235.5016 255.744
220.80998 235.51776 255.744
220.82841 235.52817 255.744
220.81686 235.52168 255.744
220.80644 235.51581 255.744
220.8112 235.51851 255.744
220.80249 235.5136 255.744
220.80682 235.516 255.744
220.81715 235.5218 255.744
220.8148 235.52051 255.744
220.81021 235.51793 255.744
220.81963 235.52321 255.744
220.81964 235.52322 255.744
220.80455 235.51474 255.744
220.79196 235.50766 255.744
220.8074 235.51634 255.744
220.80667 235.5159 255.744
220.81302 235.5195 255.744
220.81386 235.51996 255.744
220.80502 235.515 255.744
220.79239 235.50789 255.744
220.80132 235.5129 255.744
220.80971 235.51762 255.744
220.81413 235.52014 255.744
220.78667 235.50465 255.744
220.80559 235.5153 255.744
220.82095 235.52396 255.744
220.79958 235.51193 255.744
220.80107 235.51277 255.744
220.78879 235.50586 255.744
220.80577 235.51541 255.744
220.82173 235.52438 255.744
220.79604 235.50992 255.744
220.80533 235.51517 255.744
220.79312 235.50832 255.744
220.80171 235.51317 255.744
220.80522 235.51512 255.744
220.7937 235.50862 255.744
220.80885 235.51715 255.744
220.81107 235.51842 255.744
220.81157 235.51865 255.744
220.79327 235.50838 255.744
220.81148 235.51863 255.744
220.8108 235.51825 255.744
220.794 235.5088 255.744
220.81993 235.5234 255.744
220.79333 235.50842 255.744
220.79916 235.51173 255.744
220.8207 235.5238 255.744
220.8072 235.51622 255.744
220.81229 235.5191 255.744
220.80096 235.51273 255.744
220.80089 235.51271 255.744
220.78784 235.50533 255.744
220.81223 235.51907 255.744
220.80309 235.5139 255.744
220.82237 235.52477 255.744
220.80794 235.51665 255.744
220.81456 235.52036 255.744
220.80493 235.51494 255.744
220.81819 235.5224 255.744
220.78993 235.50648 255.744
220.80037 235.5124 255.744
220.7937 235.50864 255.744
220.79448 235.5091 255.744
220.80879 235.51712 255.744
220.80647 235.51584 255.744
220.81133 235.51852 255.744
220.81746 235.52199 255.744
220.79852 235.51134 255.744
220.79913 235.51169 255.744
220.81133 235.51855 255.744
220.79915 235.51166 255.744
220.79906 235.51166 255.744
220.8314 235.52985 255.744
220.79814 235.51112 255.744
220.80426 235.5146 255.744
220.799 235.51163 255.744
220.78839 235.5056 255.744
220.8202 235.52356 255.744
220.78654 235.50461 255.744
220.78447 235.50342 255.744
220.79907 235.51166 255.744
220.79129 235.50723 255.744
220.80582 235.51546 255.744
220.8054 235.51523 255.744
220.79312 235.5083 255.744
220.80429 235.51459 255.744
220.81006 235.51785 255.744
220.7998 235.5121 255.744
220.77371 235.4974 255.744
220.79555 235.50966 255.744
220.7854 235.50397 255.744
220.7919 235.50761 255.744
220.7954 235.50957 255.744
220.7884 235.50566 255.744
220.80722 235.51622 255.744
220.80219 235.51338 255.744
220.80923 235.51738 255.744
220.81194 235.51888 255.744
220.81001 235.5178 255.744
220.79285 235.50816 255.744
220.82576 235.52667 255.744
220.7887 235.50581 255.744
220.79039 235.50677 255.744
220.78984 235.5065 255.744
220.79178 235.50754 255.744
220.80032 235.51236 255.744
220.79279 235.50812 255.744
220.78668 235.5047 255.744
220.80815 235.51675 255.744
220.78944 235.50627 255.744
220.81435 235.52023 255.744
220.80174 235.51314 255.744
220.8001 235.5122 255.744
220.80255 235.51361 255.744
220.7905 235.5068 255.744
220.79901 235.51164 255.744
220.80191 235.51323 255.744
220.7703 235.4955 255.744
220.81174 235.51877 255.744
220.80133 235.51291 255.744
220.79482 235.50928 255.744
220.78995 235.50652 255.744
220.7884 235.50565 255.744
220.8089 235.5172 255.744
220.79672 235.51031 255.744
220.80885 235.51715 255.744
220.80043 235.51242 255.744
220.79916 235.51167 255.744
220.79936 235.5118 255.744
220.7923 235.50784 255.744
220.79362 235.5086 255.744
220.81418 235.52014 255.744
220.80609 235.51564 255.744
220.79153 235.50742 255.744
220.80455 235.51472 255.744
220.80089 235.51266 255.744
220.80232 235.51349 255.744
220.79427 235.50897 255.744
220.81505 235.52066 255.744
220.80367 235.5142 255.744
220.80077 235.51262 255.744
220.80249 235.51357 255.744
220.7994 235.51183 255.744
220.80664 235.51591 255.744
220.78891 235.50594 255.744
220.78802 235.50545 255.744
220.81598 235.52118 255.744
220.78656 235.50464 255.744
220.79698 235.51045 255.744
220.79913 235.51169 255.744
220.79294 235.50818 255.744
220.80208 235.51335 255.744
220.78413 235.50323 255.744
220.82483 235.52614 255.744
220.7954 235.50958 255.744
220.79704 235.51051 255.744
220.80133 235.51294 255.744
220.79086 235.50703 255.744
220.80162 235.51308 255.744
220.7977 235.51088 255.744
220.76106 235.49026 255.744
220.77502 235.49812 255.744
220.79616 235.51003 255.744
220.79817 235.51114 255.744
220.79999 235.51218 255.744
220.79634 235.5101 255.744
220.80426 235.51454 255.744
220.79257 235.508 255.744
220.79337 235.50842 255.744
220.804 235.51443 255.744
220.79402 235.5088 255.744
220.80592 235.5155 255.744
220.78986 235.50644 255.744
220.80237 235.51349 255.744
220.82555 235.52657 255.744
220.79572 235.50975 255.744
220.79207 235.5077 255.744
220.80475 235.51485 255.744
220.8047 235.5148 255.744
220.80275 235.51375 255.744
220.79962 235.51196 255.744
220.79651 235.51024 255.744
220.79207 235.5077 255.744
220.8099 235.51776 255.744
220.82278 235.525 255.744
220.80766 235.51648 255.744
220.79016 235.50664 255.744
220.78844 235.50569 255.744
220.79099 235.50713 255.744
220.79488 235.5093 255.744
220.79683 235.51038 255.744
220.8058 235.51546 255.744
220.80023 235.5123 255.744
220.77686 235.49916 255.744
220.79462 235.50914 255.744
220.8058 235.51546 255.744
220.80305 235.5139 255.744
220.80801 235.51666 255.744
220.7942 235.5089 255.744
220.78825 235.50558 255.744
220.7826 235.5024 255.744
220.80232 235.51347 255.744
220.8021 235.51335 255.744
220.7763 235.49884 255.744
220.78456 235.50348 255.744
220.78604 235.50432 255.744
220.80847 235.51694 255.744
220.78455 235.5035 255.744
220.79578 235.50977 255.744
220.79778 235.51097 255.744
220.80495 235.51495 255.744
220.80247 235.51355 255.744
220.79393 235.50876 255.744
220.78905 235.50601 255.744
220.79382 235.50871 255.744
220.79362 235.50859 255.744
220.77419 235.49765 255.744
220.79625 235.51006 255.744
220.7849 235.50368 255.744
220.79811 235.51111 255.744
220.80371 235.51427 255.744
220.7994 235.51184 255.744
220.82034 235.52362 255.744
220.77502 235.49811 255.744
220.8048 235.51485 255.744
220.79196 235.50764 255.744
220.7766 235.49901 255.744
220.7989 235.51157 255.744
220.79962 235.51196 255.744
220.7913 235.50728 255.744
220.77974 235.50078 255.744
220.79886 235.51154 255.744
220.80489 235.51491 255.744
220.80447 235.51471 255.744
220.80371 235.51427 255.744
220.79227 235.5078 255.744
220.80115 235.5128 255.744
220.80775 235.51653 255.744
220.78561 235.50407 255.744
220.79282 235.5081 255.744
220.78433 235.50337 255.744
220.79828 235.51122 255.744
220.77148 235.49612 255.744
220.78001 235.50092 255.744
220.80167 235.5131 255.744
220.78416 235.50325 255.744
220.80138 235.51299 255.744
220.78209 235.50209 255.744
220.81842 235.52254 255.744
220.78188 235.50197 255.744
220.80125 235.51288 255.744
220.81339 235.5197 255.744
220.79825 235.51122 255.744
220.79703 235.51048 255.744
220.79669 235.51031 255.744
220.79202 235.50768 255.744
220.78566 235.50412 255.744
220.80115 235.51282 255.744
220.78952 235.50627 255.744
220.79468 235.5092 255.744
220.8013 235.51291 255.744
220.80138 235.51292 255.744
220.79057 235.50688 255.744
220.80415 235.51451 255.744
220.80672 235.51595 255.744
220.78989 235.50647 255.744
220.8086 235.51701 255.744
220.8159 235.52112 255.744
220.81618 235.52129 255.744
220.7946 235.50911 255.744
220.79611 235.51 255.744
220.81682 235.52162 255.744
220.79567 235.50978 255.744
220.79956 235.51193 255.744
220.8038 235.5143 255.744
220.78513 235.5038 255.744
220.79092 235.50708 255.744
220.80809 235.51672 255.744
220.79388 235.50874 255.744
220.79681 235.5104 255.744
220.81573 235.52103 255.744
220.80522 235.51509 255.744
220.8037 235.51424 255.744
220.82407 235.52571 255.744
220.7829 235.50255 255.744
220.80334 235.51404 255.744
220.79424 235.50894 255.744
220.8012 235.51283 255.744
220.81508 235.52065 255.744
220.7924 235.50789 255.744
220.78246 235.5023 255.744
220.79268 235.50804 255.744
220.79195 235.5076 255.744
220.79732 235.51065 255.744
220.81491 235.52057 255.744
220.81364 235.51987 255.744
220.78944 235.50623 255.744
220.79909 235.51164 255.744
220.79759 235.51083 255.744
220.80069 235.51257 255.744
220.80118 235.5128 255.744
220.80386 235.51433 255.744
220.8153 235.5208 255.744
220.79251 235.50795 255.744
220.79439 235.50906 255.744
220.82181 235.52444 255.744
220.80396 235.51442 255.744
220.81284 235.51938 255.744
220.78107 235.50153 255.744
220.80484 235.51491 255.744
220.80426 235.51456 255.744
220.80522 235.5151 255.744
220.80515 235.51509 255.744
220.79068 235.50694 255.744
220.7926 235.50801 255.744
220.78699 235.50487 255.744
220.80388 235.51437 255.744
220.81522 235.52074 255.744
220.81621 235.5213 255.744
220.78807 235.50548 255.744
220.81068 235.51817 255.744
220.79764 235.51083 255.744
220.80794 235.51668 255.744
220.79407 235.50883 255.744
220.81218 235.519 255.744
220.80266 235.51367 255.744
220.79634 235.5101 255.744
220.8053 235.51517 255.744
220.78656 235.50461 255.744
220.79552 235.50964 255.744
220.8038 235.51433 255.744
220.7875 235.50514 255.744
220.81091 235.51833 255.744
220.80019 235.51227 255.744
220.79071 235.50696 255.744
220.81952 235.52315 255.744
220.80846 235.51695 255.744
220.81407 235.52008 255.744
220.79771 235.51091 255.744
220.7957 235.50972 255.744
220.79414 235.50885 255.744
220.78905 235.50601 255.744
220.80742 235.51634 255.744
220.8215 235.52428 255.744
220.81395 235.52003 255.744
220.8054 235.51523 255.744
220.82022 235.52359 255.744
220.80832 235.51686 255.744
220.79762 235.51086 255.744
220.80713 235.51619 255.744
220.82614 235.52686 255.744
220.80247 235.51358 255.744
220.79655 235.51022 255.744
220.81245 235.51917 255.744
220.82451 235.52597 255.744
220.81522 235.52072 255.744
220.80133 235.51292 255.744
220.79999 235.51218 255.744
220.81041 235.51807 255.744
220.80199 235.51329 255.744
220.8014 235.51297 255.744
220.81119 235.51846 255.744
220.8221 235.5246 255.744
220.8116 235.5187 255.744
220.80754 235.51642 255.744
220.795 235.50935 255.744
220.82668 235.52718 255.744
220.80467 235.51482 255.744
220.81728 235.52188 255.744
220.81445 235.52031 255.744
220.81418 235.52016 255.744
220.80122 235.5129 255.744
220.8322 235.53032 255.744
220.81274 235.51933 255.744
220.81502 235.52063 255.744
220.8095 235.5175 255.744
220.80011 235.51224 255.744
220.80144 235.51299 255.744
220.83562 235.53224 255.744
220.80963 235.51761 255.744
220.80144 235.51297 255.744
220.80779 235.51654 255.744
220.81389 235.51999 255.744
220.80235 235.5135 255.744
220.81157 235.51869 255.744
220.79903 235.51164 255.744
220.8262 235.5269 255.744
220.80473 235.51485 255.744
220.80371 235.51425 255.744
220.80826 235.51683 255.744
220.80754 235.51643 255.744
220.81857 235.5226 255.744
220.81541 235.52089 255.744
220.81277 235.51935 255.744
220.83054 235.52936 255.744
220.80475 235.51485 255.744
220.82301 235.52513 255.744
220.79344 235.50847 255.744
220.80191 235.51326 255.744
220.79494 235.50934 255.744
220.80637 235.51576 255.744
220.80104 235.51279 255.744
220.81981 235.52332 255.744
220.81535 235.52078 255.744
220.81502 235.52065 255.744
220.81862 235.52263 255.744
220.81209 235.51898 255.744
220.81926 235.52301 255.744
220.83168 235.52998 255.744
220.80547 235.51526 255.744
220.82329 235.52528 255.744
220.8135 235.51978 255.744
220.79753 235.51079 255.744
220.80977 235.51767 255.744
220.81552 235.52092 255.744
220.80875 235.51707 255.744
220.77513 235.4982 255.744
220.79579 235.5098 255.744
220.82727 235.5275 255.744
220.82286 235.52504 255.744
220.84193 235.53577 255.744
220.82185 235.52448 255.744
220.80685 235.51604 255.744
220.81992 235.52338 255.744
220.82454 235.52594 255.744
220.83304 235.53075 255.744
220.80936 235.51741 255.744
220.8096 235.5176 255.744
220.81404 235.52008 255.744
220.82257 235.52486 255.744
220.79948 235.5119 255.744
220.80882 235.5171 255.744
220.81296 235.5195 255.744
220.80882 235.51714 255.744
220.82451 235.52597 255.744
220.82123 235.52412 255.744
220.79886 235.5115 255.744
220.84001 235.53467 255.744
220.81479 235.52048 255.744
220.83418 235.53142 255.744
220.81041 235.518 255.744
220.82025 235.52359 255.744
220.82578 235.52667 255.744
220.82007 235.52344 255.744
220.81606 235.5212 255.744
220.82265 235.52492 255.744
220.8232 235.52522 255.744
220.82103 235.524 255.744
220.82826 235.52806 255.744
220.8106 235.5181 255.744
220.81439 235.52025 255.744
220.81523 235.52075 255.744
220.82008 235.52347 255.744
220.81824 235.52243 255.744
220.82935 235.52869 255.744
220.81664 235.52151 255.744
220.82089 235.52394 255.744
220.82613 235.52687 255.744
220.82231 235.52473 255.744
220.8037 235.51427 255.744
220.81885 235.52278 255.744
220.82407 235.52571 255.744
220.8179 235.52226 255.744
220.79222 235.50781 255.744
220.83218 235.53027 255.744
220.81337 235.51971 255.744
220.8172 235.52185 255.744
220.80096 235.51271 255.744
220.82884 235.52843 255.744
220.82852 235.5282 255.744
220.82188 235.52449 255.744
220.82994 235.52902 255.744
220.8072 235.51622 255.744
220.81973 235.52327 255.744
220.8372 235.5331 255.744
220.82863 235.52827 255.744
220.80977 235.51765 255.744
220.82446 235.52594 255.744
220.8292 235.52858 255.744
220.81836 235.52248 255.744
220.81506 235.52066 255.744
220.8255 235.52652 255.744
220.8272 235.52748 255.744
220.83301 235.53075 255.744
220.81418 235.52014 255.744
220.82707 235.52739 255.744
220.83125 235.52975 255.744
220.81639 235.5214 255.744
220.797 235.51047 255.744
220.8133 235.51967 255.744
220.87009 235.55162 255.744
220.8634 235.54784 255.744
220.84912 235.53981 255.744
220.85875 235.54523 255.744
220.8636 235.54794 255.744
220.84558 235.53784 255.744
220.8679 235.55038 255.744
220.85045 235.54054 255.744
220.85168 235.54126 255.744
220.85373 235.54242 255.744
220.86217 235.54713 255.744
220.84258 235.53613 255.744
220.8582 235.54489 255.744
220.86911 235.55106 255.744
220.83762 235.53333 255.744
220.85486 235.54301 255.744
220.83551 235.53217 255.744
220.86209 235.5471 255.744
220.86128 235.54663 255.744
220.85655 235.544 255.744
220.86531 235.5489 255.744
220.8536 235.54233 255.744
220.86864 235.5508 255.744
220.85973 235.54576 255.744
220.83228 235.53035 255.744
220.83955 235.53442 255.744
220.84608 235.53809 255.744
220.84962 235.54008 255.744
220.84547 235.53775 255.744
220.84981 235.5402 255.744
220.86559 235.54907 255.744
220.84213 235.53587 255.744
220.8512 235.54095 255.744
220.855 235.5431 255.744
220.85558 235.54346 255.744
220.84499 235.53746 255.744
220.84708 235.53864 255.744
220.86446 235.54846 255.744
220.84192 235.53578 255.744
220.85194 235.54138 255.744
220.83833 235.53374 255.744
220.84808 235.53922 255.744
220.85051 235.54056 255.744
220.85535 235.54329 255.744
220.86314 235.5477 255.744
220.8646 235.54852 255.744
220.85384 235.54245 255.744
220.85442 235.54277 255.744
220.86674 235.54974 255.744
220.83856 235.5339 255.744
220.84138 235.53546 255.744
220.84862 235.53954 255.744
220.84323 235.53648 255.744
220.8549 235.54306 255.744
220.84793 235.53912 255.744
220.86096 235.54646 255.744
220.84196 235.53578 255.744
220.86053 235.54622 255.744
220.85074 235.5407 255.744
220.8422 235.53592 255.744
220.84831 235.53935 255.744
220.83775 235.5334 255.744
220.84514 235.53755 255.744
220.84514 235.53757 255.744
220.8469 235.53856 255.744
220.847 235.53862 255.744
220.83844 235.5338 255.744
220.85526 235.54326 255.744
220.8447 235.53732 255.744
220.84665 235.53842 255.744
220.85083 235.54077 255.744
220.84727 235.53879 255.744
220.85342 235.54225 255.744
220.85948 235.54564 255.744
220.83246 235.53044 255.744
220.841 235.53525 255.744
220.84128 235.5354 255.744
220.84756 235.53894 255.744
220.84123 235.53534 255.744
220.84401 235.53694 255.744
220.8537 235.54239 255.744
220.82855 235.52823 255.744
220.84117 235.53534 255.744
220.85141 235.54109 255.744
220.84901 235.53975 255.744
220.8398 235.53458 255.744
220.83365 235.53111 255.744
220.83267 235.53056 255.744
220.83725 235.53314 255.744
220.85294 235.54195 255.744
220.83109 235.52966 255.744
220.84213 235.53589 255.744
220.85182 235.54132 255.744
220.83136 235.5298 255.744
220.83153 235.52989 255.744
220.84142 235.53545 255.744
220.85313 235.54207 255.744
220.83975 235.53453 255.744
220.83192 235.53015 255.744
220.83708 235.53304 255.744
220.83223 235.5303 255.744
220.85739 235.54448 255.744
220.83606 235.53246 255.744
220.81146 235.5186 255.744
220.83705 235.533 255.744
220.84492 235.53743 255.744
220.83545 235.53212 255.744
220.85559 235.54347 255.744
220.82996 235.52905 255.744
220.83734 235.53316 255.744
220.84227 235.53595 255.744
220.85835 235.54501 255.744
220.84238 235.53601 255.744
220.85423 235.54268 255.744
220.84402 235.53696 255.744
220.8524 235.54164 255.744
220.83063 235.52942 255.744
220.85356 235.54233 255.744
220.83458 235.53162 255.744
220.83122 235.52972 255.744
220.845 235.53749 255.744
220.84991 235.54028 255.744
220.83713 235.5331 255.744
220.86584 235.54921 255.744
220.82275 235.52496 255.744
220.8252 235.52637 255.744
220.87329 235.55339 255.744
220.82832 235.52812 255.744
220.83127 235.52977 255.744
220.83041 235.5293 255.744
220.81427 235.52017 255.744
220.84856 235.53946 255.744
220.84134 235.53543 255.744
220.86226 235.54718 255.744
220.83575 235.53232 255.744
220.83873 235.53394 255.744
220.82268 235.52492 255.744
220.8212 235.52408 255.744
220.83253 235.53049 255.744
220.84395 235.5369 255.744
220.84174 235.53566 255.744
220.86311 235.5477 255.744
220.8534 235.5422 255.744
220.83679 235.53287 255.744
220.82193 235.52452 255.744
220.84828 235.53934 255.744
220.83261 235.53056 255.744
220.82988 235.52899 255.744
220.8268 235.52725 255.744
220.8281 235.52798 255.744
220.82661 235.52713 255.744
220.8287 235.52834 255.744
220.82672 235.52722 255.744
220.84853 235.53949 255.744
220.85814 235.54486 255.744
220.83543 235.53212 255.744
220.8249 235.52618 255.744
220.81302 235.51949 255.744
220.82053 235.5237 255.744
220.82092 235.52394 255.744
220.83331 235.53091 255.744
220.83139 235.52983 255.744
220.82797 235.52795 255.744
220.83218 235.53027 255.744
220.8408 235.53513 255.744
220.84264 235.5362 255.744
220.85202 235.54147 255.744
220.83875 235.53397 255.744
220.82889 235.52838 255.744
220.83656 235.53273 255.744
220.84691 235.53856 255.744
220.82954 235.52875 255.744
220.84775 235.53897 255.744
220.84686 235.53854 255.744
220.82806 235.52791 255.744
220.8471 235.53867 255.744
220.8471 235.5387 255.744
220.84804 235.53918 255.744
220.83698 235.533 255.744
220.8314 235.52986 255.744
220.85355 235.54228 255.744
220.84502 235.5375 255.744
220.83589 235.53236 255.744
220.83101 235.52962 255.744
220.8356 235.5322 255.744
220.8224 235.5248 255.744
220.8433 235.53654 255.744
220.82625 235.52693 255.744
220.82237 235.52477 255.744
220.83293 235.53069 255.744
220.82265 235.52492 255.744
220.83647 235.53268 255.744
220.83533 235.53201 255.744
220.83856 235.53389 255.744
220.84236 235.53603 255.744
220.84035 235.53487 255.744
220.84244 235.53606 255.744
220.84644 235.5383 255.744
220.84605 235.53809 255.744
220.82568 235.5266 255.744
220.8426 235.53613 255.744
220.85004 235.54031 255.744
220.84106 235.53531 255.744
220.8225 235.52484 255.744
220.83867 235.53392 255.744
220.85114 235.54095 255.744
220.84866 235.53952 255.744
220.82146 235.52423 255.744
220.82474 235.52611 255.744
220.81992 235.5234 255.744
220.83347 235.531 255.744
220.82887 235.52838 255.744
220.82434 235.52586 255.744
220.82059 235.52377 255.744
220.82494 235.52621 255.744
220.83168 235.53001 255.744
220.8532 235.54211 255.744
220.83897 235.5341 255.744
220.83766 235.53336 255.744
220.8238 235.52559 255.744
220.8237 235.52548 255.744
220.83675 235.53284 255.744
220.82202 235.52457 255.744
220.81084 235.51826 255.744
220.81398 235.52005 255.744
220.82433 235.52585 255.744
220.82462 235.52602 255.744
220.81602 235.5212 255.744
220.82446 235.52592 255.744
220.84485 235.5374 255.744
220.82849 235.5282 255.744
220.81502 235.52063 255.744
220.8176 235.52206 255.744
220.82584 235.52672 255.744
220.82451 235.52596 255.744
220.83946 235.5344 255.744
220.8173 235.52194 255.744
220.83484 235.5318 255.744
220.81712 235.5218 255.744
220.82677 235.52724 255.744
220.81125 235.51852 255.744
220.84026 235.53482 255.744
220.8264 235.52704 255.744
220.85405 235.54256 255.744
220.80818 235.51675 255.744
220.82738 235.52757 255.744
220.81952 235.52313 255.744
220.81798 235.52232 255.744
220.81891 235.52284 255.744
220.83751 235.5333 255.744
220.83644 235.53268 255.744
220.82953 235.5288 255.744
220.82864 235.52827 255.744
220.82845 235.52817 255.744
220.84242 235.53603 255.744
220.82466 235.52606 255.744
220.83157 235.52995 255.744
220.82303 235.5251 255.744
220.83267 235.53053 255.744
220.82272 235.52498 255.744
220.83043 235.52928 255.744
220.81313 235.51956 255.744
220.8308 235.52945 255.744
220.8193 235.52304 255.744
220.81586 235.52104 255.744
220.82837 235.52812 255.744
220.84245 235.53607 255.744
220.82286 235.525 255.744
220.82576 235.52666 255.744
220.83922 235.53426 255.744
220.80078 235.51262 255.744
220.81125 235.51851 255.744
220.83092 235.52957 255.744
220.82495 235.5262 255.744
220.83698 235.53296 255.744
220.8165 235.52142 255.744
220.83368 235.5311 255.744
220.8404 235.5349 255.744
220.83789 235.53348 255.744
220.8323 235.53035 255.744
220.83018 235.52917 255.744
220.81102 235.51842 255.744
220.85486 235.543 255.744
220.82906 235.52852 255.744
220.83583 235.5323 255.744
220.82684 235.5273 255.744
220.83441 235.53154 255.744
220.83977 235.53455 255.744
220.82831 235.52808 255.744
220.82437 235.52588 255.744
220.82747 235.52763 255.744
220.82356 235.5254 255.744
220.8606 235.54623 255.744
220.82106 235.524 255.744
220.8214 235.52422 255.744
220.83728 235.53316 255.744
220.84079 235.53514 255.744
220.8264 235.52702 255.744
220.83936 235.53432 255.744
220.83427 235.53148 255.744
220.84758 235.53896 255.744
220.826 235.52681 255.744
220.81493 235.52055 255.744
220.8231 235.52518 255.744
220.82372 235.52553 255.744
220.81772 235.52213 255.744
220.83507 235.5319 255.744
220.8187 235.52269 255.744
220.82626 235.52695 255.744
220.83336 235.53091 255.744
220.83542 235.53209 255.744
220.8063 235.51569 255.744
220.82574 235.52661 255.744
220.81352 235.51978 255.744
220.8194 235.52312 255.744
220.8153 235.5208 255.744
220.83763 235.53336 255.744
220.81767 235.5221 255.744
220.81267 235.51932 255.744
220.82742 235.5276 255.744
220.80609 235.51561 255.744
220.82849 235.5282 255.744
220.80319 235.51399 255.744
220.83691 235.53294 255.744
220.83762 235.53334 255.744
220.82323 235.52525 255.744
220.8178 235.52222 255.744
220.82967 235.52887 255.744
220.83559 235.53221 255.744
220.8272 235.52748 255.744
220.84393 235.53685 255.744
220.82686 235.5273 255.744
220.83122 235.52972 255.744
220.81075 235.5182 255.744
220.80853 235.51695 255.744
220.81958 235.52318 255.744
220.83107 235.52966 255.744
220.80804 235.51671 255.744
220.82237 235.52475 255.744
220.8227 235.52493 255.744
220.84047 235.53493 255.744
220.82608 235.52686 255.744
220.82513 235.52632 255.744
220.83505 235.53185 255.744
220.81384 235.51994 255.744
220.8472 235.5387 255.744
220.82379 235.5256 255.744
220.82753 235.52765 255.744
220.81824 235.52242 255.744
220.8341 235.53136 255.744
220.80963 235.5176 255.744
220.84807 235.53923 255.744
220.80855 235.51698 255.744
220.86008 235.54597 255.744
220.82832 235.5281 255.744
220.80095 235.51271 255.744
220.82634 235.527 255.744
220.842 235.5358 255.744
220.81102 235.51836 255.744
220.8381 235.53362 255.744
220.81421 235.52014 255.744
220.82133 235.52415 255.744
220.83286 235.53065 255.744
220.81683 235.52164 255.744
220.82587 235.52672 255.744
220.82625 235.52692 255.744
220.81212 235.519 255.744
220.84291 235.53632 255.744
220.84447 235.5372 255.744
220.83513 235.53192 255.744
220.8194 235.52309 255.744
220.83386 235.53122 255.744
220.84003 235.53468 255.744
220.82692 235.5273 255.744
220.83063 235.5294 255.744
220.8136 235.51979 255.744
220.84853 235.53946 255.744
220.84174 235.53564 255.744
220.83897 235.5341 255.744
220.83365 235.53111 255.744
220.85402 235.54253 255.744
220.83592 235.53238 255.744
220.84993 235.54024 255.744
220.82487 235.52618 255.744
220.84286 235.5363 255.744
220.83612 235.53249 255.744
220.83813 235.5336 255.744
220.81615 235.52126 255.744
220.82692 235.52731 255.744
220.8115 235.51865 255.744
220.8096 235.51756 255.744
220.81737 235.52193 255.744
220.84352 235.53664 255.744
220.84708 235.53867 255.744
220.83461 235.53165 255.744
220.82257 235.52486 255.744
220.85486 235.54305 255.744
220.82425 235.52582 255.744
220.82106 235.524 255.744
220.83148 235.5299 255.744
220.8308 235.5295 255.744
220.84822 235.5393 255.744
220.83044 235.52931 255.744
220.84796 235.53915 255.744
220.84247 235.53606 255.744
220.85913 235.54544 255.744
220.81541 235.52084 255.744
220.82814 235.528 255.744
220.84676 235.53848 255.744
220.84164 235.5356 255.744
220.83665 235.53278 255.744
220.82236 235.52477 255.744
220.83096 235.5296 255.744
220.8438 235.53685 255.744
220.83707 235.53304 255.744
220.85698 235.5442 255.744
220.82787 235.52786 255.744
220.82494 235.52621 255.744
220.83614 235.5325 255.744
220.83984 235.53458 255.744
220.84691 235.53856 255.744
220.82362 235.52548 255.744
220.82716 235.52747 255.744
220.83823 235.53368 255.744
220.82297 235.5251 255.744
220.82375 235.52553 255.744
220.82918 235.5286 255.744
220.81705 235.52171 255.744
220.82433 235.52585 255.744
220.81097 235.51836 255.744
220.82285 235.52504 255.744
220.84598 235.53801 255.744
220.80577 235.51541 255.744
220.83585 235.53233 255.744
220.82559 235.52661 255.744
220.82341 235.52534 255.744
220.82787 235.52788 255.744
220.83995 235.53464 255.744
220.8491 235.53978 255.744
220.83646 235.53268 255.744
220.82986 235.52898 255.744
220.83907 235.53415 255.744
220.83713 235.53305 255.744
220.82373 235.5255 255.744
220.83609 235.53249 255.744
220.82352 235.5254 255.744
220.85266 235.54181 255.744
220.84232 235.53596 255.744
220.86314 235.54768 255.744
220.82768 235.52774 255.744
220.84676 235.53845 255.744
220.82887 235.5284 255.744
220.83345 235.53098 255.744
220.83057 235.52934 255.744
220.83524 235.532 255.744
220.82866 235.52834 255.744
220.8461 235.53809 255.744
220.83179 235.53006 255.744
220.82431 235.52586 255.744
220.84908 235.53978 255.744
220.84673 235.53847 255.744
220.84822 235.5393 255.744
220.84714 235.5387 255.744
220.83119 235.52971 255.744
220.84746 235.53886 255.744
220.83302 235.53075 255.744
220.8379 235.53352 255.744
220.85034 235.54048 255.744
220.83595 235.53242 255.744
220.81873 235.5227 255.744
220.84308 235.53638 255.744
220.848 235.53918 255.744
220.84178 235.53568 255.744
220.84294 235.53632 255.744
220.86473 235.5486 255.744
220.84338 235.53656 255.744
220.82707 235.52739 255.744
220.8354 235.5321 255.744
220.82597 235.52681 255.744
220.83044 235.52931 255.744
220.83539 235.53209 255.744
220.83902 235.5341 255.744
220.8368 235.53291 255.744
220.83481 235.53178 255.744
220.8239 235.5256 255.744
220.83551 235.53214 255.744
220.83995 235.53464 255.744
220.85353 235.54228 255.744
220.82625 235.52695 255.744
220.85374 235.5424 255.744
220.83107 235.52966 255.744
220.84915 235.53983 255.744
220.83461 235.53163 255.744
220.82814 235.52798 255.744
220.8475 235.53888 255.744
220.83313 235.53082 255.744
220.83836 235.53375 255.744
220.84035 235.53488 255.744
220.84271 235.5362 255.744
220.83743 235.53322 255.744
220.8455 235.5378 255.744
220.84436 235.53712 255.744
220.8332 235.53084 255.744
220.84975 235.54013 255.744
220.83817 235.53363 255.744
220.84558 235.53783 255.744
220.84471 235.53732 255.744
220.83832 235.53372 255.744
220.85555 235.5434 255.744
220.85147 235.54115 255.744
220.84218 235.53589 255.744
220.83337 235.53093 255.744
220.85701 235.54427 255.744
220.8517 235.54124 255.744
220.84041 235.53491 255.744
220.84819 235.53926 255.744
220.83331 235.53091 255.744
220.83742 235.53317 255.744
220.85277 235.54189 255.744
220.83856 235.53386 255.744
220.83383 235.5312 255.744
220.85596 235.54366 255.744
220.82332 235.5253 255.744
220.84825 235.5393 255.744
220.85614 235.54376 255.744
220.84239 235.53606 255.744
220.85248 235.54172 255.744
220.83908 235.53413 255.744
220.85156 235.54117 255.744
220.85172 235.54128 255.744
220.85793 235.54475 255.744
220.8422 235.53589 255.744
220.86024 235.54608 255.744
220.8632 235.54774 255.744
220.84523 235.53761 255.744
220.83092 235.52959 255.744
220.8491 235.5398 255.744
220.86191 235.547 255.744
220.84222 235.53592 255.744
220.86502 235.54875 255.744
220.83813 235.53363 255.744
220.86081 235.54639 255.744
220.84373 235.53677 255.744
220.83229 235.53036 255.744
220.83484 235.5318 255.744
220.83098 235.5296 255.744
220.83464 235.53165 255.744
220.85187 235.54134 255.744
220.84273 235.5362 255.744
220.84978 235.54019 255.744
220.85974 235.54579 255.744
220.85793 235.54478 255.744
220.83195 235.53012 255.744
220.842 235.5358 255.744
220.84448 235.5372 255.744
220.86113 235.54657 255.744
220.85347 235.54227 255.744
220.85747 235.54451 255.744
220.87085 235.55205 255.744
220.8535 235.54224 255.744
220.84142 235.53545 255.744
220.85672 235.5441 255.744
220.84616 235.53813 255.744
220.85172 235.54128 255.744
220.82991 235.52898 255.744
220.83884 235.534 255.744
220.84216 235.53589 255.744
220.85468 235.54291 255.744
220.85794 235.54477 255.744
220.86728 235.55003 255.744
220.85178 235.54128 255.744
220.84456 235.53723 255.744
220.83871 235.53397 255.744
220.86607 235.54935 255.744
220.85193 235.54138 255.744
220.85315 235.5421 255.744
220.85204 235.54146 255.744
220.82973 235.5289 255.744
220.86415 235.54826 255.744
220.85155 235.54115 255.744
220.84549 235.53777 255.744
220.84563 235.53783 255.744
220.85645 235.54393 255.744
220.8672 235.55 255.744
220.86836 235.55063 255.744
220.86919 235.55107 255.744
220.8483 235.53934 255.744
220.856 235.54366 255.744
220.86063 235.54623 255.744
220.84927 235.53989 255.744
220.85762 235.54457 255.744
220.86641 235.54953 255.744
220.856 235.54369 255.744
220.85641 235.5439 255.744
220.84628 235.53821 255.744
220.85452 235.54285 255.744
220.86917 235.55109 255.744
220.84665 235.5384 255.744
220.85861 235.54515 255.744
220.85446 235.54283 255.744
220.90305 235.57014 255.744
220.87898 235.55656 255.744
220.89598 235.56616 255.744
220.89644 235.56644 255.744
220.88435 235.55965 255.744
220.88747 235.56137 255.744
220.89922 235.56801 255.744
220.8891 235.56232 255.744
220.88763 235.56148 255.744
220.88077 235.5576 255.744
220.90236 235.56976 255.744
220.88922 235.56236 255.744
220.86671 235.54968 255.744
220.87468 235.55418 255.744
220.8623 235.54723 255.744
220.89287 235.56442 255.744
220.88213 235.55836 255.744
220.87575 235.55476 255.744
220.87776 235.55595 255.744
220.88477 235.55983 255.744
220.86415 235.54828 255.744
220.89722 235.56686 255.744
220.8669 235.54977 255.744
220.8916 235.56367 255.744
220.88011 235.55722 255.744
220.88785 235.5616 255.744
220.90044 235.56873 255.744
220.90393 235.57065 255.744
220.88432 235.55962 255.744
220.88715 235.56117 255.744
220.88046 235.55743 255.744
220.8755 235.55464 255.744
220.88164 235.55809 255.744
220.86668 235.54971 255.744
220.87877 235.55649 255.744
220.87973 235.557 255.744
220.8836 235.5592 255.744
220.88904 235.56227 255.744
220.8737 235.55359 255.744
220.90256 235.56984 255.744
220.8741 235.55386 255.744
220.88293 235.5588 255.744
220.89388 235.56496 255.744
220.88124 235.55788 255.744
220.85156 235.54117 255.744
220.88521 235.56012 255.744
220.90094 235.56897 255.744
220.87007 235.55157 255.744
220.8803 235.55736 255.744
220.87537 235.55457 255.744
220.87444 235.55405 255.744
220.87215 235.55276 255.744
220.89003 235.56285 255.744
220.87521 235.5545 255.744
220.86954 235.55128 255.744
220.88057 235.5575 255.744
220.88474 235.55984 255.744
220.888 235.56168 255.744
220.86905 235.551 255.744
220.88182 235.55823 255.744
220.87662 235.55525 255.744
220.8821 235.55835 255.744
220.88126 235.55789 255.744
220.88759 235.56143 255.744
220.8728 235.55312 255.744
220.87152 235.55241 255.744
220.88774 235.56154 255.744
220.86534 235.54892 255.744
220.89438 235.56528 255.744
220.88158 235.55804 255.744
220.88326 235.559 255.744
220.87848 235.5563 255.744
220.87428 235.55396 255.744
220.8787 235.55643 255.744
220.86662 235.54967 255.744
220.87119 235.55222 255.744
220.88004 235.55719 255.744
220.86934 235.55116 255.744
220.87837 235.55624 255.744
220.86464 235.54854 255.744
220.87729 235.55565 255.744
220.87953 235.55692 255.744
220.8887 235.56207 255.744
220.86937 235.55121 255.744
220.87643 235.55516 255.744
220.87943 235.55685 255.744
220.87645 235.55518 255.744
220.88011 235.55724 255.744
220.88147 235.55801 255.744
220.87164 235.55246 255.744
220.88385 235.55933 255.744
220.8652 235.54883 255.744
220.87257 235.55302 255.744
220.85002 235.5403 255.744
220.86174 235.5469 255.744
220.8622 235.54713 255.744
220.8683 235.5506 255.744
220.87837 235.55624 255.744
220.88374 235.55928 255.744
220.87549 235.55464 255.744
220.87276 235.55312 255.744
220.90227 235.56969 255.744
220.88774 235.56151 255.744
220.87001 235.55157 255.744
220.8911 235.56345 255.744
220.87633 235.55508 255.744
220.90091 235.56895 255.744
220.87933 235.55681 255.744
220.87177 235.55252 255.744
220.8734 235.55345 255.744
220.87503 235.5544 255.744
220.87016 235.55164 255.744
220.8638 235.54803 255.744
220.86163 235.54683 255.744
220.86649 235.54958 255.744
220.86691 235.5498 255.744
220.86475 235.54858 255.744
220.87515 235.55444 255.744
220.89532 235.56578 255.744
220.85889 235.54532 255.744
220.86078 235.54636 255.744
220.85423 235.54268 255.744
220.8536 235.54231 255.744
220.86493 235.5487 255.744
220.85184 235.54132 255.744
220.85722 235.54437 255.744
220.88164 235.55807 255.744
220.84985 235.5402 255.744
220.87215 235.55278 255.744
220.86221 235.54716 255.744
220.87524 235.55447 255.744
220.86264 235.54744 255.744
220.86324 235.54776 255.744
220.86514 235.54883 255.744
220.8727 235.55305 255.744
220.88336 235.55907 255.744
220.86424 235.54832 255.744
220.8707 235.55196 255.744
220.86462 235.54852 255.744
220.8801 235.55724 255.744
220.87097 235.55211 255.744
220.85052 235.5406 255.744
220.87035 235.55174 255.744
220.86446 235.54842 255.744
220.85378 235.54242 255.744
220.8671 235.5499 255.744
220.86852 235.5507 255.744
220.88464 235.55981 255.744
220.87192 235.55264 255.744
220.8781 235.5561 255.744
220.87811 235.5561 255.744
220.86423 235.5483 255.744
220.87119 235.55222 255.744
220.85135 235.54105 255.744
220.86577 235.54916 255.744
220.86078 235.54639 255.744
220.85173 235.54126 255.744
220.87764 235.55583 255.744
220.85915 235.54543 255.744
220.87978 235.55707 255.744
220.85962 235.5457 255.744
220.86052 235.54622 255.744
220.8446 235.53728 255.744
220.8769 235.55545 255.744
220.86018 235.546 255.744
220.85858 235.54514 255.744
220.87894 235.5566 255.744
220.8738 235.55365 255.744
220.86172 235.5469 255.744
220.86359 235.54796 255.744
220.87386 235.55373 255.744
220.86087 235.54642 255.744
220.88289 235.55879 255.744
220.86397 235.54816 255.744
220.86815 235.5505 255.744
220.86336 235.54782 255.744
220.8652 235.54883 255.744
220.87245 235.55293 255.744
220.85547 235.5434 255.744
220.86917 235.55109 255.744
220.8602 235.54604 255.744
220.87152 235.5524 255.744
220.85452 235.54283 255.744
220.85477 235.54298 255.744
220.87764 235.5558 255.744
220.86156 235.54678 255.744
220.85417 235.54262 255.744
220.8648 235.54863 255.744
220.8611 235.54654 255.744
220.86357 235.54796 255.744
220.86685 235.54977 255.744
220.86946 235.55124 255.744
220.86426 235.54832 255.744
220.89337 235.56474 255.744
220.87308 235.5533 255.744
220.85843 235.54503 255.744
220.86804 235.55045 255.744
220.8656 235.54906 255.744
220.87033 235.55176 255.744
220.86069 235.54631 255.744
220.86143 235.54672 255.744
220.87831 235.55621 255.744
220.86906 235.551 255.744
220.89299 235.56448 255.744
220.87881 235.55652 255.744
220.88556 235.56032 255.744
220.87334 235.55347 255.744
220.86993 235.55153 255.744
220.87254 235.55296 255.744
220.8752 235.55447 255.744
220.87207 235.55272 255.744
220.85751 235.5445 255.744
220.86142 235.54675 255.744
220.86703 235.5499 255.744
220.87715 235.55559 255.744
220.8608 235.54639 255.744
220.86922 235.55109 255.744
220.8562 235.5438 255.744
220.84622 235.53816 255.744
220.86584 235.54924 255.744
220.86203 235.54707 255.744
220.86385 235.5481 255.744
220.86232 235.54723 255.744
220.8738 235.55368 255.744
220.8687 235.55083 255.744
220.86356 235.54793 255.744
220.84648 235.53835 255.744
220.84738 235.53883 255.744
220.8626 235.5474 255.744
220.87607 235.55498 255.744
220.84375 235.53679 255.744
220.86476 235.54861 255.744
220.85869 235.54517 255.744
220.84433 235.53708 255.744
220.8497 235.5401 255.744
220.87558 235.55467 255.744
220.86076 235.54636 255.744
220.83748 235.53325 255.744
220.84637 235.53828 255.744
220.8654 235.54897 255.744
220.88446 235.55971 255.744
220.8374 235.53322 255.744
220.85986 235.54587 255.744
220.86813 235.5505 255.744
220.86009 235.54599 255.744
220.87006 235.55154 255.744
220.85532 235.54329 255.744
220.84825 235.53934 255.744
220.86124 235.54662 255.744
220.84868 235.53954 255.744
220.84709 235.53868 255.744
220.8519 235.5414 255.744
220.84897 235.53972 255.744
220.86719 235.54997 255.744
220.86623 235.54945 255.744
220.8753 235.55452 255.744
220.87418 235.5539 255.744
220.85115 235.54094 255.744
220.87018 235.55165 255.744
220.87491 235.55434 255.744
220.85542 235.54337 255.744
220.85695 235.5442 255.744
220.85811 235.54488 255.744
220.84763 235.53897 255.744
220.85347 235.54227 255.744
220.8383 235.53372 255.744
220.85585 235.54358 255.744
220.85306 235.54202 255.744
220.85556 235.54343 255.744
220.86087 235.54642 255.744
220.85803 235.5448 255.744
220.87317 235.55331 255.744
220.87494 235.55435 255.744
220.85342 235.54224 255.744
220.86842 235.55066 255.744
220.83832 235.53374 255.744
220.86728 235.55002 255.744
220.88722 235.56126 255.744
220.85506 235.54315 255.744
220.85667 235.54405 255.744
220.8562 235.54378 255.744
220.87184 235.55258 255.744
220.85692 235.5442 255.744
220.87425 235.55394 255.744
220.88358 235.55919 255.744
220.8608 235.54636 255.744
220.85144 235.54109 255.744
220.86223 235.5472 255.744
220.86302 235.54764 255.744
220.85756 235.54456 255.744
220.87764 235.55583 255.744
220.85776 235.54466 255.744
220.8585 235.5451 255.744
220.8602 235.54602 255.744
220.8548 235.543 255.744
220.86353 235.54788 255.744
220.87128 235.55226 255.744
220.85413 235.54262 255.744
220.85066 235.54065 255.744
220.86208 235.54707 255.744
220.8644 235.54839 255.744
220.87929 235.55681 255.744
220.88281 235.55878 255.744
220.857 235.54424 255.744
220.85678 235.5441 255.744
220.85503 235.54315 255.744
220.85306 235.542 255.744
220.87842 235.5563 255.744
220.87341 235.55347 255.744
220.85788 235.54472 255.744
220.86177 235.54692 255.744
220.86801 235.55043 255.744
220.87556 235.55467 255.744
220.85527 235.54327 255.744
220.88005 235.5572 255.744
220.86858 235.55077 255.744
220.86041 235.54619 255.744
220.85272 235.54182 255.744
220.86214 235.54715 255.744
220.86757 235.55016 255.744
220.87105 235.55212 255.744
220.84625 235.53818 255.744
220.86606 235.54933 255.744
220.86642 235.54955 255.744
220.869 235.551 255.744
220.88226 235.55844 255.744
220.87285 235.55312 255.744
220.86998 235.55157 255.744
220.85541 235.54333 255.744
220.86421 235.54828 255.744
220.8714 235.55232 255.744
220.85347 235.54225 255.744
220.86302 235.54764 255.744
220.85278 235.54189 255.744
220.8595 235.54564 255.744
220.85786 235.54471 255.744
220.87405 235.55382 255.744
220.8598 235.5458 255.744
220.85905 235.54538 255.744
220.86095 235.54646 255.744
220.84679 235.53848 255.744
220.85512 235.54318 255.744
220.86885 235.5509 255.744
220.85753 235.54457 255.744
220.8716 235.55246 255.744
220.84348 235.53664 255.744
220.86528 235.54887 255.744
220.85776 235.54468 255.744
220.86266 235.54744 255.744
220.85974 235.54576 255.744
220.86346 235.5479 255.744
220.8486 235.53952 255.744
220.87656 235.55525 255.744
220.86314 235.54773 255.744
220.85802 235.54478 255.744
220.86801 235.55043 255.744
220.85979 235.5458 255.744
220.87122 235.55222 255.744
220.86229 235.54723 255.744
220.87106 235.55215 255.744
220.86119 235.54657 255.744
220.86273 235.54745 255.744
220.8732 235.55336 255.744
220.85266 235.54181 255.744
220.84106 235.53528 255.744
220.84277 235.53621 255.744
220.87012 235.55159 255.744
220.86304 235.54762 255.744
220.87813 235.55614 255.744
220.85742 235.54446 255.744
220.86713 235.54993 255.744
220.86467 235.54854 255.744
220.86469 235.54858 255.744
220.8653 235.54889 255.744
220.86797 235.5504 255.744
220.85822 235.54492 255.744
220.86995 235.55148 255.744
220.85309 235.54204 255.744
220.88435 235.55962 255.744
220.86514 235.54881 255.744
220.85387 235.54248 255.744
220.86447 235.54843 255.744
220.85107 235.54092 255.744
220.85739 235.54446 255.744
220.87897 235.55658 255.744
220.86664 235.54967 255.744
220.87506 235.5544 255.744
220.85757 235.54459 255.744
220.88327 235.55904 255.744
220.87755 235.55577 255.744
220.85103 235.54086 255.744
220.86835 235.55061 255.744
220.84541 235.53769 255.744
220.85596 235.54364 255.744
220.85132 235.54103 255.744
220.8805 235.55748 255.744
220.85071 235.54066 255.744
220.86436 235.54836 255.744
220.86479 235.54863 255.744
220.84499 235.53749 255.744
220.8479 235.53911 255.744
220.87743 235.55574 255.744
220.8507 235.54073 255.744
220.86642 235.54953 255.744
220.8877 235.56152 255.744
220.85736 235.54443 255.744
220.86342 235.54787 255.744
220.86992 235.55153 255.744
220.8489 235.53972 255.744
220.86742 235.55006 255.744
220.85968 235.54572 255.744
220.86113 235.54657 255.744
220.86885 235.55092 255.744
220.86124 235.54662 255.744
220.8636 235.54793 255.744
220.85208 235.54147 255.744
220.8687 235.55081 255.744
220.85924 235.54547 255.744
220.8541 235.5426 255.744
220.86487 235.54869 255.744
220.84825 235.53932 255.744
220.86586 235.54924 255.744
220.86536 235.54895 255.744
220.86853 235.55072 255.744
220.87373 235.55367 255.744
220.8744 235.55403 255.744
220.84737 235.5388 255.744
220.87259 235.55304 255.744
220.88876 235.56209 255.744
220.86807 235.55048 255.744
220.87427 235.55396 255.744
220.8791 235.55666 255.744
220.86351 235.54791 255.744
220.86931 235.55118 255.744
220.85808 235.54486 255.744
220.87288 235.55315 255.744
220.86284 235.54755 255.744
220.87686 235.55542 255.744
220.87206 235.55272 255.744
220.86516 235.54883 255.744
220.8585 235.54509 255.744
220.87904 235.55664 255.744
220.88057 235.55751 255.744
220.86096 235.54648 255.744
220.87508 235.55441 255.744
220.87686 235.55542 255.744
220.8534 235.5422 255.744
220.86676 235.54976 255.744
220.87537 235.55458 255.744
220.8513 235.54102 255.744
220.88287 235.5588 255.744
220.86186 235.54697 255.744
220.87358 235.55354 255.744
220.85057 235.54062 255.744
220.87753 235.55577 255.744
220.86984 235.55145 255.744
220.87233 235.55284 255.744
220.87605 235.55496 255.744
220.84727 235.53876 255.744
220.86757 235.55016 255.744
220.85545 235.54337 255.744
220.86806 235.55048 255.744
220.86992 235.5515 255.744
220.85455 235.54286 255.744
220.86375 235.54803 255.744
220.87245 235.55295 255.744
220.8788 235.5565 255.744
220.87364 235.5536 255.744
220.87485 235.55428 255.744
220.8823 235.55847 255.744
220.85577 235.54355 255.744
220.8906 235.56316 255.744
220.86299 235.5476 255.744
220.87718 235.5556 255.744
220.87515 235.55444 255.744
220.86774 235.5503 255.744
220.8759 235.55487 255.744
220.87437 235.55402 255.744
220.87173 235.5525 255.744
220.86052 235.5462 255.744
220.88364 235.55923 255.744
220.86954 235.55128 255.744
220.85837 235.54501 255.744
220.88518 235.56007 255.744
220.8857 235.56038 255.744
220.86684 235.54976 255.744
220.86484 235.54868 255.744
220.8747 235.55418 255.744
220.88736 235.56131 255.744
220.86568 235.54912 255.744
220.87303 235.55325 255.744
220.88898 235.56226 255.744
220.85468 235.54295 255.744
220.8733 235.55344 255.744
220.8738 235.5537 255.744
220.8573 235.54442 255.744
220.87262 235.55301 255.744
220.88661 235.56091 255.744
220.87483 235.55426 255.744
220.88992 235.56276 255.744
220.89969 235.56824 255.744
220.86525 235.54887 255.744
220.89229 235.56409 255.744
220.88618 235.56065 255.744
220.8691 235.55106 255.744
220.88408 235.5595 255.744
220.88269 235.5587 255.744
220.85753 235.54454 255.744
220.87276 235.55312 255.744
220.87785 235.55597 255.744
220.87549 235.55464 255.744
220.892 235.56393 255.744
220.8669 235.54984 255.744
220.87187 235.55261 255.744
220.88795 235.56165 255.744
220.85785 235.54472 255.744
220.85997 235.5459 255.744
220.87224 235.55278 255.744
220.87889 235.55653 255.744
220.90657 235.57211 255.744
220.87509 235.55443 255.744
220.86867 235.55081 255.744
220.86398 235.54816 255.744
220.87054 235.55185 255.744
220.87833 235.55623 255.744
220.86795 235.55038 255.744
220.86884 235.5509 255.744
220.89294 235.56445 255.744
220.88126 235.55788 255.744
220.86493 235.5487 255.744
220.86795 235.5504 255.744
220.8828 235.55876 255.744
220.88615 235.56065 255.744
220.88315 235.55893 255.744
220.87183 235.55258 255.744
220.86954 235.5513 255.744
220.87392 235.55374 255.744
220.86649 235.54958 255.744
220.86752 235.55013 255.744
220.8827 235.5587 255.744
220.87466 235.55417 255.744
220.88399 235.55942 255.744
220.8753 235.55453 255.744
220.90239 235.5698 255.744
220.87692 235.55545 255.744
220.89612 235.56625 255.744
220.87225 235.5528 255.744
220.89792 235.56726 255.744
220.87839 235.55626 255.744
220.8891 235.56227 255.744
220.88121 235.55785 255.744
220.87463 235.55415 255.744
220.88806 235.56174 255.744
220.8887 235.56209 255.744
220.88954 235.56258 255.744
220.87866 235.55643 255.744
220.87918 235.5567 255.744
220.87164 235.55246 255.744
220.90273 235.56996 255.744
220.88948 235.56252 255.744
220.86859 235.55078 255.744
220.8811 235.5578 255.744
220.89023 235.56293 255.744
220.87769 235.55588 255.744
220.88948 235.56252 255.744
220.89554 235.56593 255.744
220.8792 235.55672 255.744
220.9117 235.57501 255.744
220.88065 235.55754 255.744
220.87619 235.55502 255.744
220.87346 235.55351 255.744
220.88388 235.55936 255.744
220.86726 235.55002 255.744
220.90498 235.57123 255.744
220.88579 235.56041 255.744
220.88805 235.56172 255.744
220.87912 235.55666 255.744
220.8782 235.55617 255.744
220.88492 235.55989 255.744
220.88565 235.56035 255.744
220.87308 235.55328 255.744
220.87148 235.5524 255.744
220.88882 235.56212 255.744
220.8808 235.55763 255.744
220.90176 235.56944 255.744
220.88835 235.56187 255.744
220.89421 235.56516 255.744
220.88681 235.56102 255.744
220.89063 235.56314 255.744
220.88817 235.56177 255.744
220.88983 235.56274 255.744
220.88931 235.56241 255.744
220.88249 235.5586 255.744
220.88982 235.56268 255.744
220.88663 235.5609 255.744
220.88007 235.5572 255.744
220.90108 235.56903 255.744
220.87451 235.55412 255.744
220.89444 235.56532 255.744
220.87987 235.5571 255.744
220.91418 235.5764 255.744
220.91301 235.57574 255.744
220.92685 235.58357 255.744
220.92879 235.58463 255.744
220.91266 235.57556 255.744
220.90833 235.57312 255.744
220.93497 235.58812 255.744
220.91628 235.57758 255.744
220.92683 235.58356 255.744
220.91565 235.57726 255.744
220.92712 235.58368 255.744
220.91539 235.57709 255.744
220.90607 235.57182 255.744
220.90346 235.57037 255.744
220.9066 235.57214 255.744
220.8991 235.56793 255.744
220.91293 235.57567 255.744
220.9195 235.57939 255.744
220.9209 235.58018 255.744
220.92517 235.5826 255.744
220.89824 235.56746 255.744
220.9123 235.57533 255.744
220.9464 235.59454 255.744
220.93321 235.58716 255.744
220.90825 235.57307 255.744
220.92404 235.58195 255.744
220.92648 235.58333 255.744
220.92726 235.58377 255.744
220.90195 235.56952 255.744
220.925 235.58249 255.744
220.92195 235.58078 255.744
220.90784 235.57285 255.744
220.90848 235.57318 255.744
220.9153 235.57704 255.744
220.91342 235.57597 255.744
220.92017 235.57977 255.744
220.92561 235.58286 255.744
220.89174 235.56378 255.744
220.89462 235.56544 255.744
220.91917 235.57924 255.744
220.90648 235.57207 255.744
220.93819 235.58992 255.744
220.92177 235.58067 255.744
220.91515 235.57697 255.744
220.91496 235.57684 255.744
220.91142 235.57487 255.744
220.91331 235.57593 255.744
220.91353 235.57605 255.744
220.9049 235.57118 255.744
220.90375 235.57054 255.744
220.91856 235.57887 255.744
220.91849 235.57881 255.744
220.90906 235.57355 255.744
220.91324 235.57587 255.744
220.91518 235.57697 255.744
220.92131 235.5804 255.744
220.89172 235.56378 255.744
220.93109 235.5859 255.744
220.91335 235.57594 255.744
220.91048 235.57436 255.744
220.89876 235.56772 255.744
220.9315 235.58617 255.744
220.8926 235.56427 255.744
220.90393 235.57063 255.744
220.92741 235.58388 255.744
220.91493 235.57686 255.744
220.92145 235.58052 255.744
220.91808 235.57863 255.744
220.90305 235.57016 255.744
220.90428 235.57086 255.744
220.9342 235.58766 255.744
220.91002 235.57404 255.744
220.91599 235.57745 255.744
220.91747 235.57823 255.744
220.926 235.58307 255.744
220.92326 235.58154 255.744
220.91185 235.57507 255.744
220.9049 235.57121 255.744
220.90341 235.57036 255.744
220.9089 235.57343 255.744
220.91121 235.57475 255.744
220.9029 235.57004 255.744
220.91139 235.57484 255.744
220.91107 235.57468 255.744
220.89978 235.56828 255.744
220.92207 235.58084 255.744
220.90202 235.56955 255.744
220.9018 235.56949 255.744
220.91905 235.57912 255.744
220.90645 235.57205 255.744
220.90172 235.56943 255.744
220.91159 235.57494 255.744
220.88977 235.56268 255.744
220.89711 235.56679 255.744
220.92711 235.58371 255.744
220.90915 235.57355 255.744
220.92883 235.58467 255.744
220.89255 235.56427 255.744
220.91609 235.57748 255.744
220.90591 235.5718 255.744
220.91052 235.57436 255.744
220.91057 235.57437 255.744
220.91203 235.57518 255.744
220.90489 235.57117 255.744
220.92545 235.58275 255.744
220.9038 235.57056 255.744
220.90114 235.56908 255.744
220.90446 235.57097 255.744
220.91818 235.57863 255.744
220.9108 235.57451 255.744
220.90245 235.5698 255.744
220.91476 235.57672 255.744
220.89859 235.56763 255.744
220.88412 235.55951 255.744
220.91466 235.57668 255.744
220.91626 235.57756 255.744
220.90306 235.57014 255.744
220.90419 235.57082 255.744
220.90036 235.56863 255.744
220.89261 235.56429 255.744
220.89864 235.56767 255.744
220.9265 235.58333 255.744
220.90936 235.57365 255.744
220.90428 235.57082 255.744
220.90729 235.57253 255.744
220.89722 235.56685 255.744
220.89827 235.56743 255.744
220.9019 235.5695 255.744
220.90286 235.57004 255.744
220.89609 235.56624 255.744
220.91058 235.57439 255.744
220.86934 235.55118 255.744
220.9009 235.56895 255.744
220.91417 235.5764 255.744
220.90385 235.57059 255.744
220.91158 235.57495 255.744
220.91705 235.57803 255.744
220.8806 235.55751 255.744
220.89648 235.56645 255.744
220.91501 235.57689 255.744
220.87842 235.55627 255.744
220.90877 235.57336 255.744
220.8931 235.56454 255.744
220.89053 235.56311 255.744
220.87964 235.55696 255.744
220.8989 235.5678 255.744
220.89452 235.56534 255.744
220.8836 235.55923 255.744
220.90561 235.57158 255.744
220.90704 235.57237 255.744
220.89314 235.56458 255.744
220.89484 235.56552 255.744
220.90186 235.56949 255.744
220.91296 235.57568 255.744
220.8955 235.5659 255.744
220.90135 235.5692 255.744
220.8837 235.55923 255.744
220.89253 235.56421 255.744
220.8952 235.56572 255.744
220.89381 235.56493 255.744
220.90842 235.57318 255.744
220.90945 235.57373 255.744
220.91307 235.57576 255.744
220.92735 235.58383 255.744
220.91222 235.57529 255.744
220.89159 235.5637 255.744
220.8881 235.56172 255.744
220.90784 235.57281 255.744
220.89204 235.56393 255.744
220.87903 235.55661 255.744
220.89362 235.56483 255.744
220.89677 235.56662 255.744
220.89142 235.56363 255.744
220.89702 235.56677 255.744
220.90341 235.57033 255.744
220.88077 235.55762 255.744
220.9051 235.5713 255.744
220.88641 235.56079 255.744
220.9023 235.56975 255.744
220.89778 235.56718 255.744
220.93242 235.58665 255.744
220.90218 235.56966 255.744
220.92772 235.58403 255.744
220.90678 235.57224 255.744
220.89551 235.56589 255.744
220.91139 235.57486 255.744
220.89967 235.56825 255.744
220.88353 235.55916 255.744
220.89099 235.56337 255.744
220.9 235.56844 255.744
220.9117 235.57501 255.744
220.8848 235.55986 255.744
220.89455 235.56538 255.744
220.9199 235.57962 255.744
220.90587 235.57172 255.744
220.88487 235.55989 255.744
220.8896 235.56259 255.744
220.9022 235.56966 255.744
220.90318 235.5702 255.744
220.90004 235.56848 255.744
220.90118 235.5691 255.744
220.90341 235.57036 255.744
220.8939 235.56499 255.744
220.88896 235.56221 255.744
220.89171 235.56372 255.744
220.90323 235.57025 255.744
220.88655 235.56084 255.744
220.89243 235.56418 255.744
220.89967 235.56827 255.744
220.9048 235.5711 255.744
220.91286 235.57567 255.744
220.89848 235.56755 255.744
220.88109 235.55779 255.744
220.89674 235.5666 255.744
220.91972 235.57954 255.744
220.89479 235.56549 255.744
220.9079 235.57289 255.744
220.90944 235.57373 255.744
220.8803 235.55734 255.744
220.88397 235.5594 255.744
220.90997 235.57404 255.744
220.91336 235.57596 255.744
220.91145 235.5749 255.744
220.8929 235.56444 255.744
220.87654 235.55525 255.744
220.8869 235.56105 255.744
220.90799 235.57295 255.744
220.91257 235.57549 255.744
220.88945 235.56252 255.744
220.8998 235.56831 255.744
220.89337 235.56471 255.744
220.8915 235.56366 255.744
220.90817 235.57303 255.744
220.88393 235.5594 255.744
220.8978 235.56718 255.744
220.88083 235.55765 255.744
220.89668 235.56656 255.744
220.90666 235.5722 255.744
220.87003 235.55156 255.744
220.88914 235.56233 255.744
220.88486 235.55989 255.744
220.89735 235.56691 255.744
220.89417 235.56516 255.744
220.89117 235.56346 255.744
220.89426 235.5652 255.744
220.91966 235.57948 255.744
220.8981 235.56737 255.744
220.8877 235.56148 255.744
220.89496 235.56563 255.744
220.88219 235.55841 255.744
220.89227 235.5641 255.744
220.89767 235.56711 255.744
220.89598 235.56616 255.744
220.88869 235.56209 255.744
220.90157 235.56932 255.744
220.89478 235.5655 255.744
220.90207 235.5696 255.744
220.90353 235.57045 255.744
220.8872 235.56122 255.744
220.88455 235.55975 255.744
220.88663 235.56088 255.744
220.90117 235.5691 255.744
220.90671 235.57222 255.744
220.8967 235.56657 255.744
220.88747 235.56139 255.744
220.87032 235.55174 255.744
220.8736 235.55359 255.744
220.89282 235.56439 255.744
220.88371 235.55927 255.744
220.89026 235.56294 255.744
220.89743 235.56696 255.744
220.88364 235.55923 255.744
220.88766 235.56151 255.744
220.89215 235.56401 255.744
220.89952 235.56818 255.744
220.91063 235.5744 255.744
220.89757 235.56708 255.744
220.89879 235.56772 255.744
220.89713 235.56679 255.744
220.89175 235.56381 255.744
220.88725 235.56128 255.744
220.88844 235.5619 255.744
220.8893 235.56242 255.744
220.895 235.56563 255.744
220.87656 235.55525 255.744
220.89116 235.56345 255.744
220.89427 235.56523 255.744
220.89206 235.56396 255.744
220.88298 235.55885 255.744
220.89926 235.56802 255.744
220.89615 235.56627 255.744
220.89348 235.5648 255.744
220.87495 235.55435 255.744
220.90558 235.57156 255.744
220.8878 235.56155 255.744
220.88293 235.55884 255.744
220.9078 235.57285 255.744
220.89722 235.56686 255.744
220.89363 235.56487 255.744
220.8801 235.55722 255.744
220.89525 235.56578 255.744
220.8924 235.56413 255.744
220.89783 235.56721 255.744
220.8816 235.55807 255.744
220.9038 235.57059 255.744
220.90312 235.57018 255.744
220.89351 235.56477 255.744
220.88408 235.5595 255.744
220.88252 235.55858 255.744
220.89418 235.56519 255.744
220.89839 235.56754 255.744
220.89981 235.5683 255.744
220.89706 235.56682 255.744
220.89566 235.56601 255.744
220.87201 235.55272 255.744
220.89868 235.56769 255.744
220.87701 235.5555 255.744
220.8976 235.5671 255.744
220.86151 235.54677 255.744
220.89044 235.56303 255.744
220.88626 235.5607 255.744
220.88399 235.55942 255.744
220.89952 235.56816 255.744
220.88264 235.55865 255.744
220.89076 235.56322 255.744
220.88799 235.56168 255.744
220.89526 235.56578 255.744
220.89975 235.56828 255.744
220.87976 235.55702 255.744
220.89952 235.56816 255.744
220.90244 235.56981 255.744
220.90408 235.57074 255.744
220.8984 235.56754 255.744
220.88275 235.5587 255.744
220.89995 235.56839 255.744
220.89322 235.5646 255.744
220.90666 235.57219 255.744
220.89856 235.56763 255.744
220.89703 235.56676 255.744
220.87865 235.5564 255.744
220.88942 235.5625 255.744
220.88695 235.56108 255.744
220.87491 235.5543 255.744
220.88297 235.55884 255.744
220.90009 235.56847 255.744
220.89394 235.56503 255.744
220.90057 235.56877 255.744
220.88634 235.56075 255.744
220.90091 235.56892 255.744
220.89789 235.56723 255.744
220.88965 235.56264 255.744
220.89262 235.56429 255.744
220.91284 235.57565 255.744
220.88788 235.56161 255.744
220.88419 235.55951 255.744
220.89282 235.56438 255.744
220.89682 235.56665 255.744
220.90549 235.57152 255.744
220.88188 235.55827 255.744
220.89464 235.56541 255.744
220.90297 235.57011 255.744
220.89014 235.5629 255.744
220.8985 235.56761 255.744
220.8671 235.54991 255.744
220.87704 235.55551 255.744
220.89397 235.56503 255.744
220.88701 235.56111 255.744
220.87508 235.5544 255.744
220.891 235.56337 255.744
220.8776 235.55582 255.744
220.88393 235.55937 255.744
220.8964 235.56638 255.744
220.8966 235.56648 255.744
220.88884 235.56215 255.744
220.88861 235.56203 255.744
220.91965 235.57948 255.744
220.90642 235.57204 255.744
220.89262 235.56429 255.744
220.89828 235.56744 255.744
220.88963 235.56262 255.744
220.8912 235.56349 255.744
220.88406 235.55948 255.744
220.88503 235.56001 255.744
220.88142 235.55798 255.744
220.91771 235.57841 255.744
220.91054 235.57434 255.744
220.91283 235.57565 255.744
220.88576 235.56042 255.744
220.91162 235.57498 255.744
220.89662 235.56653 255.744
220.90396 235.57066 255.744
220.8962 235.56628 255.744
220.9028 235.57 255.744
220.8892 235.56235 255.744
220.8978 235.5672 255.744
220.90126 235.56914 255.744
220.90086 235.56892 255.744
220.91376 235.57614 255.744
220.8892 235.56233 255.744
220.89378 235.56496 255.744
220.90744 235.57262 255.744
220.89526 235.56578 255.744
220.90123 235.56912 255.744
220.91473 235.57669 255.744
220.89015 235.56291 255.744
220.90256 235.56989 255.744
220.8871 235.56117 255.744
220.87625 235.5551 255.744
220.902 235.56955 255.744
220.87233 235.55287 255.744
220.90782 235.5728 255.744
220.90955 235.5738 255.744
220.8986 235.56764 255.744
220.90395 235.57065 255.744
220.88892 235.56224 255.744
220.89725 235.5669 255.744
220.9101 235.5741 255.744
220.87152 235.55241 255.744
220.88255 235.55862 255.744
220.90198 235.56953 255.744
220.89105 235.5634 255.744
220.89464 235.56541 255.744
220.87599 235.55492 255.744
220.8972 235.56686 255.744
220.89236 235.56416 255.744
220.88913 235.5623 255.744
220.88461 235.55978 255.744
220.89558 235.56596 255.744
220.886 235.56055 255.744
220.88617 235.56065 255.744
220.89984 235.56836 255.744
220.90402 235.5707 255.744
220.87866 235.55643 255.744
220.90659 235.57216 255.744
220.8859 235.5605 255.744
220.89322 235.56462 255.744
220.89929 235.56805 255.744
220.93597 235.58865 255.744
220.89383 235.56497 255.744
220.91281 235.57562 255.744
220.89896 235.56783 255.744
220.89322 235.56462 255.744
220.89796 235.5673 255.744
220.91455 235.57661 255.744
220.8941 235.56511 255.744
220.89175 235.5638 255.744
220.90225 235.5697 255.744
220.90955 235.5738 255.744
220.90498 235.57124 255.744
220.88809 235.56172 255.744
220.90123 235.56914 255.744
220.89818 235.56743 255.744
220.90652 235.5721 255.744
220.89421 235.56516 255.744
220.91232 235.57536 255.744
220.8959 235.56612 255.744
220.90164 235.56935 255.744
220.90619 235.57191 255.744
220.89487 235.56558 255.744
220.87865 235.55641 255.744
220.91214 235.57526 255.744
220.90683 235.57227 255.744
220.88182 235.55823 255.744
220.91216 235.57526 255.744
220.89732 235.56693 255.744
220.90321 235.57024 255.744
220.92151 235.58054 255.744
220.8912 235.56348 255.744
220.88937 235.56247 255.744
220.91708 235.57806 255.744
220.90706 235.57236 255.744
220.89888 235.5678 255.744
220.90012 235.56853 255.744
220.90253 235.56985 255.744
220.90485 235.57117 255.744
220.90207 235.56961 255.744
220.89494 235.5656 255.744
220.89856 235.56763 255.744
220.91199 235.57518 255.744
220.89732 235.56693 255.744
220.8816 235.55807 255.744
220.90146 235.56923 255.744
220.89432 235.56523 255.744
220.92 235.57968 255.744
220.8932 235.56462 255.744
220.91408 235.57634 255.744
220.89812 235.56735 255.744
220.8954 235.56586 255.744
220.88509 235.56003 255.744
220.90297 235.5701 255.744
220.9103 235.57422 255.744
220.88547 235.56027 255.744
220.91415 235.5764 255.744
220.91548 235.57718 255.744
220.89584 235.5661 255.744
220.90097 235.56898 255.744
220.8889 235.56221 255.744
220.9079 235.57289 255.744
220.8924 235.56416 255.744
220.9146 235.57666 255.744
220.90324 235.57027 255.744
220.91571 235.57727 255.744
220.91025 235.57417 255.744
220.91158 235.57495 255.744
220.88724 235.56125 255.744
220.88579 235.56044 255.744
220.92143 235.58054 255.744
220.90253 235.56985 255.744
220.89374 235.56488 255.744
220.89827 235.56744 255.744
220.90683 235.57227 255.744
220.91118 235.57474 255.744
220.88417 235.55952 255.744
220.91649 235.57771 255.744
220.90678 235.57224 255.744
220.89568 235.56602 255.744
220.91704 235.578 255.744
220.90013 235.5685 255.744
220.89867 235.5677 255.744
220.89703 235.56676 255.744
220.89919 235.56798 255.744
220.90501 235.57124 255.744
220.92389 235.5819 255.744
220.89584 235.5661 255.744
220.91623 235.57758 255.744
220.92332 235.58153 255.744
220.90001 235.56844 255.744
220.90184 235.56946 255.744
220.9147 235.57669 255.744
220.89914 235.56796 255.744
220.91264 235.57555 255.744
220.90846 235.57317 255.744
220.9117 235.57498 255.744
220.8986 235.56763 255.744
220.8844 235.55968 255.744
220.90234 235.56975 255.744
220.8877 235.5615 255.744
220.89827 235.56749 255.744
220.90735 235.57257 255.744
220.91446 235.57657 255.744
220.92538 235.5827 255.744
220.90738 235.57257 255.744
220.91832 235.57874 255.744
220.92487 235.58241 255.744
220.90398 235.57066 255.744
220.90236 235.56975 255.744
220.9267 235.58345 255.744
220.91057 235.57437 255.744
220.90477 235.57109 255.744
220.90761 235.57268 255.744
220.90608 235.57187 255.744
220.90501 235.57127 255.744
220.90112 235.56906 255.744
220.88402 235.55945 255.744
220.89973 235.5683 255.744
220.91495 235.57683 255.744
220.90703 235.57239 255.744
220.90024 235.56859 255.744
220.92578 235.58293 255.744
220.91568 235.57726 255.744
220.91655 235.57774 255.744
220.91808 235.5786 255.744
220.9217 235.58064 255.744
220.92513 235.58257 255.744
220.90741 235.5726 255.744
220.92223 235.58092 255.744
220.92693 235.58357 255.744
220.91345 235.576 255.744
220.90555 235.57155 255.744
220.92159 235.58058 255.744
220.89496 235.5656 255.744
220.90915 235.57358 255.744
220.92056 235.58 255.744
220.93658 235.58902 255.744
220.90486 235.57117 255.744
220.90523 235.57137 255.744
220.93309 235.58704 255.744
220.92375 235.58177 255.744
220.9041 235.57072 255.744
220.91525 235.57704 255.744
220.923 235.58138 255.744
220.92342 235.58157 255.744
220.92175 235.58069 255.744
220.90656 235.57213 255.744
220.933 235.58699 255.744
220.92516 235.58261 255.744
220.9193 235.57928 255.744
220.9134 235.57596 255.744
220.91438 235.57652 255.744
220.91498 235.57686 255.744
220.90611 235.57188 255.744
220.90875 235.57336 255.744
220.91264 235.57553 255.744
220.92699 235.58363 255.744
220.92802 235.58421 255.744
220.94417 235.59329 255.744
220.91434 235.57649 255.744
220.94263 235.59242 255.744
220.9186 235.57892 255.744
220.9247 235.58234 255.744
220.96378 235.60434 255.744
220.939 235.59038 255.744
220.95424 235.59895 255.744
220.95355 235.59854 255.744
220.94447 235.59346 255.744
220.9552 235.5995 255.744
220.94543 235.59398 255.744
220.95001 235.5966 255.744
220.94835 235.59564 255.744
220.92877 235.58458 255.744
220.95285 235.5982 255.744
220.94139 235.59169 255.744
220.95897 235.60165 255.744
220.95233 235.59789 255.744
220.94357 235.59296 255.744
220.94185 235.59196 255.744
220.96281 235.60379 255.744
220.96542 235.60522 255.744
220.95047 235.59683 255.744
220.9489 235.59593 255.744
220.97258 235.6093 255.744
220.96968 235.60767 255.744
220.95367 235.59863 255.744
220.9276 235.58398 255.744
220.94473 235.59361 255.744
220.9548 235.59926 255.744
220.95656 235.60023 255.744
220.93443 235.5878 255.744
220.92862 235.58455 255.744
220.96216 235.60344 255.744
220.95021 235.5967 255.744
220.95041 235.5968 255.744
220.92932 235.58492 255.744
220.94777 235.59528 255.744
220.94481 235.59366 255.744
220.95476 235.59924 255.744
220.93826 235.58997 255.744
220.93272 235.58687 255.744
220.94858 235.59578 255.744
220.95375 235.59865 255.744
220.95235 235.59792 255.744
220.94997 235.59657 255.744
220.94527 235.5939 255.744
220.93626 235.58885 255.744
220.94283 235.59254 255.744
220.94919 235.59612 255.744
220.93535 235.58829 255.744
220.94623 235.59444 255.744
220.95723 235.60063 255.744
220.93587 235.5886 255.744
220.95804 235.6011 255.744
220.94753 235.59515 255.744
220.9454 235.59396 255.744
220.93846 235.59009 255.744
220.9489 235.59595 255.744
220.95657 235.60027 255.744
220.9506 235.59691 255.744
220.9413 235.59167 255.744
220.9444 235.59343 255.744
220.9568 235.6004 255.744
220.93742 235.5895 255.744
220.94554 235.59406 255.744
220.94562 235.59413 255.744
220.93832 235.59003 255.744
220.95003 235.59659 255.744
220.93509 235.58817 255.744
220.94144 235.59175 255.744
220.93375 235.58742 255.744
220.91393 235.57626 255.744
220.94286 235.59254 255.744
220.93146 235.5861 255.744
220.92996 235.58533 255.744
220.942 235.59209 255.744
220.95406 235.59886 255.744
220.93924 235.5905 255.744
220.94244 235.5923 255.744
220.92896 235.58473 255.744
220.93529 235.58833 255.744
220.92776 235.58405 255.744
220.95372 235.59868 255.744
220.93552 235.58838 255.744
220.9381 235.58986 255.744
220.94293 235.59258 255.744
220.92348 235.58165 255.744
220.93849 235.5901 255.744
220.936 235.58867 255.744
220.93263 235.5868 255.744
220.93828 235.58997 255.744
220.95906 235.60167 255.744
220.94588 235.59424 255.744
220.9386 235.59016 255.744
220.93428 235.58772 255.744
220.9266 235.58336 255.744
220.92645 235.58328 255.744
220.93196 235.58644 255.744
220.9398 235.59082 255.744
220.93321 235.58711 255.744
220.9341 235.58762 255.744
220.92776 235.58405 255.744
220.92155 235.58054 255.744
220.92685 235.58354 255.744
220.95384 235.59875 255.744
220.92308 235.58145 255.744
220.92648 235.58331 255.744
220.93973 235.59077 255.744
220.92438 235.58214 255.744
220.92253 235.58112 255.744
220.93953 235.59067 255.744
220.93066 235.58571 255.744
220.93114 235.58594 255.744
220.95308 235.59831 255.744
220.96634 235.60576 255.744
220.92484 235.5824 255.744
220.9333 235.58717 255.744
220.92755 235.58391 255.744
220.92863 235.58456 255.744
220.93945 235.59065 255.744
220.94707 235.59494 255.744
220.93698 235.58923 255.744
220.93355 235.58731 255.744
220.91869 235.5789 255.744
220.93301 235.587 255.744
220.93358 235.58733 255.744
220.92027 235.57985 255.744
220.93802 235.58983 255.744
220.92802 235.58421 255.744
220.91982 235.57956 255.744
220.95027 235.59673 255.744
220.94244 235.59233 255.744
220.91469 235.57668 255.744
220.94666 235.59468 255.744
220.94052 235.59126 255.744
220.91614 235.57753 255.744
220.92494 235.58246 255.744
220.94415 235.59326 255.744
220.9458 235.59418 255.744
220.92946 235.58502 255.744
220.92403 235.58194 255.744
220.92924 235.58488 255.744
220.92332 235.58154 255.744
220.93773 235.58963 255.744
220.91866 235.5789 255.744
220.91763 235.57835 255.744
220.91714 235.57806 255.744
220.94139 235.59172 255.744
220.9257 235.58292 255.744
220.9298 235.58519 255.744
220.93843 235.59006 255.744
220.9566 235.60028 255.744
220.91348 235.576 255.744
220.94232 235.59224 255.744
220.93642 235.58893 255.744
220.92361 235.5817 255.744
220.93848 235.59009 255.744
220.9173 235.57816 255.744
220.94675 235.59474 255.744
220.93782 235.58974 255.744
220.93367 235.58734 255.744
220.93066 235.58574 255.744
220.9424 235.59227 255.744
220.92792 235.58414 255.744
220.91168 235.575 255.744
220.91257 235.57552 255.744
220.93097 235.58585 255.744
220.93468 235.58795 255.744
220.9378 235.58969 255.744
220.93013 235.58537 255.744
220.92715 235.58372 255.744
220.9251 235.58252 255.744
220.91832 235.57874 255.744
220.93803 235.58983 255.744
220.93878 235.59027 255.744
220.9187 235.57895 255.744
220.93224 235.58655 255.744
220.91104 235.57465 255.744
220.91745 235.57822 255.744
220.92593 235.58302 255.744
220.92265 235.58116 255.744
220.90686 235.5723 255.744
220.92834 235.58437 255.744
220.90863 235.57327 255.744
220.91196 235.57515 255.744
220.92583 235.58296 255.744
220.93773 235.58965 255.744
220.93748 235.58952 255.744
220.92934 235.58492 255.744
220.91377 235.57617 255.744
220.93968 235.59074 255.744
220.92526 235.58263 255.744
220.93373 235.58742 255.744
220.94817 235.5955 255.744
220.93434 235.58775 255.744
220.93993 235.59088 255.744
220.94028 235.5911 255.744
220.93681 235.58914 255.744
220.9266 235.5834 255.744
220.93196 235.58643 255.744
220.9349 235.58807 255.744
220.93866 235.59021 255.744
220.93896 235.59038 255.744
220.92624 235.58322 255.744
220.90668 235.57219 255.744
220.9211 235.5803 255.744
220.93623 235.58882 255.744
220.92592 235.583 255.744
220.9368 235.58914 255.744
220.92868 235.58458 255.744
220.92972 235.58514 255.744
220.92952 235.58504 255.744
220.92722 235.58376 255.744
220.93129 235.58601 255.744
220.93555 235.58847 255.744
220.917 235.578 255.744
220.9176 235.57835 255.744
220.92172 235.58063 255.744
220.9261 235.5831 255.744
220.91676 235.57787 255.744
220.92961 235.58508 255.744
220.92938 235.58496 255.744
220.94366 235.593 255.744
220.92433 235.58212 255.744
220.90408 235.57072 255.744
220.91663 235.57777 255.744
220.93791 235.58978 255.744
220.93437 235.58778 255.744
220.92192 235.58078 255.744
220.92308 235.58145 255.744
220.92734 235.58382 255.744
220.92633 235.58324 255.744
220.92288 235.5813 255.744
220.94994 235.59654 255.744
220.91559 235.57718 255.744
220.90843 235.57317 255.744
220.9224 235.58105 255.744
220.94197 235.59204 255.744
220.91763 235.57832 255.744
220.92932 235.58492 255.744
220.93188 235.58636 255.744
220.93457 235.58788 255.744
220.92303 235.58139 255.744
220.93364 235.58737 255.744
220.92102 235.58025 255.744
220.92451 235.58223 255.744
220.91927 235.57927 255.744
220.9196 235.57947 255.744
220.9447 235.59355 255.744
220.91623 235.57753 255.744
220.92401 235.58194 255.744
220.92964 235.5851 255.744
220.92159 235.58055 255.744
220.9275 235.58392 255.744
220.8986 235.56764 255.744
220.93333 235.58719 255.744
220.90166 235.56937 255.744
220.91875 235.57898 255.744
220.93765 235.58963 255.744
220.93591 235.58864 255.744
220.92601 235.58307 255.744
220.92117 235.58035 255.744
220.90787 235.57288 255.744
220.94539 235.59398 255.744
220.93346 235.58725 255.744
220.92867 235.58455 255.744
220.91699 235.57799 255.744
220.9237 235.58177 255.744
220.92422 235.58208 255.744
220.92273 235.5812 255.744
220.91978 235.57959 255.744
220.94092 235.59142 255.744
220.93427 235.58769 255.744
220.92348 235.58165 255.744
220.90715 235.57246 255.744
220.93134 235.58604 255.744
220.92911 235.58484 255.744
220.93771 235.58965 255.744
220.93513 235.58818 255.744
220.92004 235.57973 255.744
220.91797 235.57855 255.744
220.93047 235.58559 255.744
220.92114 235.58032 255.744
220.92538 235.58273 255.744
220.90628 235.57195 255.744
220.95125 235.59727 255.744
220.91887 235.57903 255.744
220.94292 235.59258 255.744
220.93568 235.5885 255.744
220.93396 235.58755 255.744
220.93246 235.58669 255.744
220.92969 235.58514 255.744
220.93443 235.5878 255.744
220.93263 235.58678 255.744
220.92393 235.58188 255.744
220.9318 235.58632 255.744
220.93048 235.58559 255.744
220.92084 235.58014 255.744
220.92065 235.58003 255.744
220.93057 235.58562 255.744
220.92337 235.58159 255.744
220.91222 235.5753 255.744
220.92317 235.58148 255.744
220.91998 235.57965 255.744
220.90703 235.5724 255.744
220.91447 235.57658 255.744
220.91743 235.57825 255.744
220.91884 235.57904 255.744
220.9298 235.58519 255.744
220.91705 235.57803 255.744
220.91692 235.57796 255.744
220.93568 235.58853 255.744
220.9256 235.58286 255.744
220.9195 235.5794 255.744
220.933 235.587 255.744
220.93013 235.58536 255.744
220.91313 235.57582 255.744
220.91194 235.57515 255.744
220.91774 235.57843 255.744
220.94421 235.5933 255.744
220.9467 235.59468 255.744
220.90343 235.57036 255.744
220.91896 235.57907 255.744
220.92308 235.58139 255.744
220.97246 235.6092 255.744
220.93346 235.58723 255.744
220.92824 235.58432 255.744
220.90768 235.57277 255.744
220.9231 235.58142 255.744
220.93263 235.58678 255.744
220.92456 235.58224 255.744
220.91457 235.57666 255.744
220.92387 235.58186 255.744
220.92406 235.58195 255.744
220.91585 235.57733 255.744
220.90764 235.5727 255.744
220.92482 235.58241 255.744
220.92609 235.58307 255.744
220.92303 235.58139 255.744
220.93898 235.59036 255.744
220.93216 235.58655 255.744
220.9132 235.57585 255.744
220.93034 235.58551 255.744
220.92004 235.5797 255.744
220.9269 235.58359 255.744
220.92253 235.5811 255.744
220.92404 235.58194 255.744
220.92834 235.58435 255.744
220.92621 235.58318 255.744
220.93114 235.58597 255.744
220.93687 235.58919 255.744
220.92584 235.58298 255.744
220.92744 235.58385 255.744
220.93542 235.58838 255.744
220.92566 235.58284 255.744
220.92155 235.58054 255.744
220.92677 235.5835 255.744
220.9299 235.5853 255.744
220.93044 235.58557 255.744
220.91565 235.57721 255.744
220.91498 235.57687 255.744
220.92802 235.58421 255.744
220.92632 235.58325 255.744
220.93018 235.58542 255.744
220.92642 235.58331 255.744
220.94177 235.59196 255.744
220.93736 235.58948 255.744
220.93117 235.58597 255.744
220.91684 235.5779 255.744
220.92444 235.58218 255.744
220.93752 235.58951 255.744
220.92538 235.58272 255.744
220.92445 235.58217 255.744
220.91125 235.57475 255.744
220.93317 235.5871 255.744
220.9063 235.57198 255.744
220.92444 235.58218 255.744
220.9269 235.58359 255.744
220.9257 235.5829 255.744
220.91084 235.57454 255.744
220.94955 235.59633 255.744
220.92981 235.58522 255.744
220.9207 235.58008 255.744
220.91959 235.57948 255.744
220.91031 235.57422 255.744
220.93652 235.589 255.744
220.91478 235.57677 255.744
220.9269 235.58354 255.744
220.93965 235.59076 255.744
220.93698 235.58925 255.744
220.94482 235.59364 255.744
220.90466 235.57104 255.744
220.92119 235.58034 255.744
220.93234 235.58661 255.744
220.92621 235.58319 255.744
220.94713 235.59496 255.744
220.92761 235.58395 255.744
220.92339 235.58159 255.744
220.91954 235.57939 255.744
220.9387 235.5902 255.744
220.9371 235.58931 255.744
220.92223 235.58092 255.744
220.92722 235.58372 255.744
220.92517 235.5826 255.744
220.91437 235.57652 255.744
220.92484 235.58241 255.744
220.93279 235.5869 255.744
220.92412 235.58203 255.744
220.92883 235.58466 255.744
220.93715 235.58932 255.744
220.92764 235.584 255.744
220.94063 235.59131 255.744
220.9279 235.58415 255.744
220.93771 235.58965 255.744
220.9357 235.58853 255.744
220.9287 235.58455 255.744
220.94028 235.59113 255.744
220.94829 235.59558 255.744
220.94302 235.59265 255.744
220.94316 235.59271 255.744
220.95226 235.59785 255.744
220.92992 235.58527 255.744
220.91414 235.5764 255.744
220.92294 235.58134 255.744
220.91501 235.57689 255.744
220.93285 235.58691 255.744
220.92336 235.58157 255.744
220.94502 235.59375 255.744
220.94879 235.59589 255.744
220.94276 235.59248 255.744
220.94922 235.59612 255.744
220.94647 235.59457 255.744
220.93286 235.58691 255.744
220.92918 235.58484 255.744
220.9366 235.58902 255.744
220.94235 235.59227 255.744
220.94405 235.59323 255.744
220.9289 235.58473 255.744
220.92807 235.58423 255.744
220.89088 235.56331 255.744
220.94705 235.59491 255.744
220.92583 235.58298 255.744
220.92348 235.58163 255.744
220.94623 235.59442 255.744
220.92613 235.58313 255.744
220.94495 235.59373 255.744
220.9237 235.58174 255.744
220.92482 235.5824 255.744
220.93367 235.58742 255.744
220.92162 235.58058 255.744
220.94104 235.59152 255.744
220.95038 235.59673 255.744
220.92397 235.58192 255.744
220.93936 235.59059 255.744
220.9485 235.59573 255.744
220.91911 235.5792 255.744
220.92934 235.58493 255.744
220.9271 235.58366 255.744
220.92937 235.58496 255.744
220.92645 235.58331 255.744
220.93394 235.58752 255.744
220.9207 235.58006 255.744
220.93971 235.59079 255.744
220.91911 235.57918 255.744
220.94002 235.59094 255.744
220.92868 235.58458 255.744
220.93336 235.5872 255.744
220.93301 235.587 255.744
220.9257 235.5829 255.744
220.94043 235.59122 255.744
220.91862 235.57889 255.744
220.91843 235.5788 255.744
220.93593 235.58865 255.744
220.9347 235.58795 255.744
220.94038 235.59116 255.744
220.91315 235.57584 255.744
220.92545 235.58275 255.744
220.93367 235.58737 255.744
220.93076 235.58574 255.744
220.93323 235.58713 255.744
220.94856 235.59576 255.744
220.93846 235.59009 255.744
220.92487 235.5824 255.744
220.91473 235.57674 255.744
220.92989 235.58527 255.744
220.92223 235.58093 255.744
220.94127 235.59166 255.744
220.93095 235.58588 255.744
220.9562 235.60007 255.744
220.92331 235.58159 255.744
220.92479 235.5824 255.744
220.94312 235.59268 255.744
220.94572 235.59416 255.744
220.94254 235.59236 255.744
220.93413 235.58762 255.744
220.93752 235.58954 255.744
220.92654 235.58336 255.744
220.9441 235.59326 255.744
220.92496 235.58247 255.744
220.94443 235.59343 255.744
220.94945 235.59625 255.744
220.93665 235.58904 255.744
220.91586 235.57735 255.744
220.92693 235.58359 255.744
220.93774 235.58968 255.744
220.9383 235.58998 255.744
220.93684 235.58916 255.744
220.93513 235.58823 255.744
220.93227 235.58658 255.744
220.91992 235.57965 255.744
220.91714 235.57805 255.744
220.9192 235.57924 255.744
220.8961 235.56621 255.744
220.94054 235.59125 255.744
220.931 235.58588 255.744
220.93051 235.58559 255.744
220.9486 235.59576 255.744
220.9337 235.5874 255.744
220.92493 235.58246 255.744
220.93942 235.59059 255.744
220.93893 235.59036 255.744
220.9326 235.58675 255.744
220.93938 235.59058 255.744
220.92778 235.58406 255.744
220.94066 235.59131 255.744
220.9396 235.59071 255.744
220.93054 235.58563 255.744
220.9498 235.59647 255.744
220.93936 235.59058 255.744
220.94456 235.5935 255.744
220.95941 235.60185 255.744
220.92972 235.58516 255.744
220.94067 235.59134 255.744
220.93492 235.58807 255.744
220.94022 235.59106 255.744
220.94048 235.5912 255.744
220.94048 235.59122 255.744
220.93594 235.58865 255.744
220.92906 235.58476 255.744
220.9416 235.59186 255.744
220.94739 235.59512 255.744
220.93585 235.5886 255.744
220.95345 235.59851 255.744
220.95071 235.59697 255.744
220.9532 235.59831 255.744
220.93927 235.59053 255.744
220.94595 235.59428 255.744
220.93716 235.58939 255.744
220.94609 235.59436 255.744
220.94559 235.5941 255.744
220.95206 235.59775 255.744
220.9413 235.59169 255.744
220.95178 235.59753 255.744
220.95084 235.59705 255.744
220.94969 235.59639 255.744
220.92793 235.58415 255.744
220.95158 235.59743 255.744
220.94936 235.59619 255.744
220.95338 235.5985 255.744
220.94698 235.5949 255.744
220.96323 235.604 255.744
220.95241 235.59792 255.744
220.94453 235.59348 255.744
220.95338 235.59845 255.744
220.95207 235.59775 255.744
220.93513 235.5882 255.744
220.94109 235.59154 255.744
220.94704 235.59488 255.744
220.93146 235.58614 255.744
220.93378 235.5874 255.744
220.93332 235.58717 255.744
220.93285 235.5869 255.744
220.95372 235.59866 255.744
220.95325 235.5984 255.744
220.96906 235.60727 255.744
220.95526 235.59953 255.744
220.9561 235.6 255.744
220.95222 235.59781 255.744
220.95857 235.60136 255.744
220.96527 235.6052 255.744
220.93877 235.59027 255.744
220.9506 235.5969 255.744
220.94382 235.59308 255.744
220.92198 235.58078 255.744
220.95496 235.59937 255.744
220.9483 235.59563 255.744
220.9593 235.60182 255.744
220.94957 235.59636 255.744
220.95695 235.6005 255.744
220.9368 235.58913 255.744
220.95041 235.59677 255.744
220.94261 235.59239 255.744
220.94533 235.59395 255.744
220.94962 235.59636 255.744
220.95944 235.60188 255.744
220.95314 235.5983 255.744
220.94016 235.59102 255.744
220.94127 235.59163 255.744
220.96498 235.60501 255.744
220.946 235.5943 255.744
220.9566 235.60025 255.744
220.94798 235.59541 255.744
220.96043 235.60243 255.744
220.9988 235.62401 255.744
220.97542 235.61087 255.744
220.97672 235.61162 255.744
220.98753 235.61766 255.744
220.9843 235.61586 255.744
220.97572 235.61102 255.744
220.96512 235.60509 255.744
220.97025 235.60796 255.744
220.97566 235.611 255.744
220.97969 235.61328 255.744
220.98201 235.61458 255.744
220.99805 235.6236 255.744
220.99222 235.62032 255.744
220.95818 235.60117 255.744
220.99637 235.62267 255.744
220.97101 235.60841 255.744
220.97131 235.60855 255.744
220.9718 235.60884 255.744
220.96925 235.6074 255.744
220.99568 235.62227 255.744
220.97035 235.608 255.744
220.98264 235.61493 255.744
220.98695 235.61734 255.744
220.96939 235.60747 255.744
220.97133 235.60857 255.744
220.98589 235.61676 255.744
220.9812 235.61412 255.744
220.98701 235.61739 255.744
220.97208 235.60901 255.744
220.97394 235.61003 255.744
220.97206 235.609 255.744
220.9708 235.60828 255.744
220.99283 235.62067 255.744
220.96344 235.60416 255.744
220.9834 235.61536 255.744
220.94919 235.59613 255.744
220.98805 235.61798 255.744
220.97403 235.61009 255.744
220.98323 235.61526 255.744
220.98885 235.61841 255.744
220.97427 235.61023 255.744
220.98875 235.61835 255.744
220.9585 235.60138 255.744
220.98167 235.6144 255.744
220.95293 235.5982 255.744
220.97102 235.60837 255.744
220.96655 235.60588 255.744
220.97394 235.61002 255.744
220.9674 235.60635 255.744
220.98746 235.61761 255.744
220.97716 235.61185 255.744
220.96512 235.60507 255.744
220.9651 235.60506 255.744
220.97073 235.60822 255.744
220.9753 235.6108 255.744
220.97256 235.60925 255.744
220.9826 235.61493 255.744
220.95767 235.60088 255.744
220.98802 235.61795 255.744
220.96848 235.60696 255.744
220.96764 235.60648 255.744
220.94913 235.59607 255.744
220.9795 235.61316 255.744
220.9793 235.61302 255.744
220.97453 235.61038 255.744
220.96806 235.6067 255.744
220.95158 235.59744 255.744
220.96066 235.60255 255.744
220.96347 235.60413 255.744
220.96169 235.60313 255.744
220.97696 235.61174 255.744
220.97414 235.61014 255.744
220.98262 235.6149 255.744
220.97458 235.61038 255.744
220.98642 235.61708 255.744
220.98396 235.61569 255.744
220.95055 235.59685 255.744
220.96259 235.60362 255.744
220.97476 235.61046 255.744
220.98125 235.61414 255.744
220.97916 235.61298 255.744
220.95833 235.60127 255.744
220.98302 235.61514 255.744
220.97421 235.61017 255.744
220.96312 235.60396 255.744
220.9678 235.60663 255.744
220.97601 235.6112 255.744
220.97002 235.60785 255.744
220.996 235.62245 255.744
220.9649 235.60497 255.744
220.97485 235.61057 255.744
220.98592 235.61679 255.744
220.96405 235.60449 255.744
220.96489 235.60493 255.744
220.97047 235.60808 255.744
220.96979 235.60773 255.744
220.97064 235.60815 255.744
220.97226 235.60909 255.744
220.9762 235.61127 255.744
220.9646 235.60477 255.744
220.97002 235.60785 255.744
220.95314 235.59834 255.744
220.96602 235.60556 255.744
220.95401 235.59883 255.744
220.97469 235.61046 255.744
220.96559 235.60532 255.744
220.96811 235.60675 255.744
220.95041 235.59679 255.744
220.95193 235.59767 255.744
220.95987 235.60214 255.744
220.97395 235.61003 255.744
220.9816 235.61435 255.744
220.97495 235.61061 255.744
220.96745 235.60637 255.744
220.97493 235.6106 255.744
220.98004 235.61346 255.744
220.97098 235.6084 255.744
220.96045 235.60243 255.744
220.98524 235.61641 255.744
220.97192 235.60893 255.744
220.96127 235.60292 255.744
220.96895 235.60724 255.744
220.96419 235.60458 255.744
220.95377 235.59868 255.744
220.9661 235.6056 255.744
220.94753 235.59515 255.744
220.98723 235.6175 255.744
220.96552 235.60527 255.744
220.97559 235.61093 255.744
220.9908 235.61954 255.744
220.98885 235.61842 255.744
220.95819 235.60117 255.744
220.97542 235.61087 255.744
220.95523 235.5995 255.744
220.97646 235.61145 255.744
220.97342 235.60973 255.744
220.95428 235.59901 255.744
220.97108 235.60846 255.744
220.9834 235.61534 255.744
220.9821 235.61462 255.744
220.97046 235.60808 255.744
220.9664 235.60582 255.744
220.98166 235.6144 255.744
220.94862 235.59578 255.744
220.97215 235.60902 255.744
220.95721 235.60059 255.744
220.96034 235.6024 255.744
220.9718 235.60883 255.744
220.97488 235.6106 255.744
220.96735 235.6063 255.744
220.97237 235.60915 255.744
220.96045 235.60243 255.744
220.96202 235.60335 255.744
220.95601 235.59995 255.744
220.9559 235.59991 255.744
220.96634 235.60574 255.744
220.95563 235.5997 255.744
220.9501 235.59662 255.744
220.95467 235.5992 255.744
220.95485 235.59927 255.744
220.96216 235.6034 255.744
220.95445 235.59903 255.744
220.9559 235.59987 255.744
220.96985 235.60771 255.744
220.96048 235.60246 255.744
220.97377 235.60994 255.744
220.9462 235.5944 255.744
220.96065 235.60251 255.744
220.96512 235.60509 255.744
220.97649 235.61143 255.744
220.98901 235.61852 255.744
220.96173 235.60318 255.744
220.96068 235.60257 255.744
220.98016 235.61354 255.744
220.9651 235.60509 255.744
220.96188 235.60327 255.744
220.9573 235.60068 255.744
220.9548 235.59929 255.744
220.96391 235.60442 255.744
220.97139 235.6086 255.744
220.94556 235.59406 255.744
220.96686 235.60606 255.744
220.95366 235.59862 255.744
220.9587 235.60146 255.744
220.94113 235.59157 255.744
220.96445 235.6047 255.744
220.95546 235.59962 255.744
220.96664 235.60591 255.744
220.95479 235.59929 255.744
220.98323 235.61526 255.744
220.96606 235.60559 255.744
220.96017 235.60228 255.744
220.95256 235.598 255.744
220.95403 235.59883 255.744
220.97052 235.60811 255.744
220.97498 235.61061 255.744
220.93687 235.58917 255.744
220.95813 235.60114 255.744
220.95871 235.60147 255.744
220.95279 235.59814 255.744
220.97305 235.60954 255.744
220.9389 235.59032 255.744
220.97865 235.61269 255.744
220.95398 235.59882 255.744
220.96524 235.60512 255.744
220.962 235.60332 255.744
220.9648 235.6049 255.744
220.96819 235.60681 255.744
220.9629 235.60384 255.744
220.95679 235.60039 255.744
220.95407 235.59885 255.744
220.97218 235.60905 255.744
220.96635 235.60577 255.744
220.9612 235.60283 255.744
220.95111 235.5972 255.744
220.95943 235.60185 255.744
220.94643 235.59456 255.744
220.95735 235.60071 255.744
220.96237 235.6035 255.744
220.96312 235.60394 255.744
220.97461 235.61043 255.744
220.9838 235.61559 255.744
220.97623 235.61131 255.744
220.94476 235.59361 255.744
220.95134 235.59732 255.744
220.94421 235.59332 255.744
220.96365 235.60423 255.744
220.95874 235.6015 255.744
220.955 235.5994 255.744
220.969 235.60724 255.744
220.95186 235.59761 255.744
220.98149 235.61429 255.744
220.96805 235.60674 255.744
220.95837 235.60127 255.744
220.94102 235.5915 255.744
220.94536 235.59392 255.744
220.96405 235.60443 255.744
220.98506 235.61632 255.744
220.95863 235.60141 255.744
220.95367 235.59865 255.744
220.95618 235.60004 255.744
220.95726 235.60063 255.744
220.96767 235.60649 255.744
220.95107 235.59717 255.744
220.95847 235.60132 255.744
220.94734 235.59506 255.744
220.96353 235.60417 255.744
220.95956 235.60194 255.744
220.94604 235.59431 255.744
220.96735 235.60632 255.744
220.95079 235.59702 255.744
220.94446 235.59344 255.744
220.97505 235.61067 255.744
220.96535 235.60521 255.744
220.93938 235.5906 255.744
220.95084 235.59702 255.744
220.95226 235.59782 255.744
220.94801 235.59546 255.744
220.94409 235.59326 255.744
220.95503 235.59941 255.744
220.95126 235.59727 255.744
220.95184 235.59761 255.744
220.97672 235.6116 255.744
220.93881 235.59027 255.744
220.95453 235.5991 255.744
220.9622 235.60345 255.744
220.9676 235.60648 255.744
220.94351 235.59293 255.744
220.95816 235.60117 255.744
220.95192 235.59767 255.744
220.95168 235.59752 255.744
220.95844 235.6013 255.744
220.96696 235.6061 255.744
220.97087 235.60834 255.744
220.9681 235.60675 255.744
220.99036 235.61928 255.744
220.97644 235.61145 255.744
220.94238 235.5923 255.744
220.96172 235.60315 255.744
220.97989 235.61339 255.744
220.95113 235.5972 255.744
220.95262 235.59802 255.744
220.95403 235.59883 255.744
220.96092 235.60272 255.744
220.97194 235.60887 255.744
220.95004 235.59659 255.744
220.97006 235.60788 255.744
220.96411 235.60452 255.744
220.97217 235.60904 255.744
220.95328 235.5984 255.744
220.94817 235.59554 255.744
220.95262 235.59805 255.744
220.95044 235.59683 255.744
220.96182 235.60321 255.744
220.96695 235.6061 255.744
220.93137 235.58607 255.744
220.95354 235.59859 255.744
220.98808 235.61801 255.744
220.96152 235.60303 255.744
220.95451 235.59912 255.744
220.95532 235.59955 255.744
220.9659 235.6055 255.744
220.9567 235.60033 255.744
220.96144 235.60298 255.744
220.94322 235.59274 255.744
220.95898 235.60162 255.744
220.96973 235.60767 255.744
220.96951 235.60753 255.744
220.95724 235.60065 255.744
220.96571 235.60541 255.744
220.97539 235.61087 255.744
220.9697 235.60767 255.744
220.96648 235.60583 255.744
220.9592 235.60173 255.744
220.94548 235.59401 255.744
220.9714 235.6086 255.744
220.96814 235.60677 255.744
220.96402 235.60445 255.744
220.9733 235.60966 255.744
220.95415 235.59888 255.744
220.95097 235.59714 255.744
220.96014 235.60226 255.744
220.95009 235.59663 255.744
220.9488 235.5959 255.744
220.97012 235.6079 255.744
220.96622 235.6057 255.744
220.94579 235.59424 255.744
220.96794 235.60669 255.744
220.95947 235.6019 255.744
220.95825 235.60123 255.744
220.95569 235.59976 255.744
220.95021 235.59671 255.744
220.95815 235.60117 255.744
220.94507 235.5938 255.744
220.93071 235.58571 255.744
220.96019 235.60231 255.744
220.94682 235.59479 255.744
220.97865 235.61269 255.744
220.9568 235.60037 255.744
220.95544 235.59966 255.744
220.95018 235.59666 255.744
220.9547 235.5992 255.744
220.95241 235.59793 255.744
220.95854 235.60135 255.744
220.97087 235.60828 255.744
220.97348 235.60977 255.744
220.95108 235.59717 255.744
220.93391 235.58752 255.744
220.95706 235.60056 255.744
220.96216 235.6034 255.744
220.95354 235.59859 255.744
220.95464 235.5992 255.744
220.95213 235.59776 255.744
220.96034 235.60239 255.744
220.96693 235.6061 255.744
220.95224 235.59781 255.744
220.96173 235.60318 255.744
220.96484 235.60492 255.744
220.96944 235.6075 255.744
220.941 235.5915 255.744
220.95567 235.59976 255.744
220.95074 235.59697 255.744
220.96407 235.60449 255.744
220.95728 235.60063 255.744
220.94965 235.59637 255.744
220.95686 235.60042 255.744
220.9523 235.59787 255.744
220.95566 235.59976 255.744
220.9566 235.60031 255.744
220.97348 235.60979 255.744
220.94398 235.59315 255.744
220.96965 235.6076 255.744
220.97731 235.61191 255.744
220.96857 235.60703 255.744
220.96228 235.60347 255.744
220.9718 235.60884 255.744
220.97406 235.6101 255.744
220.97173 235.60878 255.744
220.96432 235.60463 255.744
220.94139 235.59172 255.744
220.96703 235.60617 255.744
220.94827 235.59558 255.744
220.96057 235.60252 255.744
220.96536 235.60522 255.744
220.9518 235.59755 255.744
220.95921 235.60176 255.744
220.95123 235.59727 255.744
220.95306 235.59827 255.744
220.95619 235.60007 255.744
220.94841 235.59569 255.744
220.96428 235.60458 255.744
220.9605 235.60245 255.744
220.96873 235.60713 255.744
220.96884 235.60718 255.744
220.94945 235.59625 255.744
220.95866 235.60144 255.744
220.98068 235.61385 255.744
220.95021 235.5967 255.744
220.95555 235.59969 255.744
220.96971 235.60767 255.744
220.95424 235.59894 255.744
220.96445 235.60468 255.744
220.96344 235.6041 255.744
220.96605 235.6056 255.744
220.94496 235.59373 255.744
220.9509 235.59706 255.744
220.96642 235.60577 255.744
220.96254 235.60362 255.744
220.9678 235.60655 255.744
220.94624 235.59445 255.744
220.95279 235.59811 255.744
220.96568 235.6054 255.744
220.9513 235.59727 255.744
220.96231 235.6035 255.744
220.97217 235.60902 255.744
220.9676 235.60649 255.744
220.95114 235.5972 255.744
220.95584 235.59987 255.744
220.97319 235.60963 255.744
220.95172 235.5975 255.744
220.96165 235.6031 255.744
220.95401 235.59882 255.744
220.95688 235.60045 255.744
220.96817 235.60681 255.744
220.96248 235.60359 255.744
220.95258 235.59804 255.744
220.9509 235.59708 255.744
220.96835 235.60687 255.744
220.96622 235.60573 255.744
220.9415 235.59178 255.744
220.96169 235.60315 255.744
220.96626 235.60571 255.744
220.97536 235.61086 255.744
220.97093 235.60835 255.744
220.96315 235.60397 255.744
220.94319 235.59273 255.744
220.97437 235.61028 255.744
220.95955 235.60193 255.744
220.96626 235.60573 255.744
220.95288 235.59819 255.744
220.95692 235.60046 255.744
220.95749 235.60078 255.744
220.97041 235.60808 255.744
220.9683 235.60689 255.744
220.9666 235.60594 255.744
220.95496 235.59938 255.744
220.98091 235.61394 255.744
220.9742 235.61017 255.744
220.97063 235.60817 255.744
220.9734 235.60973 255.744
220.9697 235.60764 255.744
220.98206 235.61461 255.744
220.96326 235.60403 255.744
220.96637 235.60579 255.744
220.97168 235.60875 255.744
220.94666 235.59465 255.744
220.95686 235.60043 255.744
220.97675 235.61163 255.744
220.94763 235.59525 255.744
220.97957 235.6132 255.744
220.9721 235.60901 255.744
220.97577 235.61107 255.744
220.95074 235.59698 255.744
220.95096 235.5971 255.744
220.9689 235.60722 255.744
220.95886 235.60155 255.744
220.95197 235.59769 255.744
220.96054 235.60251 255.744
220.95769 235.60088 255.744
220.94571 235.59416 255.744
220.95837 235.60127 255.744
220.95497 235.59935 255.744
220.94926 235.59615 255.744
220.96512 235.60506 255.744
220.95258 235.59796 255.744
220.98035 235.61365 255.744
220.96867 235.60707 255.744
220.95708 235.60057 255.744
220.97237 235.60913 255.744
220.9557 235.59978 255.744
220.96811 235.6068 255.744
220.97371 235.60992 255.744
220.97098 235.60838 255.744
220.96509 235.60504 255.744
220.9548 235.59927 255.744
220.95023 235.5967 255.744
220.97865 235.61269 255.744
220.95895 235.60158 255.744
220.95038 235.59677 255.744
220.98416 235.6158 255.744
220.9612 235.60289 255.744
220.99039 235.6193 255.744
220.96008 235.60225 255.744
220.9763 235.61136 255.744
220.96606 235.60559 255.744
220.96204 235.60336 255.744
220.94745 235.59512 255.744
220.95209 235.59773 255.744
220.95096 235.59708 255.744
220.95828 235.60123 255.744
220.97234 235.60916 255.744
220.95224 235.59784 255.744
220.96298 235.60387 255.744
220.95993 235.60214 255.744
220.98686 235.6173 255.744
220.96936 235.60748 255.744
220.96574 235.60542 255.744
220.9901 235.61914 255.744
220.98053 235.61375 255.744
220.96225 235.60345 255.744
220.96864 235.60707 255.744
220.97113 235.60847 255.744
220.97218 235.60905 255.744
220.97804 235.61234 255.744
220.97363 235.60988 255.744
220.96637 235.60577 255.744
220.96378 235.60432 255.744
220.97682 235.61163 255.744
220.9812 235.61412 255.744
220.97514 235.6107 255.744
220.97784 235.61224 255.744
220.98402 235.61574 255.744
220.97903 235.61288 255.744
220.96625 235.60571 255.744
220.96033 235.6024 255.744
220.97182 235.60884 255.744
220.9669 235.60608 255.744
220.95493 235.59935 255.744
220.96892 235.6072 255.744
220.97289 235.60942 255.744
220.95699 235.6005 255.744
220.97426 235.61023 255.744
220.96751 235.60643 255.744
220.9761 235.61127 255.744
220.96104 235.60277 255.744
220.97975 235.6133 255.744
220.98335 235.61534 255.744
220.98488 235.6162 255.744
220.98067 235.6138 255.744
220.96428 235.60458 255.744
220.98378 235.61557 255.744
220.99373 235.62122 255.744
220.97023 235.60796 255.744
220.9805 235.61372 255.744
220.99005 235.61913 255.744
220.98221 235.6147 255.744
220.97717 235.61183 255.744
220.95302 235.59828 255.744
220.96985 235.60771 255.744
220.9797 235.61327 255.744
220.98758 235.61769 255.744
220.97612 235.61127 255.744
220.9704 235.60803 255.744
220.97842 235.61255 255.744
220.94737 235.5951 255.744
220.96484 235.60492 255.744
220.97708 235.6118 255.744
220.99142 235.61987 255.744
220.97752 235.61206 255.744
220.97424 235.6102 255.744
220.97519 235.61075 255.744
220.961 235.60275 255.744
220.98174 235.61444 255.744
220.96832 235.60687 255.744
220.9958 235.62234 255.744
220.97307 235.60956 255.744
220.97316 235.60962 255.744
220.98422 235.61586 255.744
220.98875 235.61838 255.744
220.96854 235.607 255.744
220.98987 235.61897 255.744
220.9806 235.6138 255.744
220.98152 235.6143 255.744
220.98724 235.61751 255.744
220.97136 235.60858 255.744
220.98967 235.6189 255.744
220.9628 235.60378 255.744
220.9681 235.60674 255.744
220.98067 235.61382 255.744
220.97092 235.60832 255.744
220.98552 235.61653 255.744
220.96356 235.60419 255.744
220.96997 235.60779 255.744
220.9793 235.61302 255.744
220.98158 235.61432 255.744
220.97542 235.61086 255.744
220.97633 235.61137 255.744
220.96518 235.60512 255.744
220.99765 235.62337 255.744
220.97835 235.6125 255.744
220.98755 235.61769 255.744
220.98412 235.61577 255.744
220.983 235.61513 255.744
220.9671 235.60617 255.744
220.97394 235.61003 255.744
220.97165 235.60875 255.744
220.97617 235.61127 255.744
220.97478 235.61052 255.744
220.96974 235.6077 255.744
220.9853 235.61644 255.744
221.0032 235.6265 255.744
221.02728 235.64008 255.744
221.02135 235.63669 255.744
221.01588 235.63362 255.744
220.99762 235.62337 255.744
221.01566 235.63351 255.744
220.98193 235.61453 255.744
221.00758 235.62897 255.744
221.01402 235.63257 255.744
221.0104 235.63054 255.744
221.00229 235.626 255.744
221.0255 235.63907 255.744
221.01099 235.63089 255.744
221.0257 235.63914 255.744
221.0229 235.63757 255.744
221.01271 235.63187 255.744
221.0112 235.631 255.744
221.01553 235.63342 255.744
221.00851 235.62947 255.744
221.01407 235.63261 255.744
221.0157 235.63351 255.744
221.0186 235.63518 255.744
221.00409 235.62698 255.744
221.01843 235.63504 255.744
221.01654 235.63403 255.744
220.99583 235.62236 255.744
221.01286 235.63194 255.744
221.01839 235.63506 255.744
221.0069 235.62857 255.744
220.99559 235.62221 255.744
220.9884 235.61821 255.744
221.01161 235.63124 255.744
221.02007 235.63602 255.744
221.01305 235.63205 255.744
220.99776 235.62344 255.744
221.01126 235.63104 255.744
221.01341 235.63225 255.744
220.98473 235.6161 255.744
220.99513 235.622 255.744
220.99808 235.6236 255.744
221.01108 235.63094 255.744
220.99492 235.62187 255.744
220.99774 235.6234 255.744
221.02399 235.6382 255.744
220.98412 235.61577 255.744
221.01024 235.63048 255.744
221.00482 235.62743 255.744
221.00873 235.62962 255.744
221.00302 235.62642 255.744
220.99512 235.62196 255.744
220.9979 235.6235 255.744
220.99147 235.6199 255.744
220.99791 235.62352 255.744
221.00923 235.6299 255.744
221.00609 235.62816 255.744
221.01581 235.63359 255.744
221.00505 235.62756 255.744
221.00874 235.62964 255.744
221.01427 235.63275 255.744
220.99123 235.61978 255.744
220.9978 235.62346 255.744
221.00505 235.62753 255.744
221.00005 235.62473 255.744
221.00565 235.6279 255.744
220.9805 235.61374 255.744
220.98625 235.61697 255.744
220.99998 235.6247 255.744
220.9966 235.62277 255.744
220.99336 235.62099 255.744
221.00037 235.6249 255.744
220.98721 235.61751 255.744
221.0044 235.62717 255.744
221.00589 235.62802 255.744
220.99124 235.61978 255.744
220.99225 235.62033 255.744
221.0023 235.62599 255.744
221.00328 235.62656 255.744
221.00119 235.62537 255.744
221.0078 235.62907 255.744
221.0223 235.63724 255.744
221.00143 235.62553 255.744
220.99678 235.62291 255.744
221.01544 235.6334 255.744
220.99347 235.62103 255.744
220.99348 235.62103 255.744
221.01126 235.63103 255.744
220.99161 235.61996 255.744
220.98885 235.61844 255.744
221.01593 235.63367 255.744
221.00366 235.62677 255.744
220.99771 235.62341 255.744
220.99345 235.62103 255.744
221.0048 235.62743 255.744
221.00726 235.6288 255.744
220.99342 235.62099 255.744
221.00505 235.62753 255.744
220.99467 235.6217 255.744
220.99544 235.62212 255.744
220.99664 235.62282 255.744
220.98378 235.61557 255.744
221.00183 235.62573 255.744
220.99942 235.62437 255.744
220.9844 235.61594 255.744
221.00984 235.63023 255.744
220.9832 235.61525 255.744
220.99255 235.62051 255.744
221.00012 235.62476 255.744
221.01208 235.6315 255.744
220.998 235.62358 255.744
221.0008 235.62514 255.744
221.00375 235.6268 255.744
221.00941 235.63004 255.744
220.99825 235.62372 255.744
220.99913 235.6242 255.744
221.00024 235.62485 255.744
220.97806 235.61238 255.744
220.99165 235.61998 255.744
221.00247 235.62608 255.744
221.00554 235.62782 255.744
221.0022 235.62593 255.744
220.99075 235.61952 255.744
220.99762 235.62335 255.744
220.98207 235.6146 255.744
220.98016 235.61353 255.744
220.98512 235.61635 255.744
220.99503 235.62192 255.744
220.97676 235.61163 255.744
220.9962 235.62254 255.744
221.01462 235.63289 255.744
221.0141 235.63268 255.744
220.98224 235.6147 255.744
220.99672 235.62285 255.744
220.99702 235.62305 255.744
221.00066 235.62508 255.744
220.98619 235.61696 255.744
220.9812 235.61414 255.744
220.99295 235.62071 255.744
220.98468 235.61607 255.744
221.00713 235.6287 255.744
220.9915 235.6199 255.744
221.0034 235.62662 255.744
221.00298 235.62636 255.744
220.97179 235.60883 255.744
220.9911 235.61972 255.744
220.98381 235.61557 255.744
220.98755 235.61769 255.744
220.99278 235.62067 255.744
220.97656 235.61153 255.744
221.00027 235.62485 255.744
220.9935 235.62105 255.744
220.9898 235.61896 255.744
220.99078 235.6195 255.744
221.00389 235.62689 255.744
220.99557 235.62218 255.744
220.99538 235.6221 255.744
220.98283 235.61504 255.744
221.00641 235.62833 255.744
220.9747 235.61046 255.744
220.99632 235.62262 255.744
220.98547 235.61652 255.744
220.98457 235.616 255.744
220.99803 235.62363 255.744
220.99428 235.62149 255.744
220.98813 235.61803 255.744
221.00249 235.62611 255.744
220.99052 235.61935 255.744
220.99904 235.62418 255.744
220.98462 235.61607 255.744
220.9961 235.62248 255.744
221.00479 235.62738 255.744
220.9712 235.60849 255.744
220.98627 235.61697 255.744
221.00957 235.6301 255.744
220.98026 235.61362 255.744
220.98474 235.61612 255.744
221.00227 235.62599 255.744
220.99908 235.6242 255.744
220.99268 235.62059 255.744
220.99762 235.62335 255.744
220.9946 235.62167 255.744
220.97752 235.61205 255.744
220.99083 235.61954 255.744
221.0241 235.63823 255.744
220.9764 235.61142 255.744
220.99094 235.6196 255.744
220.99466 235.62169 255.744
220.9896 235.61885 255.744
220.99785 235.62347 255.744
220.95862 235.60141 255.744
220.99129 235.61978 255.744
220.9762 235.61131 255.744
220.9823 235.61473 255.744
220.98796 235.61795 255.744
221.00755 235.62898 255.744
220.9956 235.62224 255.744
220.97346 235.60979 255.744
220.97423 235.6102 255.744
220.98831 235.61812 255.744
220.9987 235.62398 255.744
221.01505 235.63316 255.744
220.98634 235.61702 255.744
220.98195 235.61455 255.744
220.9829 235.61507 255.744
220.98764 235.61777 255.744
220.99277 235.62065 255.744
220.98364 235.6155 255.744
220.97614 235.6113 255.744
220.99507 235.62193 255.744
221.00354 235.6267 255.744
220.99503 235.6219 255.744
221.01884 235.63531 255.744
220.98328 235.61528 255.744
220.99496 235.62186 255.744
220.98837 235.61816 255.744
220.99295 235.62074 255.744
221.00888 235.6297 255.744
220.96986 235.60777 255.744
220.99399 235.6213 255.744
220.97838 235.61255 255.744
220.9772 235.61185 255.744
220.9803 235.61362 255.744
220.9911 235.6197 255.744
220.9753 235.6108 255.744
220.99928 235.62431 255.744
220.98909 235.61859 255.744
220.98781 235.61783 255.744
220.98459 235.61601 255.744
220.9806 235.61375 255.744
220.99081 235.61952 255.744
220.99504 235.62187 255.744
220.9925 235.62048 255.744
220.9655 235.6053 255.744
221.00214 235.6259 255.744
220.9872 235.61748 255.744
220.9753 235.61078 255.744
220.97115 235.60844 255.744
220.99008 235.61914 255.744
221.00731 235.6288 255.744
220.9756 235.61096 255.744
220.98044 235.61371 255.744
220.9921 235.62024 255.744
220.98056 235.61377 255.744
220.98608 235.61688 255.744
220.9857 235.61662 255.744
220.98271 235.61497 255.744
220.9909 235.61955 255.744
221.00632 235.62825 255.744
220.98396 235.61569 255.744
220.97108 235.60844 255.744
220.97911 235.61295 255.744
220.99242 235.62045 255.744
220.98412 235.61575 255.744
220.98137 235.61423 255.744
220.95367 235.59863 255.744
220.98723 235.61751 255.744
220.98364 235.6155 255.744
220.99579 235.62233 255.744
220.97926 235.61305 255.744
220.99232 235.62036 255.744
220.9974 235.62325 255.744
221.0005 235.62498 255.744
220.99512 235.62196 255.744
220.98326 235.6153 255.744
220.99606 235.62248 255.744
221.00438 235.62715 255.744
221.00233 235.62599 255.744
220.9843 235.61586 255.744
221.0001 235.62476 255.744
220.9877 235.61777 255.744
220.97656 235.61153 255.744
220.99843 235.6238 255.744
220.99117 235.6197 255.744
220.97714 235.61185 255.744
220.9888 235.61842 255.744
220.9874 235.6176 255.744
220.97115 235.60846 255.744
220.975 235.61063 255.744
220.98593 235.6168 255.744
220.97914 235.61296 255.744
220.99518 235.622 255.744
221.00433 235.62714 255.744
220.98177 235.61444 255.744
220.96283 235.60378 255.744
220.99254 235.62053 255.744
220.98479 235.61612 255.744
220.99849 235.62386 255.744
220.99557 235.62221 255.744
220.98044 235.61368 255.744
220.99329 235.62091 255.744
220.98328 235.6153 255.744
220.99037 235.61931 255.744
220.98503 235.61626 255.744
221.00891 235.62973 255.744
220.98987 235.619 255.744
220.97139 235.6086 255.744
220.9928 235.62068 255.744
220.96596 235.60558 255.744
220.99524 235.62201 255.744
220.9898 235.61896 255.744
220.96902 235.60725 255.744
220.98949 235.61877 255.744
220.9782 235.61246 255.744
221.00157 235.62556 255.744
220.96649 235.60587 255.744
220.98567 235.61665 255.744
220.97742 235.612 255.744
220.96715 235.6062 255.744
220.98785 235.61786 255.744
220.99382 235.62123 255.744
220.99855 235.62392 255.744
221.00533 235.6277 255.744
220.97594 235.61118 255.744
220.97705 235.61177 255.744
220.99214 235.62027 255.744
220.95786 235.60098 255.744
220.98567 235.61662 255.744
221.00133 235.62544 255.744
220.98112 235.61409 255.744
220.97923 235.61299 255.744
220.97476 235.61049 255.744
221.0069 235.62862 255.744
220.97762 235.61209 255.744
220.97112 235.60846 255.744
220.98839 235.61815 255.744
220.99149 235.61989 255.744
220.99748 235.6233 255.744
220.99226 235.62036 255.744
220.97733 235.61192 255.744
220.99998 235.6247 255.744
221.0012 235.62537 255.744
220.99509 235.62195 255.744
220.97969 235.61328 255.744
220.98412 235.61578 255.744
221.00136 235.62549 255.744
220.98943 235.61876 255.744
220.98512 235.6163 255.744
220.9785 235.61264 255.744
220.98672 235.61722 255.744
221.00102 235.62527 255.744
220.97563 235.61096 255.744
221.00291 235.62634 255.744
220.99161 235.61998 255.744
221.01096 235.63087 255.744
221.0107 235.63072 255.744
220.97684 235.61168 255.744
221.00752 235.62892 255.744
220.99194 235.62015 255.744
220.9991 235.62418 255.744
220.98402 235.61574 255.744
220.96611 235.60562 255.744
220.98436 235.6159 255.744
220.98013 235.61351 255.744
221.0049 235.6275 255.744
220.98119 235.6141 255.744
220.98462 235.61604 255.744
220.98949 235.6188 255.744
220.98589 235.61674 255.744
220.99113 235.6197 255.744
220.98676 235.61725 255.744
220.99417 235.62141 255.744
220.98724 235.61751 255.744
220.97519 235.61076 255.744
220.97842 235.61256 255.744
220.99002 235.6191 255.744
220.96423 235.60457 255.744
220.99713 235.6231 255.744
220.9835 235.61543 255.744
221.00696 235.62862 255.744
220.97966 235.61325 255.744
220.99472 235.62175 255.744
220.99712 235.62306 255.744
220.9947 235.62175 255.744
220.9886 235.6183 255.744
220.97163 235.60875 255.744
220.99171 235.62003 255.744
220.98865 235.6183 255.744
220.99008 235.61911 255.744
220.99876 235.62401 255.744
220.98318 235.61525 255.744
220.98795 235.61794 255.744
220.98686 235.6173 255.744
220.98991 235.61902 255.744
220.98694 235.61736 255.744
221.00407 235.62703 255.744
221.00287 235.62633 255.744
220.9914 235.61987 255.744
221.0008 235.62515 255.744
220.99557 235.6222 255.744
220.99496 235.62189 255.744
220.97661 235.61156 255.744
220.98439 235.6159 255.744
220.99112 235.6197 255.744
220.9997 235.62453 255.744
220.99538 235.6221 255.744
220.98785 235.61786 255.744
220.97755 235.61205 255.744
220.98988 235.619 255.744
220.98592 235.61673 255.744
221.00858 235.62952 255.744
221.00563 235.62787 255.744
220.99289 235.62071 255.744
220.99446 235.62157 255.744
220.99419 235.62143 255.744
220.99539 235.6221 255.744
220.99556 235.62216 255.744
220.95982 235.6021 255.744
220.96164 235.6031 255.744
220.9943 235.62149 255.744
220.99995 235.6247 255.744
220.98984 235.61899 255.744
220.99634 235.62263 255.744
220.97734 235.61195 255.744
221.00336 235.6266 255.744
220.99294 235.62071 255.744
220.98225 235.61473 255.744
221.00214 235.62592 255.744
220.98987 235.61899 255.744
220.97394 235.61003 255.744
220.98676 235.61726 255.744
221.00336 235.62662 255.744
220.98888 235.61842 255.744
221.00609 235.62811 255.744
220.98643 235.61705 255.744
220.98244 235.6148 255.744
220.9935 235.62103 255.744
220.99065 235.61943 255.744
220.99686 235.62294 255.744
220.97891 235.61284 255.744
220.98932 235.61873 255.744
220.99413 235.6214 255.744
220.98257 235.6149 255.744
220.99583 235.62236 255.744
221.00471 235.62735 255.744
220.99185 235.62012 255.744
220.9878 235.6178 255.744
220.98128 235.61414 255.744
220.97731 235.61191 255.744
221.00085 235.62518 255.744
220.98827 235.61812 255.744
221.00386 235.62686 255.744
220.98575 235.61665 255.744
221.00641 235.6283 255.744
220.9922 235.62033 255.744
220.99396 235.6213 255.744
220.97867 235.6127 255.744
220.9873 235.61755 255.744
220.98788 235.61786 255.744
220.98586 235.61673 255.744
220.99629 235.6226 255.744
220.99518 235.62198 255.744
220.99623 235.62257 255.744
220.99002 235.61908 255.744
220.99011 235.61916 255.744
220.98932 235.61868 255.744
220.98384 235.61559 255.744
221.0004 235.6249 255.744
220.98499 235.61624 255.744
221.0037 235.62679 255.744
220.99257 235.62054 255.744
221.00336 235.62659 255.744
220.995 235.62187 255.744
221.00052 235.625 255.744
221.00584 235.62798 255.744
221.02559 235.63907 255.744
220.99277 235.62062 255.744
221.0142 235.6327 255.744
220.99666 235.62283 255.744
221.00201 235.62582 255.744
221.0017 235.62567 255.744
220.99931 235.6243 255.744
221.00029 235.62486 255.744
220.99829 235.62375 255.744
220.9977 235.62343 255.744
220.99797 235.62358 255.744
220.97499 235.61061 255.744
220.99255 235.62053 255.744
221.00328 235.62657 255.744
220.99033 235.61928 255.744
220.9873 235.61754 255.744
221.01047 235.63062 255.744
221.00311 235.62646 255.744
220.99266 235.62057 255.744
220.98743 235.61763 255.744
220.99808 235.62364 255.744
220.98601 235.61682 255.744
220.99686 235.62294 255.744
220.99348 235.62103 255.744
221.02267 235.63747 255.744
221.00528 235.62764 255.744
220.99556 235.62216 255.744
220.98766 235.61777 255.744
220.99329 235.62093 255.744
220.98967 235.6189 255.744
220.9946 235.62161 255.744
221.0041 235.62701 255.744
220.99382 235.62123 255.744
220.98138 235.61424 255.744
221.01163 235.63124 255.744
221.0065 235.62839 255.744
220.9877 235.61777 255.744
221.0141 235.63263 255.744
220.98903 235.61852 255.744
221.0088 235.62965 255.744
220.9849 235.6162 255.744
221.0057 235.6279 255.744
221.02022 235.6361 255.744
221.00479 235.6274 255.744
221.00856 235.62953 255.744
221.00186 235.62576 255.744
221.01042 235.63058 255.744
220.99014 235.61914 255.744
221.01071 235.63077 255.744
221.00455 235.62724 255.744
221.0073 235.6288 255.744
220.98254 235.61488 255.744
220.99115 235.61972 255.744
221.0078 235.62909 255.744
221.00952 235.63005 255.744
221.01563 235.6335 255.744
220.9805 235.61372 255.744
221.01353 235.63234 255.744
221.00554 235.62782 255.744
220.98444 235.61592 255.744
220.98842 235.61818 255.744
220.99165 235.62003 255.744
221.00368 235.62679 255.744
220.9965 235.62274 255.744
221.00555 235.62782 255.744
221.00667 235.62846 255.744
221.00026 235.62486 255.744
220.99565 235.62227 255.744
221.01392 235.63252 255.744
220.99026 235.61923 255.744
220.9943 235.62148 255.744
221.02994 235.64156 255.744
220.99611 235.62253 255.744
220.99551 235.62218 255.744
221.01456 235.63292 255.744
221.0137 235.63239 255.744
220.99808 235.62363 255.744
221.0031 235.62643 255.744
220.99084 235.61955 255.744
221.00996 235.6303 255.744
221.0007 235.62508 255.744
221.02061 235.63632 255.744
220.99467 235.62172 255.744
221.00757 235.62898 255.744
220.99863 235.62393 255.744
221.00569 235.6279 255.744
221.00543 235.62775 255.744
221.01555 235.63345 255.744
221.01375 235.63242 255.744
221.00217 235.6259 255.744
220.99829 235.62375 255.744
220.99773 235.62341 255.744
221.00635 235.62825 255.744
221.01225 235.6316 255.744
220.99687 235.62294 255.744
221.00076 235.62512 255.744
221.01176 235.6313 255.744
221.01366 235.6324 255.744
220.99933 235.62431 255.744
220.99731 235.6232 255.744
220.99911 235.6242 255.744
221.0087 235.6296 255.744
221.00876 235.62962 255.744
220.9852 235.61638 255.744
221.01068 235.63072 255.744
221.0253 235.63896 255.744
221.00258 235.62617 255.744
221.00372 235.62679 255.744
221.01042 235.63055 255.744
221.00658 235.62837 255.744
220.99376 235.6212 255.744
221.02052 235.63626 255.744
221.00594 235.62805 255.744
221.00903 235.62979 255.744
221.0086 235.62952 255.744
221.00015 235.62477 255.744
221.019 235.63539 255.744
221.00081 235.62515 255.744
221.0019 235.62578 255.744
221.01173 235.6313 255.744
220.99977 235.62457 255.744
221.00385 235.62688 255.744
221.01083 235.63077 255.744
221.0131 235.63206 255.744
221.0052 235.62761 255.744
221.01566 235.6335 255.744
220.99915 235.6242 255.744
221.00104 235.62527 255.744
220.9997 235.62451 255.744
220.99458 235.62166 255.744
221.01096 235.63084 255.744
221.02339 235.63788 255.744
221.011 235.63089 255.744
220.99873 235.62402 255.744
221.01093 235.63081 255.744
221.00026 235.62485 255.744
221.00722 235.62874 255.744
221.03113 235.6422 255.744
221.05861 235.65768 255.744
221.06964 235.6639 255.744
221.05269 235.65437 255.744
221.01654 235.634 255.744
221.05013 235.65292 255.744
221.04002 235.64726 255.744
221.04782 235.65161 255.744
221.04045 235.64748 255.744
221.04482 235.64989 255.744
221.03316 235.64334 255.744
221.01839 235.63507 255.744
221.04097 235.64775 255.744
221.04459 235.64981 255.744
221.04538 235.65025 255.744
221.03505 235.64442 255.744
221.03714 235.6456 255.744
221.0437 235.64928 255.744
221.03824 235.64622 255.744
221.04112 235.64783 255.744
221.02576 235.63916 255.744
221.04066 235.64758 255.744
221.03625 235.64511 255.744
221.03873 235.6465 255.744
221.0384 235.64633 255.744
221.05109 235.65347 255.744
221.02905 235.64105 255.744
221.0375 235.64581 255.744
221.03421 235.64395 255.744
221.04488 235.64993 255.744
221.03577 235.64482 255.744
221.02623 235.63948 255.744
221.04973 235.6527 255.744
221.04756 235.65146 255.744
221.01628 235.63387 255.744
221.0441 235.64952 255.744
221.02933 235.64117 255.744
221.03732 235.6457 255.744
221.02908 235.6411 255.744
221.015 235.63315 255.744
221.04501 235.65002 255.744
221.05492 235.65561 255.744
221.06868 235.66335 255.744
221.03271 235.64311 255.744
221.04152 235.64806 255.744
221.03233 235.6429 255.744
221.04507 235.65004 255.744
221.04694 235.65112 255.744
221.05276 235.65439 255.744
221.0351 235.64444 255.744
221.04059 235.64752 255.744
221.05968 235.6583 255.744
221.03549 235.64467 255.744
221.03612 235.64499 255.744
221.03648 235.64523 255.744
221.03 235.64156 255.744
221.0226 235.63744 255.744
221.02744 235.64014 255.744
221.03517 235.64449 255.744
221.03311 235.64333 255.744
221.02733 235.64008 255.744
221.04448 235.64975 255.744
221.03839 235.64633 255.744
221.03503 235.6444 255.744
221.048 235.6517 255.744
221.04019 235.64728 255.744
221.04524 235.65019 255.744
221.0309 235.6421 255.744
221.03505 235.64445 255.744
221.04285 235.6488 255.744
221.01251 235.63174 255.744
221.0353 235.64456 255.744
221.0474 235.65137 255.744
221.01968 235.63576 255.744
221.05841 235.65758 255.744
221.03903 235.64668 255.744
221.0254 235.63898 255.744
221.04033 235.64738 255.744
221.03748 235.64583 255.744
221.0367 235.64536 255.744
221.03706 235.64554 255.744
221.05107 235.65346 255.744
221.0407 235.64758 255.744
221.03232 235.64288 255.744
221.02289 235.63756 255.744
221.02617 235.63943 255.744
221.0317 235.64255 255.744
221.0217 235.6369 255.744
221.0272 235.63998 255.744
221.0122 235.63158 255.744
221.0435 235.6492 255.744
221.0278 235.64038 255.744
221.03474 235.64426 255.744
221.02844 235.6407 255.744
221.03886 235.64659 255.744
221.0215 235.6368 255.744
221.03294 235.64323 255.744
221.04587 235.65053 255.744
221.04039 235.64742 255.744
221.02884 235.64095 255.744
221.04672 235.65099 255.744
221.0105 235.63063 255.744
221.0356 235.64473 255.744
221.02213 235.63713 255.744
221.00928 235.62993 255.744
221.03226 235.64288 255.744
221.01086 235.63081 255.744
221.03647 235.64523 255.744
221.04353 235.64919 255.744
221.02742 235.6401 255.744
221.03885 235.64656 255.744
221.01494 235.6331 255.744
221.02469 235.6386 255.744
221.04314 235.64899 255.744
221.0278 235.64034 255.744
221.01768 235.63467 255.744
221.03491 235.64436 255.744
221.00827 235.62936 255.744
221.03319 235.6434 255.744
221.0267 235.63971 255.744
221.0314 235.64235 255.744
221.01704 235.6343 255.744
221.0332 235.64337 255.744
221.02376 235.63806 255.744
221.0307 235.64198 255.744
221.03268 235.64311 255.744
221.0496 235.65262 255.744
221.02382 235.63812 255.744
221.04312 235.64896 255.744
221.0257 235.63911 255.744
221.03804 235.64612 255.744
221.01599 235.63368 255.744
221.02013 235.63603 255.744
221.0221 235.63713 255.744
221.03456 235.64415 255.744
221.01878 235.63527 255.744
221.02113 235.63658 255.744
221.0223 235.63725 255.744
221.02884 235.64093 255.744
221.04803 235.65172 255.744
221.03888 235.64659 255.744
221.02107 235.63658 255.744
221.03925 235.64676 255.744
221.01297 235.63199 255.744
221.04118 235.64786 255.744
221.03398 235.64383 255.744
221.028 235.64044 255.744
221.03297 235.64326 255.744
221.0224 235.63731 255.744
221.03415 235.64392 255.744
221.02058 235.6363 255.744
221.0194 235.63562 255.744
221.02382 235.63808 255.744
221.03728 235.64569 255.744
221.0241 235.63824 255.744
221.03468 235.64424 255.744
221.03294 235.64325 255.744
221.01717 235.63437 255.744
221.00774 235.62907 255.744
221.01358 235.63232 255.744
221.02014 235.63606 255.744
221.02675 235.63974 255.744
221.04153 235.64807 255.744
221.02599 235.63936 255.744
221.01495 235.6331 255.744
221.02573 235.63916 255.744
221.01682 235.63419 255.744
221.03828 235.64626 255.744
221.03441 235.64407 255.744
221.0346 235.6442 255.744
221.00888 235.62968 255.744
221.04175 235.6482 255.744
221.01984 235.63585 255.744
221.0398 235.64711 255.744
221.03061 235.64192 255.744
221.0147 235.63298 255.744
221.02467 235.63858 255.744
221.03047 235.64182 255.744
221.00366 235.62679 255.744
221.02512 235.63884 255.744
221.01262 235.63182 255.744
221.02788 235.64038 255.744
221.02287 235.63757 255.744
221.03365 235.64365 255.744
221.01962 235.63573 255.744
221.0324 235.64291 255.744
221.02867 235.64082 255.744
221.04259 235.64867 255.744
221.02162 235.63686 255.744
221.0098 235.63023 255.744
221.00545 235.62776 255.744
220.98793 235.61792 255.744
221.01945 235.63567 255.744
221.02036 235.63615 255.744
221.02719 235.64003 255.744
221.02504 235.6388 255.744
221.016 235.6337 255.744
221.02098 235.63649 255.744
221.02255 235.63739 255.744
221.01474 235.63301 255.744
221.03056 235.6419 255.744
221.01889 235.63533 255.744
221.02003 235.63594 255.744
221.02835 235.64066 255.744
221.03107 235.64218 255.744
221.00496 235.62747 255.744
221.02475 235.63864 255.744
221.04239 235.64857 255.744
221.0291 235.64108 255.744
221.03682 235.64542 255.744
221.02205 235.63712 255.744
221.04297 235.6489 255.744
221.04218 235.64844 255.744
221.01802 235.63484 255.744
221.02628 235.6395 255.744
221.0352 235.6445 255.744
221.01564 235.6335 255.744
221.01588 235.63362 255.744
221.02643 235.63957 255.744
221.0189 235.63535 255.744
221.02116 235.63663 255.744
221.00916 235.62988 255.744
221.03033 235.64177 255.744
221.02371 235.63805 255.744
221.02641 235.63956 255.744
221.01195 235.63144 255.744
221.0109 235.63081 255.744
221.02463 235.63853 255.744
221.01112 235.63097 255.744
221.02586 235.63927 255.744
221.02213 235.63715 255.744
221.01234 235.63165 255.744
221.00435 235.62717 255.744
221.02206 235.63713 255.744
221.0117 235.63132 255.744
221.04628 235.65074 255.744
221.03464 235.64423 255.744
221.01894 235.63536 255.744
221.0208 235.63643 255.744
221.0064 235.6283 255.744
221.00781 235.6291 255.744
221.01714 235.63434 255.744
221.04195 235.64828 255.744
221.01656 235.63403 255.744
221.04742 235.6514 255.744
221.02283 235.63754 255.744
221.0081 235.62924 255.744
221.02275 235.63748 255.744
221.02336 235.63783 255.744
221.01993 235.63594 255.744
221.0197 235.63579 255.744
221.03606 235.64502 255.744
221.03067 235.64195 255.744
221.01524 235.63324 255.744
221.02727 235.64005 255.744
221.02544 235.63902 255.744
221.00784 235.62912 255.744
221.00974 235.63017 255.744
221.00592 235.62804 255.744
221.01724 235.63437 255.744
221.01918 235.63551 255.744
221.01868 235.63521 255.744
221.00417 235.62706 255.744
221.03394 235.64381 255.744
221.04039 235.64742 255.744
221.02701 235.63992 255.744
221.01147 235.63116 255.744
221.0256 235.63911 255.744
221.02074 235.63635 255.744
221.01476 235.63301 255.744
221.03398 235.64383 255.744
221.02478 235.63866 255.744
221.01639 235.63391 255.744
221.0297 235.64139 255.744
221.00644 235.6283 255.744
221.02113 235.63657 255.744
221.03378 235.6437 255.744
221.02246 235.63731 255.744
221.0104 235.63054 255.744
221.01979 235.63585 255.744
221.02979 235.64146 255.744
220.99919 235.62427 255.744
221.00362 235.62674 255.744
221.03433 235.64403 255.744
221.02725 235.64003 255.744
221.0219 235.63704 255.744
221.00255 235.62617 255.744
221.03069 235.64198 255.744
221.0156 235.63347 255.744
221.0168 235.63416 255.744
221.01003 235.63033 255.744
221.02364 235.63802 255.744
221.00166 235.62564 255.744
221.01457 235.63289 255.744
221.02782 235.6403 255.744
221.00424 235.62708 255.744
221.0204 235.63615 255.744
221.03069 235.64192 255.744
221.03293 235.64325 255.744
221.03267 235.6431 255.744
221.03374 235.64368 255.744
221.03178 235.6426 255.744
221.02716 235.63998 255.744
221.02109 235.63658 255.744
221.019 235.63539 255.744
221.03014 235.64165 255.744
221.01314 235.6321 255.744
221.01534 235.63335 255.744
220.99934 235.62431 255.744
221.00407 235.62697 255.744
221.00656 235.62842 255.744
221.02187 235.637 255.744
221.02838 235.64067 255.744
221.01791 235.63478 255.744
221.01912 235.63547 255.744
221.0259 235.63925 255.744
221.02504 235.63878 255.744
221.02823 235.64058 255.744
221.01056 235.63065 255.744
221.018 235.63483 255.744
221.02325 235.6378 255.744
221.0262 235.63943 255.744
221.01021 235.63045 255.744
220.99614 235.62254 255.744
221.0115 235.6312 255.744
221.01183 235.63136 255.744
221.0126 235.63184 255.744
221.0306 235.64194 255.744
221.01884 235.6353 255.744
221.02101 235.63652 255.744
221.02016 235.63603 255.744
221.02318 235.63774 255.744
221.02475 235.63863 255.744
220.98871 235.61836 255.744
221.03185 235.64261 255.744
221.02267 235.63748 255.744
221.01505 235.63313 255.744
221.01137 235.6311 255.744
221.02455 235.6385 255.744
221.01262 235.63177 255.744
221.03302 235.6433 255.744
221.02573 235.63916 255.744
221.02312 235.6377 255.744
221.01324 235.63216 255.744
220.99203 235.62021 255.744
221.01294 235.632 255.744
221.01675 235.63414 255.744
221.01343 235.63226 255.744
221.01854 235.63513 255.744
221.03471 235.64423 255.744
221.04643 235.65083 255.744
221.01772 235.63466 255.744
221.01042 235.63058 255.744
221.01877 235.63527 255.744
221.02304 235.63768 255.744
221.02599 235.63933 255.744
221.01315 235.63214 255.744
221.01219 235.63158 255.744
221.03792 235.64606 255.744
221.0192 235.63548 255.744
221.01625 235.63383 255.744
221.03024 235.64172 255.744
221.01747 235.63455 255.744
221.01343 235.63225 255.744
221.01271 235.63184 255.744
221.03096 235.64212 255.744
221.0131 235.63206 255.744
221.05092 235.65337 255.744
221.01978 235.63582 255.744
221.00699 235.62868 255.744
221.04848 235.65198 255.744
221.02039 235.63615 255.744
221.02107 235.63657 255.744
221.02849 235.6407 255.744
221.00662 235.62842 255.744
221.0166 235.63408 255.744
221.0281 235.6405 255.744
221.02779 235.64037 255.744
221.03197 235.6427 255.744
221.02974 235.64145 255.744
221.01285 235.63191 255.744
221.02042 235.63615 255.744
221.039 235.64664 255.744
221.03123 235.64229 255.744
221.01181 235.63136 255.744
221.04001 235.64722 255.744
221.01685 235.63422 255.744
221.02348 235.63792 255.744
221.01532 235.63332 255.744
221.03427 235.64401 255.744
221.02634 235.63953 255.744
221.0372 235.64563 255.744
221.0063 235.62823 255.744
221.03056 235.6419 255.744
221.00946 235.63005 255.744
221.01903 235.63539 255.744
221.04161 235.64809 255.744
221.0143 235.63275 255.744
221.0145 235.63289 255.744
221.01352 235.63234 255.744
221.04237 235.64856 255.744
221.03044 235.64185 255.744
221.0262 235.63947 255.744
221.02098 235.6365 255.744
221.03493 235.64435 255.744
221.02344 235.63788 255.744
221.0209 235.63646 255.744
221.0099 235.6303 255.744
221.0354 235.64464 255.744
221.0238 235.6381 255.744
221.02751 235.64017 255.744
221.0273 235.64005 255.744
221.00418 235.62704 255.744
221.00253 235.62611 255.744
221.02142 235.63675 255.744
221.03885 235.64659 255.744
221.02905 235.64107 255.744
221.04492 235.64995 255.744
221.04367 235.64928 255.744
221.02838 235.64072 255.744
221.03548 235.64465 255.744
221.01155 235.63118 255.744
221.03659 235.64528 255.744
221.02632 235.63953 255.744
221.0394 235.64685 255.744
221.01991 235.6359 255.744
221.00955 235.63005 255.744
221.00493 235.62747 255.744
221.02924 235.64116 255.744
221.02415 235.63829 255.744
221.01823 235.63495 255.744
221.02611 235.63939 255.744
221.03247 235.64299 255.744
221.0108 235.6308 255.744
221.04941 235.6525 255.744
221.02455 235.6385 255.744
221.02287 235.63757 255.744
221.02176 235.63698 255.744
221.04707 235.6512 255.744
221.0047 235.62733 255.744
221.02943 235.64128 255.744
221.0231 235.63773 255.744
221.01065 235.63069 255.744
221.03484 235.6443 255.744
221.00937 235.62997 255.744
221.03194 235.64268 255.744
221.03886 235.64655 255.744
221.0383 235.64626 255.744
221.0291 235.64107 255.744
221.04613 235.65067 255.744
221.02676 235.63976 255.744
221.03772 235.64594 255.744
221.0202 235.63608 255.744
221.02617 235.63945 255.744
221.03908 235.64668 255.744
221.02614 235.63942 255.744
221.01956 235.63568 255.744
221.02711 235.63994 255.744
221.02339 235.63785 255.744
221.03041 235.64183 255.744
221.03377 235.64369 255.744
221.01979 235.63583 255.744
221.03304 235.6433 255.744
221.00462 235.6273 255.744
221.0168 235.63414 255.744
221.02254 235.63739 255.744
221.0228 235.63753 255.744
221.04295 235.6489 255.744
221.03934 235.64682 255.744
221.01268 235.63184 255.744
221.04898 235.65227 255.744
221.0429 235.64885 255.744
221.0442 235.64958 255.744
221.03743 235.64575 255.744
221.02832 235.64064 255.744
221.0258 235.63922 255.744
221.0208 235.63643 255.744
221.03773 235.64592 255.744
221.02681 235.63979 255.744
221.02684 235.63982 255.744
221.03189 235.64265 255.744
221.0452 235.65012 255.744
221.06 235.65846 255.744
221.03506 235.64445 255.744
221.0375 235.64581 255.744
221.03726 235.64566 255.744
221.04846 235.65198 255.744
221.03932 235.64684 255.744
221.01186 235.63138 255.744
221.02455 235.63852 255.744
221.02026 235.63611 255.744
221.01697 235.63425 255.744
221.02292 235.63759 255.744
221.02089 235.63646 255.744
221.04727 235.6513 255.744
221.0327 235.6431 255.744
221.01698 235.63426 255.744
221.03482 235.64432 255.744
221.02556 235.63908 255.744
221.01935 235.63556 255.744
221.01346 235.63226 255.744
221.02893 235.64096 255.744
221.04292 235.64885 255.744
221.0514 235.65363 255.744
221.03152 235.64243 255.744
221.02765 235.64023 255.744
221.026 235.63933 255.744
221.03358 235.64359 255.744
221.04169 235.64818 255.744
221.03134 235.64233 255.744
221.03094 235.64212 255.744
221.02489 235.6387 255.744
221.04079 235.64766 255.744
221.01941 235.6356 255.744
221.05421 235.6552 255.744
221.03047 235.64186 255.744
221.02899 235.641 255.744
221.02882 235.64093 255.744
221.02579 235.63922 255.744
221.04526 235.65018 255.744
221.0491 235.65233 255.744
221.03232 235.64288 255.744
221.02986 235.64151 255.744
221.01714 235.63432 255.744
221.02011 235.63599 255.744
221.0372 235.64563 255.744
221.03333 235.64345 255.744
221.03052 235.64188 255.744
221.0211 235.63655 255.744
221.01236 235.63165 255.744
221.02928 235.64116 255.744
221.03581 235.64487 255.744
221.02844 235.64069 255.744
221.04718 235.65125 255.744
221.04114 235.64784 255.744
221.04118 235.64787 255.744
221.02728 235.64003 255.744
221.02815 235.64052 255.744
221.03563 235.64476 255.744
221.03532 235.64458 255.744
221.0318 235.64261 255.744
221.0323 235.64287 255.744
221.03954 235.64694 255.744
221.0245 235.63847 255.744
221.04895 235.65225 255.744
221.04173 235.6482 255.744
221.02061 235.6363 255.744
221.02818 235.6406 255.744
221.04773 235.65154 255.744
221.03511 235.64445 255.744
221.05293 235.6545 255.744
221.0295 235.6413 255.744
221.04466 235.64981 255.744
221.03593 235.64494 255.744
221.0359 235.64491 255.744
221.05121 235.6535 255.744
221.04831 235.65187 255.744
221.01965 235.63576 255.744
221.04114 235.64787 255.744
221.03563 235.64473 255.744
221.05452 235.65536 255.744
221.04442 235.64969 255.744
221.0576 235.65712 255.744
221.03932 235.64682 255.744
221.03297 235.64328 255.744
221.04817 235.65182 255.744
221.03293 235.64325 255.744
221.0473 235.65137 255.744
221.03465 235.64421 255.744
221.02362 235.63795 255.744
221.04175 235.64821 255.744
221.0246 235.63855 255.744
221.03967 235.64703 255.744
221.05112 235.65344 255.744
221.03374 235.64369 255.744
221.03677 235.64539 255.744
221.04234 235.64854 255.744
221.02701 235.63994 255.744
221.0267 235.63972 255.744
221.02841 235.64069 255.744
221.04614 235.65067 255.744
221.0494 235.6525 255.744
221.04716 235.65123 255.744
221.02168 235.63693 255.744
221.04068 235.6476 255.744
221.02766 235.64024 255.744
221.04033 235.6474 255.744
221.04869 235.65208 255.744
221.04257 235.64865 255.744
221.04128 235.64792 255.744
221.03238 235.64291 255.744
221.05945 235.65816 255.744
221.05544 235.65591 255.744
221.03734 235.64572 255.744
221.0553 235.65579 255.744
221.05157 235.65373 255.744
221.04407 235.6495 255.744
221.04196 235.64832 255.744
221.04851 235.652 255.744
221.04672 235.65103 255.744
221.06885 235.66344 255.744
221.08212 235.67091 255.744
221.07971 235.66957 255.744
221.06493 235.66124 255.744
221.05827 235.6575 255.744
221.08176 235.6707 255.744
221.06685 235.6623 255.744
221.06482 235.66118 255.744
221.0778 235.66849 255.744
221.05965 235.65826 255.744
221.08154 235.6706 255.744
221.07619 235.6676 255.744
221.07118 235.66475 255.744
221.07288 235.66573 255.744
221.06898 235.66351 255.744
221.06342 235.66035 255.744
221.0739 235.6663 255.744
221.07121 235.66475 255.744
221.06097 235.65901 255.744
221.06721 235.66254 255.744
221.07332 235.66595 255.744
221.05309 235.65459 255.744
221.06514 235.66135 255.744
221.05011 235.65286 255.744
221.07721 235.66815 255.744
221.07681 235.66792 255.744
221.05672 235.65663 255.744
221.09102 235.67592 255.744
221.08025 235.66988 255.744
221.06017 235.65854 255.744
221.0401 235.64726 255.744
221.07658 235.66783 255.744
221.0611 235.65906 255.744
221.07506 235.66693 255.744
221.07089 235.6646 255.744
221.07263 235.6656 255.744
221.07379 235.66624 255.744
221.06375 235.66057 255.744
221.06918 235.66365 255.744
221.07632 235.66766 255.744
221.04144 235.64804 255.744
221.07008 235.66417 255.744
221.06773 235.66286 255.744
221.0612 235.65913 255.744
221.06534 235.66148 255.744
221.0794 235.6694 255.744
221.07376 235.66621 255.744
221.07306 235.66582 255.744
221.07901 235.66914 255.744
221.06271 235.65999 255.744
221.05756 235.65709 255.744
221.06522 235.66139 255.744
221.06454 235.66104 255.744
221.0663 235.66203 255.744
221.07285 235.6657 255.744
221.08759 235.674 255.744
221.06209 235.65965 255.744
221.06284 235.66006 255.744
221.05943 235.65816 255.744
221.0943 235.67775 255.744
221.06195 235.65956 255.744
221.06975 235.66396 255.744
221.06181 235.65948 255.744
221.0714 235.6649 255.744
221.05733 235.65694 255.744
221.0817 235.67067 255.744
221.06094 235.65903 255.744
221.0726 235.66557 255.744
221.0785 235.66887 255.744
221.08203 235.67085 255.744
221.04916 235.65237 255.744
221.07707 235.66809 255.744
221.06094 235.659 255.744
221.04234 235.64853 255.744
221.06665 235.66219 255.744
221.06334 235.66034 255.744
221.05762 235.65714 255.744
221.07768 235.66841 255.744
221.08574 235.67297 255.744
221.06094 235.659 255.744
221.059 235.65788 255.744
221.06807 235.66302 255.744
221.07024 235.66422 255.744
221.08553 235.67285 255.744
221.0641 235.66081 255.744
221.06673 235.66228 255.744
221.06609 235.6619 255.744
221.07208 235.66527 255.744
221.07402 235.66637 255.744
221.0617 235.65942 255.744
221.06664 235.66223 255.744
221.06381 235.66063 255.744
221.06194 235.65953 255.744
221.08359 235.67177 255.744
221.07956 235.66948 255.744
221.07292 235.66574 255.744
221.0378 235.64598 255.744
221.05048 235.65312 255.744
221.07803 235.66862 255.744
221.04555 235.65033 255.744
221.0767 235.66788 255.744
221.05031 235.65302 255.744
221.04843 235.65195 255.744
221.04398 235.64943 255.744
221.06604 235.66187 255.744
221.0581 235.6574 255.744
221.07947 235.6694 255.744
221.05678 235.65668 255.744
221.04466 235.64983 255.744
221.04854 235.652 255.744
221.05313 235.65462 255.744
221.0594 235.65813 255.744
221.07054 235.66438 255.744
221.08125 235.67044 255.744
221.05785 235.65726 255.744
221.0681 235.66302 255.744
221.08383 235.67189 255.744
221.06366 235.66055 255.744
221.06938 235.66377 255.744
221.06964 235.6639 255.744
221.05981 235.65837 255.744
221.05815 235.65744 255.744
221.05113 235.65346 255.744
221.06313 235.66023 255.744
221.07018 235.6642 255.744
221.06183 235.6595 255.744
221.05115 235.65349 255.744
221.06175 235.65945 255.744
221.0721 235.66527 255.744
221.05606 235.65623 255.744
221.06358 235.66049 255.744
221.0613 235.65916 255.744
221.05008 235.6529 255.744
221.04129 235.64795 255.744
221.05293 235.6545 255.744
221.0564 235.65646 255.744
221.05133 235.65358 255.744
221.04895 235.65225 255.744
221.0676 235.66273 255.744
221.03954 235.64694 255.744
221.06577 235.66174 255.744
221.0579 235.65729 255.744
221.05348 235.65479 255.744
221.06624 235.66199 255.744
221.04562 235.65038 255.744
221.05092 235.65337 255.744
221.04475 235.6499 255.744
221.06264 235.65996 255.744
221.04732 235.65135 255.744
221.06064 235.65884 255.744
221.06839 235.6632 255.744
221.05556 235.65596 255.744
221.06487 235.66121 255.744
221.06537 235.66147 255.744
221.06682 235.66232 255.744
221.05276 235.6544 255.744
221.05829 235.65749 255.744
221.05443 235.65535 255.744
221.05714 235.65688 255.744
221.0542 235.6552 255.744
221.06223 235.65974 255.744
221.04636 235.65077 255.744
221.05536 235.65585 255.744
221.04877 235.65216 255.744
221.04742 235.6514 255.744
221.05853 235.65764 255.744
221.05246 235.65424 255.744
221.05011 235.6529 255.744
221.06274 235.66 255.744
221.06325 235.66031 255.744
221.06343 235.66039 255.744
221.05566 235.656 255.744
221.07593 235.66739 255.744
221.06348 235.66042 255.744
221.04646 235.65085 255.744
221.05197 235.65395 255.744
221.0646 235.66104 255.744
221.05193 235.6539 255.744
221.02448 235.63849 255.744
221.05905 235.65793 255.744
221.04474 235.64986 255.744
221.05565 235.656 255.744
221.0648 235.66121 255.744
221.0451 235.6501 255.744
221.07336 235.66599 255.744
221.04605 235.65062 255.744
221.05197 235.65393 255.744
221.06668 235.66223 255.744
221.0722 235.66537 255.744
221.05682 235.65668 255.744
221.0517 235.65382 255.744
221.06602 235.66187 255.744
221.03648 235.64523 255.744
221.06485 235.6612 255.744
221.05887 235.65785 255.744
221.03746 235.6458 255.744
221.06207 235.65965 255.744
221.06932 235.66371 255.744
221.05647 235.6565 255.744
221.04097 235.64778 255.744
221.06197 235.65955 255.744
221.06 235.65848 255.744
221.05302 235.65456 255.744
221.0704 235.66432 255.744
221.05344 235.65477 255.744
221.05623 235.65636 255.744
221.05223 235.6541 255.744
221.03746 235.6458 255.744
221.0698 235.66397 255.744
221.06297 235.66014 255.744
221.04248 235.64857 255.744
221.03983 235.64713 255.744
221.05682 235.65668 255.744
221.05385 235.655 255.744
221.0602 235.6586 255.744
221.05885 235.65782 255.744
221.04323 235.64905 255.744
221.05925 235.65805 255.744
221.05205 235.65404 255.744
221.04977 235.65271 255.744
221.04034 235.6474 255.744
221.07745 235.66829 255.744
221.0502 235.65295 255.744
221.0395 235.64697 255.744
221.0328 235.64316 255.744
221.0664 235.66208 255.744
221.06895 235.66347 255.744
221.03949 235.64694 255.744
221.0512 235.65352 255.744
221.03625 235.6451 255.744
221.06474 235.66112 255.744
221.06755 235.66269 255.744
221.04532 235.65019 255.744
221.06935 235.66376 255.744
221.05646 235.6565 255.744
221.06744 235.66267 255.744
221.0483 235.65189 255.744
221.06233 235.65977 255.744
221.02673 235.63974 255.744
221.04726 235.6513 255.744
221.04675 235.65102 255.744
221.06914 235.66362 255.744
221.03831 235.64624 255.744
221.05405 235.65509 255.744
221.06631 235.662 255.744
221.073 235.6658 255.744
221.07512 235.66699 255.744
221.05678 235.65665 255.744
221.0517 235.65381 255.744
221.06517 235.66136 255.744
221.05586 235.65617 255.744
221.04633 235.65074 255.744
221.05867 235.65771 255.744
221.07034 235.66428 255.744
221.06465 235.66109 255.744
221.0458 235.65047 255.744
221.0662 235.66193 255.744
221.04755 235.65146 255.744
221.05121 235.65353 255.744
221.05374 235.65495 255.744
221.07388 235.66629 255.744
221.05263 235.65431 255.744
221.03891 235.64659 255.744
221.04543 235.65027 255.744
221.0489 235.65225 255.744
221.0385 235.64636 255.744
221.072 235.66522 255.744
221.06696 235.66238 255.744
221.04941 235.65251 255.744
221.05995 235.65845 255.744
221.0273 235.64008 255.744
221.06248 235.65987 255.744
221.02737 235.64009 255.744
221.03094 235.64214 255.744
221.0347 235.64423 255.744
221.07253 235.66551 255.744
221.06978 235.66397 255.744
221.05717 235.65686 255.744
221.05965 235.65826 255.744
221.04366 235.64925 255.744
221.05304 235.65459 255.744
221.04373 235.64932 255.744
221.04955 235.6526 255.744
221.07297 235.66579 255.744
221.08087 235.6702 255.744
221.03676 235.64537 255.744
221.05188 235.65388 255.744
221.06741 235.66266 255.744
221.06345 235.66039 255.744
221.05205 235.65402 255.744
221.05447 235.65535 255.744
221.057 235.65677 255.744
221.05202 235.654 255.744
221.06847 235.66324 255.744
221.07164 235.66502 255.744
221.06766 235.66277 255.744
221.06053 235.6588 255.744
221.05804 235.65738 255.744
221.04924 235.65242 255.744
221.05609 235.65625 255.744
221.0375 235.64583 255.744
221.04015 235.6473 255.744
221.0462 235.65067 255.744
221.05173 235.65381 255.744
221.05815 235.6574 255.744
221.06096 235.65898 255.744
221.04341 235.64912 255.744
221.04611 235.65067 255.744
221.05684 235.65672 255.744
221.0595 235.65819 255.744
221.06941 235.66376 255.744
221.0479 235.65166 255.744
221.04735 235.65132 255.744
221.0697 235.66393 255.744
221.05562 235.65602 255.744
221.05533 235.65585 255.744
221.0639 235.66064 255.744
221.05643 235.65648 255.744
221.05446 235.65536 255.744
221.03963 235.64699 255.744
221.07104 235.66473 255.744
221.05113 235.65347 255.744
221.06094 235.65903 255.744
221.05232 235.65417 255.744
221.0315 235.6424 255.744
221.03712 235.6456 255.744
221.04144 235.64801 255.744
221.06163 235.65941 255.744
221.04971 235.6527 255.744
221.03024 235.64172 255.744
221.06024 235.65862 255.744
221.0585 235.65761 255.744
221.05666 235.65662 255.744
221.05688 235.65674 255.744
221.05814 235.65738 255.744
221.05536 235.65585 255.744
221.0604 235.65866 255.744
221.03798 235.64607 255.744
221.04056 235.6475 255.744
221.06708 235.66246 255.744
221.04135 235.648 255.744
221.05873 235.65775 255.744
221.0267 235.63974 255.744
221.0218 235.63696 255.744
221.05771 235.65717 255.744
221.06848 235.66325 255.744
221.03859 235.64642 255.744
221.05414 235.65515 255.744
221.06169 235.6594 255.744
221.0763 235.66766 255.744
221.03381 235.64375 255.744
221.04716 235.65125 255.744
221.05031 235.65303 255.744
221.0515 235.65369 255.744
221.05966 235.65828 255.744
221.0407 235.64761 255.744
221.04851 235.65202 255.744
221.07198 235.66519 255.744
221.05229 235.65414 255.744
221.0641 235.66078 255.744
221.06462 235.66109 255.744
221.05313 235.6546 255.744
221.0419 235.64827 255.744
221.03677 235.6454 255.744
221.06654 235.66217 255.744
221.0564 235.65643 255.744
221.05989 235.6584 255.744
221.05714 235.65685 255.744
221.04965 235.65265 255.744
221.0529 235.65446 255.744
221.06871 235.6634 255.744
221.06866 235.66333 255.744
221.05743 235.65704 255.744
221.05699 235.65678 255.744
221.0519 235.65392 255.744
221.05849 235.65761 255.744
221.04272 235.64873 255.744
221.05359 235.65485 255.744
221.06396 235.6607 255.744
221.05392 235.65503 255.744
221.05373 235.65494 255.744
221.06978 235.66399 255.744
221.05772 235.6572 255.744
221.06236 235.65979 255.744
221.059 235.65796 255.744
221.05527 235.65578 255.744
221.0643 235.66089 255.744
221.06422 235.66083 255.744
221.07175 235.66507 255.744
221.06378 235.66063 255.744
221.05304 235.65459 255.744
221.05666 235.65657 255.744
221.06044 235.6587 255.744
221.05824 235.65747 255.744
221.06323 235.66031 255.744
221.05315 235.6546 255.744
221.03198 235.6427 255.744
221.05577 235.65607 255.744
221.0724 235.66547 255.744
221.07048 235.66438 255.744
221.06386 235.66063 255.744
221.0555 235.65596 255.744
221.06757 235.66272 255.744
221.04808 235.65173 255.744
221.06752 235.6627 255.744
221.05055 235.65312 255.744
221.0513 235.65356 255.744
221.0679 235.66289 255.744
221.03815 235.64618 255.744
221.05 235.65286 255.744
221.06516 235.66135 255.744
221.05879 235.65779 255.744
221.0567 235.65662 255.744
221.06131 235.6592 255.744
221.065 235.66129 255.744
221.0562 235.65634 255.744
221.06734 235.6626 255.744
221.06377 235.66061 255.744
221.06575 235.66171 255.744
221.05959 235.65823 255.744
221.07475 235.66678 255.744
221.05618 235.65633 255.744
221.06302 235.66017 255.744
221.05759 235.6571 255.744
221.05536 235.65585 255.744
221.06174 235.65942 255.744
221.04332 235.64908 255.744
221.05122 235.65352 255.744
221.04352 235.64919 255.744
221.04091 235.64775 255.744
221.0662 235.66197 255.744
221.05397 235.65508 255.744
221.05788 235.65727 255.744
221.04599 235.65057 255.744
221.05737 235.657 255.744
221.0563 235.65637 255.744
221.04994 235.65279 255.744
221.056 235.65625 255.744
221.0661 235.66191 255.744
221.04893 235.65224 255.744
221.04297 235.64886 255.744
221.06024 235.65862 255.744
221.05373 235.65492 255.744
221.06389 235.66068 255.744
221.05162 235.65376 255.744
221.06538 235.66151 255.744
221.0619 235.65952 255.744
221.0689 235.66348 255.744
221.08043 235.66997 255.744
221.06888 235.66347 255.744
221.06464 235.66107 255.744
221.05722 235.6569 255.744
221.09006 235.6754 255.744
221.07108 235.6647 255.744
221.05615 235.65633 255.744
221.05151 235.65367 255.744
221.08516 235.67262 255.744
221.07819 235.66873 255.744
221.03465 235.6442 255.744
221.07216 235.6653 255.744
221.06206 235.6596 255.744
221.05977 235.65836 255.744
221.048 235.65172 255.744
221.03522 235.64455 255.744
221.04906 235.65228 255.744
221.07245 235.66547 255.744
221.06348 235.66042 255.744
221.05809 235.6574 255.744
221.06883 235.66345 255.744
221.08182 235.67075 255.744
221.04916 235.65237 255.744
221.05142 235.65363 255.744
221.07054 235.66443 255.744
221.0803 235.66988 255.744
221.0672 235.66254 255.744
221.06688 235.66234 255.744
221.05626 235.65639 255.744
221.06226 235.65974 255.744
221.05351 235.65485 255.744
221.07164 235.66504 255.744
221.05936 235.65811 255.744
221.06343 235.66039 255.744
221.05191 235.65392 255.744
221.05862 235.65773 255.744
221.06676 235.66226 255.744
221.07317 235.66588 255.744
221.05112 235.65346 255.744
221.05476 235.6555 255.744
221.05823 235.65744 255.744
221.0664 235.66211 255.744
221.07281 235.66571 255.744
221.05443 235.65535 255.744
221.04883 235.65218 255.744
221.05174 235.65381 255.744
221.08717 235.67377 255.744
221.05223 235.65411 255.744
221.07243 235.66545 255.744
221.06342 235.66039 255.744
221.05023 235.65297 255.744
221.0646 235.66104 255.744
221.07446 235.66663 255.744
221.06618 235.66197 255.744
221.06471 235.66113 255.744
221.06422 235.66084 255.744
221.0581 235.65741 255.744
221.07462 235.6667 255.744
221.07892 235.66911 255.744
221.0654 235.66153 255.744
221.06377 235.66058 255.744
221.05841 235.6576 255.744
221.07472 235.66676 255.744
221.04538 235.65024 255.744
221.0653 235.66144 255.744
221.07028 235.66425 255.744
221.06752 235.66269 255.744
221.05363 235.6549 255.744
221.05838 235.65756 255.744
221.07047 235.66435 255.744
221.06041 235.6587 255.744
221.07529 235.66708 255.744
221.07813 235.66867 255.744
221.0632 235.66026 255.744
221.06667 235.66222 255.744
221.06543 235.66151 255.744
221.07176 235.66507 255.744
221.06598 235.66182 255.744
221.0684 235.66321 255.744
221.06097 235.65901 255.744
221.05798 235.65735 255.744
221.05719 235.65689 255.744
221.05444 235.65535 255.744
221.07036 235.66429 255.744
221.07047 235.66437 255.744
221.04973 235.65268 255.744
221.06819 235.6631 255.744
221.05511 235.6557 255.744
221.06241 235.65985 255.744
221.05275 235.65437 255.744
221.05846 235.6576 255.744
221.08632 235.67331 255.744
221.05719 235.65689 255.744
221.05829 235.65749 255.744
221.05527 235.6558 255.744
221.07085 235.6646 255.744
221.06514 235.66133 255.744
221.04277 235.64876 255.744
221.04088 235.6477 255.744
221.0575 235.65706 255.744
221.0853 235.67271 255.744
221.07468 235.66673 255.744
221.0627 235.65999 255.744
221.07213 235.66527 255.744
221.05551 235.65596 255.744
221.06456 235.66103 255.744
221.07516 235.66699 255.744
221.04965 235.65265 255.744
221.07455 235.66666 255.744
221.06964 235.66391 255.744
221.0654 235.66148 255.744
221.07365 235.66615 255.744
221.07233 235.6654 255.744
221.06448 235.66101 255.744
221.06763 235.66277 255.744
221.07869 235.66899 255.744
221.08292 235.67139 255.744
221.05919 235.65804 255.744
221.06467 235.66109 255.744
221.08037 235.66994 255.744
221.05688 235.65674 255.744
221.09177 235.67633 255.744
221.06444 235.661 255.744
221.06702 235.66241 255.744
221.08311 235.67148 255.744
221.0669 235.66237 255.744
221.06332 235.66037 255.744
221.07367 235.66618 255.744
221.05595 235.65619 255.744
221.07352 235.6661 255.744
221.06224 235.65971 255.744
221.08183 235.67075 255.744
221.06477 235.66113 255.744
221.07602 235.66748 255.744
221.08176 235.67072 255.744
221.06416 235.66081 255.744
221.05785 235.65727 255.744
221.06805 235.66304 255.744
221.06584 235.66173 255.744
221.0617 235.65945 255.744
221.06218 235.6597 255.744
221.08754 235.67398 255.744
221.0708 235.66454 255.744
221.0768 235.66792 255.744
221.06519 235.6614 255.744
221.07823 235.66872 255.744
221.0484 235.65193 255.744
221.0845 235.67223 255.744
221.06586 235.66177 255.744
221.05319 235.65466 255.744
221.06056 235.65881 255.744
221.0676 235.66273 255.744
221.09688 235.67921 255.744
221.11032 235.6868 255.744
221.07817 235.66873 255.744
221.10251 235.68237 255.744
221.10387 235.68314 255.744
221.09552 235.67845 255.744
221.08629 235.67325 255.744
221.08572 235.67296 255.744
221.1046 235.68355 255.744
221.10863 235.68585 255.744
221.1106 235.68698 255.744
221.09969 235.68082 255.744
221.11423 235.68901 255.744
221.09474 235.67804 255.744
221.0971 235.67934 255.744
221.11035 235.68681 255.744
221.11397 235.68884 255.744
221.10225 235.68225 255.744
221.11499 235.6894 255.744
221.11461 235.68922 255.744
221.09448 235.67789 255.744
221.1053 235.68396 255.744
221.1125 235.68803 255.744
221.09381 235.67752 255.744
221.09904 235.68045 255.744
221.10799 235.68549 255.744
221.10583 235.68427 255.744
221.09732 235.67946 255.744
221.10283 235.68256 255.744
221.10349 235.68294 255.744
221.08014 235.66978 255.744
221.09608 235.67877 255.744
221.10753 235.68518 255.744
221.0782 235.6687 255.744
221.10321 235.68279 255.744
221.0917 235.67632 255.744
221.10722 235.68504 255.744
221.09792 235.67978 255.744
221.09349 235.67729 255.744
221.10265 235.68248 255.744
221.11047 235.68687 255.744
221.10895 235.68602 255.744
221.09927 235.68059 255.744
221.08171 235.67073 255.744
221.10988 235.68655 255.744
221.1138 235.68875 255.744
221.09381 235.67747 255.744
221.09627 235.67886 255.744
221.10968 235.68643 255.744
221.10175 235.68198 255.744
221.0971 235.67937 255.744
221.11053 235.68695 255.744
221.09317 235.67711 255.744
221.10338 235.68289 255.744
221.09221 235.6766 255.744
221.10118 235.68163 255.744
221.11858 235.6914 255.744
221.10536 235.68399 255.744
221.09532 235.67834 255.744
221.08861 235.67455 255.744
221.11299 235.6883 255.744
221.114 235.68886 255.744
221.1041 235.6833 255.744
221.09424 235.67775 255.744
221.08925 235.67494 255.744
221.0869 235.67363 255.744
221.11186 235.6877 255.744
221.08865 235.6746 255.744
221.08272 235.67126 255.744
221.1226 235.69371 255.744
221.10284 235.68259 255.744
221.10101 235.68155 255.744
221.10583 235.68428 255.744
221.08966 235.67514 255.744
221.09671 235.67911 255.744
221.08879 235.67467 255.744
221.09236 235.67671 255.744
221.10057 235.6813 255.744
221.1023 235.68225 255.744
221.08852 235.67451 255.744
221.08487 235.67247 255.744
221.08632 235.67328 255.744
221.10403 235.68324 255.744
221.08798 235.67421 255.744
221.09572 235.67856 255.744
221.0873 235.67384 255.744
221.08743 235.6739 255.744
221.0938 235.67752 255.744
221.08871 235.67464 255.744
221.11658 235.69034 255.744
221.08327 235.67159 255.744
221.10342 235.68288 255.744
221.09106 235.67593 255.744
221.09074 235.67578 255.744
221.09393 235.67758 255.744
221.10936 235.68625 255.744
221.1007 235.68134 255.744
221.09213 235.67656 255.744
221.09885 235.68034 255.744
221.10071 235.6814 255.744
221.10245 235.68234 255.744
221.07654 235.66777 255.744
221.1005 235.68126 255.744
221.08662 235.67345 255.744
221.11295 235.68831 255.744
221.08572 235.67294 255.744
221.07823 235.66872 255.744
221.10374 235.68307 255.744
221.09923 235.68056 255.744
221.11174 235.68758 255.744
221.07532 235.6671 255.744
221.0883 235.67438 255.744
221.08214 235.67091 255.744
221.09506 235.67822 255.744
221.1024 235.68233 255.744
221.09277 235.6769 255.744
221.08232 235.67102 255.744
221.08902 235.67479 255.744
221.09642 235.67897 255.744
221.09221 235.67659 255.744
221.0963 235.6789 255.744
221.07677 235.6679 255.744
221.09782 235.67978 255.744
221.09648 235.67902 255.744
221.09607 235.67879 255.744
221.09042 235.67558 255.744
221.09311 235.67711 255.744
221.08685 235.6736 255.744
221.10556 235.6841 255.744
221.09949 235.6807 255.744
221.09218 235.67659 255.744
221.07628 235.66765 255.744
221.08643 235.67331 255.744
221.09875 235.68025 255.744
221.0869 235.67361 255.744
221.09445 235.67787 255.744
221.08061 235.67006 255.744
221.09213 235.67656 255.744
221.07965 235.66956 255.744
221.10075 235.68143 255.744
221.10178 235.68198 255.744
221.0648 235.66115 255.744
221.0747 235.66673 255.744
221.0991 235.68047 255.744
221.06952 235.66385 255.744
221.08449 235.67224 255.744
221.09972 235.68085 255.744
221.08205 235.67087 255.744
221.07321 235.66591 255.744
221.0921 235.67654 255.744
221.0875 235.67393 255.744
221.09256 235.67679 255.744
221.07172 235.6651 255.744
221.06868 235.66335 255.744
221.0971 235.67937 255.744
221.08017 235.66983 255.744
221.09828 235.68 255.744
221.08052 235.67001 255.744
221.08032 235.66992 255.744
221.06926 235.66367 255.744
221.09563 235.67851 255.744
221.08374 235.67186 255.744
221.07497 235.66687 255.744
221.08885 235.67471 255.744
221.09254 235.6768 255.744
221.1017 235.68193 255.744
221.08652 235.67342 255.744
221.10948 235.68636 255.744
221.09132 235.6761 255.744
221.09776 235.6797 255.744
221.07813 235.66867 255.744
221.10994 235.68657 255.744
221.07605 235.66751 255.744
221.0856 235.67285 255.744
221.09955 235.68073 255.744
221.09119 235.676 255.744
221.08192 235.67082 255.744
221.10492 235.68376 255.744
221.09616 235.67882 255.744
221.09569 235.67854 255.744
221.09071 235.67575 255.744
221.10693 235.68489 255.744
221.07677 235.66791 255.744
221.0776 235.66837 255.744
221.08943 235.67505 255.744
221.08168 235.67065 255.744
221.07166 235.66502 255.744
221.06567 235.66167 255.744
221.1093 235.6862 255.744
221.0884 235.67447 255.744
221.08665 235.67348 255.744
221.0757 235.6673 255.744
221.08467 235.67238 255.744
221.0959 235.67867 255.744
221.0978 235.67972 255.744
221.07404 235.66634 255.744
221.08139 235.6705 255.744
221.08229 235.67099 255.744
221.08876 235.67467 255.744
221.0844 235.6722 255.744
221.10164 235.68188 255.744
221.10098 235.68152 255.744
221.0648 235.6612 255.744
221.08238 235.67104 255.744
221.07584 235.66737 255.744
221.08687 235.67361 255.744
221.09691 235.67923 255.744
221.08774 235.67409 255.744
221.08952 235.67508 255.744
221.07716 235.66812 255.744
221.06721 235.66254 255.744
221.08441 235.6722 255.744
221.08098 235.67027 255.744
221.0829 235.67139 255.744
221.0862 235.6732 255.744
221.07187 235.66516 255.744
221.10135 235.68175 255.744
221.09659 235.67906 255.744
221.06653 235.66217 255.744
221.07489 235.66685 255.744
221.08539 235.67276 255.744
221.07224 235.66537 255.744
221.08171 235.6707 255.744
221.0856 235.67287 255.744
221.10309 235.68272 255.744
221.08284 235.67134 255.744
221.09229 235.6766 255.744
221.09198 235.6765 255.744
221.08714 235.67372 255.744
221.09274 235.67691 255.744
221.07048 235.66438 255.744
221.0692 235.66365 255.744
221.08836 235.67447 255.744
221.08072 235.67015 255.744
221.08669 235.67351 255.744
221.1014 235.68176 255.744
221.08003 235.66975 255.744
221.08769 235.67406 255.744
221.07286 235.66571 255.744
221.07454 235.66666 255.744
221.07578 235.66734 255.744
221.10028 235.68117 255.744
221.08383 235.67189 255.744
221.06937 235.66377 255.744
221.0648 235.6612 255.744
221.08022 235.66983 255.744
221.09329 235.67719 255.744
221.07686 235.66797 255.744
221.0818 235.67075 255.744
221.07207 235.66528 255.744
221.06996 235.66408 255.744
221.08325 235.67152 255.744
221.084 235.67195 255.744
221.09892 235.68037 255.744
221.08492 235.67249 255.744
221.0944 235.67781 255.744
221.08043 235.66998 255.744
221.1065 235.68465 255.744
221.09045 235.6756 255.744
221.06744 235.66264 255.744
221.05344 235.65475 255.744
221.07504 235.66693 255.744
221.07043 235.66437 255.744
221.07321 235.66591 255.744
221.09694 235.67928 255.744
221.07185 235.66516 255.744
221.07236 235.66544 255.744
221.0778 235.6685 255.744
221.06923 235.66365 255.744
221.10281 235.68256 255.744
221.06044 235.65872 255.744
221.0853 235.67271 255.744
221.07729 235.6682 255.744
221.09174 235.6763 255.744
221.08054 235.67 255.744
221.08939 235.67502 255.744
221.08595 235.67311 255.744
221.0962 235.67883 255.744
221.08421 235.6721 255.744
221.08675 235.67354 255.744
221.10371 235.68306 255.744
221.0838 235.67188 255.744
221.07378 235.66623 255.744
221.07124 235.66478 255.744
221.07652 235.6678 255.744
221.08055 235.67004 255.744
221.08316 235.67151 255.744
221.08827 235.67438 255.744
221.06511 235.66133 255.744
221.10107 235.68156 255.744
221.08685 235.6736 255.744
221.08469 235.67235 255.744
221.08449 235.67227 255.744
221.08195 235.67084 255.744
221.0933 235.67723 255.744
221.09984 235.68088 255.744
221.09874 235.68027 255.744
221.09999 235.681 255.744
221.08046 235.66995 255.744
221.09856 235.68018 255.744
221.07405 235.66638 255.744
221.09126 235.67609 255.744
221.1044 235.68346 255.744
221.0729 235.66571 255.744
221.07631 235.66762 255.744
221.0731 235.66585 255.744
221.05284 235.65443 255.744
221.09877 235.68027 255.744
221.0778 235.66852 255.744
221.08801 235.67422 255.744
221.09764 235.67966 255.744
221.07513 235.66698 255.744
221.09985 235.6809 255.744
221.09901 235.68044 255.744
221.10542 235.68404 255.744
221.08318 235.67152 255.744
221.08942 235.67503 255.744
221.07664 235.66783 255.744
221.0661 235.66188 255.744
221.07214 235.66531 255.744
221.06897 235.66351 255.744
221.09468 235.67801 255.744
221.09059 235.67567 255.744
221.08311 235.6715 255.744
221.08736 235.67386 255.744
221.09622 235.67883 255.744
221.09311 235.67711 255.744
221.087 235.67366 255.744
221.06866 235.66335 255.744
221.09108 235.676 255.744
221.08421 235.67207 255.744
221.09549 235.67847 255.744
221.0895 235.67506 255.744
221.08939 235.675 255.744
221.0992 235.68053 255.744
221.07759 235.66835 255.744
221.07321 235.6659 255.744
221.0658 235.66173 255.744
221.07011 235.66417 255.744
221.07585 235.66739 255.744
221.07011 235.66418 255.744
221.08708 235.67372 255.744
221.07378 235.6662 255.744
221.09076 235.6758 255.744
221.07994 235.66971 255.744
221.07968 235.66953 255.744
221.09453 235.6779 255.744
221.09816 235.67995 255.744
221.074 235.66637 255.744
221.08775 235.67409 255.744
221.08015 235.66982 255.744
221.07886 235.66908 255.744
221.08496 235.67253 255.744
221.06836 235.66318 255.744
221.08005 235.66974 255.744
221.0755 235.66718 255.744
221.0742 235.66647 255.744
221.07527 235.66707 255.744
221.07176 235.66512 255.744
221.09883 235.68031 255.744
221.07686 235.66797 255.744
221.07387 235.66629 255.744
221.08444 235.67223 255.744
221.0733 235.66594 255.744
221.10571 235.6842 255.744
221.1024 235.6823 255.744
221.08539 235.67274 255.744
221.0861 235.67316 255.744
221.09805 235.67987 255.744
221.08243 235.6711 255.744
221.08606 235.67314 255.744
221.06255 235.65987 255.744
221.06615 235.66193 255.744
221.10777 235.68533 255.744
221.07356 235.66609 255.744
221.07562 235.66727 255.744
221.0793 235.66933 255.744
221.07854 235.6689 255.744
221.0832 235.67152 255.744
221.07999 235.66974 255.744
221.08934 235.67499 255.744
221.07242 235.6655 255.744
221.06538 235.66148 255.744
221.0744 235.66658 255.744
221.0679 235.66292 255.744
221.0716 235.66504 255.744
221.08087 235.67023 255.744
221.09515 235.67825 255.744
221.1025 235.68239 255.744
221.07898 235.66916 255.744
221.0741 235.6664 255.744
221.08868 235.67465 255.744
221.08981 235.67528 255.744
221.09268 235.67686 255.744
221.07153 235.66496 255.744
221.09525 235.67828 255.744
221.07977 235.6696 255.744
221.08286 235.67133 255.744
221.0974 235.67955 255.744
221.08368 235.67181 255.744
221.09674 235.67911 255.744
221.08366 235.6718 255.744
221.0789 235.66914 255.744
221.08293 235.67137 255.744
221.07059 235.66441 255.744
221.1094 235.68628 255.744
221.09972 235.6808 255.744
221.09097 235.6759 255.744
221.08304 235.67146 255.744
221.08447 235.67223 255.744
221.08855 235.67451 255.744
221.09514 235.67825 255.744
221.08368 235.67181 255.744
221.08188 235.67076 255.744
221.08768 235.67403 255.744
221.08969 235.67519 255.744
221.09166 235.6763 255.744
221.10403 235.68323 255.744
221.09564 235.67856 255.744
221.08159 235.67062 255.744
221.08104 235.67032 255.744
221.08887 235.6747 255.744
221.08673 235.67351 255.744
221.06152 235.65932 255.744
221.08083 235.67018 255.744
221.09705 235.67934 255.744
221.08679 235.67355 255.744
221.09213 235.67654 255.744
221.10036 235.68118 255.744
221.07288 235.66574 255.744
221.08244 235.67111 255.744
221.0728 235.66566 255.744
221.10196 235.6821 255.744
221.08643 235.67334 255.744
221.08163 235.67062 255.744
221.06683 235.66228 255.744
221.10333 235.68283 255.744
221.08627 235.67325 255.744
221.09358 235.67735 255.744
221.09767 235.67967 255.744
221.09087 235.67583 255.744
221.07927 235.66931 255.744
221.07889 235.6691 255.744
221.0946 235.67792 255.744
221.07205 235.66524 255.744
221.07784 235.66852 255.744
221.0676 235.66275 255.744
221.10718 235.68504 255.744
221.08858 235.67456 255.744
221.08789 235.67418 255.744
221.09372 235.67744 255.744
221.0811 235.67033 255.744
221.08647 235.67337 255.744
221.10228 235.68227 255.744
221.10646 235.68463 255.744
221.07983 235.66963 255.744
221.10307 235.68271 255.744
221.10736 235.68513 255.744
221.07599 235.66745 255.744
221.08656 235.6734 255.744
221.096 235.67873 255.744
221.10336 235.68286 255.744
221.10612 235.68443 255.744
221.08287 235.67134 255.744
221.08794 235.67421 255.744
221.07582 235.66737 255.744
221.08815 235.67435 255.744
221.08197 235.67082 255.744
221.08885 235.6747 255.744
221.06685 235.66232 255.744
221.08078 235.67015 255.744
221.07898 235.66916 255.744
221.09352 235.67734 255.744
221.10898 235.68602 255.744
221.07622 235.66762 255.744
221.1012 235.68167 255.744
221.09982 235.68086 255.744
221.07678 235.66791 255.744
221.08818 235.67435 255.744
221.1113 235.68733 255.744
221.07639 235.66768 255.744
221.08182 235.67073 255.744
221.09987 235.6809 255.744
221.08719 235.67378 255.744
221.101 235.68153 255.744
221.08763 235.67404 255.744
221.0783 235.66875 255.744
221.0812 235.67041 255.744
221.1105 235.6869 255.744
221.10362 235.68301 255.744
221.08842 235.6745 255.744
221.0965 235.679 255.744
221.10612 235.68443 255.744
221.06421 235.66084 255.744
221.08234 235.67107 255.744
221.10497 235.68379 255.744
221.0944 235.67784 255.744
221.08928 235.67494 255.744
221.07562 235.66727 255.744
221.06985 235.66405 255.744
221.09349 235.6773 255.744
221.08157 235.67061 255.744
221.09459 235.67793 255.744
221.08743 235.67392 255.744
221.0793 235.66933 255.744
221.06912 235.66357 255.744
221.0865 235.67339 255.744
221.09406 235.67763 255.744
221.11842 235.69138 255.744
221.09229 235.67665 255.744
221.1058 235.68425 255.744
221.09407 235.67763 255.744
221.10287 235.68262 255.744
221.09048 235.67563 255.744
221.0965 235.67906 255.744
221.09119 235.67603 255.744
221.09135 235.6761 255.744
221.09052 235.67563 255.744
221.08545 235.67279 255.744
221.0946 235.67795 255.744
221.10767 235.6853 255.744
221.08719 235.67377 255.744
221.09184 235.67639 255.744
221.09052 235.67566 255.744
221.09428 235.67776 255.744
221.10443 235.68349 255.744
221.08688 235.67358 255.744
221.09734 235.67947 255.744
221.09071 235.67575 255.744
221.11653 235.6903 255.744
221.10071 235.68137 255.744
221.08136 235.67049 255.744
221.10208 235.68216 255.744
221.1043 235.68341 255.744
221.09665 235.67908 255.744
221.11194 235.68771 255.744
221.10214 235.68219 255.744
221.08499 235.67255 255.744
221.11325 235.68843 255.744
221.08704 235.67368 255.744
221.09703 235.6793 255.744
221.08362 235.67177 255.744
221.10425 235.68336 255.744
221.09816 235.67998 255.744
221.08844 235.67448 255.744
221.08177 235.67073 255.744
221.08997 235.67532 255.744
221.09543 235.6784 255.744
221.09601 235.67873 255.744
221.09006 235.67538 255.744
221.08267 235.67123 255.744
221.09633 235.67891 255.744
221.09924 235.68056 255.744
221.10077 235.6814 255.744
221.08247 235.67113 255.744
221.09885 235.68031 255.744
221.10555 235.68411 255.744
221.07124 235.6648 255.744
221.10072 235.6814 255.744
221.09753 235.67957 255.744
221.09492 235.67815 255.744
221.08754 235.67398 255.744
221.10408 235.68329 255.744
221.09065 235.67574 255.744
221.07877 235.669 255.744
221.0869 235.67363 255.744
221.09006 235.67538 255.744
221.1023 235.68227 255.744
221.08766 235.67403 255.744
221.07347 235.66603 255.744
221.10648 235.68462 255.744
221.10123 235.68167 255.744
221.09798 235.67986 255.744
221.08627 235.67326 255.744
221.1166 235.69034 255.744
221.10016 235.68105 255.744
221.10852 235.68575 255.744
221.09282 235.67697 255.744
221.11198 235.68773 255.744
221.08136 235.67047 255.744
221.10776 235.68533 255.744
221.09335 235.67725 255.744
221.08763 235.67401 255.744
221.13231 235.69916 255.744
221.09636 235.67892 255.744
221.11362 235.68866 255.744
221.1023 235.68227 255.744
221.0795 235.66942 255.744
221.10536 235.684 255.744
221.09569 235.67857 255.744
221.11464 235.68922 255.744
221.09964 235.68079 255.744
221.11057 235.68694 255.744
221.1211 235.69284 255.744
221.11035 235.68678 255.744
221.1006 235.68129 255.744
221.08603 235.67314 255.744
221.12164 235.69318 255.744
221.1085 235.68576 255.744
221.12962 235.69766 255.744
221.13464 235.70052 255.744
221.13644 235.70149 255.744
221.14429 235.70592 255.744
221.12906 235.69734 255.744
221.13405 235.70016 255.744
221.14265 235.705 255.744
221.13594 235.70123 255.744
221.13123 235.69853 255.744
221.14398 235.70573 255.744
221.1183 235.6913 255.744
221.11748 235.6908 255.744
221.13011 235.69792 255.744
221.12015 235.69235 255.744
221.13333 235.69975 255.744
221.12497 235.69505 255.744
221.15535 235.71216 255.744
221.12267 235.69377 255.744
221.13756 235.70213 255.744
221.12715 235.69623 255.744
221.14111 235.70412 255.744
221.12683 235.6961 255.744
221.13483 235.7006 255.744
221.10638 235.68457 255.744
221.12813 235.69681 255.744
221.14182 235.70453 255.744
221.13141 235.69867 255.744
221.14291 235.70512 255.744
221.13075 235.6983 255.744
221.13507 235.7007 255.744
221.12637 235.69583 255.744
221.1463 235.70705 255.744
221.14381 235.70566 255.744
221.14488 235.70622 255.744
221.13184 235.6989 255.744
221.13501 235.7007 255.744
221.1422 235.70476 255.744
221.12238 235.6936 255.744
221.13376 235.69998 255.744
221.14723 235.70753 255.744
221.12213 235.69345 255.744
221.15755 235.7134 255.744
221.1308 235.69832 255.744
221.1093 235.6862 255.744
221.1235 235.69421 255.744
221.139 235.70296 255.744
221.13829 235.70248 255.744
221.13689 235.70174 255.744
221.13176 235.69887 255.744
221.1202 235.69234 255.744
221.1206 235.69261 255.744
221.11697 235.69052 255.744
221.11943 235.69191 255.744
221.1218 235.69325 255.744
221.12274 235.69379 255.744
221.13388 235.70007 255.744
221.13844 235.70262 255.744
221.1303 235.69803 255.744
221.1158 235.6899 255.744
221.14099 235.70406 255.744
221.12479 235.69493 255.744
221.12794 235.69672 255.744
221.12088 235.69275 255.744
221.12566 235.69542 255.744
221.14001 235.70352 255.744
221.1287 235.69716 255.744
221.12555 235.69537 255.744
221.12878 235.69716 255.744
221.12823 235.69688 255.744
221.11661 235.6903 255.744
221.13483 235.70059 255.744
221.1298 235.69775 255.744
221.14351 235.70546 255.744
221.12445 235.69475 255.744
221.14291 235.70512 255.744
221.10925 235.6862 255.744
221.11174 235.68756 255.744
221.13945 235.70322 255.744
221.1382 235.70251 255.744
221.12766 235.69656 255.744
221.14026 235.70364 255.744
221.12592 235.69556 255.744
221.12123 235.69293 255.744
221.13136 235.69864 255.744
221.13576 235.70111 255.744
221.1385 235.70267 255.744
221.12828 235.69693 255.744
221.11385 235.68877 255.744
221.12839 235.69698 255.744
221.13367 235.69995 255.744
221.12978 235.69777 255.744
221.12796 235.69672 255.744
221.13191 235.69896 255.744
221.12569 235.69545 255.744
221.13019 235.69801 255.744
221.1166 235.69032 255.744
221.12048 235.69252 255.744
221.12714 235.69627 255.744
221.11057 235.68695 255.744
221.13469 235.70052 255.744
221.12779 235.69662 255.744
221.12106 235.69284 255.744
221.11623 235.69012 255.744
221.13582 235.70117 255.744
221.1356 235.70103 255.744
221.12596 235.69562 255.744
221.13718 235.70192 255.744
221.1308 235.69833 255.744
221.11833 235.6913 255.744
221.12463 235.69485 255.744
221.11879 235.69156 255.744
221.10321 235.6828 255.744
221.11304 235.68832 255.744
221.11368 235.6887 255.744
221.12163 235.69313 255.744
221.12225 235.69353 255.744
221.13535 235.7009 255.744
221.112 235.68773 255.744
221.12474 235.6949 255.744
221.10931 235.68622 255.744
221.13663 235.7016 255.744
221.13556 235.70099 255.744
221.10968 235.68642 255.744
221.11957 235.69202 255.744
221.1058 235.68425 255.744
221.10754 235.68521 255.744
221.14513 235.70638 255.744
221.1208 235.69267 255.744
221.13387 235.70007 255.744
221.1132 235.68843 255.744
221.12224 235.69351 255.744
221.12564 235.6954 255.744
221.12206 235.69339 255.744
221.13332 235.69975 255.744
221.13397 235.70009 255.744
221.11191 235.68768 255.744
221.10396 235.68321 255.744
221.13602 235.70122 255.744
221.09924 235.68056 255.744
221.13829 235.70255 255.744
221.13382 235.7 255.744
221.10825 235.6856 255.744
221.13484 235.70058 255.744
221.12454 235.69482 255.744
221.12587 235.69554 255.744
221.12434 235.69469 255.744
221.11734 235.69075 255.744
221.13222 235.69911 255.744
221.10286 235.68257 255.744
221.11613 235.69006 255.744
221.1257 235.69542 255.744
221.11938 235.69191 255.744
221.13354 235.69984 255.744
221.12674 235.69603 255.744
221.12263 235.69373 255.744
221.11356 235.6886 255.744
221.12021 235.69235 255.744
221.12169 235.6932 255.744
221.14241 235.70485 255.744
221.12897 235.69727 255.744
221.11607 235.69002 255.744
221.1146 235.68921 255.744
221.11346 235.68858 255.744
221.13715 235.70186 255.744
221.13124 235.69858 255.744
221.12663 235.69595 255.744
221.1063 235.68454 255.744
221.12262 235.69373 255.744
221.1269 235.6961 255.744
221.13284 235.69946 255.744
221.11304 235.68834 255.744
221.11589 235.68994 255.744
221.11858 235.69145 255.744
221.10542 235.68405 255.744
221.12653 235.69594 255.744
221.14139 235.70427 255.744
221.12184 235.69327 255.744
221.11443 235.6891 255.744
221.09564 235.67854 255.744
221.12099 235.69278 255.744
221.13527 235.7008 255.744
221.10588 235.6843 255.744
221.12173 235.69322 255.744
221.13007 235.69789 255.744
221.10287 235.68262 255.744
221.13562 235.70105 255.744
221.10786 235.68541 255.744
221.11679 235.69041 255.744
221.11972 235.6921 255.744
221.13164 235.69878 255.744
221.11671 235.69038 255.744
221.10999 235.68661 255.744
221.10974 235.68646 255.744
221.11964 235.69203 255.744
221.11899 235.6917 255.744
221.12115 235.69287 255.744
221.12216 235.69345 255.744
221.1164 235.6902 255.744
221.10487 235.68373 255.744
221.11075 235.68707 255.744
221.12166 235.69316 255.744
221.12411 235.69453 255.744
221.11362 235.68863 255.744
221.11545 235.68967 255.744
221.11525 235.68956 255.744
221.10182 235.68199 255.744
221.1399 235.70343 255.744
221.1061 235.68443 255.744
221.11476 235.68927 255.744
221.09303 235.67708 255.744
221.12994 235.69781 255.744
221.10869 235.68588 255.744
221.1024 235.68236 255.744
221.09807 235.67989 255.744
221.12143 235.69304 255.744
221.12994 235.69783 255.744
221.11691 235.69049 255.744
221.10248 235.68239 255.744
221.11569 235.68979 255.744
221.09737 235.67952 255.744
221.09828 235.68004 255.744
221.10873 235.6859 255.744
221.1165 235.69026 255.744
221.12288 235.69386 255.744
221.11897 235.69165 255.744
221.10165 235.6819 255.744
221.13641 235.70149 255.744
221.09967 235.68085 255.744
221.12755 235.69652 255.744
221.11244 235.68796 255.744
221.12677 235.69604 255.744
221.10822 235.6856 255.744
221.11073 235.68703 255.744
221.10393 235.6832 255.744
221.12062 235.69258 255.744
221.11845 235.69139 255.744
221.10768 235.68529 255.744
221.1108 235.68707 255.744
221.11082 235.68707 255.744
221.11685 235.6905 255.744
221.1254 235.69528 255.744
221.11897 235.69162 255.744
221.10828 235.68565 255.744
221.12012 235.69234 255.744
221.106 235.68439 255.744
221.11015 235.6867 255.744
221.11784 235.69104 255.744
221.14131 235.70421 255.744
221.11841 235.69133 255.744
221.12943 235.69756 255.744
221.11226 235.68787 255.744
221.10997 235.68661 255.744
221.11424 235.689 255.744
221.10622 235.68448 255.744
221.13 235.6979 255.744
221.13843 235.70262 255.744
221.11906 235.69171 255.744
221.11497 235.68944 255.744
221.11409 235.6889 255.744
221.1285 235.697 255.744
221.11414 235.68893 255.744
221.1059 235.68431 255.744
221.12181 235.69325 255.744
221.11575 235.68987 255.744
221.11612 235.69006 255.744
221.12952 235.69759 255.744
221.10817 235.6856 255.744
221.12785 235.69664 255.744
221.11996 235.69223 255.744
221.12813 235.69681 255.744
221.13356 235.69986 255.744
221.12093 235.69275 255.744
221.11786 235.69107 255.744
221.12233 235.69353 255.744
221.10513 235.68388 255.744
221.10481 235.68365 255.744
221.11795 235.69109 255.744
221.1155 235.68971 255.744
221.1134 235.68849 255.744
221.131 235.69841 255.744
221.11475 235.68927 255.744
221.11342 235.68855 255.744
221.13242 235.69925 255.744
221.10956 235.68637 255.744
221.11691 235.69052 255.744
221.12762 235.69653 255.744
221.10526 235.68396 255.744
221.10416 235.68333 255.744
221.10957 235.68637 255.744
221.10011 235.68105 255.744
221.12077 235.69266 255.744
221.13036 235.69809 255.744
221.11192 235.6877 255.744
221.1117 235.68758 255.744
221.12144 235.69305 255.744
221.12286 235.69382 255.744
221.12115 235.69289 255.744
221.11546 235.68967 255.744
221.14105 235.70409 255.744
221.1124 235.68796 255.744
221.11732 235.69072 255.744
221.11125 235.68733 255.744
221.10667 235.68474 255.744
221.10078 235.68143 255.744
221.09329 235.67722 255.744
221.11325 235.68842 255.744
221.11816 235.69121 255.744
221.1187 235.69151 255.744
221.1214 235.69302 255.744
221.09424 235.67775 255.744
221.10594 235.68434 255.744
221.11475 235.68927 255.744
221.11433 235.68904 255.744
221.12054 235.69258 255.744
221.10315 235.68272 255.744
221.11363 235.68864 255.744
221.12024 235.69238 255.744
221.11577 235.68987 255.744
221.11064 235.68697 255.744
221.09962 235.6808 255.744
221.10799 235.68546 255.744
221.13385 235.70003 255.744
221.1205 235.69252 255.744
221.11751 235.69083 255.744
221.0994 235.68068 255.744
221.12302 235.69395 255.744
221.11926 235.69182 255.744
221.11859 235.69144 255.744
221.12177 235.69324 255.744
221.12178 235.69324 255.744
221.10498 235.68376 255.744
221.11607 235.69003 255.744
221.11742 235.69078 255.744
221.14035 235.70372 255.744
221.11092 235.68712 255.744
221.11566 235.68976 255.744
221.119 235.69168 255.744
221.11176 235.68758 255.744
221.1168 235.69044 255.744
221.09833 235.68005 255.744
221.10052 235.6813 255.744
221.12228 235.69353 255.744
221.10785 235.68541 255.744
221.1289 235.69724 255.744
221.12134 235.69301 255.744
221.12088 235.69273 255.744
221.09866 235.68025 255.744
221.1242 235.6946 255.744
221.1315 235.69872 255.744
221.09859 235.68018 255.744
221.11409 235.68893 255.744
221.11899 235.69168 255.744
221.12733 235.69635 255.744
221.10141 235.68176 255.744
221.1071 235.68495 255.744
221.11717 235.69064 255.744
221.13141 235.69868 255.744
221.11157 235.6875 255.744
221.1003 235.68117 255.744
221.11176 235.6876 255.744
221.11858 235.69142 255.744
221.11775 235.69098 255.744
221.1259 235.69556 255.744
221.11525 235.68958 255.744
221.11165 235.68756 255.744
221.11008 235.68665 255.744
221.10315 235.68275 255.744
221.09087 235.67584 255.744
221.12967 235.69768 255.744
221.10785 235.68536 255.744
221.12312 235.69398 255.744
221.11774 235.69096 255.744
221.10928 235.6862 255.744
221.12302 235.69392 255.744
221.11124 235.68727 255.744
221.11108 235.68724 255.744
221.10716 235.68504 255.744
221.0924 235.67668 255.744
221.11392 235.68881 255.744
221.12451 235.6948 255.744
221.12088 235.69272 255.744
221.09346 235.67729 255.744
221.10934 235.68625 255.744
221.10657 235.68466 255.744
221.10443 235.68346 255.744
221.12767 235.69655 255.744
221.11644 235.69025 255.744
221.12294 235.6939 255.744
221.12518 235.69514 255.744
221.12576 235.69551 255.744
221.12805 235.6968 255.744
221.12056 235.69255 255.744
221.12343 235.69415 255.744
221.11557 235.68974 255.744
221.09921 235.68056 255.744
221.10066 235.68135 255.744
221.11137 235.68741 255.744
221.114 235.68887 255.744
221.11057 235.68694 255.744
221.09996 235.68097 255.744
221.11766 235.6909 255.744
221.12337 235.6941 255.744
221.11618 235.69008 255.744
221.11707 235.6906 255.744
221.12 235.69223 255.744
221.11511 235.6895 255.744
221.11783 235.691 255.744
221.1056 235.68416 255.744
221.10754 235.68523 255.744
221.11563 235.68977 255.744
221.13142 235.69867 255.744
221.12909 235.69734 255.744
221.13994 235.70348 255.744
221.10748 235.68518 255.744
221.11824 235.69127 255.744
221.12674 235.69603 255.744
221.1256 235.69539 255.744
221.10846 235.68573 255.744
221.11832 235.69131 255.744
221.1125 235.68803 255.744
221.11392 235.68883 255.744
221.12952 235.6976 255.744
221.13013 235.69797 255.744
221.11427 235.68903 255.744
221.13142 235.69868 255.744
221.1188 235.69157 255.744
221.11493 235.68939 255.744
221.09166 235.67632 255.744
221.12672 235.69604 255.744
221.1084 235.68571 255.744
221.1047 235.68364 255.744
221.1092 235.68619 255.744
221.1248 235.69495 255.744
221.09514 235.67828 255.744
221.11743 235.6908 255.744
221.10463 235.68356 255.744
221.11897 235.69168 255.744
221.10548 235.68407 255.744
221.11882 235.69153 255.744
221.11154 235.68748 255.744
221.1293 235.69746 255.744
221.11977 235.69211 255.744
221.12039 235.69246 255.744
221.12128 235.69296 255.744
221.11852 235.6914 255.744
221.12349 235.6942 255.744
221.10863 235.68584 255.744
221.10538 235.68402 255.744
221.11147 235.68742 255.744
221.13092 235.69841 255.744
221.11662 235.6903 255.744
221.11931 235.69185 255.744
221.12794 235.69672 255.744
221.1216 235.69313 255.744
221.13277 235.6994 255.744
221.10655 235.68468 255.744
221.1127 235.68816 255.744
221.12924 235.69742 255.744
221.1268 235.69608 255.744
221.12347 235.69418 255.744
221.11719 235.69064 255.744
221.12486 235.69496 255.744
221.10422 235.68335 255.744
221.12831 235.69695 255.744
221.11911 235.69173 255.744
221.12483 235.69498 255.744
221.10881 235.68596 255.744
221.12273 235.69379 255.744
221.12375 235.69434 255.744
221.10114 235.6816 255.744
221.12157 235.69315 255.744
221.13338 235.69978 255.744
221.13332 235.69975 255.744
221.12547 235.69534 255.744
221.11794 235.69109 255.744
221.10306 235.68272 255.744
221.09665 235.6791 255.744
221.1318 235.69887 255.744
221.12602 235.6956 255.744
221.1171 235.6906 255.744
221.1244 235.6947 255.744
221.13957 235.70326 255.744
221.11037 235.68681 255.744
221.12297 235.69392 255.744
221.11324 235.68843 255.744
221.13342 235.69977 255.744
221.11325 235.68846 255.744
221.1141 235.6889 255.744
221.12917 235.69742 255.744
221.12744 235.69644 255.744
221.12846 235.697 255.744
221.12454 235.69478 255.744
221.11533 235.68964 255.744
221.12666 235.69601 255.744
221.13135 235.69864 255.744
221.12628 235.69579 255.744
221.13115 235.6985 255.744
221.11366 235.68869 255.744
221.11212 235.6878 255.744
221.14543 235.70656 255.744
221.11961 235.69205 255.744
221.10739 235.68515 255.744
221.10168 235.68192 255.744
221.11328 235.68848 255.744
221.10434 235.68343 255.744
221.12187 235.69331 255.744
221.13136 235.69864 255.744
221.13327 235.69974 255.744
221.12169 235.69319 255.744
221.13333 235.69975 255.744
221.1277 235.69658 255.744
221.12587 235.69556 255.744
221.14168 235.70442 255.744
221.11438 235.68909 255.744
221.1176 235.6909 255.744
221.13911 235.703 255.744
221.13947 235.70322 255.744
221.13176 235.69885 255.744
221.1267 235.69601 255.744
221.11914 235.69176 255.744
221.15224 235.71039 255.744
221.13 235.69789 255.744
221.11377 235.68874 255.744
221.12361 235.69426 255.744
221.1397 235.70331 255.744
221.14166 235.7044 255.744
221.13327 235.69972 255.744
221.14575 235.70673 255.744
221.13966 235.7033 255.744
221.12418 235.6946 255.744
221.12817 235.69685 255.744
221.12256 235.69365 255.744
221.11862 235.69147 255.744
221.1315 235.69872 255.744
221.12404 235.6945 255.744
221.1386 235.70273 255.744
221.13202 235.69902 255.744
221.13043 235.6981 255.744
221.12445 235.69476 255.744
221.1357 235.70105 255.744
221.12022 235.69235 255.744
221.10844 235.68575 255.744
221.12787 235.69669 255.744
221.1458 235.70676 255.744
221.14148 235.70433 255.744
221.11931 235.69183 255.744
221.12965 235.69771 255.744
221.12238 235.69357 255.744
221.12608 235.69565 255.744
221.12872 235.69716 255.744
221.126 235.6956 255.744
221.13797 235.70236 255.744
221.1356 235.70103 255.744
221.12654 235.69592 255.744
221.13068 235.69826 255.744
221.12247 235.69365 255.744
221.12862 235.69708 255.744
221.12856 235.69707 255.744
221.12314 235.69402 255.744
221.12463 235.69487 255.744
221.14749 235.70773 255.744
221.13615 235.70134 255.744
221.14154 235.70438 255.744
221.12318 235.694 255.744
221.12154 235.69307 255.744
221.1357 235.70108 255.744
221.1089 235.68599 255.744
221.1285 235.69704 255.744
221.1433 235.70537 255.744
221.12338 235.69412 255.744
221.13191 235.69896 255.744
221.14925 235.7087 255.744
221.12439 235.69472 255.744
221.12888 235.69725 255.744
221.11752 235.69087 255.744
221.12889 235.69724 255.744
221.11932 235.69185 255.744
221.13441 235.70036 255.744
221.12685 235.6961 255.744
221.13794 235.70233 255.744
221.12514 235.69513 255.744
221.13799 235.70238 255.744
221.14006 235.70352 255.744
221.1391 235.703 255.744
221.12486 235.69499 255.744
221.13191 235.69897 255.744
221.12543 235.69531 255.744
221.12953 235.69762 255.744
221.15166 235.71007 255.744
221.13338 235.69974 255.744
221.1147 235.68927 255.744
221.13095 235.69841 255.744
221.15051 235.70938 255.744
221.1314 235.69864 255.744
221.14056 235.70383 255.744
221.12877 235.69719 255.744
221.13832 235.70256 255.744
221.14139 235.7043 255.744
221.14919 235.70868 255.744
221.1225 235.6937 255.744
221.1516 235.71004 255.744
221.1545 235.71164 255.744
221.15866 235.71402 255.744
221.15709 235.71312 255.744
221.16422 235.71712 255.744
221.15878 235.71408 255.744
221.18211 235.7272 255.744
221.16824 235.7194 255.744
221.1613 235.71547 255.744
221.15639 235.71274 255.744
221.16962 235.72017 255.744
221.16138 235.71555 255.744
221.15572 235.71234 255.744
221.17683 235.72423 255.744
221.17651 235.72408 255.744
221.16646 235.7184 255.744
221.17781 235.72481 255.744
221.15512 235.71202 255.744
221.14867 235.70839 255.744
221.16246 235.71614 255.744
221.17065 235.72076 255.744
221.17389 235.72255 255.744
221.16048 235.71501 255.744
221.15894 235.71416 255.744
221.15143 235.7099 255.744
221.16942 235.72006 255.744
221.15631 235.71269 255.744
221.15775 235.71352 255.744
221.16754 235.71901 255.744
221.15886 235.71411 255.744
221.15495 235.71188 255.744
221.16733 235.71889 255.744
221.1484 235.70822 255.744
221.17143 235.72118 255.744
221.15732 235.71326 255.744
221.14667 235.70728 255.744
221.15419 235.71147 255.744
221.16032 235.71494 255.744
221.16852 235.71956 255.744
221.15726 235.71321 255.744
221.163 235.71645 255.744
221.17363 235.72243 255.744
221.17361 235.72243 255.744
221.16533 235.71774 255.744
221.1665 235.7184 255.744
221.1593 235.71432 255.744
221.1519 235.7102 255.744
221.15106 235.70973 255.744
221.175 235.7232 255.744
221.15282 235.71071 255.744
221.17198 235.7215 255.744
221.18439 235.72849 255.744
221.13942 235.70316 255.744
221.14029 235.7037 255.744
221.16699 235.71872 255.744
221.15092 235.70966 255.744
221.1612 235.71544 255.744
221.17598 235.72375 255.744
221.15881 235.7141 255.744
221.14574 235.70674 255.744
221.14055 235.70381 255.744
221.15979 235.71466 255.744
221.16124 235.71547 255.744
221.17563 235.72356 255.744
221.17711 235.72438 255.744
221.15277 235.71072 255.744
221.1397 235.70334 255.744
221.15541 235.71217 255.744
221.16971 235.72021 255.744
221.15692 235.71303 255.744
221.15544 235.7122 255.744
221.15205 235.71028 255.744
221.17105 235.721 255.744
221.15794 235.7136 255.744
221.1471 235.70746 255.744
221.16727 235.71884 255.744
221.14192 235.70457 255.744
221.16147 235.71562 255.744
221.166 235.71812 255.744
221.16638 235.71835 255.744
221.1568 235.7129 255.744
221.15417 235.71147 255.744
221.16284 235.71634 255.744
221.16165 235.71567 255.744
221.16388 235.71693 255.744
221.14748 235.70773 255.744
221.12111 235.69289 255.744
221.16779 235.71913 255.744
221.17137 235.72116 255.744
221.14519 235.70644 255.744
221.14499 235.70631 255.744
221.17267 235.72185 255.744
221.13388 235.70006 255.744
221.1545 235.71164 255.744
221.1534 235.71103 255.744
221.16519 235.71767 255.744
221.17316 235.72218 255.744
221.16399 235.71698 255.744
221.1521 235.71031 255.744
221.15613 235.71257 255.744
221.15388 235.7113 255.744
221.14174 235.70448 255.744
221.14949 235.70885 255.744
221.15479 235.7118 255.744
221.16217 235.71599 255.744
221.16275 235.71631 255.744
221.15323 235.71095 255.744
221.14928 235.70872 255.744
221.14075 235.70392 255.744
221.16031 235.71494 255.744
221.14616 235.70699 255.744
221.16638 235.71832 255.744
221.13 235.69786 255.744
221.14113 235.70415 255.744
221.16737 235.71889 255.744
221.14612 235.70695 255.744
221.13791 235.70233 255.744
221.14885 235.70848 255.744
221.16544 235.71782 255.744
221.15471 235.71178 255.744
221.14891 235.70853 255.744
221.16261 235.71625 255.744
221.1547 235.71176 255.744
221.13356 235.69984 255.744
221.16595 235.71811 255.744
221.15366 235.71118 255.744
221.16899 235.71979 255.744
221.1635 235.71672 255.744
221.15062 235.70946 255.744
221.14561 235.70663 255.744
221.15543 235.71216 255.744
221.1462 235.70697 255.744
221.14597 235.70685 255.744
221.15277 235.71068 255.744
221.1423 235.70479 255.744
221.15953 235.71448 255.744
221.1576 235.71341 255.744
221.12257 235.69368 255.744
221.15416 235.71147 255.744
221.14397 235.70572 255.744
221.18031 235.72621 255.744
221.14542 235.70656 255.744
221.14005 235.70355 255.744
221.15555 235.71225 255.744
221.15584 235.71243 255.744
221.14359 235.70555 255.744
221.14282 235.70511 255.744
221.16486 235.71748 255.744
221.15173 235.7101 255.744
221.15729 235.71326 255.744
221.15222 235.71036 255.744
221.15282 235.71074 255.744
221.15607 235.71255 255.744
221.16882 235.71974 255.744
221.15382 235.71127 255.744
221.15884 235.71413 255.744
221.15651 235.71275 255.744
221.1712 235.72107 255.744
221.15686 235.71301 255.744
221.16797 235.71924 255.744
221.16031 235.71494 255.744
221.1503 235.70929 255.744
221.15752 235.71336 255.744
221.13254 235.69928 255.744
221.15135 235.70988 255.744
221.16232 235.71606 255.744
221.155 235.71193 255.744
221.14503 235.70636 255.744
221.13701 235.70183 255.744
221.13588 235.70117 255.744
221.14575 235.70671 255.744
221.1468 235.70737 255.744
221.14442 235.706 255.744
221.14125 235.7042 255.744
221.13618 235.70134 255.744
221.16525 235.7177 255.744
221.13863 235.70276 255.744
221.1456 235.70663 255.744
221.1579 235.71355 255.744
221.15541 235.71216 255.744
221.14911 235.70862 255.744
221.15126 235.70985 255.744
221.15265 235.71065 255.744
221.14351 235.70547 255.744
221.15358 235.71114 255.744
221.14264 235.70499 255.744
221.15508 235.71198 255.744
221.1483 235.7082 255.744
221.15355 235.71114 255.744
221.1693 235.71999 255.744
221.16959 235.72014 255.744
221.16151 235.71562 255.744
221.14389 235.7057 255.744
221.14574 235.70671 255.744
221.14447 235.706 255.744
221.14227 235.70476 255.744
221.17105 235.72096 255.744
221.15826 235.71378 255.744
221.15315 235.7109 255.744
221.16472 235.71739 255.744
221.13977 235.70338 255.744
221.14676 235.7073 255.744
221.14975 235.709 255.744
221.13095 235.6984 255.744
221.12671 235.69601 255.744
221.13606 235.7013 255.744
221.13614 235.70131 255.744
221.16972 235.72021 255.744
221.16316 235.71654 255.744
221.14088 235.70396 255.744
221.16066 235.71513 255.744
221.14572 235.70671 255.744
221.15282 235.71071 255.744
221.17155 235.72127 255.744
221.15886 235.71416 255.744
221.15047 235.70943 255.744
221.1452 235.70642 255.744
221.15651 235.71277 255.744
221.1384 235.70259 255.744
221.17339 235.72227 255.744
221.15335 235.711 255.744
221.13763 235.70216 255.744
221.14745 235.70772 255.744
221.13733 235.70201 255.744
221.13039 235.69806 255.744
221.14632 235.70705 255.744
221.14322 235.70532 255.744
221.14728 235.7076 255.744
221.14835 235.70822 255.744
221.13406 235.70015 255.744
221.1459 235.7068 255.744
221.15585 235.71243 255.744
221.15242 235.71048 255.744
221.14958 235.7089 255.744
221.15259 235.71057 255.744
221.1435 235.70547 255.744
221.16124 235.71545 255.744
221.14941 235.70879 255.744
221.14258 235.70496 255.744
221.15378 235.71127 255.744
221.15208 235.71031 255.744
221.14409 235.70583 255.744
221.14478 235.70618 255.744
221.1387 235.70277 255.744
221.15582 235.71242 255.744
221.14197 235.70464 255.744
221.15657 235.71283 255.744
221.15387 235.7113 255.744
221.1513 235.70987 255.744
221.15338 235.71101 255.744
221.16112 235.71538 255.744
221.15486 235.71182 255.744
221.15636 235.71269 255.744
221.16637 235.71834 255.744
221.15463 235.71172 255.744
221.15677 235.71297 255.744
221.14934 235.70876 255.744
221.1478 235.7079 255.744
221.16188 235.7158 255.744
221.13913 235.703 255.744
221.15742 235.71333 255.744
221.14468 235.70612 255.744
221.1304 235.69807 255.744
221.1424 235.70485 255.744
221.16734 235.7189 255.744
221.1633 235.71661 255.744
221.13907 235.70296 255.744
221.1351 235.70074 255.744
221.1569 235.71301 255.744
221.13681 235.7017 255.744
221.15846 235.71391 255.744
221.1625 235.71616 255.744
221.13223 235.69916 255.744
221.14424 235.70589 255.744
221.14105 235.70409 255.744
221.14359 235.70552 255.744
221.14519 235.7064 255.744
221.14612 235.70694 255.744
221.13309 235.6996 255.744
221.16159 235.71565 255.744
221.13176 235.69885 255.744
221.17213 235.72159 255.744
221.1385 235.70265 255.744
221.13994 235.70348 255.744
221.15663 235.71288 255.744
221.12503 235.69508 255.744
221.14418 235.70586 255.744
221.13916 235.703 255.744
221.13652 235.70157 255.744
221.14394 235.70572 255.744
221.14 235.70349 255.744
221.15022 235.70926 255.744
221.15002 235.70917 255.744
221.14055 235.70381 255.744
221.15297 235.7108 255.744
221.1538 235.71123 255.744
221.152 235.71024 255.744
221.1459 235.70682 255.744
221.13565 235.70105 255.744
221.14032 235.70369 255.744
221.13646 235.7015 255.744
221.14975 235.70901 255.744
221.15816 235.71373 255.744
221.14989 235.70908 255.744
221.15465 235.71173 255.744
221.14828 235.70816 255.744
221.13226 235.69914 255.744
221.1485 235.7083 255.744
221.14793 235.70796 255.744
221.13707 235.70186 255.744
221.15158 235.71005 255.744
221.15451 235.71167 255.744
221.16066 235.71513 255.744
221.14706 235.70746 255.744
221.14413 235.70583 255.744
221.16472 235.7174 255.744
221.1623 235.71606 255.744
221.14 235.7035 255.744
221.13695 235.70178 255.744
221.13976 235.70334 255.744
221.17162 235.72128 255.744
221.13582 235.70114 255.744
221.14723 235.70757 255.744
221.15007 235.70918 255.744
221.15686 235.71303 255.744
221.15405 235.71141 255.744
221.17247 235.72177 255.744
221.15073 235.70953 255.744
221.15248 235.71051 255.744
221.14383 235.70566 255.744
221.13844 235.70262 255.744
221.15565 235.71233 255.744
221.15376 235.71126 255.744
221.16537 235.71779 255.744
221.15237 235.71046 255.744
221.13606 235.7013 255.744
221.15498 235.71194 255.744
221.13818 235.70248 255.744
221.13199 235.69897 255.744
221.15904 235.71422 255.744
221.14609 235.7069 255.744
221.14143 235.70432 255.744
221.1406 235.70381 255.744
221.1281 235.69681 255.744
221.13177 235.69885 255.744
221.14053 235.70378 255.744
221.14873 235.70842 255.744
221.16315 235.71654 255.744
221.15703 235.71309 255.744
221.15256 235.71057 255.744
221.169 235.7198 255.744
221.14932 235.70874 255.744
221.15297 235.71077 255.744
221.15494 235.7119 255.744
221.14276 235.70506 255.744
221.12982 235.69777 255.744
221.15753 235.71336 255.744
221.15654 235.71283 255.744
221.13202 235.699 255.744
221.165 235.71754 255.744
221.14726 235.7076 255.744
221.14787 235.70795 255.744
221.14885 235.70847 255.744
221.14925 235.70872 255.744
221.16154 235.71564 255.744
221.13483 235.70056 255.744
221.14624 235.707 255.744
221.16037 235.71497 255.744
221.16426 235.71715 255.744
221.13785 235.70232 255.744
221.13498 235.7007 255.744
221.16077 235.71518 255.744
221.13905 235.70296 255.744
221.15431 235.71153 255.744
221.1414 235.70432 255.744
221.15565 235.71234 255.744
221.14474 235.70618 255.744
221.14507 235.70633 255.744
221.14789 235.70795 255.744
221.1388 235.70282 255.744
221.12813 235.69684 255.744
221.1583 235.71382 255.744
221.16045 235.71503 255.744
221.14778 235.70784 255.744
221.17758 235.72467 255.744
221.13237 235.69922 255.744
221.15305 235.71085 255.744
221.146 235.7069 255.744
221.13231 235.69917 255.744
221.16138 235.71553 255.744
221.14775 235.70787 255.744
221.1455 235.7066 255.744
221.14531 235.70653 255.744
221.14563 235.70665 255.744
221.1442 235.70587 255.744
221.13448 235.7004 255.744
221.15062 235.70949 255.744
221.12871 235.69714 255.744
221.127 235.69618 255.744
221.15701 235.71306 255.744
221.14874 235.7084 255.744
221.15611 235.71259 255.744
221.14957 235.7089 255.744
221.15543 235.71217 255.744
221.16408 235.71709 255.744
221.16899 235.71983 255.744
221.14919 235.70868 255.744
221.16177 235.71577 255.744
221.16393 235.71698 255.744
221.14801 235.70801 255.744
221.14526 235.70644 255.744
221.15076 235.70956 255.744
221.1663 235.71832 255.744
221.16194 235.71585 255.744
221.18478 235.72871 255.744
221.14684 235.70734 255.744
221.15578 235.71239 255.744
221.1586 235.714 255.744
221.16496 235.71756 255.744
221.14227 235.70477 255.744
221.15149 235.70996 255.744
221.14972 235.70897 255.744
221.16035 235.71497 255.744
221.1629 235.7164 255.744
221.15762 235.71341 255.744
221.1319 235.69896 255.744
221.16054 235.71507 255.744
221.14914 235.70862 255.744
221.15276 235.71068 255.744
221.15536 235.71217 255.744
221.15353 235.71112 255.744
221.15721 235.71317 255.744
221.14267 235.70502 255.744
221.1479 235.70795 255.744
221.13739 235.70201 255.744
221.14265 235.70499 255.744
221.1659 235.71806 255.744
221.17377 235.72252 255.744
221.1458 235.70677 255.744
221.15567 235.71234 255.744
221.17029 235.72057 255.744
221.15216 235.71034 255.744
221.15143 235.70995 255.744
221.16043 235.715 255.744
221.15701 235.71304 255.744
221.15639 235.71272 255.744
221.13997 235.70349 255.744
221.15938 235.71439 255.744
221.1715 235.72127 255.744
221.15535 235.71216 255.744
221.17036 235.72058 255.744
221.1516 235.71004 255.744
221.15337 235.71101 255.744
221.1481 235.70807 255.744
221.1587 235.71402 255.744
221.14725 235.70758 255.744
221.1529 235.71077 255.744
221.16129 235.71548 255.744
221.14626 235.70702 255.744
221.14502 235.70631 255.744
221.15685 235.71298 255.744
221.15488 235.71188 255.744
221.15112 235.70975 255.744
221.16904 235.71985 255.744
221.13551 235.70099 255.744
221.1708 235.72086 255.744
221.15204 235.71028 255.744
221.16473 235.71744 255.744
221.16261 235.71622 255.744
221.16164 235.71571 255.744
221.165 235.71758 255.744
221.15787 235.71355 255.744
221.16702 235.71872 255.744
221.16486 235.71747 255.744
221.15892 235.71414 255.744
221.1477 235.70782 255.744
221.17271 235.72191 255.744
221.15038 235.70935 255.744
221.16841 235.7195 255.744
221.13892 235.70288 255.744
221.14764 235.7078 255.744
221.14923 235.7087 255.744
221.15535 235.71214 255.744
221.14049 235.70378 255.744
221.14189 235.70454 255.744
221.13556 235.70099 255.744
221.15813 235.7137 255.744
221.16718 235.71877 255.744
221.17065 235.72075 255.744
221.16101 235.71536 255.744
221.17561 235.72357 255.744
221.15831 235.71384 255.744
221.15276 235.71063 255.744
221.16217 235.71599 255.744
221.15813 235.7137 255.744
221.15816 235.71371 255.744
221.14394 235.70569 255.744
221.16107 235.71536 255.744
221.17915 235.72552 255.744
221.14223 235.70476 255.744
221.16861 235.7196 255.744
221.1459 235.70679 255.744
221.15678 235.71297 255.744
221.16481 235.71747 255.744
221.17924 235.7256 255.744
221.15865 235.71399 255.744
221.1424 235.70483 255.744
221.16833 235.71947 255.744
221.15634 235.71269 255.744
221.1635 235.71674 255.744
221.15594 235.71248 255.744
221.14334 235.70538 255.744
221.14458 235.70607 255.744
221.15825 235.71378 255.744
221.16353 235.71672 255.744
221.1725 235.72177 255.744
221.14832 235.70818 255.744
221.1574 235.71326 255.744
221.16327 235.71657 255.744
221.16833 235.71942 255.744
221.13718 235.70192 255.744
221.15004 235.70915 255.744
221.15572 235.71236 255.744
221.15498 235.71193 255.744
221.16338 235.71664 255.744
221.16783 235.71913 255.744
221.1602 235.71487 255.744
221.16728 235.71884 255.744
221.14807 235.70802 255.744
221.15614 235.71259 255.744
221.16248 235.71616 255.744
221.13292 235.69952 255.744
221.15096 235.70966 255.744
221.1572 235.71317 255.744
221.14433 235.70592 255.744
221.1466 235.7072 255.744
221.14185 235.70453 255.744
221.17006 235.72043 255.744
221.152 235.71025 255.744
221.1665 235.71844 255.744
221.15816 235.71373 255.744
221.16435 235.71721 255.744
221.14847 235.70824 255.744
221.17528 235.72336 255.744
221.14929 235.70874 255.744
221.17363 235.72244 255.744
221.16934 235.72002 255.744
221.15836 235.71385 255.744
221.17152 235.72124 255.744
221.15973 235.7146 255.744
221.16924 235.71996 255.744
221.14424 235.70587 255.744
221.15544 235.7122 255.744
221.16403 235.71704 255.744
221.1659 235.71811 255.744
221.16824 235.7194 255.744
221.16783 235.71916 255.744
221.16 235.71475 255.744
221.15787 235.71356 255.744
221.17317 235.72217 255.744
221.16003 235.71477 255.744
221.14584 235.70679 255.744
221.16673 235.71857 255.744
221.15564 235.71231 255.744
221.1664 235.71837 255.744
221.15263 235.7106 255.744
221.16167 235.71568 255.744
221.16846 235.71951 255.744
221.16365 235.71681 255.744
221.17198 235.72151 255.744
221.1563 235.71268 255.744
221.15749 235.71336 255.744
221.15419 235.71149 255.744
221.15096 235.70966 255.744
221.15567 235.71233 255.744
221.16437 235.71722 255.744
221.15271 235.71068 255.744
221.15555 235.71223 255.744
221.15717 235.71315 255.744
221.1476 235.7078 255.744
221.16158 235.71564 255.744
221.1507 235.70952 255.744
221.16995 235.72034 255.744
221.1414 235.70432 255.744
221.15439 235.71158 255.744
221.14908 235.70862 255.744
221.1627 235.71628 255.744
221.15997 235.71475 255.744
221.17493 235.72316 255.744
221.17633 235.72394 255.744
221.14777 235.70786 255.744
221.17795 235.72487 255.744
221.18234 235.72736 255.744
221.15666 235.71286 255.744
221.18141 235.72682 255.744
221.1831 235.72775 255.744
221.1753 235.72336 255.744
221.18736 235.73016 255.744
221.15364 235.71115 255.744
221.16235 235.71606 255.744
221.16335 235.71663 255.744
221.18492 235.72876 255.744
221.20517 235.74019 255.744
221.19354 235.73366 255.744
221.19798 235.73616 255.744
221.19067 235.73201 255.744
221.20705 235.7412 255.744
221.17911 235.72552 255.744
221.18927 235.73123 255.744
221.19319 235.73343 255.744
221.2027 235.7388 255.744
221.1855 235.72914 255.744
221.19284 235.73322 255.744
221.20459 235.73985 255.744
221.20206 235.73843 255.744
221.18802 235.73051 255.744
221.1901 235.7317 255.744
221.20415 235.7396 255.744
221.18431 235.72844 255.744
221.19757 235.7359 255.744
221.19525 235.73457 255.744
221.20107 235.73788 255.744
221.20317 235.73904 255.744
221.19383 235.73381 255.744
221.19296 235.73329 255.744
221.18521 235.72894 255.744
221.19293 235.73326 255.744
221.20268 235.73878 255.744
221.2021 235.73846 255.744
221.19841 235.73637 255.744
221.19987 235.7372 255.744
221.20493 235.7401 255.744
221.17711 235.72438 255.744
221.18993 235.7316 255.744
221.17839 235.72514 255.744
221.18987 235.73155 255.744
221.19427 235.73404 255.744
221.1923 235.73291 255.744
221.1712 235.72105 255.744
221.20856 235.7421 255.744
221.19153 235.73251 255.744
221.18585 235.72932 255.744
221.20183 235.73828 255.744
221.19225 235.73288 255.744
221.1871 235.73003 255.744
221.19229 235.73296 255.744
221.18573 235.72923 255.744
221.17743 235.72456 255.744
221.19096 235.73218 255.744
221.20074 235.7377 255.744
221.18169 235.72699 255.744
221.20578 235.74052 255.744
221.19638 235.73524 255.744
221.19121 235.73233 255.744
221.20253 235.7387 255.744
221.17944 235.7257 255.744
221.20238 235.7386 255.744
221.18642 235.72964 255.744
221.19272 235.7332 255.744
221.18298 235.72769 255.744
221.18973 235.73149 255.744
221.18102 235.7266 255.744
221.18582 235.72931 255.744
221.17831 235.72507 255.744
221.18774 235.73038 255.744
221.17729 235.72452 255.744
221.18018 235.7261 255.744
221.19025 235.73177 255.744
221.16135 235.71552 255.744
221.19612 235.73508 255.744
221.20303 235.73898 255.744
221.18137 235.72675 255.744
221.20297 235.73897 255.744
221.18663 235.72974 255.744
221.19086 235.73213 255.744
221.18762 235.7303 255.744
221.19258 235.73308 255.744
221.18182 235.72704 255.744
221.19052 235.73192 255.744
221.17058 235.7207 255.744
221.18661 235.72977 255.744
221.19067 235.73204 255.744
221.17604 235.72377 255.744
221.18843 235.73074 255.744
221.20229 235.73859 255.744
221.18561 235.72919 255.744
221.18462 235.72862 255.744
221.17012 235.72044 255.744
221.20502 235.74011 255.744
221.17395 235.72261 255.744
221.19548 235.73473 255.744
221.19989 235.7372 255.744
221.19803 235.73618 255.744
221.20134 235.73805 255.744
221.19426 235.73404 255.744
221.19836 235.73636 255.744
221.19868 235.73656 255.744
221.17235 235.72171 255.744
221.18153 235.72688 255.744
221.20573 235.7405 255.744
221.17654 235.72406 255.744
221.19562 235.73482 255.744
221.19986 235.73721 255.744
221.19228 235.73293 255.744
221.16388 235.71696 255.744
221.16183 235.71576 255.744
221.19226 235.73293 255.744
221.18192 235.72711 255.744
221.1763 235.72392 255.744
221.19801 235.73618 255.744
221.17307 235.72209 255.744
221.19237 235.73299 255.744
221.18088 235.7265 255.744
221.17242 235.72179 255.744
221.19388 235.73384 255.744
221.17831 235.72507 255.744
221.17784 235.72482 255.744
221.19574 235.7349 255.744
221.17249 235.7218 255.744
221.20143 235.7381 255.744
221.17155 235.72128 255.744
221.18637 235.72961 255.744
221.18777 235.7304 255.744
221.19905 235.73674 255.744
221.17941 235.7257 255.744
221.18657 235.72969 255.744
221.18517 235.72893 255.744
221.1739 235.7226 255.744
221.1857 235.72923 255.744
221.19595 235.735 255.744
221.1873 235.73012 255.744
221.1858 235.7293 255.744
221.19038 235.73181 255.744
221.2105 235.74318 255.744
221.19803 235.73618 255.744
221.18864 235.73088 255.744
221.18286 235.7276 255.744
221.21436 235.74535 255.744
221.16669 235.71852 255.744
221.20566 235.74048 255.744
221.18562 235.72919 255.744
221.18842 235.73077 255.744
221.20341 235.73918 255.744
221.19093 235.73215 255.744
221.16858 235.71957 255.744
221.18378 235.72815 255.744
221.17996 235.72598 255.744
221.18098 235.7266 255.744
221.19073 235.73204 255.744
221.17535 235.72339 255.744
221.18646 235.72968 255.744
221.19276 235.7332 255.744
221.17307 235.72212 255.744
221.1996 235.73706 255.744
221.17815 235.72498 255.744
221.1849 235.7288 255.744
221.17905 235.72546 255.744
221.19344 235.73355 255.744
221.19148 235.7325 255.744
221.17386 235.72255 255.744
221.18317 235.72777 255.744
221.17368 235.72244 255.744
221.17531 235.72339 255.744
221.1794 235.72568 255.744
221.18095 235.72653 255.744
221.17175 235.72137 255.744
221.19981 235.73717 255.744
221.1727 235.72191 255.744
221.18163 235.72693 255.744
221.18163 235.72694 255.744
221.19093 235.73216 255.744
221.16875 235.7197 255.744
221.18524 235.72896 255.744
221.1927 235.73317 255.744
221.1824 235.72736 255.744
221.18376 235.72812 255.744
221.19246 235.73305 255.744
221.17502 235.72322 255.744
221.17871 235.72527 255.744
221.19713 235.73566 255.744
221.16895 235.71982 255.744
221.18141 235.72679 255.744
221.20743 235.74144 255.744
221.18945 235.73134 255.744
221.17833 235.72507 255.744
221.18813 235.73058 255.744
221.18909 235.73114 255.744
221.17635 235.72395 255.744
221.17596 235.72375 255.744
221.18803 235.73053 255.744
221.18266 235.72752 255.744
221.16464 235.71736 255.744
221.18115 235.72665 255.744
221.17708 235.72437 255.744
221.17354 235.7224 255.744
221.20795 235.74174 255.744
221.17827 235.72505 255.744
221.16612 235.71823 255.744
221.18617 235.72949 255.744
221.1899 235.73157 255.744
221.14406 235.7058 255.744
221.175 235.72319 255.744
221.17332 235.72226 255.744
221.1736 235.72241 255.744
221.19084 235.73213 255.744
221.18262 235.72748 255.744
221.17604 235.72372 255.744
221.18135 235.72676 255.744
221.19173 235.73262 255.744
221.17268 235.72191 255.744
221.16934 235.72 255.744
221.18147 235.72684 255.744
221.17554 235.72353 255.744
221.19229 235.73293 255.744
221.17273 235.72194 255.744
221.17865 235.72527 255.744
221.1761 235.72382 255.744
221.19208 235.7328 255.744
221.17487 235.72313 255.744
221.17184 235.72142 255.744
221.17969 235.72585 255.744
221.18031 235.72618 255.744
221.17374 235.72249 255.744
221.1722 235.7216 255.744
221.18048 235.7263 255.744
221.18604 235.72945 255.744
221.1899 235.7316 255.744
221.16446 235.71725 255.744
221.1654 235.7178 255.744
221.17638 235.72395 255.744
221.1676 235.71902 255.744
221.16225 235.716 255.744
221.17734 235.72453 255.744
221.18822 235.73065 255.744
221.16374 235.71687 255.744
221.16661 235.71846 255.744
221.17958 235.7258 255.744
221.1546 235.71172 255.744
221.19466 235.73424 255.744
221.16225 235.716 255.744
221.18907 235.7311 255.744
221.17813 235.72493 255.744
221.18959 235.73137 255.744
221.17282 235.72197 255.744
221.17566 235.72359 255.744
221.17209 235.72156 255.744
221.18059 235.72636 255.744
221.18462 235.72862 255.744
221.18071 235.72641 255.744
221.19026 235.73178 255.744
221.1923 235.73293 255.744
221.17926 235.72559 255.744
221.16713 235.71877 255.744
221.19183 235.73268 255.744
221.20099 235.73782 255.744
221.16936 235.72005 255.744
221.17097 235.72093 255.744
221.18015 235.72614 255.744
221.17352 235.7224 255.744
221.17564 235.72357 255.744
221.18008 235.72606 255.744
221.19145 235.73248 255.744
221.19023 235.7318 255.744
221.17322 235.72218 255.744
221.20053 235.7376 255.744
221.18521 235.72893 255.744
221.18271 235.72757 255.744
221.17728 235.72449 255.744
221.16986 235.72029 255.744
221.18567 235.72922 255.744
221.17781 235.72478 255.744
221.19179 235.73264 255.744
221.17642 235.72401 255.744
221.16566 235.71796 255.744
221.16771 235.71907 255.744
221.19308 235.73341 255.744
221.18097 235.7266 255.744
221.16864 235.7196 255.744
221.18192 235.7271 255.744
221.18692 235.72992 255.744
221.17212 235.72157 255.744
221.20288 235.73888 255.744
221.19266 235.73315 255.744
221.15663 235.71286 255.744
221.195 235.7345 255.744
221.17065 235.72076 255.744
221.17015 235.72047 255.744
221.17737 235.72456 255.744
221.18382 235.72818 255.744
221.19052 235.73196 255.744
221.1895 235.73137 255.744
221.16544 235.71782 255.744
221.17819 235.72502 255.744
221.1775 235.72461 255.744
221.17467 235.72304 255.744
221.19493 235.73444 255.744
221.1697 235.72021 255.744
221.17747 235.72461 255.744
221.17108 235.72101 255.744
221.16864 235.71962 255.744
221.1799 235.726 255.744
221.19926 235.73686 255.744
221.17265 235.72191 255.744
221.16815 235.71933 255.744
221.1785 235.72517 255.744
221.1938 235.73378 255.744
221.20221 235.73856 255.744
221.19368 235.7337 255.744
221.17703 235.72435 255.744
221.20515 235.74019 255.744
221.17393 235.72261 255.744
221.17592 235.72372 255.744
221.17146 235.7212 255.744
221.19054 235.73195 255.744
221.17822 235.72502 255.744
221.19551 235.73477 255.744
221.18369 235.7281 255.744
221.18024 235.72615 255.744
221.18634 235.7296 255.744
221.19006 235.73169 255.744
221.19954 235.73701 255.744
221.18797 235.73051 255.744
221.14783 235.70792 255.744
221.18152 235.72684 255.744
221.18376 235.72816 255.744
221.1772 235.72443 255.744
221.17693 235.72429 255.744
221.16628 235.7183 255.744
221.18741 235.7302 255.744
221.14653 235.70717 255.744
221.18697 235.72993 255.744
221.173 235.72208 255.744
221.19128 235.73236 255.744
221.18102 235.7266 255.744
221.17682 235.72421 255.744
221.18027 235.72617 255.744
221.1712 235.72104 255.744
221.17026 235.72052 255.744
221.1809 235.7265 255.744
221.18071 235.72641 255.744
221.18411 235.72833 255.744
221.18121 235.7267 255.744
221.19135 235.73238 255.744
221.18196 235.72711 255.744
221.19691 235.73553 255.744
221.19765 235.73596 255.744
221.17853 235.72522 255.744
221.17946 235.72572 255.744
221.18916 235.73117 255.744
221.17848 235.72517 255.744
221.19257 235.73308 255.744
221.1744 235.72284 255.744
221.16643 235.71837 255.744
221.19711 235.73566 255.744
221.173 235.72209 255.744
221.18471 235.72868 255.744
221.18132 235.72676 255.744
221.16415 235.71709 255.744
221.18314 235.72778 255.744
221.17271 235.72192 255.744
221.18718 235.73007 255.744
221.2004 235.73752 255.744
221.17137 235.72115 255.744
221.184 235.72829 255.744
221.18814 235.7306 255.744
221.17091 235.7209 255.744
221.18092 235.72653 255.744
221.17607 235.72382 255.744
221.1791 235.72548 255.744
221.18979 235.73154 255.744
221.18672 235.7298 255.744
221.18796 235.73048 255.744
221.17943 235.7257 255.744
221.1769 235.72429 255.744
221.17265 235.72191 255.744
221.17766 235.7247 255.744
221.17671 235.72414 255.744
221.17322 235.72223 255.744
221.1657 235.71796 255.744
221.18729 235.73013 255.744
221.17575 235.72359 255.744
221.178 235.7249 255.744
221.18747 235.73024 255.744
221.17126 235.72112 255.744
221.1713 235.72112 255.744
221.19237 235.73299 255.744
221.17192 235.72147 255.744
221.19423 235.73402 255.744
221.18846 235.7308 255.744
221.17888 235.72539 255.744
221.17903 235.72546 255.744
221.17125 235.7211 255.744
221.18376 235.72813 255.744
221.19948 235.73695 255.744
221.19177 235.73267 255.744
221.19609 235.73509 255.744
221.18112 235.72668 255.744
221.1845 235.72856 255.744
221.18954 235.73141 255.744
221.18936 235.73128 255.744
221.1807 235.72643 255.744
221.16093 235.71526 255.744
221.18028 235.72617 255.744
221.19843 235.73639 255.744
221.18948 235.73135 255.744
221.18652 235.72969 255.744
221.18266 235.7275 255.744
221.18321 235.72784 255.744
221.18153 235.72688 255.744
221.17087 235.72084 255.744
221.16469 235.71738 255.744
221.15498 235.71193 255.744
221.1623 235.71603 255.744
221.19615 235.73514 255.744
221.16437 235.71722 255.744
221.17853 235.72517 255.744
221.18365 235.72806 255.744
221.17268 235.7219 255.744
221.1931 235.73338 255.744
221.19728 235.73576 255.744
221.19621 235.73512 255.744
221.17172 235.72134 255.744
221.18427 235.72842 255.744
221.19196 235.73271 255.744
221.17552 235.7235 255.744
221.17636 235.724 255.744
221.17644 235.72403 255.744
221.18398 235.72827 255.744
221.17043 235.72063 255.744
221.18233 235.72737 255.744
221.17525 235.72333 255.744
221.18451 235.72856 255.744
221.18214 235.72723 255.744
221.18826 235.73067 255.744
221.18652 235.7297 255.744
221.17825 235.72505 255.744
221.17868 235.72528 255.744
221.1769 235.72426 255.744
221.18152 235.72688 255.744
221.1757 235.72363 255.744
221.1915 235.73251 255.744
221.18689 235.72987 255.744
221.17035 235.72061 255.744
221.18306 235.72772 255.744
221.18538 235.72905 255.744
221.1787 235.72527 255.744
221.17456 235.72293 255.744
221.19777 235.73604 255.744
221.19473 235.7343 255.744
221.18073 235.72641 255.744
221.16946 235.72005 255.744
221.17935 235.72566 255.744
221.183 235.7277 255.744
221.17696 235.72432 255.744
221.19043 235.73187 255.744
221.1877 235.73036 255.744
221.1707 235.72078 255.744
221.18658 235.7297 255.744
221.195 235.73445 255.744
221.17319 235.72217 255.744
221.19008 235.73167 255.744
221.19598 235.73503 255.744
221.17589 235.7237 255.744
221.2006 235.73763 255.744
221.17921 235.72559 255.744
221.17717 235.72443 255.744
221.17229 235.72168 255.744
221.18137 235.7268 255.744
221.16826 235.71942 255.744
221.18285 235.72762 255.744
221.19565 235.73482 255.744
221.17603 235.7238 255.744
221.1665 235.71843 255.744
221.17451 235.72293 255.744
221.194 235.73389 255.744
221.18338 235.72794 255.744
221.20642 235.7409 255.744
221.18887 235.731 255.744
221.18951 235.73137 255.744
221.18115 235.72668 255.744
221.19234 235.73296 255.744
221.18723 235.73009 255.744
221.18633 235.72958 255.744
221.19699 235.7356 255.744
221.18738 235.73013 255.744
221.18225 235.72728 255.744
221.19467 235.73428 255.744
221.18747 235.73022 255.744
221.18967 235.73146 255.744
221.1836 235.72806 255.744
221.17761 235.72466 255.744
221.18115 235.72665 255.744
221.18953 235.73137 255.744
221.1616 235.71567 255.744
221.19058 235.73198 255.744
221.1766 235.7241 255.744
221.20808 235.74184 255.744
221.20412 235.73958 255.744
221.17592 235.7237 255.744
221.19275 235.73318 255.744
221.20183 235.73833 255.744
221.22072 235.74895 255.744
221.20677 235.74109 255.744
221.18869 235.73091 255.744
221.19429 235.73405 255.744
221.19556 235.73477 255.744
221.17943 235.72571 255.744
221.18364 235.72806 255.744
221.1815 235.72684 255.744
221.1987 235.73654 255.744
221.20311 235.73901 255.744
221.18927 235.73123 255.744
221.19168 235.73262 255.744
221.18584 235.7293 255.744
221.17487 235.72311 255.744
221.17615 235.72385 255.744
221.19699 235.73558 255.744
221.18819 235.73062 255.744
221.18588 235.72932 255.744
221.19557 235.7348 255.744
221.18604 235.72943 255.744
221.18939 235.73135 255.744
221.17514 235.72328 255.744
221.1748 235.7231 255.744
221.19164 235.73259 255.744
221.18326 235.72786 255.744
221.19215 235.73288 255.744
221.19484 235.73436 255.744
221.1835 235.728 255.744
221.1931 235.73338 255.744
221.18893 235.73105 255.744
221.19746 235.73586 255.744
221.18497 235.72885 255.744
221.18636 235.7296 255.744
221.21092 235.74342 255.744
221.17226 235.72165 255.744
221.19449 235.73418 255.744
221.2005 235.73755 255.744
221.19695 235.73555 255.744
221.18665 235.72978 255.744
221.22101 235.74911 255.744
221.19655 235.73534 255.744
221.18127 235.7267 255.744
221.1819 235.7271 255.744
221.20912 235.74243 255.744
221.18456 235.72858 255.744
221.18979 235.73154 255.744
221.1936 235.73369 255.744
221.17786 235.72482 255.744
221.19756 235.73593 255.744
221.19595 235.73499 255.744
221.18457 235.72858 255.744
221.18173 235.72699 255.744
221.18823 235.73065 255.744
221.18538 235.72905 255.744
221.18437 235.72847 255.744
221.1754 235.72343 255.744
221.1923 235.73293 255.744
221.18845 235.73079 255.744
221.21187 235.74397 255.744
221.176 235.72375 255.744
221.20158 235.73819 255.744
221.19708 235.73563 255.744
221.18709 235.73001 255.744
221.19376 235.73376 255.744
221.18848 235.73079 255.744
221.1884 235.73074 255.744
221.19469 235.7343 255.744
221.21254 235.74434 255.744
221.1861 235.72945 255.744
221.1912 235.7323 255.744
221.21385 235.74507 255.744
221.17862 235.72525 255.744
221.18097 235.72658 255.744
221.17827 235.72507 255.744
221.19331 235.7335 255.744
221.21858 235.74773 255.744
221.18895 235.73103 255.744
221.20245 235.73863 255.744
221.1919 235.73274 255.744
221.17975 235.72588 255.744
221.2114 235.7437 255.744
221.19714 235.73567 255.744
221.20195 235.73837 255.744
221.20355 235.73927 255.744
221.20822 235.74191 255.744
221.20978 235.7428 255.744
221.19052 235.73192 255.744
221.1939 235.73384 255.744
221.19846 235.73642 255.744
221.19662 235.73538 255.744
221.21141 235.74368 255.744
221.18593 235.72939 255.744
221.18538 235.72906 255.744
221.19539 235.7347 255.744
221.19798 235.73613 255.744
221.18613 235.7295 255.744
221.19211 235.73283 255.744
221.19377 235.73376 255.744
221.19577 235.73491 255.744
221.1914 235.73244 255.744
221.23924 235.75938 255.744
221.22081 235.74898 255.744
221.22968 235.75398 255.744
221.22017 235.74861 255.744
221.21463 235.74548 255.744
221.22525 235.7515 255.744
221.22943 235.75388 255.744
221.21445 235.7454 255.744
221.22977 235.75404 255.744
221.22998 235.75418 255.744
221.22272 235.75008 255.744
221.22797 235.75302 255.744
221.22733 235.75266 255.744
221.21864 235.74777 255.744
221.23448 235.75668 255.744
221.21468 235.74551 255.744
221.23044 235.75441 255.744
221.2176 235.74721 255.744
221.22408 235.75082 255.744
221.22343 235.75046 255.744
221.2235 235.7505 255.744
221.20868 235.74214 255.744
221.23495 235.75697 255.744
221.21912 235.74803 255.744
221.23991 235.75975 255.744
221.20264 235.73875 255.744
221.23042 235.7544 255.744
221.20763 235.74158 255.744
221.2384 235.75887 255.744
221.21861 235.74776 255.744
221.21404 235.74516 255.744
221.22995 235.75414 255.744
221.20692 235.74118 255.744
221.22221 235.74977 255.744
221.21638 235.7465 255.744
221.2154 235.74594 255.744
221.22668 235.75229 255.744
221.22255 235.75 255.744
221.22392 235.75075 255.744
221.23212 235.75539 255.744
221.25029 235.76556 255.744
221.21751 235.74713 255.744
221.24384 235.76195 255.744
221.22458 235.75111 255.744
221.20947 235.74261 255.744
221.21863 235.74776 255.744
221.23154 235.75502 255.744
221.21463 235.74553 255.744
221.21872 235.7478 255.744
221.24307 235.76155 255.744
221.22319 235.75034 255.744
221.21143 235.7437 255.744
221.22215 235.74977 255.744
221.2358 235.75745 255.744
221.22037 235.74876 255.744
221.18585 235.72931 255.744
221.23312 235.75594 255.744
221.21571 235.74614 255.744
221.22931 235.75375 255.744
221.22688 235.7524 255.744
221.23135 235.75494 255.744
221.22385 235.75069 255.744
221.1956 235.7348 255.744
221.2167 235.74669 255.744
221.21223 235.74417 255.744
221.21266 235.74442 255.744
221.23439 235.75667 255.744
221.20694 235.7412 255.744
221.20847 235.74205 255.744
221.23181 235.75522 255.744
221.21802 235.74742 255.744
221.22127 235.74924 255.744
221.2243 235.75098 255.744
221.22115 235.7492 255.744
221.2165 235.7466 255.744
221.20056 235.7376 255.744
221.22838 235.75325 255.744
221.23604 235.75757 255.744
221.2238 235.75069 255.744
221.21667 235.74664 255.744
221.22339 235.75041 255.744
221.24768 235.76413 255.744
221.22668 235.7523 255.744
221.22255 235.74998 255.744
221.21504 235.74574 255.744
221.22075 235.74895 255.744
221.21712 235.7469 255.744
221.21683 235.74677 255.744
221.23746 235.75833 255.744
221.22467 235.75114 255.744
221.21417 235.74527 255.744
221.22075 235.74895 255.744
221.19884 235.73665 255.744
221.21173 235.74391 255.744
221.20264 235.73877 255.744
221.21518 235.7458 255.744
221.20709 235.74126 255.744
221.23763 235.75845 255.744
221.22614 235.75198 255.744
221.20897 235.74231 255.744
221.21373 235.74501 255.744
221.21915 235.74805 255.744
221.2062 235.74078 255.744
221.21333 235.7448 255.744
221.2233 235.75038 255.744
221.20088 235.73778 255.744
221.22461 235.75113 255.744
221.22784 235.75293 255.744
221.21921 235.7481 255.744
221.20934 235.74255 255.744
221.22542 235.75156 255.744
221.2455 235.76288 255.744
221.2088 235.74222 255.744
221.20497 235.74005 255.744
221.21677 235.74673 255.744
221.19957 235.73703 255.744
221.22089 235.74904 255.744
221.21858 235.74774 255.744
221.20897 235.74231 255.744
221.2371 235.75818 255.744
221.22044 235.74878 255.744
221.22519 235.75146 255.744
221.21611 235.74637 255.744
221.22737 235.75267 255.744
221.20534 235.7403 255.744
221.22917 235.75371 255.744
221.22697 235.75246 255.744
221.21393 235.74513 255.744
221.21054 235.7432 255.744
221.22275 235.75009 255.744
221.21968 235.74835 255.744
221.21695 235.74683 255.744
221.22624 235.75203 255.744
221.23082 235.75464 255.744
221.21562 235.74608 255.744
221.2014 235.73808 255.744
221.24284 235.76141 255.744
221.21014 235.74298 255.744
221.20905 235.74239 255.744
221.20534 235.74026 255.744
221.21698 235.74683 255.744
221.22562 235.7517 255.744
221.21402 235.74516 255.744
221.23526 235.75713 255.744
221.22034 235.74872 255.744
221.22021 235.74867 255.744
221.23094 235.75471 255.744
221.23795 235.75865 255.744
221.21182 235.7439 255.744
221.21216 235.74413 255.744
221.21083 235.7434 255.744
221.20958 235.7427 255.744
221.20715 235.7413 255.744
221.2101 235.74298 255.744
221.2223 235.74983 255.744
221.21805 235.74745 255.744
221.20595 235.74062 255.744
221.20775 235.74162 255.744
221.22104 235.74915 255.744
221.2021 235.73845 255.744
221.22256 235.74997 255.744
221.22263 235.75005 255.744
221.22316 235.75032 255.744
221.20705 235.74124 255.744
221.22292 235.75018 255.744
221.23138 235.75496 255.744
221.21262 235.74438 255.744
221.21571 235.74612 255.744
221.22084 235.749 255.744
221.21033 235.74307 255.744
221.22485 235.75125 255.744
221.22021 235.74867 255.744
221.21844 235.74767 255.744
221.19557 235.7348 255.744
221.22891 235.75356 255.744
221.20583 235.74055 255.744
221.2239 235.75072 255.744
221.22383 235.7507 255.744
221.23225 235.75543 255.744
221.22154 235.74939 255.744
221.19478 235.73434 255.744
221.22289 235.75012 255.744
221.21754 235.74716 255.744
221.1992 235.73683 255.744
221.20375 235.73941 255.744
221.2236 235.7506 255.744
221.2029 235.73888 255.744
221.21577 235.74612 255.744
221.19902 235.73671 255.744
221.20532 235.74028 255.744
221.21695 235.74681 255.744
221.20103 235.73787 255.744
221.21931 235.74815 255.744
221.2229 235.75014 255.744
221.21848 235.74771 255.744
221.20992 235.74284 255.744
221.22145 235.74934 255.744
221.19943 235.73692 255.744
221.22806 235.75307 255.744
221.21065 235.74326 255.744
221.21721 235.74698 255.744
221.20808 235.74185 255.744
221.19887 235.73665 255.744
221.19652 235.73534 255.744
221.22018 235.74866 255.744
221.2161 235.74632 255.744
221.21587 235.7462 255.744
221.21211 235.74408 255.744
221.19872 235.73657 255.744
221.20795 235.74176 255.744
221.2041 235.7396 255.744
221.22232 235.74985 255.744
221.21579 235.74615 255.744
221.21301 235.74461 255.744
221.22176 235.74953 255.744
221.21748 235.74713 255.744
221.21878 235.74786 255.744
221.22969 235.75403 255.744
221.23845 235.75896 255.744
221.21777 235.74728 255.744
221.207 235.74123 255.744
221.23914 235.75932 255.744
221.2018 235.73828 255.744
221.20102 235.73785 255.744
221.20685 235.74112 255.744
221.21149 235.74376 255.744
221.23747 235.75838 255.744
221.20732 235.7414 255.744
221.22064 235.74889 255.744
221.22192 235.74966 255.744
221.20201 235.73839 255.744
221.19719 235.73569 255.744
221.21674 235.74672 255.744
221.22058 235.74887 255.744
221.23044 235.75443 255.744
221.21567 235.74606 255.744
221.19745 235.73582 255.744
221.2106 235.74326 255.744
221.19893 235.73665 255.744
221.19124 235.73235 255.744
221.22043 235.74876 255.744
221.21368 235.74501 255.744
221.19907 235.73676 255.744
221.2205 235.74883 255.744
221.2162 235.74641 255.744
221.21356 235.7449 255.744
221.21301 235.74463 255.744
221.21088 235.7434 255.744
221.2275 235.75278 255.744
221.2094 235.74258 255.744
221.21748 235.74707 255.744
221.22083 235.749 255.744
221.21768 235.74724 255.744
221.21048 235.74318 255.744
221.22043 235.74878 255.744
221.21997 235.74854 255.744
221.20381 235.73946 255.744
221.2177 235.74724 255.744
221.20467 235.73991 255.744
221.21724 235.747 255.744
221.2108 235.74338 255.744
221.20099 235.73785 255.744
221.22559 235.7517 255.744
221.2093 235.74254 255.744
221.20667 235.74104 255.744
221.20609 235.74069 255.744
221.21408 235.7452 255.744
221.21997 235.74852 255.744
221.1983 235.73631 255.744
221.20929 235.7425 255.744
221.22433 235.75098 255.744
221.1997 235.73712 255.744
221.21062 235.74327 255.744
221.21808 235.74748 255.744
221.20119 235.73796 255.744
221.21187 235.74393 255.744
221.20549 235.7404 255.744
221.21338 235.74483 255.744
221.22333 235.75044 255.744
221.20096 235.73782 255.744
221.2009 235.73778 255.744
221.20961 235.74269 255.744
221.20688 235.74115 255.744
221.20688 235.74118 255.744
221.22871 235.75345 255.744
221.20325 235.73912 255.744
221.21005 235.74294 255.744
221.18277 235.72757 255.744
221.22173 235.74954 255.744
221.2065 235.74092 255.744
221.21292 235.74454 255.744
221.21555 235.74606 255.744
221.20877 235.74222 255.744
221.22977 235.75401 255.744
221.19717 235.7357 255.744
221.21347 235.74487 255.744
221.22896 235.75362 255.744
221.21448 235.7454 255.744
221.21378 235.74504 255.744
221.20999 235.7429 255.744
221.21555 235.74602 255.744
221.22682 235.7524 255.744
221.20715 235.74132 255.744
221.23668 235.75789 255.744
221.20038 235.7375 255.744
221.22087 235.74902 255.744
221.2039 235.73947 255.744
221.21115 235.74358 255.744
221.19878 235.73657 255.744
221.2247 235.75116 255.744
221.2005 235.73758 255.744
221.21606 235.7463 255.744
221.20941 235.74258 255.744
221.20648 235.7409 255.744
221.22594 235.75188 255.744
221.2225 235.74994 255.744
221.17918 235.72557 255.744
221.20892 235.7423 255.744
221.20697 235.7412 255.744
221.20047 235.73755 255.744
221.2277 235.75287 255.744
221.22467 235.75114 255.744
221.21585 235.7462 255.744
221.19302 235.73334 255.744
221.21185 235.74391 255.744
221.20616 235.74077 255.744
221.22086 235.74905 255.744
221.2042 235.73962 255.744
221.19963 235.73706 255.744
221.1992 235.73683 255.744
221.19753 235.73589 255.744
221.22607 235.75192 255.744
221.21133 235.74365 255.744
221.2092 235.74246 255.744
221.23694 235.75809 255.744
221.20537 235.74028 255.744
221.22015 235.74863 255.744
221.20575 235.74054 255.744
221.2107 235.7433 255.744
221.20053 235.73756 255.744
221.19662 235.7354 255.744
221.22063 235.74889 255.744
221.21115 235.74356 255.744
221.21185 235.74394 255.744
221.21336 235.74481 255.744
221.21768 235.74724 255.744
221.20459 235.73984 255.744
221.21765 235.74722 255.744
221.20245 235.73863 255.744
221.20735 235.74142 255.744
221.20493 235.74004 255.744
221.21333 235.74478 255.744
221.22034 235.74873 255.744
221.20763 235.7416 255.744
221.21976 235.7484 255.744
221.21193 235.744 255.744
221.2189 235.74791 255.744
221.21333 235.74477 255.744
221.20717 235.74133 255.744
221.20294 235.73895 255.744
221.20876 235.7422 255.744
221.20442 235.73976 255.744
221.19829 235.73634 255.744
221.2186 235.74774 255.744
221.20772 235.74162 255.744
221.18896 235.73108 255.744
221.21597 235.74626 255.744
221.22006 235.7486 255.744
221.20618 235.74075 255.744
221.23119 235.75487 255.744
221.19748 235.73584 255.744
221.21735 235.74706 255.744
221.22069 235.74895 255.744
221.21344 235.74484 255.744
221.21243 235.74428 255.744
221.2289 235.75351 255.744
221.22055 235.74886 255.744
221.21114 235.74356 255.744
221.20659 235.741 255.744
221.19281 235.73322 255.744
221.20332 235.73914 255.744
221.21335 235.74478 255.744
221.22165 235.74947 255.744
221.2152 235.74583 255.744
221.20784 235.74168 255.744
221.22333 235.7504 255.744
221.22296 235.75017 255.744
221.22963 235.75394 255.744
221.23447 235.7567 255.744
221.21573 235.74612 255.744
221.19778 235.73605 255.744
221.21167 235.74387 255.744
221.19687 235.73552 255.744
221.2206 235.74889 255.744
221.19531 235.73463 255.744
221.21819 235.74753 255.744
221.20752 235.74153 255.744
221.18724 235.73007 255.744
221.233 235.75586 255.744
221.19453 235.73419 255.744
221.21718 235.74693 255.744
221.21431 235.74529 255.744
221.20023 235.73741 255.744
221.2144 235.74539 255.744
221.21698 235.74687 255.744
221.22345 235.75047 255.744
221.19994 235.73726 255.744
221.21956 235.74829 255.744
221.19116 235.7323 255.744
221.22517 235.75146 255.744
221.21997 235.7485 255.744
221.21236 235.74426 255.744
221.20435 235.73976 255.744
221.21835 235.74762 255.744
221.21687 235.74678 255.744
221.21735 235.74704 255.744
221.2097 235.74275 255.744
221.21587 235.74622 255.744
221.22354 235.75053 255.744
221.22525 235.7515 255.744
221.2073 235.74136 255.744
221.22092 235.74905 255.744
221.23598 235.7575 255.744
221.24036 235.76 255.744
221.21019 235.74301 255.744
221.21417 235.74525 255.744
221.22476 235.75124 255.744
221.19601 235.73503 255.744
221.2115 235.74374 255.744
221.22072 235.74895 255.744
221.23065 235.75452 255.744
221.22755 235.75278 255.744
221.2197 235.74837 255.744
221.2128 235.74449 255.744
221.22871 235.75342 255.744
221.22127 235.74927 255.744
221.23238 235.75552 255.744
221.20772 235.74164 255.744
221.2241 235.75085 255.744
221.2286 235.75339 255.744
221.22418 235.75089 255.744
221.19972 235.73712 255.744
221.21254 235.74435 255.744
221.2312 235.75484 255.744
221.2248 235.75124 255.744
221.20892 235.74231 255.744
221.20854 235.7421 255.744
221.22626 235.75204 255.744
221.22981 235.75404 255.744
221.22379 235.75066 255.744
221.19525 235.73459 255.744
221.1984 235.73636 255.744
221.23538 235.75719 255.744
221.2212 235.7492 255.744
221.2252 235.75148 255.744
221.21138 235.7437 255.744
221.19997 235.73724 255.744
221.20618 235.74074 255.744
221.21991 235.74847 255.744
221.21407 235.74521 255.744
221.22467 235.75116 255.744
221.22061 235.74884 255.744
221.21988 235.74847 255.744
221.20961 235.74266 255.744
221.22672 235.75232 255.744
221.22075 235.74895 255.744
221.20876 235.74222 255.744
221.22015 235.7486 255.744
221.21255 235.74435 255.744
221.2106 235.74321 255.744
221.23732 235.75829 255.744
221.22641 235.75214 255.744
221.2373 235.75832 255.744
221.2259 235.75188 255.744
221.20381 235.73944 255.744
221.2089 235.74226 255.744
221.22171 235.7495 255.744
221.22401 235.75078 255.744
221.20358 235.73932 255.744
221.23102 235.7547 255.744
221.20154 235.73811 255.744
221.2333 235.75606 255.744
221.21672 235.74669 255.744
221.2205 235.7488 255.744
221.20145 235.7381 255.744
221.21104 235.74352 255.744
221.21254 235.74435 255.744
221.2152 235.74582 255.744
221.2212 235.74924 255.744
221.23276 235.75572 255.744
221.21834 235.74762 255.744
221.20627 235.74081 255.744
221.20796 235.74174 255.744
221.22504 235.7514 255.744
221.21199 235.74403 255.744
221.2279 235.75298 255.744
221.23363 235.75621 255.744
221.21988 235.74849 255.744
221.19368 235.73373 255.744
221.22115 235.74919 255.744
221.22726 235.75262 255.744
221.23155 235.75505 255.744
221.2203 235.7487 255.744
221.23183 235.75522 255.744
221.20386 235.73944 255.744
221.21121 235.74356 255.744
221.21727 235.74704 255.744
221.2303 235.75435 255.744
221.23695 235.75807 255.744
221.21805 235.74745 255.744
221.21414 235.74524 255.744
221.2206 235.7489 255.744
221.22366 235.7506 255.744
221.2305 235.75443 255.744
221.19566 235.73483 255.744
221.21594 235.74628 255.744
221.20323 235.73912 255.744
221.2012 235.73796 255.744
221.21707 235.74689 255.744
221.2113 235.74365 255.744
221.22577 235.75179 255.744
221.22238 235.74985 255.744
221.21127 235.74359 255.744
221.20422 235.73965 255.744
221.21846 235.74768 255.744
221.22118 235.7492 255.744
221.21785 235.74731 255.744
221.23827 235.75882 255.744
221.21863 235.74776 255.744
221.21234 235.74425 255.744
221.21527 235.74591 255.744
221.23738 235.75832 255.744
221.22017 235.74864 255.744
221.2294 235.75383 255.744
221.225 235.75139 255.744
221.24385 235.76196 255.744
221.22444 235.75104 255.744
221.22586 235.75185 255.744
221.23222 235.75542 255.744
221.22215 235.74974 255.744
221.21335 235.74478 255.744
221.21217 235.74417 255.744
221.21823 235.74753 255.744
221.21404 235.74516 255.744
221.21126 235.7436 255.744
221.21404 235.74516 255.744
221.22906 235.75363 255.744
221.22157 235.74942 255.744
221.22475 235.75122 255.744
221.21936 235.7482 255.744
221.23402 235.75642 255.744
221.22026 235.74869 255.744
221.20886 235.74225 255.744
221.19809 235.73622 255.744
221.23325 235.75598 255.744
221.23462 235.75677 255.744
221.222 235.74966 255.744
221.21718 235.74693 255.744
221.23607 235.7576 255.744
221.21385 235.74507 255.744
221.24817 235.76442 255.744
221.23717 235.75824 255.744
221.21954 235.74829 255.744
221.21864 235.7478 255.744
221.22543 235.7516 255.744
221.22426 235.75098 255.744
221.20665 235.74101 255.744
221.231 235.75475 255.744
221.22517 235.75143 255.744
221.21417 235.74525 255.744
221.2202 235.74866 255.744
221.22636 235.7521 255.744
221.18582 235.7293 255.744
221.21365 235.745 255.744
221.23283 235.75574 255.744
221.2331 235.75592 255.744
221.22153 235.7494 255.744
221.2128 235.74445 255.744
221.21944 235.74826 255.744
221.22194 235.74963 255.744
221.2243 235.75098 255.744
221.21704 235.74686 255.744
221.206 235.74066 255.744
221.23196 235.75526 255.744
221.23749 235.75838 255.744
221.21716 235.74693 255.744
221.22139 235.74931 255.744
221.23578 235.75743 255.744
221.2234 235.75044 255.744
221.2128 235.74448 255.744
221.22997 235.75415 255.744
221.20116 235.73793 255.744
221.2214 235.74934 255.744
221.2104 235.74313 255.744
221.22461 235.75114 255.744
221.2174 235.74707 255.744
221.22643 235.75215 255.744
221.22562 235.7517 255.744
221.22968 235.75398 255.744
221.2368 235.75798 255.744
221.26619 235.77454 255.744
221.25615 235.76892 255.744
221.23772 235.7585 255.744
221.25412 235.76775 255.744
221.25247 235.7668 255.744
221.2583 235.7701 255.744
221.25778 235.7698 255.744
221.2773 235.78078 255.744
221.24048 235.76007 255.744
221.26837 235.77579 255.744
221.28664 235.78603 255.744
221.25642 235.76903 255.744
221.25249 235.7668 255.744
221.2382 235.75877 255.744
221.27328 235.77855 255.744
221.23808 235.75873 255.744
221.25558 235.76857 255.744
221.26233 235.77237 255.744
221.26065 235.77141 255.744
221.25256 235.76686 255.744
221.25742 235.76959 255.744
221.25716 235.76944 255.744
221.25049 235.76572 255.744
221.26245 235.77245 255.744
221.26463 235.77368 255.744
221.25085 235.7659 255.744
221.2727 235.77824 255.744
221.2647 235.7737 255.744
221.25607 235.76883 255.744
221.24017 235.75992 255.744
221.26967 235.7765 255.744
221.25949 235.77077 255.744
221.23384 235.75633 255.744
221.26373 235.77318 255.744
221.24677 235.76363 255.744
221.24988 235.76537 255.744
221.2545 235.76796 255.744
221.2594 235.77074 255.744
221.2638 235.77318 255.744
221.25008 235.76547 255.744
221.25179 235.76643 255.744
221.26419 235.7734 255.744
221.23148 235.75497 255.744
221.25343 235.76738 255.744
221.24184 235.76082 255.744
221.27217 235.77794 255.744
221.2402 235.7599 255.744
221.25238 235.76677 255.744
221.24794 235.76427 255.744
221.24828 235.76442 255.744
221.25235 235.76675 255.744
221.25064 235.76578 255.744
221.25688 235.7693 255.744
221.25032 235.76561 255.744
221.27135 235.77745 255.744
221.25958 235.77081 255.744
221.2571 235.76944 255.744
221.24812 235.76437 255.744
221.24606 235.76323 255.744
221.27068 235.77707 255.744
221.25456 235.76802 255.744
221.25572 235.76865 255.744
221.24739 235.76396 255.744
221.25912 235.77057 255.744
221.25589 235.76875 255.744
221.25397 235.76762 255.744
221.23851 235.75896 255.744
221.24269 235.76132 255.744
221.26004 235.77104 255.744
221.27464 235.77928 255.744
221.24959 235.7652 255.744
221.24026 235.75996 255.744
221.24417 235.76213 255.744
221.25523 235.76839 255.744
221.23021 235.75427 255.744
221.25288 235.76706 255.744
221.26874 235.77599 255.744
221.26938 235.77634 255.744
221.23703 235.75813 255.744
221.25906 235.77051 255.744
221.25339 235.76732 255.744
221.24675 235.76363 255.744
221.27032 235.77687 255.744
221.26015 235.77112 255.744
221.2637 235.77313 255.744
221.24295 235.76149 255.744
221.24396 235.76202 255.744
221.25504 235.76828 255.744
221.23148 235.75502 255.744
221.22919 235.75371 255.744
221.22987 235.7541 255.744
221.2485 235.76459 255.744
221.25778 235.76982 255.744
221.252 235.76657 255.744
221.21645 235.74655 255.744
221.24991 235.7654 255.744
221.24562 235.76297 255.744
221.25014 235.7655 255.744
221.24538 235.76283 255.744
221.26025 235.77118 255.744
221.25882 235.77037 255.744
221.24277 235.76137 255.744
221.24721 235.76384 255.744
221.24707 235.76375 255.744
221.24327 235.76166 255.744
221.2513 235.76617 255.744
221.24431 235.7622 255.744
221.2593 235.77066 255.744
221.2468 235.76361 255.744
221.2571 235.76941 255.744
221.24098 235.76035 255.744
221.25423 235.7678 255.744
221.24458 235.76237 255.744
221.26494 235.77383 255.744
221.24916 235.76498 255.744
221.25133 235.76617 255.744
221.26491 235.77382 255.744
221.25197 235.76654 255.744
221.24864 235.76465 255.744
221.25786 235.76985 255.744
221.24277 235.76137 255.744
221.23561 235.75732 255.744
221.25589 235.76875 255.744
221.23657 235.75787 255.744
221.24982 235.76535 255.744
221.25705 235.76938 255.744
221.24323 235.76158 255.744
221.24498 235.76257 255.744
221.253 235.76712 255.744
221.23758 235.75844 255.744
221.24919 235.76501 255.744
221.24466 235.76244 255.744
221.25708 235.76944 255.744
221.2616 235.77196 255.744
221.25227 235.76672 255.744
221.24445 235.76228 255.744
221.25154 235.7663 255.744
221.24228 235.76106 255.744
221.25713 235.76945 255.744
221.26106 235.77165 255.744
221.24889 235.76482 255.744
221.25722 235.76947 255.744
221.2435 235.76178 255.744
221.23338 235.75609 255.744
221.2287 235.75345 255.744
221.24652 235.76346 255.744
221.24742 235.76398 255.744
221.23978 235.75964 255.744
221.25575 235.76866 255.744
221.24982 235.76532 255.744
221.25533 235.76843 255.744
221.2534 235.76733 255.744
221.26671 235.77484 255.744
221.24692 235.76367 255.744
221.24783 235.76422 255.744
221.26524 235.77402 255.744
221.25055 235.76572 255.744
221.2537 235.7675 255.744
221.25122 235.76614 255.744
221.24974 235.7653 255.744
221.25096 235.76598 255.744
221.27179 235.77768 255.744
221.24467 235.76244 255.744
221.22986 235.75409 255.744
221.26917 235.77621 255.744
221.2393 235.75941 255.744
221.25412 235.76775 255.744
221.24702 235.76376 255.744
221.2412 235.76053 255.744
221.24097 235.76035 255.744
221.24223 235.76105 255.744
221.24237 235.76112 255.744
221.237 235.75812 255.744
221.25642 235.76903 255.744
221.23508 235.75703 255.744
221.23576 235.75742 255.744
221.24898 235.76485 255.744
221.25406 235.76772 255.744
221.27313 235.77844 255.744
221.25108 235.76605 255.744
221.2491 235.76494 255.744
221.24945 235.76512 255.744
221.25565 235.76862 255.744
221.23015 235.75426 255.744
221.24385 235.76198 255.744
221.26672 235.77486 255.744
221.22952 235.75385 255.744
221.25502 235.76826 255.744
221.24167 235.76074 255.744
221.25298 235.7671 255.744
221.26404 235.77333 255.744
221.24748 235.764 255.744
221.24524 235.76277 255.744
221.23296 235.75583 255.744
221.22418 235.7509 255.744
221.24294 235.76144 255.744
221.25943 235.77074 255.744
221.23839 235.7589 255.744
221.23839 235.7589 255.744
221.24637 235.76337 255.744
221.25397 235.76765 255.744
221.22456 235.75111 255.744
221.24915 235.76494 255.744
221.23181 235.75519 255.744
221.22667 235.75229 255.744
221.24548 235.7629 255.744
221.24939 235.76508 255.744
221.25801 235.76993 255.744
221.2467 235.76353 255.744
221.25467 235.76807 255.744
221.263 235.77274 255.744
221.24577 235.76303 255.744
221.24149 235.76064 255.744
221.23952 235.75952 255.744
221.23857 235.759 255.744
221.25789 235.76985 255.744
221.25664 235.76918 255.744
221.22934 235.75378 255.744
221.24576 235.76306 255.744
221.22797 235.75302 255.744
221.27122 235.77736 255.744
221.22256 235.74997 255.744
221.23889 235.75919 255.744
221.24557 235.7629 255.744
221.24725 235.76389 255.744
221.2455 235.76288 255.744
221.23541 235.75722 255.744
221.23889 235.75919 255.744
221.24034 235.76 255.744
221.26472 235.77371 255.744
221.26161 235.77197 255.744
221.24234 235.76112 255.744
221.24594 235.76312 255.744
221.22624 235.75208 255.744
221.24263 235.76128 255.744
221.22389 235.75072 255.744
221.2585 235.77022 255.744
221.23662 235.75789 255.744
221.24426 235.76219 255.744
221.24124 235.7605 255.744
221.25723 235.7695 255.744
221.22354 235.75055 255.744
221.22688 235.75241 255.744
221.23567 235.75735 255.744
221.24728 235.76393 255.744
221.22446 235.75102 255.744
221.26863 235.77591 255.744
221.23862 235.75903 255.744
221.26326 235.7729 255.744
221.26053 235.77136 255.744
221.24522 235.76273 255.744
221.23996 235.75978 255.744
221.24268 235.76132 255.744
221.23863 235.75903 255.744
221.25238 235.76675 255.744
221.2437 235.76187 255.744
221.25363 235.76747 255.744
221.26488 235.77377 255.744
221.23918 235.75932 255.744
221.24857 235.76462 255.744
221.22797 235.75304 255.744
221.24715 235.76384 255.744
221.24101 235.76038 255.744
221.2356 235.75731 255.744
221.23085 235.75464 255.744
221.24829 235.76448 255.744
221.25005 235.76544 255.744
221.23933 235.75941 255.744
221.24756 235.76407 255.744
221.22684 235.7524 255.744
221.24655 235.7635 255.744
221.263 235.77272 255.744
221.22975 235.75403 255.744
221.22818 235.75316 255.744
221.24643 235.76343 255.744
221.23346 235.75613 255.744
221.24272 235.76135 255.744
221.23369 235.75627 255.744
221.23479 235.75687 255.744
221.23593 235.7575 255.744
221.25201 235.76656 255.744
221.22629 235.75208 255.744
221.25945 235.77072 255.744
221.23938 235.75941 255.744
221.24736 235.76393 255.744
221.234 235.75645 255.744
221.22935 235.75383 255.744
221.2373 235.75829 255.744
221.22238 235.74986 255.744
221.25285 235.76704 255.744
221.25261 235.76689 255.744
221.23247 235.75557 255.744
221.24345 235.76173 255.744
221.25264 235.76694 255.744
221.23465 235.75676 255.744
221.25633 235.76898 255.744
221.23114 235.7548 255.744
221.24352 235.76173 255.744
221.26772 235.7754 255.744
221.23439 235.75664 255.744
221.2235 235.75046 255.744
221.22975 235.754 255.744
221.25952 235.7708 255.744
221.25554 235.76854 255.744
221.25763 235.76971 255.744
221.23048 235.75447 255.744
221.23332 235.75606 255.744
221.23726 235.75822 255.744
221.25009 235.76549 255.744
221.24287 235.76146 255.744
221.25214 235.76663 255.744
221.23897 235.7592 255.744
221.24721 235.76384 255.744
221.25822 235.77008 255.744
221.22401 235.75081 255.744
221.2208 235.74898 255.744
221.25038 235.76566 255.744
221.25168 235.76636 255.744
221.24757 235.76405 255.744
221.22923 235.75374 255.744
221.2357 235.75737 255.744
221.23152 235.755 255.744
221.23741 235.75832 255.744
221.26216 235.77228 255.744
221.24234 235.76112 255.744
221.2296 235.75394 255.744
221.24231 235.76112 255.744
221.25755 235.7697 255.744
221.24327 235.76164 255.744
221.26518 235.77397 255.744
221.25745 235.7696 255.744
221.23993 235.75978 255.744
221.23422 235.75655 255.744
221.24533 235.76282 255.744
221.24228 235.76106 255.744
221.24823 235.76445 255.744
221.227 235.75252 255.744
221.2389 235.7592 255.744
221.24667 235.76357 255.744
221.26302 235.77272 255.744
221.24452 235.76234 255.744
221.23639 235.75777 255.744
221.26079 235.77155 255.744
221.23843 235.7589 255.744
221.2618 235.77208 255.744
221.24615 235.76324 255.744
221.25003 235.76547 255.744
221.25368 235.7675 255.744
221.23788 235.75864 255.744
221.2371 235.75818 255.744
221.25589 235.76875 255.744
221.24065 235.76016 255.744
221.26836 235.77574 255.744
221.22084 235.74902 255.744
221.22821 235.75316 255.744
221.24124 235.76047 255.744
221.25269 235.76695 255.744
221.23044 235.75441 255.744
221.25525 235.76839 255.744
221.24883 235.76477 255.744
221.24716 235.76382 255.744
221.23204 235.7553 255.744
221.23651 235.75784 255.744
221.24155 235.76067 255.744
221.22745 235.75275 255.744
221.24614 235.76324 255.744
221.24332 235.76167 255.744
221.24156 235.76068 255.744
221.24905 235.76491 255.744
221.2491 235.76494 255.744
221.26329 235.7729 255.744
221.23785 235.75858 255.744
221.24611 235.76326 255.744
221.2281 235.7531 255.744
221.2415 235.76064 255.744
221.23724 235.75827 255.744
221.24593 235.76315 255.744
221.22896 235.75359 255.744
221.25519 235.76837 255.744
221.21979 235.74843 255.744
221.23663 235.75789 255.744
221.23985 235.75972 255.744
221.25217 235.76665 255.744
221.25824 235.77005 255.744
221.24863 235.76468 255.744
221.24783 235.76419 255.744
221.25885 235.77042 255.744
221.24681 235.76363 255.744
221.25636 235.76901 255.744
221.2419 235.76086 255.744
221.24103 235.76039 255.744
221.24452 235.76236 255.744
221.25305 235.76714 255.744
221.24916 235.765 255.744
221.23138 235.75496 255.744
221.2421 235.76097 255.744
221.24521 235.76276 255.744
221.23781 235.75858 255.744
221.25269 235.76694 255.744
221.24368 235.7619 255.744
221.24863 235.76466 255.744
221.22707 235.75249 255.744
221.2357 235.75739 255.744
221.25726 235.76952 255.744
221.24841 235.76454 255.744
221.23976 235.7597 255.744
221.25233 235.76675 255.744
221.26233 235.7724 255.744
221.24054 235.76012 255.744
221.2421 235.76097 255.744
221.22137 235.74933 255.744
221.25508 235.76831 255.744
221.25522 235.76839 255.744
221.25449 235.76797 255.744
221.22383 235.7507 255.744
221.2468 235.76364 255.744
221.22905 235.75362 255.744
221.23369 235.75626 255.744
221.24368 235.76187 255.744
221.23593 235.7575 255.744
221.2406 235.76015 255.744
221.23448 235.75667 255.744
221.23302 235.75584 255.744
221.25533 235.7684 255.744
221.23857 235.759 255.744
221.25212 235.76662 255.744
221.23984 235.75972 255.744
221.25777 235.7698 255.744
221.24632 235.76335 255.744
221.23741 235.75836 255.744
221.25201 235.76656 255.744
221.25801 235.76994 255.744
221.22816 235.75311 255.744
221.25702 235.76938 255.744
221.23042 235.7544 255.744
221.23926 235.75938 255.744
221.25728 235.76955 255.744
221.24295 235.76149 255.744
221.25824 235.77005 255.744
221.25873 235.77037 255.744
221.24557 235.76295 255.744
221.24193 235.76091 255.744
221.24518 235.7627 255.744
221.23535 235.7572 255.744
221.22644 235.75217 255.744
221.25546 235.7685 255.744
221.21404 235.74518 255.744
221.25143 235.76624 255.744
221.25285 235.76701 255.744
221.24203 235.76093 255.744
221.25342 235.76735 255.744
221.26881 235.77602 255.744
221.24118 235.76045 255.744
221.26317 235.77283 255.744
221.24596 235.76314 255.744
221.25804 235.76999 255.744
221.26337 235.77295 255.744
221.23015 235.75427 255.744
221.24884 235.76477 255.744
221.24553 235.7629 255.744
221.25098 235.76599 255.744
221.25262 235.7669 255.744
221.2682 235.7757 255.744
221.24828 235.76445 255.744
221.22598 235.75189 255.744
221.25592 235.7688 255.744
221.25372 235.76752 255.744
221.24237 235.76117 255.744
221.24152 235.76065 255.744
221.24571 235.763 255.744
221.22913 235.75366 255.744
221.23943 235.75948 255.744
221.2655 235.77417 255.744
221.24997 235.7654 255.744
221.25159 235.76633 255.744
221.25551 235.76854 255.744
221.23784 235.75858 255.744
221.24846 235.76457 255.744
221.25497 235.7682 255.744
221.25392 235.76762 255.744
221.24686 235.76366 255.744
221.23447 235.7567 255.744
221.2499 235.76535 255.744
221.24388 235.76202 255.744
221.24458 235.76236 255.744
221.24191 235.7609 255.744
221.24205 235.76094 255.744
221.24483 235.76251 255.744
221.2497 235.76523 255.744
221.26134 235.77184 255.744
221.25227 235.7667 255.744
221.2512 235.76611 255.744
221.25919 235.7706 255.744
221.24336 235.7617 255.744
221.22745 235.75272 255.744
221.23935 235.75943 255.744
221.25418 235.76778 255.744
221.25363 235.76746 255.744
221.26622 235.77457 255.744
221.25102 235.766 255.744
221.23813 235.75873 255.744
221.25615 235.76892 255.744
221.28008 235.78236 255.744
221.25668 235.7692 255.744
221.25893 235.77048 255.744
221.25221 235.76665 255.744
221.2448 235.7625 255.744
221.25551 235.76852 255.744
221.26157 235.77194 255.744
221.26534 235.77403 255.744
221.25322 235.76723 255.744
221.26176 235.77206 255.744
221.2444 235.76228 255.744
221.24457 235.76236 255.744
221.27061 235.77702 255.744
221.25049 235.7657 255.744
221.26244 235.77245 255.744
221.27185 235.77776 255.744
221.26361 235.7731 255.744
221.23808 235.75873 255.744
221.25671 235.76926 255.744
221.25238 235.76675 255.744
221.2576 235.76971 255.744
221.25208 235.76662 255.744
221.23438 235.75667 255.744
221.24356 235.7618 255.744
221.24644 235.76343 255.744
221.25284 235.76701 255.744
221.25214 235.76663 255.744
221.24496 235.76257 255.744
221.27078 235.77715 255.744
221.25058 235.76575 255.744
221.26111 235.77167 255.744
221.21892 235.74794 255.744
221.24368 235.76189 255.744
221.2595 235.77078 255.744
221.23248 235.75557 255.744
221.24184 235.76083 255.744
221.2646 235.77367 255.744
221.24532 235.7628 255.744
221.24947 235.76512 255.744
221.24275 235.76135 255.744
221.25371 235.7675 255.744
221.25555 235.76857 255.744
221.24939 235.7651 255.744
221.24936 235.76508 255.744
221.25505 235.7683 255.744
221.24532 235.76282 255.744
221.25365 235.7675 255.744
221.25005 235.76547 255.744
221.25818 235.77002 255.744
221.24979 235.76529 255.744
221.26083 235.77151 255.744
221.26987 235.77661 255.744
221.26767 235.77539 255.744
221.24553 235.76292 255.744
221.23181 235.75519 255.744
221.27309 235.77843 255.744
221.244 235.76204 255.744
221.25714 235.76947 255.744
221.24821 235.76442 255.744
221.26443 235.77356 255.744
221.25351 235.76736 255.744
221.25778 235.7698 255.744
221.25645 235.76909 255.744
221.24768 235.76411 255.744
221.24539 235.76282 255.744
221.2513 235.76614 255.744
221.25586 235.76872 255.744
221.26086 235.77153 255.744
221.25621 235.76892 255.744
221.24504 235.76266 255.744
221.25989 235.77101 255.744
221.24855 235.76462 255.744
221.25015 235.76552 255.744
221.25902 235.77046 255.744
221.27101 235.77727 255.744
221.27936 235.78194 255.744
221.26599 235.7744 255.744
221.24765 235.76408 255.744
221.25925 235.77066 255.744
221.24634 235.76337 255.744
221.2725 235.77808 255.744
221.25375 235.76755 255.744
221.27257 235.77817 255.744
221.27202 235.77785 255.744
221.27164 235.77759 255.744
221.27318 235.77846 255.744
221.26018 235.77116 255.744
221.25282 235.76701 255.744
221.26137 235.77182 255.744
221.2731 235.77843 255.744
221.26196 235.77217 255.744
221.25641 235.76906 255.744
221.25671 235.76923 255.744
221.25343 235.76738 255.744
221.2576 235.7697 255.744
221.25806 235.76996 255.744
221.25577 235.76866 255.744
221.25163 235.76634 255.744
221.2902 235.78807 255.744
221.27693 235.78061 255.744
221.28738 235.78647 255.744
221.28056 235.78264 255.744
221.27417 235.77904 255.744
221.28497 235.78511 255.744
221.3011 235.79419 255.744
221.27742 235.7809 255.744
221.28127 235.78304 255.744
221.31163 235.80014 255.744
221.3006 235.79391 255.744
221.2872 235.78638 255.744
221.28433 235.78474 255.744
221.30212 235.79475 255.744
221.28075 235.78275 255.744
221.29498 235.79076 255.744
221.29681 235.7918 255.744
221.30443 235.79605 255.744
221.27707 235.78065 255.744
221.30054 235.79388 255.744
221.28516 235.78522 255.744
221.2832 235.78413 255.744
221.28748 235.78651 255.744
221.27983 235.78221 255.744
221.29173 235.78893 255.744
221.27982 235.78221 255.744
221.28406 235.78459 255.744
221.30112 235.79424 255.744
221.28625 235.78586 255.744
221.28781 235.7867 255.744
221.2856 235.78548 255.744
221.29732 235.79207 255.744
221.29358 235.79 255.744
221.27538 235.7797 255.744
221.2975 235.79218 255.744
221.27339 235.77861 255.744
221.29987 235.7935 255.744
221.29938 235.79323 255.744
221.28448 235.78487 255.744
221.26797 235.77556 255.744
221.29733 235.79207 255.744
221.29552 235.79105 255.744
221.29208 235.78914 255.744
221.31349 235.8012 255.744
221.27719 235.78073 255.744
221.27397 235.7789 255.744
221.29323 235.7898 255.744
221.30765 235.7979 255.744
221.27173 235.77766 255.744
221.29599 235.7913 255.744
221.28925 235.78752 255.744
221.29485 235.79066 255.744
221.27011 235.77676 255.744
221.28842 235.78703 255.744
221.27937 235.78192 255.744
221.27562 235.77988 255.744
221.29216 235.78917 255.744
221.26534 235.77405 255.744
221.29039 235.78818 255.744
221.27725 235.78076 255.744
221.27968 235.78212 255.744
221.29047 235.7882 255.744
221.28737 235.78647 255.744
221.28609 235.78574 255.744
221.29266 235.78944 255.744
221.2787 235.7816 255.744
221.28175 235.78331 255.744
221.28159 235.78323 255.744
221.29288 235.7896 255.744
221.26941 235.77634 255.744
221.29329 235.78981 255.744
221.28758 235.78659 255.744
221.2952 235.79088 255.744
221.30086 235.79405 255.744
221.27934 235.78197 255.744
221.28375 235.78445 255.744
221.27422 235.77907 255.744
221.27174 235.77766 255.744
221.29703 235.79192 255.744
221.30066 235.79395 255.744
221.26881 235.77602 255.744
221.27771 235.78104 255.744
221.26468 235.77371 255.744
221.28082 235.78279 255.744
221.27994 235.78227 255.744
221.26228 235.77237 255.744
221.26654 235.77473 255.744
221.29425 235.79033 255.744
221.27585 235.77998 255.744
221.27213 235.7779 255.744
221.28268 235.78383 255.744
221.28328 235.78416 255.744
221.26904 235.77617 255.744
221.28122 235.78305 255.744
221.26794 235.77553 255.744
221.26453 235.7736 255.744
221.26921 235.77625 255.744
221.27881 235.78168 255.744
221.28401 235.78456 255.744
221.2588 235.7704 255.744
221.29178 235.78896 255.744
221.27844 235.78145 255.744
221.27121 235.77737 255.744
221.28668 235.78607 255.744
221.28136 235.78308 255.744
221.27014 235.77678 255.744
221.27205 235.77785 255.744
221.26935 235.77634 255.744
221.27257 235.77814 255.744
221.25584 235.76869 255.744
221.26819 235.77567 255.744
221.2774 235.78085 255.744
221.2738 235.77884 255.744
221.3021 235.79477 255.744
221.26573 235.77426 255.744
221.25954 235.7708 255.744
221.28781 235.78671 255.744
221.28304 235.784 255.744
221.25731 235.76953 255.744
221.27057 235.77704 255.744
221.28691 235.78621 255.744
221.2832 235.78412 255.744
221.26706 235.77507 255.744
221.2865 235.78598 255.744
221.28844 235.78705 255.744
221.27081 235.77715 255.744
221.2854 235.78537 255.744
221.28772 235.78668 255.744
221.2674 235.77524 255.744
221.28235 235.78363 255.744
221.26639 235.77464 255.744
221.28485 235.78508 255.744
221.26277 235.77263 255.744
221.28143 235.78313 255.744
221.28177 235.78331 255.744
221.2777 235.781 255.744
221.29103 235.78854 255.744
221.26196 235.77213 255.744
221.26845 235.77579 255.744
221.27534 235.7797 255.744
221.27185 235.77774 255.744
221.26343 235.77298 255.744
221.26367 235.77313 255.744
221.28752 235.78654 255.744
221.2867 235.78607 255.744
221.28998 235.78795 255.744
221.2787 235.7816 255.744
221.2795 235.78203 255.744
221.28563 235.78549 255.744
221.28117 235.78299 255.744
221.26668 235.77481 255.744
221.29395 235.79018 255.744
221.26389 235.77324 255.744
221.27715 235.78069 255.744
221.27426 235.77908 255.744
221.27261 235.77815 255.744
221.28305 235.78406 255.744
221.29807 235.7925 255.744
221.25146 235.76627 255.744
221.29422 235.79033 255.744
221.27686 235.78055 255.744
221.27652 235.78035 255.744
221.28894 235.78737 255.744
221.28206 235.7835 255.744
221.27904 235.78178 255.744
221.29315 235.78972 255.744
221.28398 235.78455 255.744
221.27225 235.77795 255.744
221.27498 235.7795 255.744
221.28938 235.7876 255.744
221.28992 235.78792 255.744
221.28674 235.78613 255.744
221.30144 235.79439 255.744
221.28427 235.78473 255.744
221.26302 235.77274 255.744
221.26912 235.7762 255.744
221.2643 235.77348 255.744
221.29056 235.78824 255.744
221.27 235.77669 255.744
221.2691 235.77617 255.744
221.27293 235.77832 255.744
221.27402 235.77893 255.744
221.2684 235.7758 255.744
221.28645 235.78596 255.744
221.25932 235.77066 255.744
221.29176 235.78896 255.744
221.25296 235.7671 255.744
221.28078 235.78276 255.744
221.28014 235.78238 255.744
221.26195 235.77214 255.744
221.2711 235.77728 255.744
221.2957 235.79117 255.744
221.30228 235.79489 255.744
221.2907 235.78836 255.744
221.28442 235.78479 255.744
221.27719 235.78073 255.744
221.26721 235.7751 255.744
221.27908 235.7818 255.744
221.30734 235.79771 255.744
221.29121 235.78864 255.744
221.27847 235.78145 255.744
221.26576 235.7743 255.744
221.2856 235.78549 255.744
221.2827 235.78384 255.744
221.28839 235.78705 255.744
221.27657 235.78038 255.744
221.253 235.76712 255.744
221.26512 235.77396 255.744
221.27164 235.77759 255.744
221.29181 235.78897 255.744
221.29117 235.78862 255.744
221.27678 235.7805 255.744
221.27213 235.77788 255.744
221.28648 235.78596 255.744
221.26721 235.77512 255.744
221.2832 235.78412 255.744
221.27068 235.77707 255.744
221.28508 235.7852 255.744
221.27194 235.77776 255.744
221.27943 235.782 255.744
221.25734 235.76958 255.744
221.26945 235.7764 255.744
221.28711 235.78635 255.744
221.26651 235.77473 255.744
221.2746 235.77928 255.744
221.27975 235.78218 255.744
221.25287 235.76703 255.744
221.28517 235.78525 255.744
221.27792 235.78114 255.744
221.28618 235.7858 255.744
221.27498 235.77946 255.744
221.26967 235.7765 255.744
221.26984 235.77661 255.744
221.25867 235.77032 255.744
221.28061 235.78267 255.744
221.26375 235.7732 255.744
221.28247 235.7837 255.744
221.2732 235.7785 255.744
221.2782 235.78128 255.744
221.28151 235.78319 255.744
221.26906 235.77618 255.744
221.28145 235.78311 255.744
221.28302 235.78404 255.744
221.26978 235.77657 255.744
221.27911 235.78183 255.744
221.27475 235.77936 255.744
221.28152 235.78314 255.744
221.26828 235.77571 255.744
221.27783 235.78111 255.744
221.26038 235.77127 255.744
221.28485 235.78505 255.744
221.27876 235.78162 255.744
221.27309 235.77844 255.744
221.27737 235.78082 255.744
221.27855 235.78152 255.744
221.27809 235.78127 255.744
221.27722 235.78076 255.744
221.27701 235.78064 255.744
221.2832 235.7841 255.744
221.28967 235.78778 255.744
221.29558 235.79109 255.744
221.27733 235.7808 255.744
221.28992 235.7879 255.744
221.2657 235.77426 255.744
221.27754 235.78093 255.744
221.28423 235.78471 255.744
221.25783 235.76985 255.744
221.28595 235.78566 255.744
221.29419 235.7903 255.744
221.27312 235.77843 255.744
221.26463 235.77367 255.744
221.27737 235.78084 255.744
221.27652 235.78036 255.744
221.27913 235.78183 255.744
221.2821 235.78351 255.744
221.28229 235.78362 255.744
221.25476 235.7681 255.744
221.28798 235.7868 255.744
221.27878 235.78163 255.744
221.24463 235.76237 255.744
221.26453 235.77359 255.744
221.26685 235.77493 255.744
221.29437 235.79039 255.744
221.28166 235.78326 255.744
221.27505 235.77953 255.744
221.28091 235.78285 255.744
221.27298 235.77837 255.744
221.28879 235.78728 255.744
221.27328 235.77853 255.744
221.27956 235.78206 255.744
221.2661 235.7745 255.744
221.28157 235.78322 255.744
221.27094 235.77719 255.744
221.27199 235.7778 255.744
221.25803 235.76997 255.744
221.28328 235.78418 255.744
221.28247 235.7837 255.744
221.26848 235.77582 255.744
221.29301 235.78966 255.744
221.27129 235.77742 255.744
221.2891 235.78745 255.744
221.25769 235.76978 255.744
221.2695 235.7764 255.744
221.27657 235.78038 255.744
221.24936 235.76508 255.744
221.26329 235.7729 255.744
221.2858 235.78558 255.744
221.26761 235.77533 255.744
221.27951 235.78203 255.744
221.27342 235.77858 255.744
221.27075 235.77711 255.744
221.29762 235.79225 255.744
221.27876 235.78163 255.744
221.29112 235.78859 255.744
221.26093 235.77158 255.744
221.27237 235.77803 255.744
221.29143 235.78874 255.744
221.27786 235.78111 255.744
221.28004 235.78232 255.744
221.26465 235.77368 255.744
221.27664 235.78043 255.744
221.27594 235.78003 255.744
221.26624 235.77457 255.744
221.2607 235.77144 255.744
221.27562 235.77986 255.744
221.27061 235.77705 255.744
221.28381 235.78447 255.744
221.28433 235.78476 255.744
221.27432 235.77913 255.744
221.28156 235.7832 255.744
221.27814 235.78125 255.744
221.29504 235.79077 255.744
221.26797 235.77554 255.744
221.27164 235.77762 255.744
221.26894 235.7761 255.744
221.26144 235.77185 255.744
221.28877 235.78725 255.744
221.27695 235.7806 255.744
221.27582 235.77997 255.744
221.25015 235.76549 255.744
221.284 235.78459 255.744
221.2709 235.7772 255.744
221.27434 235.77911 255.744
221.27817 235.7813 255.744
221.29114 235.78859 255.744
221.27956 235.78206 255.744
221.2675 235.7753 255.744
221.27551 235.77979 255.744
221.271 235.77725 255.744
221.2678 235.77545 255.744
221.2718 235.7777 255.744
221.28561 235.78548 255.744
221.27887 235.78166 255.744
221.27895 235.78174 255.744
221.27371 235.7788 255.744
221.2729 235.7783 255.744
221.27477 235.77939 255.744
221.26476 235.77371 255.744
221.26993 235.77663 255.744
221.26895 235.77611 255.744
221.2723 235.778 255.744
221.27333 235.77856 255.744
221.26881 235.77603 255.744
221.27698 235.78061 255.744
221.26497 235.7739 255.744
221.2479 235.76424 255.744
221.29929 235.7932 255.744
221.2735 235.77864 255.744
221.27759 235.78099 255.744
221.28339 235.78423 255.744
221.29776 235.79233 255.744
221.27571 235.77989 255.744
221.26149 235.77188 255.744
221.27995 235.78229 255.744
221.25574 235.76868 255.744
221.28459 235.78491 255.744
221.27995 235.78226 255.744
221.2774 235.78085 255.744
221.27388 235.77887 255.744
221.27544 235.77974 255.744
221.2606 235.77138 255.744
221.27403 235.77898 255.744
221.28722 235.78642 255.744
221.28279 235.78389 255.744
221.29364 235.79 255.744
221.27258 235.77815 255.744
221.27895 235.78174 255.744
221.3007 235.794 255.744
221.29385 235.79013 255.744
221.26915 235.77618 255.744
221.25522 235.76839 255.744
221.26509 235.7739 255.744
221.26646 235.77467 255.744
221.27165 235.77757 255.744
221.29498 235.79076 255.744
221.27922 235.78188 255.744
221.27144 235.7775 255.744
221.26901 235.77611 255.744
221.28018 235.7824 255.744
221.28456 235.78491 255.744
221.27533 235.77968 255.744
221.2754 235.77974 255.744
221.26918 235.77626 255.744
221.26027 235.77121 255.744
221.26247 235.77246 255.744
221.27013 235.77676 255.744
221.28944 235.78761 255.744
221.27638 235.78027 255.744
221.26814 235.77563 255.744
221.27492 235.77942 255.744
221.27338 235.77858 255.744
221.27725 235.78078 255.744
221.26144 235.77187 255.744
221.27583 235.78 255.744
221.27797 235.78114 255.744
221.28423 235.78471 255.744
221.28532 235.78531 255.744
221.28468 235.78496 255.744
221.28392 235.78453 255.744
221.27011 235.77675 255.744
221.29007 235.788 255.744
221.27768 235.78102 255.744
221.28 235.78233 255.744
221.27837 235.7814 255.744
221.28041 235.78256 255.744
221.27748 235.78088 255.744
221.27971 235.78218 255.744
221.27792 235.78114 255.744
221.28578 235.78555 255.744
221.27907 235.78178 255.744
221.27328 235.77852 255.744
221.27678 235.7805 255.744
221.25453 235.76802 255.744
221.27629 235.78023 255.744
221.28534 235.78532 255.744
221.28333 235.78421 255.744
221.26593 235.77443 255.744
221.26578 235.77434 255.744
221.28023 235.78244 255.744
221.26389 235.77325 255.744
221.27983 235.78226 255.744
221.27968 235.78214 255.744
221.27092 235.77724 255.744
221.27863 235.78154 255.744
221.26924 235.77625 255.744
221.27438 235.77916 255.744
221.30351 235.79556 255.744
221.25926 235.77063 255.744
221.26656 235.77477 255.744
221.28632 235.78587 255.744
221.30049 235.79385 255.744
221.27342 235.77861 255.744
221.28964 235.78773 255.744
221.29588 235.79126 255.744
221.28377 235.78442 255.744
221.2783 235.78136 255.744
221.28673 235.78612 255.744
221.27286 235.77832 255.744
221.30302 235.79527 255.744
221.2595 235.77078 255.744
221.27554 235.77982 255.744
221.28334 235.78423 255.744
221.29326 235.7898 255.744
221.30528 235.79655 255.744
221.30225 235.79485 255.744
221.27983 235.78223 255.744
221.27147 235.77753 255.744
221.27425 235.77907 255.744
221.27675 235.78049 255.744
221.28366 235.7844 255.744
221.28719 235.78638 255.744
221.29082 235.78842 255.744
221.28636 235.78592 255.744
221.29561 235.79114 255.744
221.27864 235.78156 255.744
221.27704 235.78065 255.744
221.29622 235.79146 255.744
221.2732 235.77847 255.744
221.26666 235.77481 255.744
221.29536 235.79097 255.744
221.29585 235.79126 255.744
221.24721 235.76387 255.744
221.29192 235.78902 255.744
221.29233 235.78925 255.744
221.28076 235.78275 255.744
221.26767 235.7754 255.744
221.2843 235.78474 255.744
221.2871 235.7863 255.744
221.29057 235.78828 255.744
221.28856 235.78712 255.744
221.28635 235.78587 255.744
221.27805 235.7812 255.744
221.28075 235.78276 255.744
221.28276 235.78387 255.744
221.27826 235.78131 255.744
221.27673 235.78049 255.744
221.25806 235.76999 255.744
221.30475 235.79626 255.744
221.27914 235.78185 255.744
221.30405 235.79587 255.744
221.27826 235.78137 255.744
221.27847 235.78146 255.744
221.28412 235.78465 255.744
221.27347 235.77863 255.744
221.28473 235.78499 255.744
221.28616 235.78578 255.744
221.27579 235.77995 255.744
221.29102 235.78851 255.744
221.305 235.79642 255.744
221.26477 235.77373 255.744
221.30353 235.79555 255.744
221.26054 235.77138 255.744
221.28252 235.78375 255.744
221.30235 235.79492 255.744
221.26938 235.77632 255.744
221.27985 235.78221 255.744
221.2823 235.78362 255.744
221.27466 235.77931 255.744
221.29404 235.79022 255.744
221.27159 235.77757 255.744
221.292 235.78908 255.744
221.28076 235.78275 255.744
221.29259 235.78941 255.744
221.29617 235.79144 255.744
221.27934 235.78195 255.744
221.28549 235.78537 255.744
221.28658 235.78604 255.744
221.28111 235.78294 255.744
221.27615 235.78017 255.744
221.28285 235.78394 255.744
221.28398 235.78459 255.744
221.29001 235.78796 255.744
221.27853 235.7815 255.744
221.29137 235.78876 255.744
221.28827 235.78697 255.744
221.29503 235.7908 255.744
221.27809 235.78123 255.744
221.29338 235.78986 255.744
221.29352 235.78995 255.744
221.28432 235.78477 255.744
221.29645 235.79158 255.744
221.26064 235.77141 255.744
221.27899 235.78174 255.744
221.2854 235.78537 255.744
221.28212 235.78351 255.744
221.29694 235.79187 255.744
221.26718 235.7751 255.744
221.27847 235.78145 255.744
221.29414 235.79028 255.744
221.29297 235.78961 255.744
221.2848 235.78502 255.744
221.27428 235.77908 255.744
221.29372 235.79008 255.744
221.27077 235.77715 255.744
221.28777 235.7867 255.744
221.28026 235.78242 255.744
221.28322 235.78413 255.744
221.3047 235.79619 255.744
221.28482 235.78502 255.744
221.27637 235.78027 255.744
221.2896 235.78773 255.744
221.29648 235.7916 255.744
221.26938 235.77632 255.744
221.29349 235.78993 255.744
221.28061 235.78265 255.744
221.29631 235.7915 255.744
221.28748 235.78653 255.744
221.28377 235.78445 255.744
221.29126 235.78865 255.744
221.27371 235.7788 255.744
221.27928 235.7819 255.744
221.29054 235.78828 255.744
221.29066 235.78836 255.744
221.29367 235.79004 255.744
221.28287 235.78394 255.744
221.28305 235.78403 255.744
221.28195 235.7834 255.744
221.27708 235.78067 255.744
221.29546 235.791 255.744
221.28786 235.78674 255.744
221.29327 235.7898 255.744
221.26181 235.77205 255.744
221.29587 235.79124 255.744
221.29785 235.79237 255.744
221.28862 235.78719 255.744
221.27911 235.78181 255.744
221.28123 235.78304 255.744
221.30737 235.79773 255.744
221.29375 235.79004 255.744
221.28542 235.78535 255.744
221.30498 235.79639 255.744
221.27957 235.78209 255.744
221.29152 235.7888 255.744
221.296 235.79137 255.744
221.29745 235.79214 255.744
221.26967 235.77649 255.744
221.28964 235.7877 255.744
221.28198 235.78345 255.744
221.30096 235.79413 255.744
221.3064 235.79716 255.744
221.31406 235.8015 255.744
221.3132 235.80101 255.744
221.30815 235.79819 255.744
221.33057 235.81079 255.744
221.31383 235.80138 255.744
221.31384 235.80138 255.744
221.32227 235.80612 255.744
221.33452 235.813 255.744
221.32507 235.80771 255.744
221.32828 235.80948 255.744
221.29861 235.7928 255.744
221.32552 235.80792 255.744
221.31947 235.80455 255.744
221.32564 235.808 255.744
221.30461 235.79614 255.744
221.3182 235.80383 255.744
221.31398 235.80144 255.744
221.31712 235.80324 255.744
221.30348 235.79556 255.744
221.31921 235.8044 255.744
221.30853 235.79837 255.744
221.32133 235.8056 255.744
221.32045 235.80513 255.744
221.32028 235.805 255.744
221.31949 235.80458 255.744
221.31113 235.79987 255.744
221.29422 235.79031 255.744
221.32259 235.8063 255.744
221.33434 235.81291 255.744
221.3253 235.80785 255.744
221.31035 235.79941 255.744
221.29898 235.79301 255.744
221.3085 235.79834 255.744
221.32887 235.80983 255.744
221.30734 235.79773 255.744
221.30296 235.79527 255.744
221.30699 235.79755 255.744
221.30908 235.7987 255.744
221.32532 235.80785 255.744
221.30898 235.79861 255.744
221.30843 235.79832 255.744
221.31111 235.79985 255.744
221.31833 235.80394 255.744
221.31372 235.80135 255.744
221.31535 235.80223 255.744
221.30946 235.7989 255.744
221.32257 235.80629 255.744
221.33809 235.815 255.744
221.33566 235.81364 255.744
221.32336 235.80673 255.744
221.3231 235.80658 255.744
221.32956 235.81024 255.744
221.3135 235.80116 255.744
221.30466 235.79619 255.744
221.30301 235.79527 255.744
221.32439 235.80733 255.744
221.30774 235.79793 255.744
221.3241 235.80716 255.744
221.34006 235.81613 255.744
221.32378 235.80698 255.744
221.32503 235.80765 255.744
221.29732 235.79207 255.744
221.332 235.81161 255.744
221.30591 235.79692 255.744
221.31677 235.80304 255.744
221.31938 235.80447 255.744
221.30658 235.79727 255.744
221.30899 235.79863 255.744
221.31508 235.8021 255.744
221.30789 235.79802 255.744
221.31522 235.80214 255.744
221.31517 235.80214 255.744
221.3208 235.8053 255.744
221.31915 235.80435 255.744
221.32527 235.80782 255.744
221.32333 235.80673 255.744
221.33893 235.81549 255.744
221.33934 235.81575 255.744
221.30559 235.79675 255.744
221.3396 235.81589 255.744
221.32806 235.8094 255.744
221.3066 235.7973 255.744
221.31847 235.80399 255.744
221.29039 235.78818 255.744
221.31044 235.79945 255.744
221.3215 235.80573 255.744
221.29712 235.79195 255.744
221.30705 235.79755 255.744
221.31648 235.80287 255.744
221.32251 235.80627 255.744
221.31303 235.80092 255.744
221.29929 235.79318 255.744
221.33646 235.81415 255.744
221.30328 235.79543 255.744
221.3242 235.8072 255.744
221.3056 235.79675 255.744
221.30992 235.79915 255.744
221.29831 235.79262 255.744
221.32695 235.80878 255.744
221.30722 235.79764 255.744
221.33264 235.81195 255.744
221.30206 235.79475 255.744
221.33066 235.81088 255.744
221.32509 235.80771 255.744
221.3105 235.79951 255.744
221.31505 235.80203 255.744
221.3162 235.80269 255.744
221.30917 235.79878 255.744
221.3338 235.8126 255.744
221.30519 235.79651 255.744
221.31252 235.80064 255.744
221.31573 235.80246 255.744
221.30856 235.79842 255.744
221.31546 235.80229 255.744
221.29836 235.79266 255.744
221.32155 235.8057 255.744
221.3344 235.81297 255.744
221.3114 235.8 255.744
221.30879 235.79854 255.744
221.29251 235.78937 255.744
221.30104 235.79417 255.744
221.29063 235.78827 255.744
221.31293 235.80087 255.744
221.29507 235.79077 255.744
221.32323 235.80664 255.744
221.32675 235.80865 255.744
221.33719 235.81453 255.744
221.30334 235.79544 255.744
221.31624 235.80275 255.744
221.29561 235.7911 255.744
221.30759 235.79785 255.744
221.31052 235.79951 255.744
221.29643 235.79158 255.744
221.30858 235.79843 255.744
221.30812 235.79814 255.744
221.31505 235.80208 255.744
221.3096 235.79895 255.744
221.33812 235.81505 255.744
221.31453 235.80179 255.744
221.31416 235.80154 255.744
221.31192 235.8003 255.744
221.3004 235.79381 255.744
221.30196 235.7947 255.744
221.29237 235.78928 255.744
221.29971 235.79346 255.744
221.3093 235.79883 255.744
221.31648 235.80286 255.744
221.29788 235.79237 255.744
221.31834 235.80391 255.744
221.31615 235.80269 255.744
221.30707 235.79753 255.744
221.30455 235.79614 255.744
221.3079 235.79803 255.744
221.29695 235.79187 255.744
221.33995 235.81609 255.744
221.3144 235.8017 255.744
221.32875 235.80978 255.744
221.31818 235.80382 255.744
221.29153 235.78883 255.744
221.317 235.80316 255.744
221.2846 235.78491 255.744
221.31137 235.79999 255.744
221.31323 235.80103 255.744
221.31268 235.80075 255.744
221.2867 235.78612 255.744
221.2928 235.78957 255.744
221.32404 235.8071 255.744
221.30443 235.79608 255.744
221.31583 235.8025 255.744
221.30516 235.7965 255.744
221.31409 235.8015 255.744
221.32175 235.8058 255.744
221.30841 235.79832 255.744
221.31131 235.79997 255.744
221.31238 235.80055 255.744
221.30528 235.79657 255.744
221.31342 235.80116 255.744
221.3056 235.79674 255.744
221.31058 235.79956 255.744
221.30267 235.79507 255.744
221.3065 235.79723 255.744
221.29709 235.79196 255.744
221.31314 235.80096 255.744
221.30312 235.79538 255.744
221.29253 235.78938 255.744
221.31589 235.80255 255.744
221.30357 235.7956 255.744
221.30002 235.79361 255.744
221.31065 235.79959 255.744
221.30775 235.79796 255.744
221.31557 235.80235 255.744
221.31921 235.80444 255.744
221.31494 235.802 255.744
221.30537 235.7966 255.744
221.30724 235.79765 255.744
221.30905 235.7987 255.744
221.30533 235.79659 255.744
221.30913 235.79874 255.744
221.31885 235.80417 255.744
221.30301 235.79526 255.744
221.3244 235.80736 255.744
221.31073 235.79965 255.744
221.32796 235.8093 255.744
221.32103 235.80545 255.744
221.32742 235.80902 255.744
221.31134 235.79997 255.744
221.28496 235.78511 255.744
221.28754 235.78659 255.744
221.31522 235.80214 255.744
221.30241 235.79495 255.744
221.31497 235.80202 255.744
221.32242 235.8062 255.744
221.29443 235.79044 255.744
221.31203 235.80037 255.744
221.29852 235.79274 255.744
221.31636 235.8028 255.744
221.32225 235.8061 255.744
221.3113 235.79994 255.744
221.29646 235.79156 255.744
221.33104 235.81107 255.744
221.3097 235.79904 255.744
221.29636 235.79153 255.744
221.30298 235.79524 255.744
221.3083 235.79826 255.744
221.31593 235.80257 255.744
221.29803 235.79245 255.744
221.31602 235.80263 255.744
221.31331 235.80107 255.744
221.30176 235.79457 255.744
221.29294 235.78961 255.744
221.31274 235.80077 255.744
221.29713 235.79198 255.744
221.30923 235.79878 255.744
221.31265 235.80072 255.744
221.32185 235.8059 255.744
221.29802 235.79245 255.744
221.31218 235.80046 255.744
221.30515 235.7965 255.744
221.3015 235.79445 255.744
221.30453 235.79614 255.744
221.30437 235.79604 255.744
221.31064 235.79956 255.744
221.31393 235.80144 255.744
221.29843 235.79271 255.744
221.29399 235.7902 255.744
221.31152 235.80006 255.744
221.3172 235.80325 255.744
221.31126 235.79994 255.744
221.31369 235.80132 255.744
221.30016 235.7937 255.744
221.30785 235.79802 255.744
221.30472 235.79626 255.744
221.29709 235.79196 255.744
221.30139 235.79437 255.744
221.30069 235.79396 255.744
221.307 235.79752 255.744
221.31793 235.80371 255.744
221.3074 235.79778 255.744
221.32602 235.80823 255.744
221.2913 235.7887 255.744
221.31433 235.80164 255.744
221.32951 235.81021 255.744
221.29915 235.7931 255.744
221.2814 235.78313 255.744
221.3052 235.79652 255.744
221.31563 235.80238 255.744
221.31104 235.7998 255.744
221.30714 235.79756 255.744
221.30008 235.79361 255.744
221.30649 235.79723 255.744
221.30127 235.79431 255.744
221.30112 235.7942 255.744
221.30168 235.79454 255.744
221.33076 235.81088 255.744
221.30905 235.79866 255.744
221.29059 235.78828 255.744
221.3195 235.80458 255.744
221.31204 235.80034 255.744
221.30948 235.79892 255.744
221.31091 235.79974 255.744
221.29897 235.793 255.744
221.31107 235.79984 255.744
221.29588 235.79124 255.744
221.3129 235.80081 255.744
221.30046 235.79384 255.744
221.30336 235.7955 255.744
221.31035 235.79942 255.744
221.32365 235.80692 255.744
221.32237 235.80617 255.744
221.3016 235.79448 255.744
221.29663 235.79169 255.744
221.30254 235.79501 255.744
221.31096 235.79976 255.744
221.29945 235.79327 255.744
221.29588 235.79126 255.744
221.30246 235.79495 255.744
221.31895 235.80426 255.744
221.29182 235.78897 255.744
221.29169 235.7889 255.744
221.29555 235.79109 255.744
221.31204 235.8004 255.744
221.29913 235.79312 255.744
221.30127 235.7943 255.744
221.30421 235.79597 255.744
221.31023 235.79933 255.744
221.30531 235.7966 255.744
221.30116 235.79425 255.744
221.29535 235.79099 255.744
221.32565 235.80801 255.744
221.2859 235.78564 255.744
221.30962 235.79901 255.744
221.31157 235.8001 255.744
221.29305 235.78969 255.744
221.2995 235.7933 255.744
221.31004 235.79922 255.744
221.29782 235.79236 255.744
221.29774 235.79233 255.744
221.31206 235.80037 255.744
221.33052 235.81078 255.744
221.31088 235.79971 255.744
221.3266 235.80856 255.744
221.29982 235.79349 255.744
221.31906 235.80432 255.744
221.29501 235.7908 255.744
221.2954 235.79099 255.744
221.31268 235.80072 255.744
221.30255 235.79501 255.744
221.29839 235.79266 255.744
221.30942 235.79889 255.744
221.31262 235.80072 255.744
221.28854 235.78712 255.744
221.32933 235.8101 255.744
221.3003 235.79375 255.744
221.30962 235.79898 255.744
221.31946 235.80458 255.744
221.29695 235.79187 255.744
221.2993 235.79318 255.744
221.31337 235.80112 255.744
221.29817 235.79256 255.744
221.28812 235.7869 255.744
221.30852 235.79836 255.744
221.30196 235.79468 255.744
221.30084 235.79407 255.744
221.306 235.79698 255.744
221.31805 235.80376 255.744
221.30392 235.79576 255.744
221.30412 235.79593 255.744
221.31677 235.80305 255.744
221.31076 235.79962 255.744
221.29675 235.79173 255.744
221.29932 235.79321 255.744
221.32501 235.80765 255.744
221.2933 235.78981 255.744
221.29407 235.79024 255.744
221.30121 235.79428 255.744
221.30826 235.7982 255.744
221.30515 235.79646 255.744
221.31422 235.8016 255.744
221.29445 235.79044 255.744
221.33273 235.81201 255.744
221.29832 235.79265 255.744
221.32042 235.80507 255.744
221.31816 235.80382 255.744
221.30933 235.79884 255.744
221.31714 235.80322 255.744
221.30423 235.79593 255.744
221.29822 235.7926 255.744
221.31212 235.8004 255.744
221.30055 235.7939 255.744
221.30121 235.79427 255.744
221.31998 235.80482 255.744
221.30571 235.79678 255.744
221.31297 235.80089 255.744
221.30484 235.7963 255.744
221.30804 235.79813 255.744
221.30014 235.79366 255.744
221.30014 235.79366 255.744
221.31123 235.79991 255.744
221.32544 235.8079 255.744
221.32411 235.80717 255.744
221.3016 235.79453 255.744
221.30136 235.79436 255.744
221.29924 235.79314 255.744
221.30988 235.79913 255.744
221.28845 235.78706 255.744
221.3241 235.80716 255.744
221.31549 235.80232 255.744
221.31122 235.79991 255.744
221.3162 235.80272 255.744
221.30685 235.79745 255.744
221.31146 235.80003 255.744
221.3118 235.80023 255.744
221.3153 235.80223 255.744
221.29665 235.7917 255.744
221.30528 235.79657 255.744
221.31528 235.80219 255.744
221.30551 235.79672 255.744
221.3088 235.79854 255.744
221.3127 235.80074 255.744
221.28465 235.78491 255.744
221.30733 235.79771 255.744
221.3019 235.79466 255.744
221.31189 235.80025 255.744
221.30617 235.79704 255.744
221.31134 235.79996 255.744
221.31157 235.80013 255.744
221.3162 235.80267 255.744
221.29356 235.78996 255.744
221.29199 235.7891 255.744
221.31467 235.80183 255.744
221.3146 235.8018 255.744
221.3145 235.80174 255.744
221.30559 235.79675 255.744
221.29929 235.79318 255.744
221.30252 235.79503 255.744
221.30159 235.79446 255.744
221.30888 235.79858 255.744
221.31642 235.80284 255.744
221.31062 235.79953 255.744
221.31169 235.80017 255.744
221.30376 235.79568 255.744
221.28369 235.78438 255.744
221.30408 235.79585 255.744
221.30699 235.79752 255.744
221.3047 235.7962 255.744
221.3108 235.7997 255.744
221.3136 235.80124 255.744
221.3015 235.79443 255.744
221.3254 235.80788 255.744
221.30891 235.79861 255.744
221.30107 235.79416 255.744
221.3116 235.80013 255.744
221.29619 235.79146 255.744
221.3146 235.80182 255.744
221.32033 235.80505 255.744
221.29633 235.79149 255.744
221.31319 235.80101 255.744
221.28986 235.78787 255.744
221.30746 235.79779 255.744
221.31892 235.80426 255.744
221.31026 235.79936 255.744
221.331 235.81107 255.744
221.28416 235.78462 255.744
221.31445 235.80171 255.744
221.32036 235.80505 255.744
221.30931 235.79883 255.744
221.31728 235.8033 255.744
221.30914 235.79874 255.744
221.3015 235.79445 255.744
221.31804 235.80374 255.744
221.30476 235.79628 255.744
221.31168 235.80014 255.744
221.3083 235.79826 255.744
221.31657 235.80289 255.744
221.30579 235.79684 255.744
221.3159 235.80254 255.744
221.30681 235.7974 255.744
221.331 235.81105 255.744
221.31615 235.80267 255.744
221.31967 235.80466 255.744
221.32631 235.8084 255.744
221.31763 235.80354 255.744
221.32608 235.80827 255.744
221.31985 235.80476 255.744
221.32288 235.80647 255.744
221.3132 235.80101 255.744
221.30566 235.79675 255.744
221.30678 235.79738 255.744
221.307 235.79755 255.744
221.31137 235.8 255.744
221.31078 235.79968 255.744
221.30122 235.79428 255.744
221.30226 235.79486 255.744
221.31485 235.80193 255.744
221.31032 235.79938 255.744
221.32582 235.8081 255.744
221.32999 235.81049 255.744
221.30933 235.79881 255.744
221.32214 235.80603 255.744
221.30528 235.79657 255.744
221.31929 235.80444 255.744
221.30714 235.79764 255.744
221.3107 235.79962 255.744
221.29166 235.78893 255.744
221.3023 235.79489 255.744
221.32265 235.80637 255.744
221.30725 235.79764 255.744
221.31465 235.80183 255.744
221.31177 235.80022 255.744
221.31165 235.80014 255.744
221.31136 235.79994 255.744
221.32167 235.80582 255.744
221.29276 235.7895 255.744
221.30066 235.79395 255.744
221.3165 235.80287 255.744
221.30504 235.79645 255.744
221.31697 235.80315 255.744
221.33344 235.81242 255.744
221.3114 235.79999 255.744
221.32063 235.8052 255.744
221.32813 235.80945 255.744
221.3129 235.80084 255.744
221.33846 235.81525 255.744
221.30348 235.79555 255.744
221.30061 235.79393 255.744
221.31035 235.79942 255.744
221.30392 235.79578 255.744
221.3159 235.80255 255.744
221.32118 235.80553 255.744
221.31508 235.80205 255.744
221.2973 235.79205 255.744
221.31818 235.80383 255.744
221.32007 235.80489 255.744
221.30826 235.79826 255.744
221.31874 235.80414 255.744
221.29625 235.79146 255.744
221.31285 235.80083 255.744
221.32455 235.80742 255.744
221.33218 235.8117 255.744
221.3031 235.79533 255.744
221.32042 235.80507 255.744
221.29822 235.7926 255.744
221.31007 235.79929 255.744
221.32181 235.80585 255.744
221.33366 235.81253 255.744
221.32974 235.81032 255.744
221.31245 235.8006 255.744
221.30743 235.79779 255.744
221.33272 235.81203 255.744
221.31192 235.80032 255.744
221.32605 235.80826 255.744
221.32419 235.8072 255.744
221.3123 235.80048 255.744
221.30196 235.79471 255.744
221.31177 235.8002 255.744
221.31657 235.80292 255.744
221.31885 235.80417 255.744
221.31569 235.8024 255.744
221.30978 235.7991 255.744
221.32237 235.80618 255.744
221.31096 235.79976 255.744
221.31937 235.80449 255.744
221.31224 235.80049 255.744
221.3391 235.81561 255.744
221.32037 235.80508 255.744
221.31613 235.8027 255.744
221.32011 235.8049 255.744
221.31584 235.8025 255.744
221.31306 235.80095 255.744
221.32405 235.80716 255.744
221.313 235.8009 255.744
221.315 235.80206 255.744
221.3112 235.79988 255.744
221.308 235.7981 255.744
221.32239 235.8062 255.744
221.33092 235.811 255.744
221.32664 235.80858 255.744
221.31158 235.8001 255.744
221.34062 235.81647 255.744
221.31238 235.80055 255.744
221.31798 235.80373 255.744
221.31253 235.80063 255.744
221.31456 235.80179 255.744
221.31958 235.8046 255.744
221.30615 235.79704 255.744
221.30849 235.79837 255.744
221.31903 235.8043 255.744
221.31374 235.80132 255.744
221.33203 235.81163 255.744
221.3232 235.80664 255.744
221.3313 235.81119 255.744
221.31552 235.8023 255.744
221.32835 235.80956 255.744
221.3257 235.80801 255.744
221.32332 235.80672 255.744
221.31541 235.80228 255.744
221.3051 235.79645 255.744
221.31906 235.80432 255.744
221.32492 235.80762 255.744
221.32468 235.80751 255.744
221.30956 235.79895 255.744
221.30972 235.79903 255.744
221.29803 235.79245 255.744
221.31293 235.80087 255.744
221.32297 235.80653 255.744
221.30719 235.79764 255.744
221.31381 235.80136 255.744
221.31209 235.80038 255.744
221.30836 235.79831 255.744
221.32144 235.80565 255.744
221.3145 235.80174 255.744
221.32074 235.80527 255.744
221.31361 235.80125 255.744
221.31792 235.80368 255.744
221.31836 235.80392 255.744
221.33408 235.81277 255.744
221.32391 235.80705 255.744
221.29861 235.7928 255.744
221.32977 235.81033 255.744
221.324 235.8071 255.744
221.36238 235.82869 255.744
221.35709 235.82573 255.744
221.33511 235.81337 255.744
221.36412 235.8297 255.744
221.3385 235.81525 255.744
221.34357 235.81812 255.744
221.35893 235.82678 255.744
221.35425 235.82414 255.744
221.35992 235.82732 255.744
221.34506 235.81894 255.744
221.3452 235.81903 255.744
221.33577 235.81372 255.744
221.35713 235.82571 255.744
221.3559 235.82506 255.744
221.35446 235.82423 255.744
221.35313 235.82349 255.744
221.36617 235.83083 255.744
221.34657 235.81981 255.744
221.34393 235.81833 255.744
221.35373 235.82387 255.744
221.34978 235.8216 255.744
221.35193 235.82281 255.744
221.34268 235.81763 255.744
221.34567 235.8193 255.744
221.35777 235.82613 255.744
221.3625 235.82875 255.744
221.34277 235.81767 255.744
221.35481 235.82442 255.744
221.33646 235.8141 255.744
221.34418 235.81847 255.744
221.34181 235.81714 255.744
221.36128 235.8281 255.744
221.3497 235.82158 255.744
221.34879 235.82104 255.744
221.36127 235.82805 255.744
221.34007 235.81616 255.744
221.34396 235.81834 255.744
221.348 235.82065 255.744
221.33229 235.81177 255.744
221.33084 235.81093 255.744
221.3402 235.81621 255.744
221.33269 235.81197 255.744
221.35707 235.82568 255.744
221.36424 235.82974 255.744
221.36029 235.82756 255.744
221.34415 235.81847 255.744
221.34705 235.82007 255.744
221.35106 235.82234 255.744
221.33665 235.81421 255.744
221.33772 235.81483 255.744
221.3698 235.83289 255.744
221.36443 235.82988 255.744
221.34592 235.81946 255.744
221.34001 235.81612 255.744
221.34892 235.82115 255.744
221.34564 235.81929 255.744
221.34628 235.81963 255.744
221.36224 235.82864 255.744
221.34158 235.817 255.744
221.34767 235.82045 255.744
221.34091 235.81662 255.744
221.35541 235.82477 255.744
221.35474 235.82439 255.744
221.32562 235.80801 255.744
221.34637 235.81967 255.744
221.33902 235.81555 255.744
221.34827 235.82079 255.744
221.34824 235.82076 255.744
221.33755 235.81471 255.744
221.33774 235.81485 255.744
221.33214 235.81168 255.744
221.35432 235.82416 255.744
221.3438 235.81824 255.744
221.34 235.8161 255.744
221.34987 235.82166 255.744
221.36272 235.8289 255.744
221.34056 235.81642 255.744
221.34406 235.81839 255.744
221.35773 235.8261 255.744
221.32701 235.8088 255.744
221.3541 235.82405 255.744
221.34196 235.81725 255.744
221.34389 235.8183 255.744
221.34189 235.81717 255.744
221.33575 235.8137 255.744
221.36638 235.83095 255.744
221.34123 235.8168 255.744
221.35835 235.82645 255.744
221.35533 235.82475 255.744
221.35634 235.82532 255.744
221.33754 235.81474 255.744
221.35643 235.82535 255.744
221.36133 235.82811 255.744
221.3453 235.8191 255.744
221.35641 235.82535 255.744
221.34697 235.82005 255.744
221.32683 235.8087 255.744
221.35156 235.82262 255.744
221.34807 235.82066 255.744
221.33896 235.81552 255.744
221.33223 235.81174 255.744
221.33333 235.81233 255.744
221.33876 235.81541 255.744
221.32494 235.80762 255.744
221.33095 235.81102 255.744
221.34639 235.81973 255.744
221.31963 235.80464 255.744
221.33809 235.81503 255.744
221.34334 235.81798 255.744
221.34622 235.81963 255.744
221.33287 235.81207 255.744
221.34476 235.81877 255.744
221.3361 235.81392 255.744
221.35916 235.82692 255.744
221.34315 235.81787 255.744
221.36867 235.83228 255.744
221.33713 235.81448 255.744
221.32948 235.81021 255.744
221.35136 235.82253 255.744
221.34499 235.8189 255.744
221.32126 235.80559 255.744
221.35759 235.82602 255.744
221.33484 235.81322 255.744
221.34491 235.81886 255.744
221.33948 235.81583 255.744
221.32541 235.80792 255.744
221.32993 235.81041 255.744
221.36461 235.82996 255.744
221.34209 235.81726 255.744
221.33286 235.81207 255.744
221.35669 235.82549 255.744
221.3381 235.81503 255.744
221.32716 235.80885 255.744
221.3551 235.82458 255.744
221.33078 235.81094 255.744
221.33728 235.81456 255.744
221.34763 235.82042 255.744
221.34612 235.81956 255.744
221.33742 235.81467 255.744
221.35458 235.8243 255.744
221.33641 235.81409 255.744
221.35353 235.82375 255.744
221.32132 235.80559 255.744
221.34415 235.81842 255.744
221.35594 235.8251 255.744
221.36078 235.82782 255.744
221.35799 235.82625 255.744
221.34595 235.8195 255.744
221.35168 235.82271 255.744
221.34666 235.81987 255.744
221.33919 235.81567 255.744
221.35074 235.82214 255.744
221.35883 235.8267 255.744
221.34235 235.81741 255.744
221.33224 235.81177 255.744
221.33827 235.81512 255.744
221.32635 235.80844 255.744
221.35251 235.82317 255.744
221.32343 235.80682 255.744
221.33006 235.81052 255.744
221.34949 235.82146 255.744
221.34462 235.81868 255.744
221.34798 235.8206 255.744
221.34964 235.82156 255.744
221.3549 235.82448 255.744
221.34744 235.8203 255.744
221.33568 235.81369 255.744
221.33408 235.81274 255.744
221.34235 235.81744 255.744
221.3537 235.82384 255.744
221.32149 235.80568 255.744
221.32506 235.80772 255.744
221.33574 235.8137 255.744
221.33061 235.81085 255.744
221.35025 235.82188 255.744
221.34251 235.81752 255.744
221.36458 235.82996 255.744
221.34755 235.82034 255.744
221.34267 235.81761 255.744
221.34888 235.82112 255.744
221.35728 235.82584 255.744
221.35152 235.82259 255.744
221.33951 235.81586 255.744
221.34859 235.82095 255.744
221.32639 235.80846 255.744
221.35202 235.8229 255.744
221.3454 235.81917 255.744
221.3358 235.81374 255.744
221.33762 235.81474 255.744
221.32547 235.8079 255.744
221.34233 235.81743 255.744
221.36255 235.82878 255.744
221.33084 235.81093 255.744
221.35213 235.8229 255.744
221.35756 235.826 255.744
221.35231 235.82303 255.744
221.33553 235.81358 255.744
221.327 235.80879 255.744
221.32634 235.80841 255.744
221.33687 235.81436 255.744
221.3569 235.82562 255.744
221.34422 235.81848 255.744
221.34119 235.81677 255.744
221.34622 235.81961 255.744
221.33546 235.81358 255.744
221.32649 235.8085 255.744
221.34897 235.82117 255.744
221.3352 235.81342 255.744
221.3272 235.80891 255.744
221.34697 235.82 255.744
221.33727 235.81456 255.744
221.33098 235.81104 255.744
221.3477 235.82043 255.744
221.34198 235.81723 255.744
221.34555 235.81923 255.744
221.35478 235.82443 255.744
221.34987 235.82164 255.744
221.33495 235.81325 255.744
221.3309 235.811 255.744
221.34982 235.82166 255.744
221.34901 235.8212 255.744
221.33592 235.81381 255.744
221.32864 235.80974 255.744
221.35365 235.82379 255.744
221.326 235.80823 255.744
221.33539 235.8135 255.744
221.34253 235.8175 255.744
221.3394 235.81577 255.744
221.3367 235.81427 255.744
221.32811 235.80939 255.744
221.35278 235.8233 255.744
221.33386 235.81265 255.744
221.34364 235.81815 255.744
221.34335 235.81798 255.744
221.3498 235.82166 255.744
221.3483 235.82079 255.744
221.34628 235.81964 255.744
221.34363 235.81816 255.744
221.3198 235.80475 255.744
221.32745 235.80904 255.744
221.35117 235.82239 255.744
221.33398 235.81268 255.744
221.34517 235.81902 255.744
221.33301 235.81215 255.744
221.33917 235.81564 255.744
221.3392 235.81566 255.744
221.33626 235.814 255.744
221.32564 235.80803 255.744
221.34863 235.82097 255.744
221.36292 235.82903 255.744
221.35414 235.82405 255.744
221.32155 235.80571 255.744
221.37193 235.83408 255.744
221.34415 235.81847 255.744
221.35567 235.82494 255.744
221.33615 235.81393 255.744
221.34875 235.82103 255.744
221.31795 235.80371 255.744
221.33635 235.81406 255.744
221.32549 235.80795 255.744
221.33315 235.81227 255.744
221.34082 235.81656 255.744
221.33412 235.8128 255.744
221.35637 235.82532 255.744
221.35698 235.8257 255.744
221.35835 235.82643 255.744
221.3622 235.82861 255.744
221.34709 235.8201 255.744
221.33394 235.81271 255.744
221.3441 235.81839 255.744
221.32404 235.80713 255.744
221.33833 235.81516 255.744
221.31448 235.80173 255.744
221.34195 235.81725 255.744
221.32504 235.8077 255.744
221.3468 235.8199 255.744
221.32938 235.81013 255.744
221.3376 235.81476 255.744
221.33926 235.81567 255.744
221.32436 235.80731 255.744
221.3401 235.81616 255.744
221.32814 235.80945 255.744
221.34598 235.81946 255.744
221.3622 235.8286 255.744
221.34886 235.82112 255.744
221.33728 235.8146 255.744
221.34111 235.81671 255.744
221.3424 235.81747 255.744
221.33397 235.81271 255.744
221.33928 235.8157 255.744
221.3361 235.81395 255.744
221.33656 235.81416 255.744
221.35776 235.82611 255.744
221.3701 235.83305 255.744
221.33098 235.81105 255.744
221.34471 235.81876 255.744
221.35036 235.82195 255.744
221.34886 235.82109 255.744
221.32693 235.80878 255.744
221.34842 235.8208 255.744
221.33472 235.81311 255.744
221.35506 235.82462 255.744
221.33388 235.81267 255.744
221.35089 235.82225 255.744
221.33836 235.8152 255.744
221.31958 235.80461 255.744
221.32777 235.80923 255.744
221.36298 235.82909 255.744
221.34076 235.81654 255.744
221.33983 235.81602 255.744
221.34618 235.8196 255.744
221.32242 235.8062 255.744
221.36046 235.82762 255.744
221.3227 235.80637 255.744
221.33229 235.81178 255.744
221.33632 235.814 255.744
221.34601 235.81952 255.744
221.33476 235.81316 255.744
221.35289 235.8234 255.744
221.34868 235.82098 255.744
221.32147 235.80568 255.744
221.3226 235.80629 255.744
221.33836 235.81517 255.744
221.3464 235.81972 255.744
221.32947 235.81018 255.744
221.33105 235.81107 255.744
221.34164 235.81708 255.744
221.36354 235.82936 255.744
221.33287 235.8121 255.744
221.33488 235.81323 255.744
221.32143 235.80562 255.744
221.34032 235.8163 255.744
221.34125 235.81682 255.744
221.35156 235.8226 255.744
221.36871 235.83229 255.744
221.32317 235.80663 255.744
221.33752 235.81471 255.744
221.3355 235.81357 255.744
221.3491 235.82123 255.744
221.3555 235.82484 255.744
221.33134 235.81123 255.744
221.32571 235.80809 255.744
221.34773 235.82045 255.744
221.3332 235.8123 255.744
221.34306 235.81783 255.744
221.34227 235.8174 255.744
221.3334 235.8124 255.744
221.3389 235.81549 255.744
221.34627 235.81963 255.744
221.33897 235.81552 255.744
221.33237 235.8118 255.744
221.35512 235.82463 255.744
221.33379 235.81264 255.744
221.33589 235.8138 255.744
221.34315 235.81789 255.744
221.33266 235.81198 255.744
221.34291 235.81773 255.744
221.33922 235.81566 255.744
221.33836 235.81517 255.744
221.34146 235.81693 255.744
221.3452 235.81903 255.744
221.34236 235.81743 255.744
221.34502 235.81891 255.744
221.33635 235.81407 255.744
221.33177 235.81146 255.744
221.32327 235.80667 255.744
221.32631 235.80841 255.744
221.35445 235.82423 255.744
221.32468 235.80746 255.744
221.34875 235.82106 255.744
221.31958 235.80461 255.744
221.34053 235.8164 255.744
221.3451 235.819 255.744
221.32643 235.8085 255.744
221.33911 235.81561 255.744
221.34909 235.82123 255.744
221.32411 235.80717 255.744
221.33281 235.81206 255.744
221.33356 235.81252 255.744
221.34367 235.81818 255.744
221.33762 235.81476 255.744
221.33585 235.81377 255.744
221.34305 235.81784 255.744
221.35788 235.82616 255.744
221.34172 235.81708 255.744
221.31415 235.80156 255.744
221.32573 235.80809 255.744
221.34575 235.81937 255.744
221.32976 235.8103 255.744
221.35574 235.82495 255.744
221.32295 235.80652 255.744
221.3383 235.81514 255.744
221.3533 235.8236 255.744
221.3411 235.81674 255.744
221.33691 235.81436 255.744
221.33821 235.81511 255.744
221.32266 235.80634 255.744
221.34901 235.82117 255.744
221.33293 235.81216 255.744
221.35397 235.82397 255.744
221.34721 235.82018 255.744
221.33003 235.8105 255.744
221.35197 235.82288 255.744
221.33423 235.81284 255.744
221.32831 235.80952 255.744
221.35225 235.82303 255.744
221.32993 235.81044 255.744
221.34683 235.81996 255.744
221.3205 235.8051 255.744
221.35141 235.82253 255.744
221.34122 235.81677 255.744
221.3356 235.81363 255.744
221.35281 235.82332 255.744
221.33302 235.81218 255.744
221.32808 235.80939 255.744
221.34373 235.81822 255.744
221.33116 235.81111 255.744
221.3308 235.81091 255.744
221.32533 235.80786 255.744
221.3166 235.80293 255.744
221.32515 235.80774 255.744
221.35536 235.82478 255.744
221.35207 235.82289 255.744
221.3317 235.81142 255.744
221.32544 235.80792 255.744
221.33395 235.81267 255.744
221.32579 235.8081 255.744
221.35858 235.82657 255.744
221.33612 235.8139 255.744
221.3435 235.81812 255.744
221.34961 235.82153 255.744
221.33408 235.81277 255.744
221.34949 235.82144 255.744
221.33292 235.81213 255.744
221.34087 235.8166 255.744
221.33334 235.81238 255.744
221.32802 235.80936 255.744
221.36111 235.82802 255.744
221.3334 235.8124 255.744
221.34663 235.81984 255.744
221.34085 235.81659 255.744
221.3524 235.8231 255.744
221.35434 235.82422 255.744
221.32047 235.80511 255.744
221.35822 235.82637 255.744
221.33223 235.8117 255.744
221.34967 235.82155 255.744
221.33235 235.81181 255.744
221.36052 235.82767 255.744
221.35855 235.82655 255.744
221.33502 235.81331 255.744
221.34048 235.81636 255.744
221.33063 235.8108 255.744
221.33604 235.81389 255.744
221.33331 235.81232 255.744
221.34645 235.81975 255.744
221.33408 235.81277 255.744
221.34637 235.81969 255.744
221.33836 235.81519 255.744
221.3544 235.82422 255.744
221.33856 235.81532 255.744
221.3277 235.80916 255.744
221.33624 235.81401 255.744
221.33772 235.81485 255.744
221.36113 235.828 255.744
221.34059 235.81645 255.744
221.34406 235.81839 255.744
221.35004 235.82175 255.744
221.3684 235.83209 255.744
221.34926 235.82132 255.744
221.33832 235.81516 255.744
221.34987 235.82166 255.744
221.35007 235.8218 255.744
221.3337 235.81256 255.744
221.33888 235.81548 255.744
221.33064 235.81082 255.744
221.33325 235.81232 255.744
221.32988 235.8104 255.744
221.35875 235.82669 255.744
221.33716 235.81453 255.744
221.36627 235.83092 255.744
221.33708 235.81448 255.744
221.3456 235.81924 255.744
221.31708 235.8032 255.744
221.3385 235.81526 255.744
221.3564 235.82533 255.744
221.34297 235.81776 255.744
221.35138 235.82253 255.744
221.35516 235.82465 255.744
221.34636 235.81972 255.744
221.33315 235.81226 255.744
221.33763 235.81479 255.744
221.33775 235.81487 255.744
221.3401 235.81616 255.744
221.33049 235.81078 255.744
221.34094 235.81662 255.744
221.35309 235.82352 255.744
221.33383 235.81264 255.744
221.34587 235.81941 255.744
221.34187 235.81717 255.744
221.3583 235.82643 255.744
221.34253 235.8175 255.744
221.36961 235.83278 255.744
221.34814 235.8207 255.744
221.34648 235.81975 255.744
221.32657 235.80858 255.744
221.33217 235.81169 255.744
221.34344 235.81804 255.744
221.33974 235.81595 255.744
221.33821 235.81508 255.744
221.32504 235.80771 255.744
221.33307 235.81221 255.744
221.32643 235.80847 255.744
221.3399 235.81607 255.744
221.35468 235.82439 255.744
221.33228 235.81177 255.744
221.3239 235.80704 255.744
221.34593 235.81946 255.744
221.35385 235.8239 255.744
221.33807 235.81503 255.744
221.34402 235.81834 255.744
221.33815 235.81506 255.744
221.34596 235.81949 255.744
221.34209 235.81729 255.744
221.3364 235.81412 255.744
221.35098 235.82228 255.744
221.35965 235.8272 255.744
221.35635 235.82533 255.744
221.32993 235.81041 255.744
221.3389 235.81548 255.744
221.3647 235.83 255.744
221.34158 235.817 255.744
221.36407 235.82967 255.744
221.34831 235.82079 255.744
221.35103 235.82233 255.744
221.33342 235.8124 255.744
221.32993 235.81044 255.744
221.36629 235.8309 255.744
221.34409 235.81839 255.744
221.3539 235.82396 255.744
221.33414 235.8128 255.744
221.35945 235.82707 255.744
221.36191 235.82845 255.744
221.34306 235.8178 255.744
221.34349 235.81807 255.744
221.33823 235.81514 255.744
221.33127 235.81119 255.744
221.3694 235.83266 255.744
221.3343 235.8129 255.744
221.3659 235.83072 255.744
221.32825 235.80948 255.744
221.33307 235.8122 255.744
221.34381 235.81825 255.744
221.34189 235.81718 255.744
221.34549 235.8192 255.744
221.36249 235.82878 255.744
221.33414 235.8128 255.744
221.34457 235.81868 255.744
221.3541 235.82407 255.744
221.35979 235.82726 255.744
221.34897 235.82118 255.744
221.37064 235.83336 255.744
221.36229 235.82869 255.744
221.33377 235.8126 255.744
221.33757 235.81477 255.744
221.3713 235.83376 255.744
221.3413 235.81682 255.744
221.33786 235.81487 255.744
221.34218 235.81735 255.744
221.34558 235.81924 255.744
221.35124 235.82243 255.744
221.35028 235.8219 255.744
221.34859 235.8209 255.744
221.34724 235.82016 255.744
221.35068 235.82211 255.744
221.33672 235.81429 255.744
221.33287 235.81212 255.744
221.34529 235.8191 255.744
221.34766 235.82043 255.744
221.33766 235.81479 255.744
221.35936 235.827 255.744
221.33559 235.81363 255.744
221.3778 235.83739 255.744
221.3651 235.83025 255.744
221.3338 235.81265 255.744
221.34036 235.81631 255.744
221.35112 235.82242 255.744
221.34155 235.81699 255.744
221.36116 235.82802 255.744
221.35706 235.82573 255.744
221.35373 235.82387 255.744
221.35626 235.82527 255.744
221.34457 235.81868 255.744
221.34447 235.81865 255.744
221.36084 235.82788 255.744
221.33887 235.81546 255.744
221.34126 235.81683 255.744
221.35204 235.82289 255.744
221.3645 235.8299 255.744
221.34584 235.81935 255.744
221.34972 235.82161 255.744
221.38365 235.8407 255.744
221.38542 235.84167 255.744
221.38057 235.83896 255.744
221.39049 235.84457 255.744
221.39053 235.84456 255.744
221.38461 235.84125 255.744
221.38339 235.84052 255.744
221.3789 235.83801 255.744
221.37288 235.83463 255.744
221.37161 235.83388 255.744
221.37492 235.83577 255.744
221.37389 235.83519 255.744
221.39008 235.8443 255.744
221.37358 235.83502 255.744
221.3748 235.83571 255.744
221.38524 235.84158 255.744
221.37813 235.83755 255.744
221.38254 235.84006 255.744
221.38734 235.84277 255.744
221.36005 235.82741 255.744
221.37083 235.83347 255.744
221.37558 235.83615 255.744
221.37083 235.83347 255.744
221.38289 235.84027 255.744
221.37068 235.83339 255.744
221.36385 235.82954 255.744
221.35861 235.8266 255.744
221.39357 235.84628 255.744
221.38126 235.83934 255.744
221.37851 235.8378 255.744
221.38458 235.84122 255.744
221.37999 235.83862 255.744
221.38281 235.84023 255.744
221.38004 235.83865 255.744
221.39331 235.84612 255.744
221.3844 235.84113 255.744
221.38596 235.84198 255.744
221.38698 235.84258 255.744
221.37566 235.83617 255.744
221.38005 235.83867 255.744
221.39894 235.84929 255.744
221.39055 235.84454 255.744
221.38943 235.84393 255.744
221.38885 235.84361 255.744
221.38101 235.83923 255.744
221.38493 235.84142 255.744
221.35716 235.82579 255.744
221.3955 235.84738 255.744
221.36618 235.83087 255.744
221.39688 235.84813 255.744
221.3663 235.83093 255.744
221.39459 235.84686 255.744
221.38869 235.84352 255.744
221.38283 235.84023 255.744
221.37703 235.83696 255.744
221.37856 235.83784 255.744
221.37524 235.83594 255.744
221.37805 235.83752 255.744
221.39346 235.84624 255.744
221.3869 235.84253 255.744
221.36438 235.82982 255.744
221.40344 235.85184 255.744
221.36285 235.82898 255.744
221.3783 235.83765 255.744
221.36946 235.8327 255.744
221.38004 235.83862 255.744
221.36153 235.82823 255.744
221.39346 235.8462 255.744
221.3656 235.83052 255.744
221.38686 235.84248 255.744
221.38428 235.84103 255.744
221.38118 235.8393 255.744
221.37747 235.83723 255.744
221.37631 235.83655 255.744
221.38197 235.83977 255.744
221.37166 235.83394 255.744
221.35675 235.82555 255.744
221.38737 235.84277 255.744
221.38416 235.84094 255.744
221.37027 235.83316 255.744
221.36441 235.82983 255.744
221.3713 235.83376 255.744
221.38173 235.8396 255.744
221.38861 235.84348 255.744
221.38011 235.83868 255.744
221.39676 235.8481 255.744
221.38264 235.84013 255.744
221.36789 235.83182 255.744
221.38275 235.8402 255.744
221.3673 235.83144 255.744
221.36687 235.83125 255.744
221.39348 235.84622 255.744
221.3765 235.83667 255.744
221.39291 235.84592 255.744
221.38823 235.84328 255.744
221.35344 235.82368 255.744
221.35045 235.82198 255.744
221.37062 235.83336 255.744
221.37524 235.83595 255.744
221.39104 235.84486 255.744
221.33836 235.8152 255.744
221.38196 235.83975 255.744
221.37288 235.83463 255.744
221.37283 235.83458 255.744
221.3765 235.83664 255.744
221.36412 235.8297 255.744
221.36868 235.83229 255.744
221.38258 235.84007 255.744
221.38141 235.8394 255.744
221.37534 235.83601 255.744
221.36272 235.82892 255.744
221.36319 235.82918 255.744
221.36034 235.82756 255.744
221.37189 235.83403 255.744
221.37549 235.8361 255.744
221.39096 235.84479 255.744
221.36938 235.83269 255.744
221.38185 235.83969 255.744
221.35413 235.82407 255.744
221.36494 235.83015 255.744
221.3852 235.84157 255.744
221.38028 235.83879 255.744
221.38899 235.84369 255.744
221.38414 235.84097 255.744
221.36668 235.83115 255.744
221.3722 235.83421 255.744
221.35455 235.8243 255.744
221.37112 235.83366 255.744
221.36386 235.82956 255.744
221.39722 235.84833 255.744
221.3664 235.83096 255.744
221.37975 235.8385 255.744
221.35689 235.82564 255.744
221.36205 235.82852 255.744
221.38618 235.8421 255.744
221.37146 235.83382 255.744
221.36882 235.83235 255.744
221.3633 235.82922 255.744
221.37666 235.83675 255.744
221.36043 235.8276 255.744
221.37482 235.83571 255.744
221.38565 235.84184 255.744
221.38129 235.83936 255.744
221.3802 235.83875 255.744
221.3799 235.83858 255.744
221.37596 235.83635 255.744
221.37904 235.8381 255.744
221.34804 235.82063 255.744
221.36357 235.8294 255.744
221.37657 235.83673 255.744
221.3793 235.83824 255.744
221.37665 235.83673 255.744
221.38605 235.84204 255.744
221.38412 235.84094 255.744
221.37549 235.83609 255.744
221.36926 235.83258 255.744
221.36655 235.83105 255.744
221.3543 235.82414 255.744
221.37865 235.83789 255.744
221.35158 235.82265 255.744
221.35818 235.82634 255.744
221.3614 235.82816 255.744
221.37225 235.83426 255.744
221.36377 235.82945 255.744
221.35905 235.82686 255.744
221.39163 235.8452 255.744
221.36911 235.8325 255.744
221.3854 235.84169 255.744
221.3551 235.8246 255.744
221.3756 235.83615 255.744
221.36354 235.82938 255.744
221.35162 235.82268 255.744
221.35501 235.82457 255.744
221.35274 235.82327 255.744
221.35936 235.827 255.744
221.35075 235.82214 255.744
221.35202 235.82289 255.744
221.37434 235.83546 255.744
221.37448 235.83551 255.744
221.37215 235.83421 255.744
221.36572 235.83058 255.744
221.36433 235.82982 255.744
221.35379 235.82384 255.744
221.36781 235.83177 255.744
221.3669 235.83127 255.744
221.37605 235.83643 255.744
221.37024 235.83315 255.744
221.37952 235.83838 255.744
221.35951 235.82713 255.744
221.37553 235.8361 255.744
221.40211 235.85109 255.744
221.36282 235.82898 255.744
221.36351 235.82936 255.744
221.36618 235.83087 255.744
221.38171 235.8396 255.744
221.37997 235.83861 255.744
221.36989 235.8329 255.744
221.38393 235.84087 255.744
221.37079 235.83345 255.744
221.3717 235.83395 255.744
221.37012 235.83305 255.744
221.3672 235.83145 255.744
221.37567 235.8362 255.744
221.3655 235.83049 255.744
221.36237 235.82872 255.744
221.3609 235.82787 255.744
221.38058 235.83896 255.744
221.3451 235.81897 255.744
221.36055 235.82765 255.744
221.37157 235.83386 255.744
221.36398 235.82962 255.744
221.36536 235.83037 255.744
221.36626 235.83087 255.744
221.3534 235.82364 255.744
221.36363 235.8294 255.744
221.38475 235.84132 255.744
221.3663 235.83092 255.744
221.34833 235.8208 255.744
221.3703 235.83318 255.744
221.35648 235.82536 255.744
221.38274 235.84016 255.744
221.38371 235.84071 255.744
221.38965 235.8441 255.744
221.37717 235.83704 255.744
221.39331 235.84613 255.744
221.36288 235.829 255.744
221.37323 235.83481 255.744
221.3735 235.83496 255.744
221.36507 235.83025 255.744
221.36546 235.83044 255.744
221.36803 235.83191 255.744
221.36548 235.83044 255.744
221.37486 235.83571 255.744
221.36528 235.83035 255.744
221.36778 235.83177 255.744
221.36627 235.83089 255.744
221.35811 235.82628 255.744
221.39714 235.84833 255.744
221.39355 235.84628 255.744
221.37483 235.83572 255.744
221.37718 235.83705 255.744
221.35135 235.8225 255.744
221.38194 235.83974 255.744
221.35648 235.82541 255.744
221.35838 235.82645 255.744
221.37042 235.83324 255.744
221.3598 235.82729 255.744
221.35587 235.82506 255.744
221.37022 235.83315 255.744
221.37865 235.83786 255.744
221.37363 235.83502 255.744
221.35861 235.82658 255.744
221.37875 235.83794 255.744
221.36588 235.83064 255.744
221.38841 235.84337 255.744
221.36835 235.83209 255.744
221.36269 235.82889 255.744
221.37302 235.8347 255.744
221.36005 235.82738 255.744
221.37611 235.83646 255.744
221.359 235.8268 255.744
221.37392 235.83522 255.744
221.39105 235.84488 255.744
221.39919 235.84943 255.744
221.36807 235.83192 255.744
221.38585 235.84189 255.744
221.38484 235.84137 255.744
221.35774 235.82608 255.744
221.36531 235.83037 255.744
221.35783 235.82617 255.744
221.35771 235.8261 255.744
221.37164 235.83397 255.744
221.36534 235.83038 255.744
221.37364 235.83505 255.744
221.37625 235.83653 255.744
221.37009 235.83307 255.744
221.38933 235.84389 255.744
221.38203 235.8398 255.744
221.38411 235.84099 255.744
221.34866 235.821 255.744
221.35878 235.82666 255.744
221.38123 235.8393 255.744
221.37198 235.83412 255.744
221.36237 235.82872 255.744
221.37262 235.83446 255.744
221.36372 235.82947 255.744
221.3693 235.83261 255.744
221.38754 235.8429 255.744
221.3727 235.8345 255.744
221.36646 235.83104 255.744
221.3633 235.82925 255.744
221.3689 235.83235 255.744
221.38507 235.84148 255.744
221.3753 235.83598 255.744
221.3726 235.8345 255.744
221.38239 235.83998 255.744
221.37575 235.83624 255.744
221.3941 235.84656 255.744
221.36435 235.82979 255.744
221.36687 235.83125 255.744
221.38197 235.83975 255.744
221.35948 235.82707 255.744
221.38744 235.84279 255.744
221.36444 235.82988 255.744
221.37042 235.83324 255.744
221.3933 235.8461 255.744
221.37639 235.83662 255.744
221.38545 235.8417 255.744
221.36888 235.83235 255.744
221.35873 235.82668 255.744
221.37494 235.83577 255.744
221.36986 235.83292 255.744
221.38463 235.84126 255.744
221.35866 235.82661 255.744
221.36847 235.83212 255.744
221.37024 235.83315 255.744
221.36497 235.83018 255.744
221.36263 235.82887 255.744
221.36086 235.82785 255.744
221.35501 235.82457 255.744
221.36212 235.82855 255.744
221.37553 235.83614 255.744
221.3632 235.8292 255.744
221.36958 235.8328 255.744
221.36348 235.82932 255.744
221.38184 235.83966 255.744
221.37503 235.83582 255.744
221.38408 235.84093 255.744
221.38739 235.84279 255.744
221.36348 235.82935 255.744
221.36523 235.83029 255.744
221.37613 235.83644 255.744
221.38 235.83867 255.744
221.36104 235.82797 255.744
221.36993 235.83296 255.744
221.36032 235.82755 255.744
221.37988 235.83858 255.744
221.38713 235.84264 255.744
221.37302 235.8347 255.744
221.36897 235.83243 255.744
221.36288 235.82901 255.744
221.36975 235.83289 255.744
221.35818 235.82635 255.744
221.38408 235.84093 255.744
221.37059 235.83333 255.744
221.37033 235.8332 255.744
221.37143 235.83377 255.744
221.34781 235.8205 255.744
221.36005 235.82741 255.744
221.36003 235.8274 255.744
221.37129 235.83374 255.744
221.3681 235.83194 255.744
221.36435 235.82983 255.744
221.38422 235.84099 255.744
221.36656 235.83104 255.744
221.37181 235.83405 255.744
221.37451 235.83557 255.744
221.36092 235.82787 255.744
221.37643 235.83664 255.744
221.37569 235.83623 255.744
221.36731 235.8315 255.744
221.37746 235.8372 255.744
221.39507 235.8471 255.744
221.36385 235.82954 255.744
221.38025 235.83878 255.744
221.38629 235.84218 255.744
221.37051 235.83333 255.744
221.36862 235.83221 255.744
221.37125 235.83368 255.744
221.3693 235.8326 255.744
221.37949 235.83832 255.744
221.3701 235.83305 255.744
221.37358 235.83504 255.744
221.35733 235.82587 255.744
221.3502 235.82185 255.744
221.36949 235.83272 255.744
221.3625 235.8288 255.744
221.37064 235.83336 255.744
221.39085 235.84477 255.744
221.37706 235.83702 255.744
221.3597 235.82722 255.744
221.3756 235.83617 255.744
221.36995 235.83298 255.744
221.38937 235.84393 255.744
221.36209 235.82855 255.744
221.38226 235.83992 255.744
221.37852 235.83781 255.744
221.36943 235.8327 255.744
221.36382 235.82954 255.744
221.3853 235.84161 255.744
221.38547 235.84175 255.744
221.37082 235.83348 255.744
221.37556 235.83612 255.744
221.38858 235.84349 255.744
221.37064 235.83334 255.744
221.37679 235.83682 255.744
221.3721 235.83421 255.744
221.3804 235.83885 255.744
221.37228 235.8343 255.744
221.37776 235.83737 255.744
221.37042 235.83327 255.744
221.37532 235.836 255.744
221.37305 235.8347 255.744
221.35643 235.82538 255.744
221.3789 235.83804 255.744
221.36624 235.8309 255.744
221.38338 235.84053 255.744
221.36241 235.82872 255.744
221.37961 235.83842 255.744
221.37999 235.83862 255.744
221.35835 235.82645 255.744
221.37503 235.83582 255.744
221.37729 235.83711 255.744
221.35098 235.82227 255.744
221.37311 235.83473 255.744
221.34457 235.8187 255.744
221.37862 235.83786 255.744
221.37628 235.83652 255.744
221.38249 235.84004 255.744
221.37231 235.8343 255.744
221.38461 235.84126 255.744
221.3683 235.83206 255.744
221.37259 235.83447 255.744
221.3829 235.84027 255.744
221.38153 235.83951 255.744
221.369 235.83243 255.744
221.36453 235.82994 255.744
221.36523 235.83032 255.744
221.37537 235.83601 255.744
221.39337 235.84616 255.744
221.37134 235.83376 255.744
221.36488 235.83014 255.744
221.37363 235.83505 255.744
221.37228 235.83429 255.744
221.37456 235.83554 255.744
221.36208 235.82854 255.744
221.37889 235.83801 255.744
221.39302 235.846 255.744
221.3807 235.83904 255.744
221.36884 235.83235 255.744
221.3669 235.83125 255.744
221.38176 235.83963 255.744
221.36526 235.83032 255.744
221.37581 235.8363 255.744
221.38039 235.83885 255.744
221.37825 235.83766 255.744
221.36731 235.83151 255.744
221.34227 235.81738 255.744
221.35855 235.82655 255.744
221.3638 235.8295 255.744
221.3769 235.83691 255.744
221.38962 235.84409 255.744
221.38487 235.84137 255.744
221.3862 235.8421 255.744
221.37859 235.83783 255.744
221.37538 235.83604 255.744
221.38152 235.83951 255.744
221.37146 235.83382 255.744
221.37355 235.835 255.744
221.37119 235.83368 255.744
221.37434 235.83543 255.744
221.3609 235.82788 255.744
221.38156 235.8395 255.744
221.3625 235.82878 255.744
221.37033 235.83315 255.744
221.3813 235.83937 255.744
221.36432 235.82983 255.744
221.37332 235.83487 255.744
221.38232 235.83997 255.744
221.36725 235.83142 255.744
221.38606 235.84207 255.744
221.39456 235.84685 255.744
221.37535 235.83604 255.744
221.38132 235.83939 255.744
221.3776 235.83727 255.744
221.38641 235.84224 255.744
221.36595 235.83073 255.744
221.37527 235.83598 255.744
221.35997 235.82738 255.744
221.38184 235.83965 255.744
221.38202 235.83978 255.744
221.38246 235.84004 255.744
221.36166 235.82831 255.744
221.38228 235.8399 255.744
221.37039 235.83324 255.744
221.37389 235.83519 255.744
221.38847 235.84341 255.744
221.3928 235.84587 255.744
221.37177 235.834 255.744
221.36443 235.82988 255.744
221.3864 235.84222 255.744
221.36713 235.83138 255.744
221.3819 235.8397 255.744
221.38162 235.83954 255.744
221.37381 235.83513 255.744
221.36278 235.82893 255.744
221.36823 235.83199 255.744
221.3946 235.84686 255.744
221.38069 235.839 255.744
221.35912 235.82686 255.744
221.38513 235.84154 255.744
221.37846 235.83777 255.744
221.37077 235.83345 255.744
221.38004 235.83865 255.744
221.37865 235.83788 255.744
221.37819 235.83759 255.744
221.38 235.83865 255.744
221.3752 235.83592 255.744
221.35254 235.82317 255.744
221.3538 235.82388 255.744
221.37813 235.83757 255.744
221.38097 235.83917 255.744
221.36844 235.83212 255.744
221.38179 235.83965 255.744
221.38113 235.8393 255.744
221.38635 235.84221 255.744
221.39114 235.8449 255.744
221.37299 235.83469 255.744
221.35669 235.82555 255.744
221.36664 235.83113 255.744
221.3602 235.82745 255.744
221.3731 235.83473 255.744
221.3827 235.8402 255.744
221.37323 235.83482 255.744
221.36302 235.8291 255.744
221.36998 235.83298 255.744
221.39134 235.845 255.744
221.36491 235.83014 255.744
221.38496 235.84145 255.744
221.37778 235.83737 255.744
221.35307 235.82346 255.744
221.3703 235.83316 255.744
221.35742 235.8259 255.744
221.37892 235.83803 255.744
221.39192 235.84535 255.744
221.3678 235.83179 255.744
221.37831 235.83772 255.744
221.4082 235.85452 255.744
221.39224 235.84552 255.744
221.37852 235.8378 255.744
221.37143 235.83382 255.744
221.38185 235.83966 255.744
221.38089 235.83914 255.744
221.38654 235.84232 255.744
221.37599 235.83638 255.744
221.36913 235.83253 255.744
221.3831 235.84036 255.744
221.36832 235.83203 255.744
221.36476 235.83005 255.744
221.3766 235.83672 255.744
221.38841 235.84338 255.744
221.36948 235.8327 255.744
221.35962 235.82718 255.744
221.39473 235.84691 255.744
221.38814 235.84322 255.744
221.36269 235.8289 255.744
221.38443 235.8411 255.744
221.36217 235.82861 255.744
221.38528 235.84163 255.744
221.36975 235.83289 255.744
221.39705 235.84822 255.744
221.37767 235.83733 255.744
221.39078 235.84471 255.744
221.37239 235.83435 255.744
221.38857 235.84346 255.744
221.3658 235.83063 255.744
221.37622 235.83652 255.744
221.36897 235.83241 255.744
221.37216 235.83421 255.744
221.38655 235.84229 255.744
221.37453 235.83553 255.744
221.38745 235.84282 255.744
221.37756 235.83727 255.744
221.36691 235.83127 255.744
221.38269 235.84016 255.744
221.39018 235.8444 255.744
221.35951 235.8271 255.744
221.36769 235.83171 255.744
221.38383 235.84082 255.744
221.3641 235.82968 255.744
221.39098 235.84482 255.744
221.36363 235.82942 255.744
221.38313 235.8404 255.744
221.3734 235.83493 255.744
221.3836 235.84065 255.744
221.38632 235.84221 255.744
221.38646 235.84225 255.744
221.36397 235.8296 255.744
221.38893 235.84366 255.744
221.37404 235.83528 255.744
221.37865 235.83788 255.744
221.3735 235.83495 255.744
221.38998 235.84428 255.744
221.39952 235.84962 255.744
221.37976 235.8385 255.744
221.37578 235.83627 255.744
221.38474 235.84128 255.744
221.37901 235.83807 255.744
221.38391 235.84084 255.744
221.40726 235.85399 255.744
221.41122 235.85623 255.744
221.41396 235.85779 255.744
221.39436 235.84671 255.744
221.40518 235.8528 255.744
221.415 235.85832 255.744
221.40785 235.8543 255.744
221.42047 235.86145 255.744
221.41747 235.85974 255.744
221.41115 235.85616 255.744
221.39839 235.849 255.744
221.40459 235.8525 255.744
221.40427 235.8523 255.744
221.415 235.85834 255.744
221.41916 235.86067 255.744
221.41257 235.85696 255.744
221.40521 235.85281 255.744
221.41232 235.85684 255.744
221.4055 235.853 255.744
221.42616 235.86464 255.744
221.40561 235.85306 255.744
221.40845 235.85466 255.744
221.4135 235.8575 255.744
221.39925 235.84946 255.744
221.40622 235.85341 255.744
221.40039 235.85011 255.744
221.42577 235.86441 255.744
221.40997 235.85555 255.744
221.41486 235.85828 255.744
221.41646 235.85918 255.744
221.40883 235.85487 255.744
221.41742 235.85974 255.744
221.40512 235.85281 255.744
221.4046 235.8525 255.744
221.40794 235.85439 255.744
221.40634 235.85345 255.744
221.42087 235.86168 255.744
221.4095 235.85527 255.744
221.38943 235.84395 255.744
221.39925 235.8495 255.744
221.41508 235.8584 255.744
221.41321 235.85733 255.744
221.4138 235.8577 255.744
221.41081 235.85597 255.744
221.40344 235.85185 255.744
221.41663 235.85925 255.744
221.396 235.84761 255.744
221.42288 235.86281 255.744
221.42336 235.86308 255.744
221.3959 235.8476 255.744
221.40726 235.85399 255.744
221.41301 235.85722 255.744
221.41946 235.86086 255.744
221.4042 235.85226 255.744
221.41797 235.86002 255.744
221.4077 235.85426 255.744
221.40268 235.8514 255.744
221.41252 235.85695 255.744
221.39944 235.84958 255.744
221.39746 235.84846 255.744
221.42574 235.86436 255.744
221.42442 235.86366 255.744
221.40147 235.85072 255.744
221.37975 235.8385 255.744
221.41411 235.85785 255.744
221.41403 235.8578 255.744
221.42244 235.86255 255.744
221.42387 235.86336 255.744
221.42522 235.8641 255.744
221.42352 235.86314 255.744
221.41052 235.85583 255.744
221.40382 235.85207 255.744
221.40211 235.85109 255.744
221.41714 235.85954 255.744
221.4102 235.85565 255.744
221.40227 235.85117 255.744
221.40887 235.8549 255.744
221.4024 235.85127 255.744
221.40329 235.85178 255.744
221.40613 235.85338 255.744
221.40514 235.85278 255.744
221.40115 235.85054 255.744
221.40904 235.85498 255.744
221.4046 235.85248 255.744
221.42216 235.8624 255.744
221.41476 235.8582 255.744
221.42198 235.8623 255.744
221.40904 235.85498 255.744
221.40768 235.85423 255.744
221.42043 235.86142 255.744
221.41585 235.85883 255.744
221.40216 235.85112 255.744
221.41768 235.85985 255.744
221.40721 235.85397 255.744
221.40498 235.8527 255.744
221.39551 235.84738 255.744
221.41505 235.85838 255.744
221.4087 235.85483 255.744
221.40544 235.85295 255.744
221.41588 235.85883 255.744
221.40007 235.84993 255.744
221.41179 235.85655 255.744
221.41579 235.85881 255.744
221.40129 235.8506 255.744
221.40533 235.8529 255.744
221.41173 235.85652 255.744
221.41132 235.8563 255.744
221.39742 235.84845 255.744
221.41481 235.85825 255.744
221.3946 235.84688 255.744
221.41115 235.8562 255.744
221.4046 235.8525 255.744
221.41183 235.85655 255.744
221.41385 235.85771 255.744
221.39896 235.84933 255.744
221.39095 235.84479 255.744
221.40489 235.85265 255.744
221.41556 235.85866 255.744
221.41187 235.85655 255.744
221.40324 235.85175 255.744
221.3963 235.84781 255.744
221.41602 235.85892 255.744
221.40639 235.8535 255.744
221.4017 235.85083 255.744
221.41132 235.8563 255.744
221.387 235.8426 255.744
221.40295 235.85156 255.744
221.40495 235.8527 255.744
221.40572 235.85312 255.744
221.38387 235.84079 255.744
221.39542 235.84734 255.744
221.4181 235.8601 255.744
221.41283 235.85712 255.744
221.40851 235.8547 255.744
221.39867 235.84915 255.744
221.39227 235.8455 255.744
221.41643 235.85918 255.744
221.39598 235.84763 255.744
221.39967 235.84972 255.744
221.41406 235.85782 255.744
221.40916 235.85509 255.744
221.38826 235.84328 255.744
221.40208 235.85109 255.744
221.40137 235.85066 255.744
221.38898 235.84366 255.744
221.40257 235.85133 255.744
221.40462 235.85251 255.744
221.4045 235.85242 255.744
221.41661 235.85927 255.744
221.41428 235.85797 255.744
221.40758 235.85417 255.744
221.40608 235.85332 255.744
221.3914 235.84506 255.744
221.40205 235.85106 255.744
221.41997 235.86115 255.744
221.38922 235.84384 255.744
221.39908 235.8494 255.744
221.40933 235.85515 255.744
221.39357 235.84628 255.744
221.39453 235.84682 255.744
221.39638 235.84785 255.744
221.39638 235.84789 255.744
221.413 235.85722 255.744
221.40016 235.85 255.744
221.39166 235.84518 255.744
221.40306 235.85161 255.744
221.42487 235.86392 255.744
221.41444 235.85805 255.744
221.41876 235.86047 255.744
221.41315 235.8573 255.744
221.38269 235.84015 255.744
221.37776 235.83739 255.744
221.4047 235.85254 255.744
221.41377 235.85764 255.744
221.386 235.84203 255.744
221.39676 235.8481 255.744
221.41505 235.85837 255.744
221.40477 235.85258 255.744
221.39201 235.8454 255.744
221.42014 235.86124 255.744
221.39383 235.8464 255.744
221.39491 235.84703 255.744
221.42282 235.86275 255.744
221.4146 235.85811 255.744
221.39441 235.84679 255.744
221.41733 235.85963 255.744
221.39679 235.84811 255.744
221.39803 235.8488 255.744
221.40213 235.85109 255.744
221.39761 235.84856 255.744
221.38998 235.84425 255.744
221.38985 235.84422 255.744
221.39021 235.8444 255.744
221.40364 235.85197 255.744
221.4137 235.85762 255.744
221.39626 235.84781 255.744
221.38919 235.84381 255.744
221.38724 235.8427 255.744
221.42848 235.86594 255.744
221.40842 235.85463 255.744
221.40553 235.85301 255.744
221.39748 235.84846 255.744
221.41777 235.85991 255.744
221.41307 235.85724 255.744
221.38739 235.84282 255.744
221.41188 235.8566 255.744
221.4248 235.86386 255.744
221.3976 235.84856 255.744
221.38857 235.84344 255.744
221.39845 235.84903 255.744
221.40123 235.85059 255.744
221.40056 235.85022 255.744
221.40384 235.85205 255.744
221.39453 235.84682 255.744
221.39516 235.84715 255.744
221.41254 235.85693 255.744
221.39247 235.84563 255.744
221.4038 235.85202 255.744
221.39838 235.84898 255.744
221.41545 235.8586 255.744
221.40175 235.85088 255.744
221.3921 235.84546 255.744
221.40077 235.85033 255.744
221.41182 235.85655 255.744
221.3775 235.83722 255.744
221.3962 235.84778 255.744
221.4072 235.85394 255.744
221.40324 235.85175 255.744
221.41399 235.85777 255.744
221.38821 235.84325 255.744
221.39894 235.84932 255.744
221.39705 235.8482 255.744
221.40503 235.85274 255.744
221.39864 235.84914 255.744
221.4188 235.86049 255.744
221.38904 235.84372 255.744
221.41435 235.85797 255.744
221.3964 235.84789 255.744
221.38675 235.84245 255.744
221.40465 235.85254 255.744
221.39589 235.84756 255.744
221.40172 235.85086 255.744
221.42778 235.86554 255.744
221.40208 235.85109 255.744
221.40784 235.85434 255.744
221.40504 235.85274 255.744
221.4102 235.85562 255.744
221.3916 235.84517 255.744
221.41814 235.8601 255.744
221.38855 235.84343 255.744
221.39865 235.84914 255.744
221.39996 235.8499 255.744
221.40642 235.85352 255.744
221.42773 235.86552 255.744
221.40166 235.85083 255.744
221.388 235.84315 255.744
221.39995 235.84984 255.744
221.41531 235.8585 255.744
221.40636 235.85349 255.744
221.40392 235.85211 255.744
221.39726 235.84839 255.744
221.42917 235.86632 255.744
221.39162 235.84518 255.744
221.38742 235.8428 255.744
221.38301 235.84032 255.744
221.416 235.8589 255.744
221.41103 235.85612 255.744
221.41553 235.85864 255.744
221.40758 235.85419 255.744
221.40004 235.84991 255.744
221.41405 235.8578 255.744
221.39934 235.84953 255.744
221.40363 235.85194 255.744
221.3939 235.84647 255.744
221.4095 235.85527 255.744
221.40163 235.85081 255.744
221.40659 235.85362 255.744
221.41008 235.85562 255.744
221.40749 235.85413 255.744
221.40106 235.85046 255.744
221.41458 235.85811 255.744
221.39207 235.84546 255.744
221.41301 235.85722 255.744
221.39156 235.84515 255.744
221.39722 235.8483 255.744
221.40808 235.85445 255.744
221.40884 235.8549 255.744
221.37065 235.83336 255.744
221.39027 235.84447 255.744
221.38737 235.84279 255.744
221.4138 235.85768 255.744
221.41371 235.85762 255.744
221.39243 235.84566 255.744
221.4108 235.85597 255.744
221.41855 235.86037 255.744
221.39206 235.84543 255.744
221.40178 235.8509 255.744
221.39993 235.84987 255.744
221.40283 235.85146 255.744
221.39595 235.84764 255.744
221.36884 235.83235 255.744
221.402 235.85103 255.744
221.39229 235.84552 255.744
221.39613 235.84775 255.744
221.39893 235.84932 255.744
221.4045 235.85243 255.744
221.38722 235.84271 255.744
221.3825 235.84004 255.744
221.39883 235.84926 255.744
221.40588 235.85323 255.744
221.39342 235.84618 255.744
221.39824 235.8489 255.744
221.36942 235.83264 255.744
221.41074 235.85593 255.744
221.3867 235.84242 255.744
221.39207 235.84543 255.744
221.39291 235.84592 255.744
221.41234 235.85687 255.744
221.38557 235.84175 255.744
221.38559 235.84178 255.744
221.40417 235.85226 255.744
221.40985 235.85544 255.744
221.40335 235.85178 255.744
221.40489 235.85265 255.744
221.41344 235.85747 255.744
221.4071 235.85391 255.744
221.39983 235.8498 255.744
221.40613 235.85335 255.744
221.38771 235.84297 255.744
221.40001 235.84991 255.744
221.42043 235.86142 255.744
221.3907 235.84467 255.744
221.42291 235.86281 255.744
221.39838 235.84897 255.744
221.41635 235.85913 255.744
221.41116 235.85614 255.744
221.41222 235.85681 255.744
221.38948 235.84395 255.744
221.40742 235.85408 255.744
221.40494 235.85266 255.744
221.40045 235.85013 255.744
221.40352 235.85188 255.744
221.4126 235.857 255.744
221.4154 235.85858 255.744
221.39874 235.84918 255.744
221.40215 235.8511 255.744
221.39445 235.84676 255.744
221.41054 235.85585 255.744
221.4138 235.85768 255.744
221.41508 235.8584 255.744
221.39638 235.84787 255.744
221.41212 235.85675 255.744
221.38698 235.84259 255.744
221.38689 235.84254 255.744
221.40811 235.85446 255.744
221.4054 235.85294 255.744
221.41989 235.86111 255.744
221.39093 235.8448 255.744
221.40796 235.85437 255.744
221.39772 235.8486 255.744
221.40817 235.85452 255.744
221.39777 235.84862 255.744
221.40167 235.85085 255.744
221.38994 235.84422 255.744
221.40837 235.85461 255.744
221.38956 235.84402 255.744
221.40335 235.85179 255.744
221.43416 235.86914 255.744
221.40714 235.85391 255.744
221.38422 235.84102 255.744
221.40074 235.85033 255.744
221.42545 235.86427 255.744
221.40561 235.85306 255.744
221.40744 235.85411 255.744
221.39525 235.84721 255.744
221.4206 235.8615 255.744
221.40869 235.85478 255.744
221.42227 235.86243 255.744
221.42267 235.86266 255.744
221.41512 235.85843 255.744
221.40381 235.85204 255.744
221.39545 235.84734 255.744
221.41595 235.85889 255.744
221.40752 235.85411 255.744
221.38133 235.83939 255.744
221.39441 235.84676 255.744
221.42088 235.86165 255.744
221.40768 235.85422 255.744
221.39883 235.84926 255.744
221.41544 235.85858 255.744
221.40279 235.85149 255.744
221.39043 235.8445 255.744
221.41512 235.85844 255.744
221.40977 235.85542 255.744
221.40155 235.8508 255.744
221.38565 235.84183 255.744
221.41058 235.85587 255.744
221.38747 235.84285 255.744
221.41153 235.85638 255.744
221.36836 235.83205 255.744
221.41707 235.85953 255.744
221.37978 235.83853 255.744
221.40503 235.85272 255.744
221.40059 235.85023 255.744
221.4278 235.86555 255.744
221.40244 235.85127 255.744
221.42923 235.86638 255.744
221.41212 235.85672 255.744
221.40408 235.85222 255.744
221.40526 235.85284 255.744
221.41508 235.8584 255.744
221.41763 235.85982 255.744
221.4004 235.85011 255.744
221.3914 235.84506 255.744
221.39478 235.84694 255.744
221.40114 235.85054 255.744
221.40002 235.84993 255.744
221.39725 235.84836 255.744
221.38971 235.8441 255.744
221.39302 235.84595 255.744
221.4088 235.85487 255.744
221.41286 235.85715 255.744
221.40848 235.85468 255.744
221.40489 235.85266 255.744
221.39111 235.84488 255.744
221.41354 235.85753 255.744
221.41322 235.85738 255.744
221.41171 235.8565 255.744
221.40382 235.85205 255.744
221.4171 235.85953 255.744
221.39948 235.84961 255.744
221.41388 235.8577 255.744
221.39684 235.84813 255.744
221.41385 235.85771 255.744
221.40842 235.85463 255.744
221.41542 235.85857 255.744
221.41093 235.85605 255.744
221.4152 235.85846 255.744
221.40494 235.85268 255.744
221.40494 235.85268 255.744
221.41171 235.85648 255.744
221.4008 235.85036 255.744
221.40572 235.85312 255.744
221.3986 235.84912 255.744
221.4032 235.85173 255.744
221.39806 235.8488 255.744
221.40501 235.85274 255.744
221.4095 235.85526 255.744
221.40363 235.85196 255.744
221.40384 235.85207 255.744
221.42323 235.863 255.744
221.39789 235.8487 255.744
221.40164 235.85086 255.744
221.40285 235.85152 255.744
221.3981 235.84885 255.744
221.40099 235.85045 255.744
221.39186 235.8453 255.744
221.42418 235.86353 255.744
221.41333 235.8574 255.744
221.40532 235.8529 255.744
221.40262 235.85138 255.744
221.39984 235.84982 255.744
221.39093 235.8448 255.744
221.4033 235.85176 255.744
221.4036 235.8519 255.744
221.40839 235.85461 255.744
221.39662 235.84799 255.744
221.40498 235.85272 255.744
221.4173 235.85963 255.744
221.39584 235.84756 255.744
221.39395 235.84651 255.744
221.40273 235.85146 255.744
221.40793 235.85435 255.744
221.39513 235.84714 255.744
221.41397 235.85779 255.744
221.4104 235.85574 255.744
221.40477 235.85257 255.744
221.4061 235.85332 255.744
221.41765 235.85983 255.744
221.42262 235.86267 255.744
221.40964 235.85535 255.744
221.39891 235.84929 255.744
221.39748 235.84846 255.744
221.38322 235.84047 255.744
221.415 235.85834 255.744
221.4089 235.85489 255.744
221.41664 235.85927 255.744
221.4022 235.85115 255.744
221.41693 235.85944 255.744
221.39474 235.84694 255.744
221.385 235.84146 255.744
221.41806 235.86005 255.744
221.4212 235.86185 255.744
221.40654 235.85359 255.744
221.38991 235.8442 255.744
221.41579 235.85878 255.744
221.40034 235.8501 255.744
221.383 235.84032 255.744
221.3941 235.84657 255.744
221.41747 235.85974 255.744
221.40013 235.84999 255.744
221.41843 235.86028 255.744
221.42392 235.86337 255.744
221.38718 235.8427 255.744
221.42284 235.86276 255.744
221.41034 235.85574 255.744
221.41534 235.85855 255.744
221.41306 235.85725 255.744
221.40607 235.85332 255.744
221.40405 235.85219 255.744
221.40543 235.85297 255.744
221.40309 235.85164 255.744
221.4272 235.86522 255.744
221.40814 235.85449 255.744
221.40656 235.8536 255.744
221.42137 235.86192 255.744
221.41393 235.85773 255.744
221.40999 235.85553 255.744
221.40826 235.85457 255.744
221.41939 235.86081 255.744
221.40453 235.85243 255.744
221.42285 235.86276 255.744
221.42223 235.86243 255.744
221.41121 235.8562 255.744
221.39732 235.84839 255.744
221.39986 235.84982 255.744
221.4002 235.85004 255.744
221.40459 235.8525 255.744
221.41194 235.85663 255.744
221.40897 235.85497 255.744
221.4233 235.86302 255.744
221.4031 235.85161 255.744
221.4019 235.85098 255.744
221.40266 235.85141 255.744
221.39142 235.84508 255.744
221.40413 235.85223 255.744
221.40665 235.85364 255.744
221.41635 235.85913 255.744
221.39005 235.84431 255.744
221.4272 235.86522 255.744
221.42345 235.8631 255.744
221.3983 235.84897 255.744
221.40369 235.85197 255.744
221.42148 235.86203 255.744
221.41995 235.8611 255.744
221.40958 235.85529 255.744
221.41208 235.8567 255.744
221.40657 235.85359 255.744
221.40866 235.85477 255.744
221.4065 235.85355 255.744
221.40701 235.85387 255.744
221.38925 235.84384 255.744
221.41783 235.85995 255.744
221.40932 235.85515 255.744
221.42824 235.8658 255.744
221.4142 235.8579 255.744
221.40758 235.85417 255.744
221.41577 235.85875 255.744
221.41258 235.857 255.744
221.40807 235.85445 255.744
221.41805 235.86005 255.744
221.42264 235.86269 255.744
221.40167 235.85081 255.744
221.38254 235.84007 255.744
221.40674 235.85368 255.744
221.42229 235.86246 255.744
221.41704 235.85948 255.744
221.41322 235.85733 255.744
221.40178 235.8509 255.744
221.40915 235.85506 255.744
221.42528 235.86417 255.744
221.41498 235.85832 255.744
221.42108 235.86177 255.744
221.40797 235.85439 255.744
221.4203 235.86134 255.744
221.41031 235.85567 255.744
221.40889 235.85492 255.744
221.4195 235.8609 255.744
221.42313 235.86295 255.744
221.42944 235.86649 255.744
221.40645 235.8535 255.744
221.41133 235.85626 255.744
221.41489 235.8583 255.744
221.41583 235.85883 255.744
221.42706 235.86514 255.744
221.40738 235.85406 255.744
221.41115 235.85614 255.744
221.39897 235.84932 255.744
221.4042 235.85228 255.744
221.42004 235.86122 255.744
221.40826 235.85457 255.744
221.42557 235.86432 255.744
221.42438 235.86362 255.744
221.4008 235.85037 255.744
221.39677 235.8481 255.744
221.40266 235.85138 255.744
221.42807 235.86572 255.744
221.41653 235.85922 255.744
221.4101 235.85559 255.744
221.4237 235.86325 255.744
221.44229 235.87372 255.744
221.43636 235.87039 255.744
221.45398 235.88031 255.744
221.46873 235.88863 255.744
221.44273 235.87396 255.744
221.44382 235.87459 255.744
221.44109 235.87305 255.744
221.43178 235.8678 255.744
221.45367 235.88017 255.744
221.44415 235.87477 255.744
221.44223 235.87367 255.744
221.42453 235.86371 255.744
221.43279 235.86836 255.744
221.44923 235.87764 255.744
221.44579 235.87567 255.744
221.42712 235.86517 255.744
221.44386 235.8746 255.744
221.4499 235.87799 255.744
221.43777 235.87119 255.744
221.44235 235.87378 255.744
221.40822 235.85452 255.744
221.43353 235.8688 255.744
221.45107 235.87866 255.744
221.42006 235.86118 255.744
221.44812 235.87698 255.744
221.45076 235.87846 255.744
221.45445 235.88057 255.744
221.44449 235.87495 255.744
221.44962 235.87785 255.744
221.43613 235.87025 255.744
221.45004 235.87808 255.744
221.42432 235.86362 255.744
221.45807 235.8826 255.744
221.44302 235.87415 255.744
221.44211 235.87363 255.744
221.46733 235.88783 255.744
221.45166 235.879 255.744
221.43698 235.87071 255.744
221.45325 235.8799 255.744
221.44176 235.87343 255.744
221.4307 235.86717 255.744
221.45436 235.88051 255.744
221.43997 235.87242 255.744
221.44122 235.87311 255.744
221.4487 235.87732 255.744
221.44206 235.8736 255.744
221.46112 235.88434 255.744
221.45369 235.88017 255.744
221.43585 235.8701 255.744
221.43524 235.86974 255.744
221.42484 235.86389 255.744
221.43404 235.8691 255.744
221.4287 235.86606 255.744
221.42007 235.8612 255.744
221.43797 235.87128 255.744
221.45305 235.87979 255.744
221.43974 235.8723 255.744
221.43803 235.87132 255.744
221.44058 235.87276 255.744
221.41373 235.85765 255.744
221.4288 235.86613 255.744
221.45029 235.87822 255.744
221.43584 235.87009 255.744
221.45834 235.88275 255.744
221.43625 235.87032 255.744
221.43333 235.86867 255.744
221.44061 235.8728 255.744
221.42662 235.8649 255.744
221.45287 235.87967 255.744
221.4434 235.87436 255.744
221.4337 235.86887 255.744
221.43599 235.87018 255.744
221.42387 235.86337 255.744
221.43501 235.8696 255.744
221.43312 235.86855 255.744
221.42972 235.86664 255.744
221.4477 235.87679 255.744
221.45453 235.88062 255.744
221.43195 235.86792 255.744
221.44945 235.87776 255.744
221.43123 235.86748 255.744
221.45091 235.87856 255.744
221.4393 235.87204 255.744
221.4356 235.86996 255.744
221.42891 235.86617 255.744
221.41907 235.86067 255.744
221.43214 235.86801 255.744
221.43828 235.87143 255.744
221.44211 235.87361 255.744
221.42271 235.86266 255.744
221.44214 235.87363 255.744
221.41895 235.8606 255.744
221.42453 235.86371 255.744
221.44637 235.87604 255.744
221.41914 235.8607 255.744
221.43002 235.86682 255.744
221.4419 235.8735 255.744
221.44786 235.87685 255.744
221.43947 235.87213 255.744
221.46663 235.88744 255.744
221.44072 235.87283 255.744
221.4369 235.8707 255.744
221.44133 235.87317 255.744
221.43033 235.86699 255.744
221.44757 235.8767 255.744
221.4567 235.88185 255.744
221.43535 235.86981 255.744
221.44855 235.87724 255.744
221.44405 235.87471 255.744
221.43053 235.8671 255.744
221.45348 235.88 255.744
221.43224 235.86806 255.744
221.43063 235.86716 255.744
221.43668 235.87056 255.744
221.44113 235.87306 255.744
221.4389 235.87184 255.744
221.42274 235.86272 255.744
221.44421 235.87485 255.744
221.4386 235.87164 255.744
221.42311 235.86292 255.744
221.43913 235.87193 255.744
221.44627 235.87599 255.744
221.44426 235.8748 255.744
221.43877 235.87175 255.744
221.43396 235.869 255.744
221.45955 235.88344 255.744
221.4275 235.8654 255.744
221.44067 235.87282 255.744
221.43593 235.87013 255.744
221.43423 235.86922 255.744
221.45792 235.88252 255.744
221.43637 235.87039 255.744
221.45085 235.87856 255.744
221.44316 235.8742 255.744
221.43217 235.86804 255.744
221.4295 235.86655 255.744
221.44266 235.87395 255.744
221.44868 235.87732 255.744
221.45988 235.88364 255.744
221.44698 235.87634 255.744
221.43713 235.87082 255.744
221.44351 235.8744 255.744
221.43892 235.87186 255.744
221.4448 235.87512 255.744
221.43655 235.87051 255.744
221.42754 235.86543 255.744
221.444 235.87466 255.744
221.41661 235.85925 255.744
221.42651 235.86485 255.744
221.46474 235.88635 255.744
221.44568 235.87563 255.744
221.43723 235.87086 255.744
221.43492 235.86955 255.744
221.43617 235.87025 255.744
221.41443 235.858 255.744
221.4226 235.86263 255.744
221.43631 235.87036 255.744
221.41803 235.86005 255.744
221.43697 235.8707 255.744
221.44379 235.87457 255.744
221.45007 235.8781 255.744
221.43307 235.86853 255.744
221.43947 235.87215 255.744
221.4326 235.86827 255.744
221.43109 235.8674 255.744
221.44003 235.87245 255.744
221.44339 235.87434 255.744
221.44818 235.87706 255.744
221.42583 235.86443 255.744
221.4171 235.85954 255.744
221.42827 235.86581 255.744
221.44687 235.8763 255.744
221.42899 235.86623 255.744
221.46541 235.88672 255.744
221.44034 235.87263 255.744
221.41246 235.85689 255.744
221.4417 235.87338 255.744
221.44359 235.87447 255.744
221.42413 235.86348 255.744
221.44461 235.87505 255.744
221.45665 235.88182 255.744
221.41788 235.85999 255.744
221.43007 235.8668 255.744
221.44781 235.87683 255.744
221.44379 235.87454 255.744
221.44618 235.87592 255.744
221.44257 235.87387 255.744
221.43236 235.86813 255.744
221.43124 235.8675 255.744
221.4265 235.86484 255.744
221.43591 235.87012 255.744
221.45882 235.88303 255.744
221.446 235.87582 255.744
221.42453 235.86371 255.744
221.44565 235.8756 255.744
221.44124 235.87312 255.744
221.44409 235.87474 255.744
221.4506 235.87843 255.744
221.45705 235.88205 255.744
221.44717 235.87643 255.744
221.45749 235.88226 255.744
221.43155 235.86766 255.744
221.43922 235.872 255.744
221.44443 235.87491 255.744
221.45137 235.87883 255.744
221.45363 235.88007 255.744
221.45183 235.8791 255.744
221.45988 235.88365 255.744
221.44041 235.87268 255.744
221.40765 235.8542 255.744
221.43552 235.86989 255.744
221.4386 235.87164 255.744
221.43271 235.86832 255.744
221.4557 235.88129 255.744
221.4369 235.87068 255.744
221.43245 235.86816 255.744
221.41397 235.85777 255.744
221.44911 235.87758 255.744
221.44003 235.87245 255.744
221.44415 235.87476 255.744
221.44083 235.87291 255.744
221.43752 235.87102 255.744
221.43526 235.86974 255.744
221.41788 235.85999 255.744
221.44862 235.87729 255.744
221.45215 235.8793 255.744
221.44234 235.87372 255.744
221.40439 235.8524 255.744
221.42104 235.86176 255.744
221.43849 235.87157 255.744
221.43506 235.86967 255.744
221.43771 235.87114 255.744
221.43199 235.86789 255.744
221.4468 235.87624 255.744
221.42499 235.864 255.744
221.43924 235.87202 255.744
221.44557 235.87556 255.744
221.42882 235.8661 255.744
221.42848 235.86594 255.744
221.4215 235.86203 255.744
221.41548 235.85861 255.744
221.44444 235.87492 255.744
221.42766 235.86548 255.744
221.41644 235.8592 255.744
221.43484 235.86954 255.744
221.42494 235.86392 255.744
221.44318 235.87422 255.744
221.43594 235.87016 255.744
221.43361 235.86884 255.744
221.44713 235.87645 255.744
221.4302 235.86693 255.744
221.43413 235.86914 255.744
221.42245 235.86256 255.744
221.42216 235.86238 255.744
221.43726 235.8709 255.744
221.44263 235.8739 255.744
221.4314 235.8676 255.744
221.43065 235.86714 255.744
221.43806 235.87137 255.744
221.42995 235.86678 255.744
221.42673 235.86496 255.744
221.42203 235.86232 255.744
221.43576 235.87007 255.744
221.43483 235.8695 255.744
221.43158 235.86769 255.744
221.42815 235.86577 255.744
221.43498 235.86961 255.744
221.44162 235.87337 255.744
221.4492 235.8776 255.744
221.41972 235.86101 255.744
221.44661 235.87616 255.744
221.42363 235.8632 255.744
221.43025 235.86697 255.744
221.44806 235.87698 255.744
221.43945 235.87215 255.744
221.4328 235.86836 255.744
221.44644 235.87605 255.744
221.41846 235.86029 255.744
221.42781 235.86554 255.744
221.42863 235.86604 255.744
221.43015 235.8669 255.744
221.44176 235.87344 255.744
221.436 235.8702 255.744
221.41228 235.85683 255.744
221.43973 235.87227 255.744
221.42723 235.86523 255.744
221.45233 235.87938 255.744
221.43912 235.87195 255.744
221.43108 235.8674 255.744
221.4183 235.8602 255.744
221.45552 235.8812 255.744
221.43942 235.8721 255.744
221.42938 235.86649 255.744
221.44838 235.87718 255.744
221.4313 235.86754 255.744
221.43382 235.86893 255.744
221.43472 235.86949 255.744
221.45154 235.87892 255.744
221.41536 235.8585 255.744
221.4536 235.8801 255.744
221.43904 235.8719 255.744
221.41736 235.85968 255.744
221.41692 235.85942 255.744
221.43585 235.87009 255.744
221.4389 235.87181 255.744
221.42935 235.86641 255.744
221.417 235.8595 255.744
221.45027 235.8782 255.744
221.42868 235.86609 255.744
221.44922 235.87764 255.744
221.44537 235.87546 255.744
221.42674 235.86494 255.744
221.45665 235.88177 255.744
221.45262 235.87953 255.744
221.45659 235.8818 255.744
221.43599 235.87016 255.744
221.44577 235.87566 255.744
221.4267 235.86493 255.744
221.42647 235.86479 255.744
221.4358 235.87009 255.744
221.42133 235.86194 255.744
221.43881 235.87177 255.744
221.42996 235.86678 255.744
221.43022 235.86691 255.744
221.42596 235.86453 255.744
221.44528 235.87544 255.744
221.43573 235.87004 255.744
221.43294 235.86847 255.744
221.45753 235.88231 255.744
221.42657 235.86488 255.744
221.43968 235.87225 255.744
221.45119 235.87872 255.744
221.4369 235.87067 255.744
221.42226 235.86244 255.744
221.44873 235.87735 255.744
221.43964 235.87224 255.744
221.45168 235.879 255.744
221.42888 235.8662 255.744
221.42995 235.86678 255.744
221.43558 235.86993 255.744
221.43488 235.86955 255.744
221.44312 235.8742 255.744
221.42795 235.86562 255.744
221.42453 235.86374 255.744
221.44243 235.8738 255.744
221.43849 235.87157 255.744
221.45686 235.88193 255.744
221.42757 235.86543 255.744
221.43404 235.86905 255.744
221.45166 235.879 255.744
221.40208 235.85109 255.744
221.43422 235.86919 255.744
221.43504 235.86963 255.744
221.43741 235.87096 255.744
221.42116 235.86182 255.744
221.434 235.86902 255.744
221.44046 235.87267 255.744
221.42183 235.86221 255.744
221.42604 235.86455 255.744
221.44975 235.87791 255.744
221.44171 235.8734 255.744
221.42488 235.8639 255.744
221.42818 235.86575 255.744
221.43082 235.86725 255.744
221.43 235.8668 255.744
221.433 235.86848 255.744
221.42305 235.86285 255.744
221.43059 235.86711 255.744
221.43625 235.87032 255.744
221.44641 235.87604 255.744
221.44435 235.87491 255.744
221.43835 235.87149 255.744
221.423 235.86284 255.744
221.42369 235.86324 255.744
221.43294 235.86847 255.744
221.42343 235.8631 255.744
221.45204 235.87921 255.744
221.44504 235.87527 255.744
221.42345 235.86311 255.744
221.4387 235.8717 255.744
221.44044 235.87265 255.744
221.43175 235.86778 255.744
221.42668 235.86494 255.744
221.42831 235.86584 255.744
221.4323 235.86809 255.744
221.43845 235.87157 255.744
221.44388 235.87459 255.744
221.42369 235.86327 255.744
221.44817 235.87701 255.744
221.4206 235.8615 255.744
221.43666 235.87054 255.744
221.42284 235.86275 255.744
221.43867 235.87167 255.744
221.43098 235.86736 255.744
221.42749 235.8654 255.744
221.45372 235.88014 255.744
221.42464 235.8638 255.744
221.43712 235.87079 255.744
221.44493 235.87523 255.744
221.415 235.85835 255.744
221.44669 235.87619 255.744
221.42067 235.86153 255.744
221.44493 235.87521 255.744
221.42578 235.86441 255.744
221.42184 235.86221 255.744
221.44177 235.87343 255.744
221.4237 235.86327 255.744
221.42743 235.86534 255.744
221.44923 235.87766 255.744
221.4224 235.8625 255.744
221.41235 235.85684 255.744
221.43767 235.87111 255.744
221.44032 235.87263 255.744
221.44093 235.87299 255.744
221.43225 235.86809 255.744
221.44098 235.87297 255.744
221.43222 235.86803 255.744
221.42444 235.86368 255.744
221.43546 235.86989 255.744
221.43741 235.87097 255.744
221.43797 235.87129 255.744
221.43715 235.87082 255.744
221.43343 235.86873 255.744
221.42351 235.86313 255.744
221.43658 235.8705 255.744
221.41826 235.86017 255.744
221.46219 235.88495 255.744
221.4322 235.86807 255.744
221.43452 235.86935 255.744
221.43405 235.86905 255.744
221.43294 235.86844 255.744
221.4334 235.86873 255.744
221.44313 235.87419 255.744
221.44124 235.87314 255.744
221.43538 235.86983 255.744
221.43602 235.87018 255.744
221.4337 235.86891 255.744
221.43085 235.86728 255.744
221.42438 235.86363 255.744
221.45236 235.8794 255.744
221.44211 235.8736 255.744
221.45697 235.882 255.744
221.43971 235.87228 255.744
221.4478 235.87686 255.744
221.43806 235.87134 255.744
221.43733 235.87096 255.744
221.43105 235.86737 255.744
221.44415 235.8748 255.744
221.44109 235.87308 255.744
221.45357 235.88008 255.744
221.45892 235.88306 255.744
221.43481 235.86949 255.744
221.44078 235.87282 255.744
221.41927 235.86075 255.744
221.42007 235.86119 255.744
221.44447 235.87495 255.744
221.43912 235.8719 255.744
221.44492 235.8752 255.744
221.45604 235.88147 255.744
221.432 235.86792 255.744
221.42702 235.86511 255.744
221.43842 235.87152 255.744
221.44237 235.87376 255.744
221.45839 235.88278 255.744
221.44403 235.87468 255.744
221.43843 235.87158 255.744
221.44612 235.87587 255.744
221.43234 235.86813 255.744
221.43462 235.8694 255.744
221.45065 235.87845 255.744
221.41458 235.85814 255.744
221.42644 235.86478 255.744
221.42804 235.86572 255.744
221.42926 235.86638 255.744
221.44313 235.87422 255.744
221.44456 235.87502 255.744
221.44173 235.87341 255.744
221.43463 235.8694 255.744
221.4342 235.86917 255.744
221.44221 235.87369 255.744
221.44687 235.8763 255.744
221.4365 235.87042 255.744
221.43204 235.86795 255.744
221.42105 235.86174 255.744
221.45087 235.87856 255.744
221.44821 235.87706 255.744
221.42653 235.86484 255.744
221.44032 235.87259 255.744
221.45224 235.87932 255.744
221.44081 235.8729 255.744
221.45505 235.8809 255.744
221.42995 235.86678 255.744
221.45792 235.88252 255.744
221.43774 235.87115 255.744
221.44112 235.87308 255.744
221.42036 235.86136 255.744
221.4307 235.86719 255.744
221.43892 235.87184 255.744
221.45052 235.87834 255.744
221.44992 235.87799 255.744
221.45522 235.881 255.744
221.45854 235.88287 255.744
221.43669 235.87059 255.744
221.44069 235.8728 255.744
221.45859 235.8829 255.744
221.44727 235.87651 255.744
221.43367 235.86887 255.744
221.42311 235.86292 255.744
221.42903 235.86627 255.744
221.4391 235.87193 255.744
221.4361 235.87021 255.744
221.44368 235.87451 255.744
221.42838 235.86589 255.744
221.45598 235.88142 255.744
221.4399 235.87238 255.744
221.42166 235.86209 255.744
221.43459 235.86938 255.744
221.42633 235.86475 255.744
221.43686 235.87065 255.744
221.44843 235.87717 255.744
221.4345 235.86931 255.744
221.43872 235.8717 255.744
221.45354 235.88007 255.744
221.43279 235.86838 255.744
221.4494 235.87775 255.744
221.44379 235.87456 255.744
221.44777 235.87682 255.744
221.44675 235.87624 255.744
221.43619 235.8703 255.744
221.44315 235.8742 255.744
221.45587 235.88136 255.744
221.43181 235.86781 255.744
221.43011 235.86682 255.744
221.45206 235.87923 255.744
221.43398 235.86903 255.744
221.43623 235.87032 255.744
221.42126 235.8619 255.744
221.43816 235.8714 255.744
221.43217 235.86801 255.744
221.44136 235.87317 255.744
221.44267 235.87392 255.744
221.43042 235.86707 255.744
221.44891 235.87746 255.744
221.45792 235.8825 255.744
221.44656 235.87613 255.744
221.44505 235.87529 255.744
221.43993 235.87234 255.744
221.45354 235.88005 255.744
221.46016 235.88379 255.744
221.43752 235.871 255.744
221.41783 235.85992 255.744
221.4478 235.87682 255.744
221.43579 235.87007 255.744
221.42754 235.86543 255.744
221.45888 235.88309 255.744
221.43805 235.8713 255.744
221.43552 235.8699 255.744
221.45108 235.87868 255.744
221.43846 235.87157 255.744
221.44424 235.87485 255.744
221.4405 235.87271 255.744
221.44705 235.8764 255.744
221.43262 235.86827 255.744
221.46211 235.88486 255.744
221.44092 235.87296 255.744
221.43335 235.86868 255.744
221.42868 235.86606 255.744
221.44066 235.87282 255.744
221.44753 235.87666 255.744
221.45618 235.88156 255.744
221.45119 235.87875 255.744
221.4373 235.8709 255.744
221.43774 235.87115 255.744
221.43515 235.86967 255.744
221.46729 235.88777 255.744
221.43849 235.87158 255.744
221.44536 235.87546 255.744
221.44322 235.87424 255.744
221.44238 235.8738 255.744
221.43025 235.86693 255.744
221.44662 235.87617 255.744
221.45844 235.8828 255.744
221.44464 235.87508 255.744
221.44289 235.87405 255.744
221.45302 235.87975 255.744
221.44557 235.87556 255.744
221.4298 235.86671 255.744
221.45695 235.882 255.744
221.44597 235.8758 255.744
221.44305 235.87416 255.744
221.43347 235.86873 255.744
221.45198 235.8792 255.744
221.43579 235.87007 255.744
221.45839 235.8828 255.744
221.46422 235.8861 255.744
221.42984 235.86671 255.744
221.42969 235.86662 255.744
221.44206 235.87358 255.744
221.45372 235.88019 255.744
221.43372 235.8689 255.744
221.47075 235.88974 255.744
221.48648 235.8986 255.744
221.46533 235.88666 255.744
221.46938 235.88896 255.744
221.45645 235.88168 255.744
221.46375 235.8858 255.744
221.47682 235.89317 255.744
221.47421 235.89172 255.744
221.47668 235.8931 255.744
221.47243 235.89072 255.744
221.48238 235.8963 255.744
221.46416 235.88606 255.744
221.48613 235.89844 255.744
221.4841 235.89728 255.744
221.44861 235.8773 255.744
221.4736 235.89137 255.744
221.46104 235.88426 255.744
221.48106 235.89554 255.744
221.47649 235.893 255.744
221.46368 235.88577 255.744
221.46623 235.8872 255.744
221.4823 235.89626 255.744
221.45935 235.88332 255.744
221.48972 235.90045 255.744
221.48032 235.8951 255.744
221.4768 235.89316 255.744
221.47949 235.8947 255.744
221.48265 235.89647 255.744
221.47017 235.88943 255.744
221.48419 235.89731 255.744
221.47772 235.89366 255.744
221.47487 235.89206 255.744
221.45778 235.88245 255.744
221.48413 235.8973 255.744
221.48224 235.89621 255.744
221.45863 235.88292 255.744
221.47139 235.8901 255.744
221.47734 235.89346 255.744
221.46474 235.88638 255.744
221.47325 235.89113 255.744
221.48663 235.89871 255.744
221.45969 235.8835 255.744
221.4655 235.8868 255.744
221.48651 235.89864 255.744
221.47516 235.89224 255.744
221.47156 235.8902 255.744
221.47205 235.89049 255.744
221.46739 235.88788 255.744
221.47694 235.89322 255.744
221.45975 235.88356 255.744
221.46513 235.88661 255.744
221.48409 235.89725 255.744
221.47379 235.89145 255.744
221.47163 235.89024 255.744
221.4724 235.8907 255.744
221.45717 235.88213 255.744
221.46298 235.88538 255.744
221.4596 235.8835 255.744
221.47783 235.89375 255.744
221.46938 235.88896 255.744
221.46736 235.88785 255.744
221.47293 235.89096 255.744
221.45839 235.8828 255.744
221.46257 235.88516 255.744
221.46857 235.88853 255.744
221.45747 235.88228 255.744
221.47478 235.892 255.744
221.47296 235.89098 255.744
221.47183 235.89037 255.744
221.4645 235.8862 255.744
221.45496 235.88084 255.744
221.47107 235.88994 255.744
221.48724 235.89905 255.744
221.46259 235.88515 255.744
221.4737 235.89143 255.744
221.48303 235.89667 255.744
221.46512 235.88657 255.744
221.47598 235.89272 255.744
221.46785 235.88812 255.744
221.45946 235.8834 255.744
221.47287 235.89093 255.744
221.47278 235.89088 255.744
221.48083 235.89543 255.744
221.4611 235.88434 255.744
221.47035 235.88953 255.744
221.48499 235.89775 255.744
221.47491 235.89212 255.744
221.4735 235.89128 255.744
221.47343 235.89128 255.744
221.45769 235.88239 255.744
221.47314 235.8911 255.744
221.4559 235.88138 255.744
221.49265 235.90211 255.744
221.48352 235.89693 255.744
221.46649 235.88737 255.744
221.45682 235.88188 255.744
221.47119 235.89001 255.744
221.48622 235.89848 255.744
221.46907 235.88878 255.744
221.45331 235.87993 255.744
221.45879 235.88303 255.744
221.45888 235.88309 255.744
221.47995 235.89493 255.744
221.45938 235.88336 255.744
221.48671 235.89874 255.744
221.47795 235.89378 255.744
221.46654 235.88736 255.744
221.4596 235.88347 255.744
221.47174 235.8903 255.744
221.49582 235.9039 255.744
221.48032 235.89513 255.744
221.47415 235.89165 255.744
221.46753 235.88794 255.744
221.47337 235.89125 255.744
221.46313 235.88545 255.744
221.46857 235.88853 255.744
221.46574 235.88693 255.744
221.45412 235.88039 255.744
221.46513 235.8866 255.744
221.46562 235.88689 255.744
221.47359 235.89134 255.744
221.46602 235.88708 255.744
221.46178 235.88469 255.744
221.48357 235.89697 255.744
221.46036 235.88388 255.744
221.4647 235.88634 255.744
221.46696 235.88763 255.744
221.45697 235.882 255.744
221.46165 235.88464 255.744
221.47969 235.89478 255.744
221.46631 235.88724 255.744
221.47284 235.89095 255.744
221.46199 235.88483 255.744
221.46562 235.88684 255.744
221.46825 235.88834 255.744
221.47504 235.8922 255.744
221.47746 235.89352 255.744
221.46951 235.88905 255.744
221.46094 235.88423 255.744
221.47868 235.89423 255.744
221.4583 235.88274 255.744
221.47523 235.89226 255.744
221.47783 235.89378 255.744
221.49687 235.90445 255.744
221.45308 235.87979 255.744
221.4606 235.88405 255.744
221.45923 235.88327 255.744
221.46692 235.88759 255.744
221.47168 235.89027 255.744
221.45604 235.88148 255.744
221.46793 235.88817 255.744
221.46033 235.88388 255.744
221.47809 235.89389 255.744
221.46806 235.88823 255.744
221.4722 235.89056 255.744
221.47609 235.89278 255.744
221.46259 235.88516 255.744
221.46715 235.8877 255.744
221.45972 235.88353 255.744
221.47081 235.88979 255.744
221.45932 235.8833 255.744
221.45406 235.88037 255.744
221.45776 235.88243 255.744
221.45786 235.8825 255.744
221.47208 235.8905 255.744
221.47923 235.89452 255.744
221.46025 235.8838 255.744
221.44713 235.87645 255.744
221.47496 235.89212 255.744
221.48048 235.89523 255.744
221.48264 235.89647 255.744
221.46465 235.8863 255.744
221.44888 235.8774 255.744
221.47185 235.89037 255.744
221.45752 235.8823 255.744
221.45149 235.8789 255.744
221.46474 235.88634 255.744
221.45569 235.88126 255.744
221.47278 235.8909 255.744
221.47845 235.89407 255.744
221.47186 235.89037 255.744
221.47513 235.89224 255.744
221.45877 235.88301 255.744
221.48236 235.89629 255.744
221.46753 235.88795 255.744
221.44614 235.8759 255.744
221.47348 235.8913 255.744
221.45522 235.88101 255.744
221.46461 235.88626 255.744
221.47269 235.89085 255.744
221.45708 235.88203 255.744
221.47241 235.8907 255.744
221.4662 235.88719 255.744
221.45851 235.88284 255.744
221.46843 235.88847 255.744
221.45566 235.88123 255.744
221.48206 235.89612 255.744
221.46516 235.8866 255.744
221.46814 235.88826 255.744
221.46677 235.8875 255.744
221.449 235.8775 255.744
221.44183 235.87346 255.744
221.47043 235.88959 255.744
221.47281 235.89093 255.744
221.4723 235.89061 255.744
221.46426 235.88611 255.744
221.47983 235.89487 255.744
221.46051 235.88396 255.744
221.48865 235.89987 255.744
221.45155 235.87892 255.744
221.46083 235.88417 255.744
221.46394 235.88591 255.744
221.49501 235.90341 255.744
221.47745 235.89352 255.744
221.47812 235.89389 255.744
221.46065 235.88406 255.744
221.48416 235.89731 255.744
221.46255 235.88515 255.744
221.455 235.88087 255.744
221.45966 235.8835 255.744
221.44151 235.87328 255.744
221.46472 235.88635 255.744
221.455 235.88089 255.744
221.4516 235.87895 255.744
221.4497 235.87791 255.744
221.47873 235.89426 255.744
221.48145 235.89578 255.744
221.46794 235.88818 255.744
221.45998 235.88371 255.744
221.47954 235.89471 255.744
221.44757 235.8767 255.744
221.45303 235.87979 255.744
221.48328 235.89682 255.744
221.46132 235.88443 255.744
221.46739 235.88788 255.744
221.46936 235.88898 255.744
221.46407 235.88602 255.744
221.47777 235.8937 255.744
221.48486 235.89774 255.744
221.45345 235.88 255.744
221.46338 235.88562 255.744
221.4881 235.89957 255.744
221.47145 235.89017 255.744
221.47939 235.89459 255.744
221.46875 235.88863 255.744
221.454 235.88031 255.744
221.47273 235.89087 255.744
221.446 235.8758 255.744
221.46826 235.88834 255.744
221.45047 235.87834 255.744
221.46721 235.88774 255.744
221.46535 235.88672 255.744
221.46342 235.88562 255.744
221.48167 235.89592 255.744
221.47005 235.88939 255.744
221.47588 235.89268 255.744
221.47382 235.89148 255.744
221.43863 235.87167 255.744
221.47932 235.89462 255.744
221.45178 235.87906 255.744
221.46669 235.88748 255.744
221.47234 235.89064 255.744
221.43222 235.86804 255.744
221.46368 235.88579 255.744
221.47531 235.89233 255.744
221.45984 235.8836 255.744
221.4595 235.8834 255.744
221.47672 235.89311 255.744
221.47557 235.89246 255.744
221.45311 235.87982 255.744
221.44708 235.87643 255.744
221.47017 235.88942 255.744
221.46759 235.88795 255.744
221.47849 235.89407 255.744
221.47266 235.89082 255.744
221.4458 235.87572 255.744
221.45627 235.88164 255.744
221.46553 235.88681 255.744
221.46684 235.88756 255.744
221.4538 235.88019 255.744
221.4532 235.87988 255.744
221.47021 235.88943 255.744
221.45828 235.88272 255.744
221.47061 235.88971 255.744
221.47061 235.88968 255.744
221.46391 235.88588 255.744
221.45085 235.87856 255.744
221.46445 235.88622 255.744
221.46875 235.88863 255.744
221.46901 235.8888 255.744
221.45808 235.88261 255.744
221.46248 235.88507 255.744
221.48453 235.8975 255.744
221.44345 235.87436 255.744
221.47139 235.89014 255.744
221.46262 235.88518 255.744
221.45724 235.88213 255.744
221.46468 235.88635 255.744
221.45697 235.882 255.744
221.45894 235.88312 255.744
221.46324 235.88551 255.744
221.46614 235.88716 255.744
221.44403 235.87471 255.744
221.44458 235.87502 255.744
221.48323 235.8968 255.744
221.44006 235.87248 255.744
221.44986 235.87799 255.744
221.46521 235.88663 255.744
221.45859 235.88289 255.744
221.47606 235.89275 255.744
221.46144 235.88452 255.744
221.47304 235.89105 255.744
221.47298 235.891 255.744
221.4648 235.88641 255.744
221.4733 235.89117 255.744
221.46773 235.88805 255.744
221.47052 235.88962 255.744
221.45705 235.88203 255.744
221.45895 235.88312 255.744
221.45818 235.88269 255.744
221.47543 235.89236 255.744
221.46533 235.8867 255.744
221.46991 235.8893 255.744
221.4525 235.8795 255.744
221.43979 235.87233 255.744
221.4476 235.8767 255.744
221.48033 235.89514 255.744
221.47954 235.8947 255.744
221.50151 235.90706 255.744
221.4716 235.89023 255.744
221.4636 235.88573 255.744
221.47711 235.89334 255.744
221.47354 235.8913 255.744
221.45612 235.88153 255.744
221.47346 235.89128 255.744
221.45166 235.87901 255.744
221.46338 235.8856 255.744
221.46704 235.88766 255.744
221.46417 235.88605 255.744
221.45847 235.88287 255.744
221.45703 235.882 255.744
221.4596 235.88347 255.744
221.46312 235.88548 255.744
221.45256 235.87947 255.744
221.45284 235.87968 255.744
221.46889 235.8887 255.744
221.44048 235.87271 255.744
221.4644 235.88617 255.744
221.46722 235.88774 255.744
221.46002 235.8837 255.744
221.45728 235.88217 255.744
221.4907 235.90099 255.744
221.47745 235.89352 255.744
221.48927 235.90019 255.744
221.45207 235.87924 255.744
221.45003 235.8781 255.744
221.46931 235.88893 255.744
221.4633 235.88556 255.744
221.4744 235.89183 255.744
221.46623 235.88724 255.744
221.45828 235.88274 255.744
221.45093 235.87857 255.744
221.46347 235.88565 255.744
221.47115 235.88995 255.744
221.43768 235.87114 255.744
221.47438 235.8918 255.744
221.49074 235.90102 255.744
221.45966 235.88348 255.744
221.48125 235.89566 255.744
221.47797 235.89381 255.744
221.4435 235.87439 255.744
221.45364 235.88011 255.744
221.46123 235.8844 255.744
221.46643 235.88731 255.744
221.45848 235.88283 255.744
221.47304 235.89104 255.744
221.45624 235.88159 255.744
221.45827 235.88274 255.744
221.4839 235.89716 255.744
221.4692 235.88885 255.744
221.46399 235.88599 255.744
221.48218 235.8962 255.744
221.46553 235.88683 255.744
221.45598 235.88145 255.744
221.46785 235.88812 255.744
221.44376 235.87456 255.744
221.44621 235.87592 255.744
221.47472 235.89201 255.744
221.46664 235.88745 255.744
221.4645 235.88623 255.744
221.46497 235.88647 255.744
221.47101 235.88991 255.744
221.46196 235.88481 255.744
221.45819 235.88269 255.744
221.46428 235.88612 255.744
221.45036 235.87828 255.744
221.4595 235.88339 255.744
221.47234 235.89066 255.744
221.44498 235.87524 255.744
221.4556 235.88124 255.744
221.49217 235.90184 255.744
221.4375 235.87102 255.744
221.44437 235.87491 255.744
221.46336 235.88559 255.744
221.46082 235.88416 255.744
221.4687 235.88858 255.744
221.46873 235.88861 255.744
221.46696 235.88765 255.744
221.46165 235.88463 255.744
221.46855 235.88849 255.744
221.46387 235.88585 255.744
221.47932 235.89455 255.744
221.4707 235.88971 255.744
221.4655 235.88681 255.744
221.47263 235.89081 255.744
221.4775 235.89352 255.744
221.45369 235.88017 255.744
221.48036 235.89517 255.744
221.47362 235.89136 255.744
221.4757 235.89252 255.744
221.46222 235.88493 255.744
221.47073 235.88972 255.744
221.46156 235.88458 255.744
221.47192 235.89041 255.744
221.46455 235.88625 255.744
221.46725 235.88779 255.744
221.46269 235.88522 255.744
221.46182 235.88472 255.744
221.4629 235.88533 255.744
221.46086 235.88417 255.744
221.45569 235.88127 255.744
221.48384 235.89711 255.744
221.4688 235.88863 255.744
221.477 235.8933 255.744
221.46846 235.88849 255.744
221.48438 235.89745 255.744
221.4576 235.88232 255.744
221.47644 235.89297 255.744
221.46375 235.88579 255.744
221.4655 235.8868 255.744
221.46269 235.88522 255.744
221.4658 235.88698 255.744
221.48634 235.89854 255.744
221.45206 235.87923 255.744
221.46756 235.888 255.744
221.49329 235.90244 255.744
221.46121 235.88435 255.744
221.46861 235.88853 255.744
221.45976 235.88358 255.744
221.47981 235.89484 255.744
221.48836 235.89964 255.744
221.46953 235.88905 255.744
221.47836 235.89403 255.744
221.46434 235.88615 255.744
221.46411 235.88602 255.744
221.4676 235.88797 255.744
221.47803 235.89384 255.744
221.48904 235.90007 255.744
221.46472 235.88638 255.744
221.44913 235.87756 255.744
221.46843 235.88846 255.744
221.4586 235.8829 255.744
221.47025 235.8895 255.744
221.45233 235.87935 255.744
221.45653 235.88174 255.744
221.47652 235.893 255.744
221.48317 235.89674 255.744
221.44441 235.87494 255.744
221.48401 235.89723 255.744
221.46776 235.88806 255.744
221.46971 235.88918 255.744
221.47664 235.8931 255.744
221.4775 235.89355 255.744
221.46846 235.88847 255.744
221.45755 235.88231 255.744
221.46059 235.88402 255.744
221.47807 235.89388 255.744
221.45818 235.88269 255.744
221.45752 235.88231 255.744
221.4654 235.88676 255.744
221.46016 235.88379 255.744
221.46892 235.88872 255.744
221.46051 235.88394 255.744
221.46382 235.88583 255.744
221.46902 235.8888 255.744
221.47314 235.8911 255.744
221.48535 235.89796 255.744
221.47603 235.89273 255.744
221.4558 235.88133 255.744
221.4851 235.89783 255.744
221.4657 235.88692 255.744
221.4485 235.8772 255.744
221.46086 235.88417 255.744
221.47136 235.89009 255.744
221.47383 235.89148 255.744
221.4814 235.89575 255.744
221.47038 235.88957 255.744
221.45515 235.88094 255.744
221.46289 235.88533 255.744
221.47757 235.89357 255.744
221.45656 235.88174 255.744
221.48471 235.89764 255.744
221.46703 235.88765 255.744
221.4653 235.88672 255.744
221.47252 235.89075 255.744
221.46315 235.88545 255.744
221.4663 235.88727 255.744
221.4672 235.88777 255.744
221.47614 235.89278 255.744
221.4787 235.89421 255.744
221.47021 235.88939 255.744
221.47014 235.8894 255.744
221.47273 235.89085 255.744
221.47095 235.88986 255.744
221.46053 235.88397 255.744
221.48079 235.8954 255.744
221.48602 235.89835 255.744
221.46635 235.8873 255.744
221.46677 235.8875 255.744
221.46191 235.88477 255.744
221.46931 235.88895 255.744
221.46173 235.88467 255.744
221.46832 235.88837 255.744
221.46721 235.88779 255.744
221.47919 235.8945 255.744
221.47139 235.89009 255.744
221.46729 235.88779 255.744
221.46951 235.88905 255.744
221.4831 235.89671 255.744
221.47223 235.89058 255.744
221.49042 235.90083 255.744
221.47853 235.89415 255.744
221.47604 235.89273 255.744
221.47896 235.89438 255.744
221.4607 235.8841 255.744
221.46634 235.88727 255.744
221.46973 235.88919 255.744
221.4867 235.89877 255.744
221.46584 235.88698 255.744
221.4628 235.88527 255.744
221.45462 235.88066 255.744
221.47215 235.89052 255.744
221.46913 235.88885 255.744
221.46921 235.88889 255.744
221.48123 235.89565 255.744
221.4902 235.90071 255.744
221.45528 235.88104 255.744
221.46646 235.88734 255.744
221.47792 235.89381 255.744
221.455 235.88089 255.744
221.48425 235.89735 255.744
221.46344 235.88565 255.744
221.46893 235.88873 255.744
221.46898 235.88873 255.744
221.46729 235.88779 255.744
221.4659 235.88702 255.744
221.48842 235.89972 255.744
221.47772 235.89368 255.744
221.46935 235.88899 255.744
221.48242 235.89638 255.744
221.45213 235.87926 255.744
221.485 235.89778 255.744
221.47414 235.89166 255.744
221.48274 235.89653 255.744
221.48949 235.9003 255.744
221.48216 235.89621 255.744
221.46693 235.88759 255.744
221.45308 235.87979 255.744
221.47575 235.8926 255.744
221.4587 235.88297 255.744
221.49228 235.90189 255.744
221.48021 235.89507 255.744
221.46819 235.88832 255.744
221.48566 235.89813 255.744
221.46408 235.88603 255.744
221.4755 235.89244 255.744
221.48004 235.89496 255.744
221.45634 235.88162 255.744
221.45857 235.8829 255.744
221.47333 235.89119 255.744
221.46596 235.88704 255.744
221.48454 235.89752 255.744
221.48126 235.89569 255.744
221.46623 235.88722 255.744
221.46529 235.88667 255.744
221.48491 235.89772 255.744
221.4607 235.88408 255.744
221.4535 235.88004 255.744
221.49263 235.90211 255.744
221.47899 235.89438 255.744
221.48564 235.89816 255.744
221.48927 235.90018 255.744
221.4798 235.89485 255.744
221.47961 235.89474 255.744
221.48482 235.89767 255.744
221.48074 235.8954 255.744
221.48628 235.8985 255.744
221.45737 235.88222 255.744
221.48074 235.8954 255.744
221.45804 235.88258 255.744
221.50084 235.90671 255.744
221.50864 235.9111 255.744
221.49828 235.90524 255.744
221.49828 235.90527 255.744
221.5109 235.91237 255.744
221.5059 235.90956 255.744
221.4915 235.90147 255.744
221.48969 235.90042 255.744
221.5078 235.91061 255.744
221.50417 235.90855 255.744
221.5096 235.91165 255.744
221.49515 235.9035 255.744
221.50375 235.90833 255.744
221.4872 235.89903 255.744
221.50604 235.9096 255.744
221.50201 235.90736 255.744
221.48839 235.89967 255.744
221.49234 235.90193 255.744
221.50542 235.90927 255.744
221.51968 235.91733 255.744
221.51003 235.91187 255.744
221.50795 235.9107 255.744
221.49402 235.90285 255.744
221.5028 235.9078 255.744
221.49066 235.90097 255.744
221.4816 235.89589 255.744
221.51532 235.91487 255.744
221.50511 235.90913 255.744
221.49983 235.90613 255.744
221.4932 235.90242 255.744
221.49135 235.90138 255.744
221.51251 235.91325 255.744
221.51233 235.91321 255.744
221.48752 235.8992 255.744
221.5196 235.91725 255.744
221.48941 235.90025 255.744
221.50092 235.90675 255.744
221.49509 235.90346 255.744
221.52432 235.91994 255.744
221.49788 235.90508 255.744
221.48836 235.89967 255.744
221.49716 235.90465 255.744
221.50824 235.91087 255.744
221.50049 235.90651 255.744
221.50772 235.91057 255.744
221.51039 235.91206 255.744
221.49605 235.904 255.744
221.50317 235.90804 255.744
221.48502 235.89778 255.744
221.50307 235.90794 255.744
221.49713 235.9046 255.744
221.48598 235.89832 255.744
221.51164 235.9128 255.744
221.50627 235.90977 255.744
221.48332 235.89684 255.744
221.50703 235.9102 255.744
221.50307 235.90796 255.744
221.50064 235.9066 255.744
221.5108 235.91228 255.744
221.50075 235.90663 255.744
221.52094 235.91803 255.744
221.5023 235.90756 255.744
221.50514 235.90915 255.744
221.49341 235.90251 255.744
221.50008 235.90623 255.744
221.49944 235.90591 255.744
221.51958 235.91725 255.744
221.51677 235.91566 255.744
221.51138 235.91264 255.744
221.47353 235.89131 255.744
221.50926 235.91147 255.744
221.49992 235.90619 255.744
221.50041 235.90648 255.744
221.50092 235.90674 255.744
221.50043 235.90648 255.744
221.50797 235.91074 255.744
221.48904 235.90007 255.744
221.49594 235.90392 255.744
221.51183 235.9129 255.744
221.5021 235.90741 255.744
221.48668 235.8987 255.744
221.49564 235.9038 255.744
221.521 235.91806 255.744
221.51434 235.91432 255.744
221.5115 235.91272 255.744
221.4994 235.90591 255.744
221.50311 235.90797 255.744
221.50285 235.90784 255.744
221.50125 235.9069 255.744
221.49142 235.9014 255.744
221.49567 235.90378 255.744
221.505 235.90904 255.744
221.49883 235.90558 255.744
221.5259 235.92082 255.744
221.51337 235.91374 255.744
221.49692 235.90448 255.744
221.50829 235.91089 255.744
221.48152 235.89581 255.744
221.53052 235.92342 255.744
221.49911 235.90575 255.744
221.50172 235.9072 255.744
221.50232 235.90755 255.744
221.50163 235.90717 255.744
221.50026 235.9064 255.744
221.51884 235.91684 255.744
221.51195 235.91293 255.744
221.5045 235.90875 255.744
221.48622 235.89847 255.744
221.49373 235.9027 255.744
221.5071 235.91025 255.744
221.50204 235.9074 255.744
221.50443 235.90868 255.744
221.50398 235.90848 255.744
221.51247 235.91322 255.744
221.5136 235.91388 255.744
221.48515 235.89787 255.744
221.49438 235.90305 255.744
221.51564 235.91504 255.744
221.49939 235.90585 255.744
221.51515 235.91476 255.744
221.50851 235.91104 255.744
221.49844 235.90535 255.744
221.49269 235.90213 255.744
221.49562 235.90376 255.744
221.51384 235.91403 255.744
221.47595 235.89268 255.744
221.50786 235.91063 255.744
221.50478 235.90892 255.744
221.50383 235.90839 255.744
221.51332 235.91371 255.744
221.50575 235.90947 255.744
221.51302 235.91356 255.744
221.51689 235.91574 255.744
221.51294 235.91353 255.744
221.48347 235.89691 255.744
221.51044 235.91211 255.744
221.49919 235.90575 255.744
221.49994 235.9062 255.744
221.50374 235.90833 255.744
221.49895 235.90564 255.744
221.49724 235.90468 255.744
221.50937 235.91151 255.744
221.48575 235.8982 255.744
221.4895 235.9003 255.744
221.5008 235.9067 255.744
221.4983 235.90529 255.744
221.515 235.91467 255.744
221.47682 235.89317 255.744
221.50739 235.91039 255.744
221.49742 235.9048 255.744
221.49771 235.90495 255.744
221.49709 235.9046 255.744
221.51595 235.91522 255.744
221.49002 235.9006 255.744
221.49084 235.90108 255.744
221.49364 235.90263 255.744
221.48802 235.89946 255.744
221.5058 235.90948 255.744
221.5089 235.91125 255.744
221.5058 235.90948 255.744
221.49614 235.90402 255.744
221.5009 235.90674 255.744
221.50052 235.90651 255.744
221.49088 235.90108 255.744
221.49303 235.9023 255.744
221.4974 235.9048 255.744
221.51735 235.916 255.744
221.51598 235.9152 255.744
221.4971 235.9046 255.744
221.49525 235.90355 255.744
221.51294 235.91351 255.744
221.50732 235.91035 255.744
221.50053 235.90654 255.744
221.49121 235.90129 255.744
221.49345 235.90251 255.744
221.50053 235.90651 255.744
221.50409 235.90855 255.744
221.50461 235.90883 255.744
221.50633 235.90982 255.744
221.51244 235.91324 255.744
221.52457 235.92007 255.744
221.48701 235.89891 255.744
221.49818 235.90521 255.744
221.50862 235.9111 255.744
221.49191 235.9017 255.744
221.50887 235.91122 255.744
221.48311 235.89673 255.744
221.5 235.90623 255.744
221.49126 235.9013 255.744
221.48404 235.89723 255.744
221.4848 235.89767 255.744
221.50002 235.90623 255.744
221.51108 235.91246 255.744
221.48451 235.8975 255.744
221.47575 235.89261 255.744
221.49356 235.9026 255.744
221.51497 235.91466 255.744
221.4749 235.89209 255.744
221.51913 235.917 255.744
221.493 235.90225 255.744
221.49641 235.90422 255.744
221.51506 235.9147 255.744
221.50137 235.907 255.744
221.49222 235.90186 255.744
221.49284 235.90218 255.744
221.50127 235.90697 255.744
221.50575 235.9095 255.744
221.5093 235.91145 255.744
221.51288 235.91351 255.744
221.50485 235.90898 255.744
221.49817 235.9052 255.744
221.48651 235.89864 255.744
221.49512 235.90346 255.744
221.50134 235.90701 255.744
221.49158 235.90147 255.744
221.4917 235.9016 255.744
221.48465 235.89761 255.744
221.49243 235.90196 255.744
221.50008 235.90627 255.744
221.51051 235.91214 255.744
221.50711 235.91023 255.744
221.50557 235.90938 255.744
221.51044 235.91211 255.744
221.50131 235.90695 255.744
221.49535 235.9036 255.744
221.48717 235.89902 255.744
221.49057 235.90091 255.744
221.5309 235.92363 255.744
221.49524 235.90353 255.744
221.49161 235.9015 255.744
221.5052 235.90913 255.744
221.49992 235.90619 255.744
221.49846 235.90535 255.744
221.48854 235.89977 255.744
221.50114 235.90689 255.744
221.47884 235.89432 255.744
221.5011 235.90685 255.744
221.50601 235.9096 255.744
221.48193 235.89604 255.744
221.50296 235.90788 255.744
221.49294 235.90225 255.744
221.5013 235.90694 255.744
221.50557 235.90935 255.744
221.50539 235.90927 255.744
221.48741 235.89915 255.744
221.4988 235.90555 255.744
221.50206 235.90738 255.744
221.49176 235.9016 255.744
221.51384 235.914 255.744
221.49954 235.90593 255.744
221.48218 235.8962 255.744
221.5068 235.91008 255.744
221.47621 235.89284 255.744
221.4861 235.89838 255.744
221.48792 235.89943 255.744
221.48706 235.89894 255.744
221.50127 235.90694 255.744
221.47626 235.89288 255.744
221.51132 235.91263 255.744
221.50108 235.90683 255.744
221.4938 235.90276 255.744
221.5223 235.91878 255.744
221.50119 235.9069 255.744
221.49445 235.9031 255.744
221.50337 235.90813 255.744
221.4976 235.90488 255.744
221.51094 235.91237 255.744
221.50546 235.9093 255.744
221.51198 235.913 255.744
221.49347 235.90256 255.744
221.50687 235.9101 255.744
221.49007 235.90062 255.744
221.50658 235.90993 255.744
221.5214 235.91829 255.744
221.50703 235.91019 255.744
221.49611 235.90407 255.744
221.49538 235.90363 255.744
221.50656 235.90993 255.744
221.50513 235.90912 255.744
221.49948 235.90593 255.744
221.4817 235.89592 255.744
221.5024 235.9076 255.744
221.49866 235.90546 255.744
221.50694 235.91016 255.744
221.50272 235.90775 255.744
221.49826 235.90524 255.744
221.49521 235.90353 255.744
221.50246 235.90761 255.744
221.49019 235.9007 255.744
221.49866 235.90544 255.744
221.48955 235.90038 255.744
221.49239 235.90196 255.744
221.48528 235.89796 255.744
221.50745 235.91043 255.744
221.49564 235.90376 255.744
221.47926 235.89455 255.744
221.4747 235.89198 255.744
221.50043 235.90648 255.744
221.49149 235.90143 255.744
221.51178 235.91286 255.744
221.50583 235.9095 255.744
221.50168 235.90718 255.744
221.49794 235.90506 255.744
221.50842 235.91096 255.744
221.50047 235.90652 255.744
221.4899 235.90053 255.744
221.50713 235.91025 255.744
221.47371 235.89145 255.744
221.51016 235.91197 255.744
221.49286 235.90222 255.744
221.48198 235.89612 255.744
221.48026 235.8951 255.744
221.4981 235.90515 255.744
221.49701 235.90457 255.744
221.4885 235.89978 255.744
221.4977 235.90494 255.744
221.4916 235.90147 255.744
221.50322 235.908 255.744
221.49564 235.90376 255.744
221.49712 235.9046 255.744
221.50835 235.91092 255.744
221.48376 235.89708 255.744
221.5044 235.9087 255.744
221.51776 235.91626 255.744
221.49358 235.90263 255.744
221.48807 235.89952 255.744
221.47362 235.89136 255.744
221.49089 235.90111 255.744
221.50864 235.91109 255.744
221.49216 235.90182 255.744
221.49423 235.90302 255.744
221.4859 235.89828 255.744
221.47371 235.89143 255.744
221.49985 235.90614 255.744
221.49872 235.90552 255.744
221.50154 235.90709 255.744
221.52046 235.91776 255.744
221.49742 235.90479 255.744
221.48996 235.90057 255.744
221.5017 235.90718 255.744
221.48982 235.9005 255.744
221.512 235.913 255.744
221.49728 235.9047 255.744
221.49742 235.90477 255.744
221.50487 235.90898 255.744
221.4887 235.89987 255.744
221.48634 235.89854 255.744
221.49721 235.90465 255.744
221.49976 235.90608 255.744
221.49986 235.90614 255.744
221.50644 235.90982 255.744
221.49263 235.90207 255.744
221.493 235.90228 255.744
221.52522 235.92046 255.744
221.50958 235.91162 255.744
221.49008 235.90065 255.744
221.51295 235.91348 255.744
221.51349 235.91383 255.744
221.49165 235.90152 255.744
221.49727 235.9047 255.744
221.49605 235.90399 255.744
221.48256 235.89641 255.744
221.49173 235.90157 255.744
221.48654 235.89865 255.744
221.51656 235.91556 255.744
221.49205 235.90175 255.744
221.49155 235.90147 255.744
221.49924 235.9058 255.744
221.4943 235.903 255.744
221.4968 235.90443 255.744
221.50471 235.90887 255.744
221.50241 235.90758 255.744
221.50418 235.9086 255.744
221.49675 235.9044 255.744
221.49205 235.90175 255.744
221.5033 235.90808 255.744
221.515 235.9147 255.744
221.4855 235.89807 255.744
221.4822 235.89624 255.744
221.48463 235.89755 255.744
221.5029 235.90785 255.744
221.5006 235.90656 255.744
221.48232 235.89626 255.744
221.49628 235.90413 255.744
221.505 235.90904 255.744
221.493 235.9023 255.744
221.51059 235.9122 255.744
221.50128 235.90694 255.744
221.50414 235.90855 255.744
221.49442 235.90308 255.744
221.50142 235.90703 255.744
221.5145 235.91443 255.744
221.50298 235.90794 255.744
221.49455 235.90315 255.744
221.51836 235.91656 255.744
221.50453 235.90878 255.744
221.49957 235.90599 255.744
221.4928 235.90218 255.744
221.49026 235.90073 255.744
221.48552 235.89807 255.744
221.5043 235.90866 255.744
221.49237 235.90193 255.744
221.46402 235.88597 255.744
221.49 235.90059 255.744
221.49641 235.9042 255.744
221.502 235.90733 255.744
221.4992 235.90579 255.744
221.49239 235.90195 255.744
221.51868 235.9168 255.744
221.47551 235.89243 255.744
221.50601 235.9096 255.744
221.48425 235.89735 255.744
221.50322 235.90804 255.744
221.51157 235.91272 255.744
221.50832 235.9109 255.744
221.4701 235.88937 255.744
221.48282 235.89651 255.744
221.4963 235.90419 255.744
221.51196 235.91295 255.744
221.49385 235.90279 255.744
221.48578 235.89822 255.744
221.5095 235.9116 255.744
221.49475 235.9033 255.744
221.51521 235.91481 255.744
221.5153 235.91484 255.744
221.4998 235.90613 255.744
221.49274 235.90216 255.744
221.51508 235.91469 255.744
221.49976 235.9061 255.744
221.51967 235.91733 255.744
221.5134 235.91379 255.744
221.48346 235.89691 255.744
221.50148 235.90704 255.744
221.51648 235.91554 255.744
221.49763 235.9049 255.744
221.4937 235.9027 255.744
221.51312 235.91362 255.744
221.50002 235.90623 255.744
221.49716 235.90463 255.744
221.51501 235.91467 255.744
221.48282 235.89651 255.744
221.5029 235.90788 255.744
221.48618 235.89844 255.744
221.49658 235.90431 255.744
221.47684 235.8932 255.744
221.50487 235.90897 255.744
221.5044 235.90866 255.744
221.50142 235.90701 255.744
221.5262 235.92099 255.744
221.49826 235.90527 255.744
221.492 235.90173 255.744
221.48756 235.89923 255.744
221.51772 235.91623 255.744
221.51105 235.91246 255.744
221.4855 235.89807 255.744
221.502 235.90733 255.744
221.49979 235.90611 255.744
221.50352 235.90825 255.744
221.49985 235.90611 255.744
221.50603 235.90964 255.744
221.49059 235.90096 255.744
221.50705 235.91022 255.744
221.49916 235.90578 255.744
221.50485 235.90895 255.744
221.50893 235.91125 255.744
221.5248 235.92018 255.744
221.50993 235.91185 255.744
221.49957 235.90598 255.744
221.48846 235.89977 255.744
221.4895 235.90033 255.744
221.50005 235.90627 255.744
221.50813 235.91083 255.744
221.49052 235.90091 255.744
221.51349 235.91382 255.744
221.4768 235.89313 255.744
221.50821 235.91086 255.744
221.49614 235.90407 255.744
221.50987 235.91177 255.744
221.49821 235.90523 255.744
221.49327 235.90244 255.744
221.50159 235.90712 255.744
221.51183 235.9129 255.744
221.4947 235.90324 255.744
221.50203 235.9074 255.744
221.51125 235.91257 255.744
221.50491 235.90901 255.744
221.49554 235.9037 255.744
221.50491 235.90901 255.744
221.49208 235.90176 255.744
221.48978 235.90047 255.744
221.53009 235.92316 255.744
221.49525 235.90353 255.744
221.4992 235.90579 255.744
221.50336 235.90811 255.744
221.49986 235.90613 255.744
221.49669 235.90436 255.744
221.50288 235.90787 255.744
221.49574 235.90385 255.744
221.51831 235.91653 255.744
221.50093 235.90677 255.744
221.48988 235.90054 255.744
221.49728 235.90468 255.744
221.48982 235.90051 255.744
221.49234 235.90192 255.744
221.47313 235.89108 255.744
221.50383 235.90839 255.744
221.50671 235.91 255.744
221.48912 235.9001 255.744
221.49995 235.9062 255.744
221.50844 235.91098 255.744
221.48592 235.89828 255.744
221.50616 235.9097 255.744
221.49991 235.90616 255.744
221.50803 235.91074 255.744
221.51149 235.9127 255.744
221.51067 235.9122 255.744
221.49155 235.90147 255.744
221.51164 235.91281 255.744
221.49084 235.9011 255.744
221.50426 235.90863 255.744
221.49605 235.904 255.744
221.5036 235.9083 255.744
221.50873 235.91115 255.744
221.4899 235.90053 255.744
221.49855 235.90544 255.744
221.51923 235.91705 255.744
221.495 235.90341 255.744
221.50955 235.91165 255.744
221.48953 235.90031 255.744
221.48848 235.89975 255.744
221.5022 235.90749 255.744
221.51875 235.9168 255.744
221.52956 235.92288 255.744
221.5193 235.91708 255.744
221.5039 235.9084 255.744
221.49158 235.90146 255.744
221.50789 235.91066 255.744
221.4976 235.90486 255.744
221.49799 235.90512 255.744
221.50267 235.90771 255.744
221.49379 235.90271 255.744
221.48784 235.8994 255.744
221.51527 235.91486 255.744
221.5089 235.91125 255.744
221.49521 235.9035 255.744
221.49849 235.90538 255.744
221.49748 235.9048 255.744
221.49052 235.9009 255.744
221.51328 235.9137 255.744
221.50824 235.91087 255.744
221.49051 235.9009 255.744
221.49493 235.90338 255.744
221.49559 235.90375 255.744
221.50273 235.90775 255.744
221.47673 235.89313 255.744
221.4885 235.89973 255.744
221.52226 235.91876 255.744
221.49542 235.90366 255.744
221.50055 235.90652 255.744
221.48972 235.90045 255.744
221.49344 235.90256 255.744
221.52422 235.91988 255.744
221.4882 235.89958 255.744
221.52298 235.91917 255.744
221.5216 235.91841 255.744
221.51979 235.91739 255.744
221.50839 235.91095 255.744
221.50508 235.90907 255.744
221.50443 235.90874 255.744
221.49042 235.9008 255.744
221.50269 235.90775 255.744
221.50348 235.90819 255.744
221.49803 235.9051 255.744
221.48581 235.89825 255.744
221.4839 235.89719 255.744
221.50485 235.90898 255.744
221.51599 235.91524 255.744
221.51634 235.91544 255.744
221.49744 235.9048 255.744
221.49065 235.90097 255.744
221.51152 235.91272 255.744
221.49966 235.90605 255.744
221.49606 235.904 255.744
221.51506 235.9147 255.744
221.49968 235.90604 255.744
221.51425 235.91423 255.744
221.50659 235.90993 255.744
221.49393 235.90279 255.744
221.5057 235.90944 255.744
221.51073 235.91228 255.744
221.51105 235.91243 255.744
221.50937 235.91151 255.744
221.50914 235.91138 255.744
221.50958 235.91164 255.744
221.49467 235.90323 255.744
221.49677 235.9044 255.744
221.50558 235.90938 255.744
221.50531 235.90923 255.744
221.49965 235.90605 255.744
221.48994 235.90054 255.744
221.52965 235.92293 255.744
221.55371 235.93648 255.744
221.53853 235.92793 255.744
221.53984 235.92867 255.744
221.51927 235.91708 255.744
221.54465 235.9314 255.744
221.54617 235.93224 255.744
221.54381 235.9309 255.744
221.53091 235.92365 255.744
221.52946 235.92284 255.744
221.54611 235.93219 255.744
221.5321 235.9243 255.744
221.54767 235.9331 255.744
221.55449 235.93694 255.744
221.55678 235.9382 255.744
221.53078 235.92357 255.744
221.52902 235.92258 255.744
221.5242 235.91986 255.744
221.53806 235.92766 255.744
221.52893 235.9225 255.744
221.52107 235.91812 255.744
221.5265 235.92114 255.744
221.53073 235.92357 255.744
221.53297 235.92482 255.744
221.53061 235.9235 255.744
221.52242 235.91887 255.744
221.53687 235.92702 255.744
221.5293 235.92273 255.744
221.54115 235.92938 255.744
221.51903 235.91695 255.744
221.52315 235.91927 255.744
221.5132 235.91368 255.744
221.5479 235.93318 255.744
221.5421 235.92995 255.744
221.53355 235.92513 255.744
221.52664 235.92122 255.744
221.54895 235.93382 255.744
221.53964 235.92857 255.744
221.53934 235.92836 255.744
221.54526 235.93175 255.744
221.53964 235.92856 255.744
221.51747 235.91608 255.744
221.54245 235.93015 255.744
221.53125 235.92384 255.744
221.54906 235.93387 255.744
221.53539 235.92616 255.744
221.5286 235.92229 255.744
221.53554 235.92627 255.744
221.54237 235.93008 255.744
221.53764 235.9274 255.744
221.54106 235.92937 255.744
221.51913 235.917 255.744
221.52414 235.91983 255.744
221.54436 235.93121 255.744
221.53355 235.92516 255.744
221.5251 235.92036 255.744
221.52289 235.91914 255.744
221.53587 235.92644 255.744
221.5378 235.92752 255.744
221.53668 235.92691 255.744
221.53842 235.92789 255.744
221.5219 235.91858 255.744
221.53206 235.92429 255.744
221.55304 235.9361 255.744
221.53201 235.92429 255.744
221.52652 235.92117 255.744
221.53813 235.92773 255.744
221.54396 235.931 255.744
221.53644 235.92674 255.744
221.52736 235.92165 255.744
221.52545 235.92056 255.744
221.51999 235.9175 255.744
221.51782 235.91626 255.744
221.5441 235.9311 255.744
221.53873 235.92807 255.744
221.52516 235.92041 255.744
221.54596 235.93211 255.744
221.5203 235.91765 255.744
221.54291 235.9304 255.744
221.54517 235.93164 255.744
221.53429 235.92555 255.744
221.54192 235.92986 255.744
221.53423 235.9255 255.744
221.5274 235.92168 255.744
221.5358 235.92642 255.744
221.52837 235.9222 255.744
221.54495 235.93153 255.744
221.53087 235.92361 255.744
221.53476 235.9258 255.744
221.55379 235.93655 255.744
221.54097 235.92932 255.744
221.5213 235.91823 255.744
221.52577 235.92078 255.744
221.526 235.92085 255.744
221.52715 235.9215 255.744
221.53313 235.92491 255.744
221.5608 235.9405 255.744
221.51031 235.91206 255.744
221.54086 235.92928 255.744
221.53929 235.92839 255.744
221.51672 235.91566 255.744
221.54318 235.93057 255.744
221.53506 235.92596 255.744
221.55272 235.93593 255.744
221.53705 235.92711 255.744
221.54489 235.93149 255.744
221.51746 235.91608 255.744
221.53006 235.92314 255.744
221.5376 235.92741 255.744
221.52545 235.9206 255.744
221.53833 235.92783 255.744
221.50433 235.90865 255.744
221.53694 235.92706 255.744
221.53354 235.9251 255.744
221.53032 235.92328 255.744
221.55562 235.93755 255.744
221.526 235.9209 255.744
221.5453 235.9318 255.744
221.53743 235.92732 255.744
221.53297 235.9248 255.744
221.51888 235.91687 255.744
221.5008 235.9067 255.744
221.52287 235.91916 255.744
221.52272 235.91907 255.744
221.53462 235.92574 255.744
221.51303 235.91357 255.744
221.54303 235.93048 255.744
221.52353 235.91946 255.744
221.53467 235.92575 255.744
221.53851 235.92795 255.744
221.53717 235.92717 255.744
221.52386 235.91966 255.744
221.53896 235.92818 255.744
221.52744 235.92168 255.744
221.52748 235.92169 255.744
221.52591 235.92082 255.744
221.54062 235.92911 255.744
221.55206 235.93558 255.744
221.52519 235.92044 255.744
221.53136 235.92389 255.744
221.54607 235.9322 255.744
221.51572 235.91508 255.744
221.51793 235.91632 255.744
221.54091 235.92926 255.744
221.53876 235.92805 255.744
221.51163 235.91277 255.744
221.52982 235.92303 255.744
221.54205 235.92993 255.744
221.55286 235.936 255.744
221.52321 235.91931 255.744
221.5302 235.92323 255.744
221.52649 235.92114 255.744
221.50533 235.90923 255.744
221.53894 235.92818 255.744
221.5561 235.93785 255.744
221.54208 235.92995 255.744
221.53249 235.92455 255.744
221.55026 235.93452 255.744
221.53796 235.92761 255.744
221.5386 235.92796 255.744
221.5275 235.92172 255.744
221.53802 235.92766 255.744
221.52638 235.9211 255.744
221.52098 235.91808 255.744
221.53598 235.92654 255.744
221.52716 235.92151 255.744
221.52692 235.92139 255.744
221.5284 235.92221 255.744
221.53003 235.92316 255.744
221.53435 235.9256 255.744
221.51248 235.91325 255.744
221.54784 235.93318 255.744
221.5374 235.9273 255.744
221.52695 235.92139 255.744
221.5291 235.92264 255.744
221.54286 235.93036 255.744
221.53319 235.92493 255.744
221.51701 235.91579 255.744
221.53957 235.92851 255.744
221.53145 235.92393 255.744
221.53447 235.92566 255.744
221.53622 235.92664 255.744
221.5501 235.93446 255.744
221.53471 235.92578 255.744
221.52692 235.9214 255.744
221.53195 235.92422 255.744
221.54352 235.93076 255.744
221.51668 235.91563 255.744
221.54057 235.92906 255.744
221.52573 235.92072 255.744
221.52634 235.9211 255.744
221.54568 235.93193 255.744
221.52847 235.92226 255.744
221.53748 235.92737 255.744
221.53125 235.92381 255.744
221.51222 235.91312 255.744
221.53957 235.92854 255.744
221.54494 235.93153 255.744
221.5131 235.91364 255.744
221.51917 235.917 255.744
221.52022 235.91762 255.744
221.54115 235.9294 255.744
221.51808 235.9164 255.744
221.52335 235.9194 255.744
221.53365 235.92519 255.744
221.5382 235.92773 255.744
221.50452 235.9088 255.744
221.52876 235.92245 255.744
221.55313 235.93617 255.744
221.54341 235.93066 255.744
221.5177 235.91618 255.744
221.53674 235.92694 255.744
221.51723 235.91595 255.744
221.52335 235.91939 255.744
221.5382 235.92773 255.744
221.52625 235.92102 255.744
221.52199 235.91861 255.744
221.5399 235.9287 255.744
221.51434 235.91432 255.744
221.51001 235.91187 255.744
221.52829 235.92216 255.744
221.5333 235.925 255.744
221.53552 235.92625 255.744
221.52313 235.91924 255.744
221.52713 235.92155 255.744
221.53635 235.9267 255.744
221.52367 235.91956 255.744
221.54695 235.93266 255.744
221.53651 235.9268 255.744
221.54764 235.93306 255.744
221.55087 235.9349 255.744
221.53836 235.92783 255.744
221.52869 235.92241 255.744
221.52553 235.92062 255.744
221.5246 235.92009 255.744
221.53021 235.92323 255.744
221.51634 235.91544 255.744
221.52834 235.92218 255.744
221.53941 235.92847 255.744
221.52135 235.91826 255.744
221.53218 235.92438 255.744
221.53136 235.92392 255.744
221.52829 235.92216 255.744
221.5403 235.92892 255.744
221.52345 235.91945 255.744
221.51312 235.91362 255.744
221.52258 235.91895 255.744
221.5216 235.9184 255.744
221.52432 235.9199 255.744
221.54097 235.9293 255.744
221.53061 235.9235 255.744
221.54446 235.93129 255.744
221.5229 235.91914 255.744
221.5469 235.93265 255.744
221.54092 235.9293 255.744
221.53209 235.9243 255.744
221.51532 235.91489 255.744
221.52278 235.91908 255.744
221.52374 235.91962 255.744
221.5202 235.9176 255.744
221.5393 235.92838 255.744
221.54176 235.92978 255.744
221.51883 235.91685 255.744
221.5537 235.9365 255.744
221.55199 235.93552 255.744
221.52641 235.92113 255.744
221.52264 235.91899 255.744
221.53516 235.92606 255.744
221.5199 235.91743 255.744
221.5417 235.9297 255.744
221.54156 235.92964 255.744
221.53468 235.92578 255.744
221.5323 235.92441 255.744
221.53474 235.9258 255.744
221.53514 235.92603 255.744
221.5329 235.92479 255.744
221.53468 235.92577 255.744
221.52196 235.9186 255.744
221.55026 235.93454 255.744
221.51256 235.9133 255.744
221.51482 235.91458 255.744
221.52448 235.92 255.744
221.54195 235.92987 255.744
221.52234 235.91881 255.744
221.54689 235.93266 255.744
221.51158 235.91277 255.744
221.52606 235.92088 255.744
221.53357 235.92514 255.744
221.53949 235.92847 255.744
221.52344 235.91945 255.744
221.53796 235.9276 255.744
221.5158 235.91512 255.744
221.52573 235.92073 255.744
221.52748 235.9217 255.744
221.53156 235.92401 255.744
221.53107 235.92377 255.744
221.52011 235.91754 255.744
221.51758 235.91614 255.744
221.53069 235.92352 255.744
221.52977 235.92302 255.744
221.50835 235.91095 255.744
221.53152 235.92398 255.744
221.53711 235.92712 255.744
221.54272 235.93028 255.744
221.54681 235.9326 255.744
221.51175 235.91283 255.744
221.52733 235.92165 255.744
221.56242 235.9414 255.744
221.53429 235.92554 255.744
221.54791 235.93326 255.744
221.52324 235.91931 255.744
221.54321 235.9306 255.744
221.53354 235.92511 255.744
221.53021 235.92325 255.744
221.52457 235.92007 255.744
221.55803 235.93893 255.744
221.52916 235.92264 255.744
221.53204 235.92427 255.744
221.53152 235.92397 255.744
221.52972 235.92299 255.744
221.53825 235.9278 255.744
221.5353 235.9261 255.744
221.51875 235.9168 255.744
221.54787 235.9332 255.744
221.51561 235.91504 255.744
221.52252 235.91893 255.744
221.53108 235.92372 255.744
221.53299 235.9248 255.744
221.52908 235.92259 255.744
221.52942 235.9228 255.744
221.52708 235.92148 255.744
221.53885 235.92812 255.744
221.5063 235.90979 255.744
221.5282 235.92213 255.744
221.52553 235.92062 255.744
221.52754 235.92172 255.744
221.5276 235.92175 255.744
221.51738 235.91603 255.744
221.54312 235.93051 255.744
221.51979 235.91739 255.744
221.53998 235.92876 255.744
221.52182 235.91852 255.744
221.52563 235.92068 255.744
221.51839 235.9166 255.744
221.53558 235.92628 255.744
221.53764 235.92743 255.744
221.52835 235.9222 255.744
221.52892 235.92252 255.744
221.52956 235.9229 255.744
221.52417 235.91985 255.744
221.53029 235.92331 255.744
221.5333 235.92499 255.744
221.51775 235.91624 255.744
221.52618 235.92104 255.744
221.53973 235.9286 255.744
221.53543 235.92618 255.744
221.53 235.92316 255.744
221.52942 235.92279 255.744
221.52509 235.92035 255.744
221.51689 235.91577 255.744
221.52654 235.92117 255.744
221.52255 235.91896 255.744
221.51534 235.91489 255.744
221.5349 235.92589 255.744
221.5216 235.91837 255.744
221.54037 235.92899 255.744
221.52257 235.91896 255.744
221.51976 235.91739 255.744
221.53932 235.92838 255.744
221.52637 235.92111 255.744
221.51859 235.91667 255.744
221.51581 235.91512 255.744
221.5292 235.92268 255.744
221.53445 235.92564 255.744
221.54788 235.9332 255.744
221.51259 235.9133 255.744
221.52356 235.91951 255.744
221.56122 235.94072 255.744
221.54341 235.93068 255.744
221.5305 235.92342 255.744
221.5222 235.91873 255.744
221.53258 235.92458 255.744
221.52414 235.91985 255.744
221.52933 235.92276 255.744
221.53947 235.92848 255.744
221.51247 235.91322 255.744
221.52864 235.92238 255.744
221.52931 235.92276 255.744
221.5338 235.9253 255.744
221.53969 235.92859 255.744
221.5131 235.91362 255.744
221.54636 235.93236 255.744
221.52808 235.92204 255.744
221.54575 235.93199 255.744
221.52937 235.92278 255.744
221.53096 235.92368 255.744
221.52 235.9175 255.744
221.53003 235.92314 255.744
221.5407 235.92914 255.744
221.5296 235.9229 255.744
221.52875 235.92247 255.744
221.52748 235.92169 255.744
221.52527 235.92047 255.744
221.54018 235.92885 255.744
221.52827 235.9222 255.744
221.5293 235.92274 255.744
221.5223 235.91878 255.744
221.53706 235.92711 255.744
221.5201 235.91756 255.744
221.53455 235.9257 255.744
221.53128 235.92386 255.744
221.52104 235.9181 255.744
221.53993 235.92873 255.744
221.52383 235.91965 255.744
221.53523 235.92609 255.744
221.54375 235.93085 255.744
221.50882 235.91121 255.744
221.51471 235.9145 255.744
221.53368 235.92519 255.744
221.52177 235.91849 255.744
221.51706 235.91586 255.744
221.52034 235.9177 255.744
221.52852 235.9223 255.744
221.54056 235.92906 255.744
221.54128 235.92949 255.744
221.54752 235.933 255.744
221.50874 235.91116 255.744
221.5216 235.91841 255.744
221.55971 235.9399 255.744
221.53891 235.92815 255.744
221.52472 235.92014 255.744
221.52756 235.92178 255.744
221.53221 235.9244 255.744
221.5522 235.93562 255.744
221.53145 235.92395 255.744
221.54291 235.93042 255.744
221.52838 235.92224 255.744
221.51755 235.91614 255.744
221.54865 235.93364 255.744
221.5108 235.9123 255.744
221.53151 235.924 255.744
221.53224 235.9244 255.744
221.53479 235.92583 255.744
221.55287 235.93604 255.744
221.5407 235.92917 255.744
221.53311 235.92487 255.744
221.53003 235.92316 255.744
221.5382 235.92773 255.744
221.5202 235.91759 255.744
221.53067 235.92352 255.744
221.52785 235.9219 255.744
221.53922 235.92833 255.744
221.54207 235.92992 255.744
221.54161 235.92967 255.744
221.51826 235.91652 255.744
221.53375 235.92526 255.744
221.54445 235.93127 255.744
221.5162 235.91537 255.744
221.53258 235.92462 255.744
221.53876 235.92804 255.744
221.53635 235.92668 255.744
221.5308 235.9236 255.744
221.53697 235.92706 255.744
221.54 235.92873 255.744
221.53142 235.92393 255.744
221.54128 235.92947 255.744
221.52625 235.92102 255.744
221.52869 235.9224 255.744
221.53023 235.92326 255.744
221.54642 235.93239 255.744
221.50941 235.91151 255.744
221.5339 235.92532 255.744
221.51569 235.91507 255.744
221.53607 235.92656 255.744
221.54202 235.92993 255.744
221.52844 235.92226 255.744
221.53296 235.92482 255.744
221.5394 235.92845 255.744
221.53952 235.9285 255.744
221.51703 235.91583 255.744
221.53323 235.92499 255.744
221.53052 235.92345 255.744
221.52129 235.91821 255.744
221.53528 235.92609 255.744
221.53041 235.92336 255.744
221.5093 235.91148 255.744
221.54524 235.93173 255.744
221.53195 235.92424 255.744
221.52382 235.91966 255.744
221.53177 235.92413 255.744
221.5281 235.92206 255.744
221.53712 235.92717 255.744
221.53561 235.92628 255.744
221.52567 235.92068 255.744
221.55074 235.93481 255.744
221.52412 235.91982 255.744
221.53722 235.9272 255.744
221.52295 235.91914 255.744
221.52658 235.9212 255.744
221.50607 235.90967 255.744
221.52516 235.92041 255.744
221.52705 235.92148 255.744
221.52403 235.91975 255.744
221.55318 235.93617 255.744
221.53859 235.92795 255.744
221.53197 235.92426 255.744
221.52121 235.91818 255.744
221.54622 235.93225 255.744
221.51259 235.91335 255.744
221.5217 235.91849 255.744
221.52507 235.92035 255.744
221.54292 235.93042 255.744
221.49286 235.9022 255.744
221.52373 235.91962 255.744
221.51399 235.91411 255.744
221.52171 235.91847 255.744
221.54625 235.9323 255.744
221.53783 235.92754 255.744
221.54991 235.93431 255.744
221.55319 235.93623 255.744
221.54636 235.93237 255.744
221.54391 235.93102 255.744
221.53578 235.92639 255.744
221.52635 235.92107 255.744
221.52692 235.92139 255.744
221.55092 235.93489 255.744
221.51991 235.91747 255.744
221.53323 235.92499 255.744
221.52545 235.92055 255.744
221.52898 235.92255 255.744
221.5466 235.93251 255.744
221.53178 235.92415 255.744
221.53198 235.92424 255.744
221.54031 235.92894 255.744
221.52551 235.92064 255.744
221.53297 235.9248 255.744
221.54152 235.92963 255.744
221.53908 235.92824 255.744
221.52312 235.91925 255.744
221.52904 235.9226 255.744
221.53107 235.92374 255.744
221.55356 235.9364 255.744
221.5207 235.9179 255.744
221.53989 235.92871 255.744
221.53761 235.92743 255.744
221.54286 235.93036 255.744
221.5203 235.91768 255.744
221.53433 235.9256 255.744
221.52856 235.92232 255.744
221.53262 235.92462 255.744
221.53575 235.92635 255.744
221.54567 235.93195 255.744
221.51814 235.91644 255.744
221.52467 235.92014 255.744
221.55144 235.93521 255.744
221.54893 235.9338 255.744
221.55367 235.9365 255.744
221.54408 235.93108 255.744
221.54593 235.9321 255.744
221.51643 235.91547 255.744
221.54037 235.92899 255.744
221.50926 235.91145 255.744
221.51805 235.9164 255.744
221.53201 235.9243 255.744
221.53629 235.92667 255.744
221.53714 235.92714 255.744
221.53757 235.9274 255.744
221.54172 235.92973 255.744
221.51596 235.91524 255.744
221.53143 235.92395 255.744
221.54396 235.931 255.744
221.543 235.93047 255.744
221.55257 235.93587 255.744
221.53137 235.9239 255.744
221.54729 235.93288 255.744
221.5414 235.92955 255.744
221.5457 235.93198 255.744
221.52733 235.92165 255.744
221.55798 235.93887 255.744
221.55104 235.93497 255.744
221.54018 235.92883 255.744
221.53896 235.92818 255.744
221.55103 235.93495 255.744
221.53801 235.92763 255.744
221.55865 235.93927 255.744
221.52011 235.91756 255.744
221.55112 235.935 255.744
221.5252 235.92046 255.744
221.5493 235.934 255.744
221.53598 235.92651 255.744
221.5376 235.92744 255.744
221.55873 235.93933 255.744
221.5435 235.93074 255.744
221.54243 235.93015 255.744
221.53708 235.92715 255.744
221.52347 235.91945 255.744
221.52438 235.91997 255.744
221.55206 235.93553 255.744
221.54546 235.93184 255.744
221.52678 235.92133 255.744
221.55197 235.93549 255.744
221.56052 235.9403 255.744
221.57976 235.95113 255.744
221.54735 235.93289 255.744
221.56128 235.94075 255.744
221.56776 235.94443 255.744
221.56569 235.9432 255.744
221.54381 235.93092 255.744
221.55312 235.93619 255.744
221.57857 235.95049 255.744
221.56061 235.9404 255.744
221.56354 235.94205 255.744
221.56473 235.94269 255.744
221.57755 235.9499 255.744
221.56856 235.94484 255.744
221.57512 235.94856 255.744
221.57166 235.94661 255.744
221.57822 235.95029 255.744
221.57458 235.94826 255.744
221.57364 235.94771 255.744
221.59016 235.95703 255.744
221.56511 235.94292 255.744
221.57005 235.94571 255.744
221.58191 235.9524 255.744
221.55408 235.93669 255.744
221.54556 235.93192 255.744
221.5686 235.9449 255.744
221.57397 235.94789 255.744
221.57776 235.95006 255.744
221.5702 235.94577 255.744
221.566 235.9434 255.744
221.55028 235.93451 255.744
221.56825 235.94467 255.744
221.58087 235.95178 255.744
221.55998 235.94002 255.744
221.56628 235.94359 255.744
221.55994 235.94 255.744
221.57942 235.95097 255.744
221.56497 235.94283 255.744
221.55658 235.9381 255.744
221.57983 235.9512 255.744
221.56442 235.94252 255.744
221.57893 235.9507 255.744
221.58427 235.9537 255.744
221.55272 235.93591 255.744
221.56567 235.94324 255.744
221.5736 235.9477 255.744
221.56622 235.94354 255.744
221.57466 235.9483 255.744
221.58398 235.95358 255.744
221.57216 235.94688 255.744
221.55743 235.93861 255.744
221.55241 235.93576 255.744
221.56917 235.94519 255.744
221.5574 235.9386 255.744
221.56357 235.94205 255.744
221.56322 235.94183 255.744
221.57216 235.9469 255.744
221.57257 235.94711 255.744
221.55855 235.9392 255.744
221.55269 235.9359 255.744
221.55573 235.93762 255.744
221.56737 235.94417 255.744
221.56242 235.9414 255.744
221.57596 235.94904 255.744
221.5719 235.94675 255.744
221.56557 235.94318 255.744
221.57465 235.9483 255.744
221.56863 235.94487 255.744
221.57747 235.94989 255.744
221.58232 235.9526 255.744
221.57628 235.9492 255.744
221.56754 235.94427 255.744
221.55975 235.93988 255.744
221.58553 235.95442 255.744
221.57767 235.94995 255.744
221.54353 235.93076 255.744
221.57095 235.94621 255.744
221.55608 235.93785 255.744
221.58589 235.95465 255.744
221.55318 235.9362 255.744
221.54959 235.93416 255.744
221.56773 235.94441 255.744
221.57825 235.95033 255.744
221.54614 235.93222 255.744
221.56848 235.9448 255.744
221.55911 235.93954 255.744
221.57475 235.94833 255.744
221.55952 235.93976 255.744
221.54521 235.93172 255.744
221.57632 235.94923 255.744
221.55792 235.93886 255.744
221.5696 235.94545 255.744
221.57686 235.94958 255.744
221.5686 235.94492 255.744
221.54227 235.93005 255.744
221.57979 235.95117 255.744
221.58029 235.95149 255.744
221.57501 235.94847 255.744
221.5624 235.94138 255.744
221.55548 235.93748 255.744
221.54926 235.93399 255.744
221.57637 235.94923 255.744
221.57175 235.9467 255.744
221.56433 235.94249 255.744
221.5657 235.94327 255.744
221.54222 235.93004 255.744
221.55373 235.93651 255.744
221.56631 235.9436 255.744
221.57039 235.94586 255.744
221.5635 235.94202 255.744
221.55919 235.93959 255.744
221.55826 235.93904 255.744
221.5561 235.93784 255.744
221.5816 235.9522 255.744
221.55629 235.93796 255.744
221.55664 235.93813 255.744
221.55655 235.93806 255.744
221.54932 235.934 255.744
221.54897 235.93382 255.744
221.56712 235.94406 255.744
221.56555 235.94316 255.744
221.55792 235.93884 255.744
221.55617 235.93787 255.744
221.55518 235.93729 255.744
221.56581 235.94331 255.744
221.5649 235.94278 255.744
221.56476 235.94273 255.744
221.55618 235.93788 255.744
221.57547 235.94875 255.744
221.55255 235.93582 255.744
221.5755 235.94875 255.744
221.57 235.94566 255.744
221.55864 235.93927 255.744
221.55545 235.93745 255.744
221.53795 235.92763 255.744
221.5625 235.94144 255.744
221.57068 235.94603 255.744
221.56538 235.94302 255.744
221.56326 235.94188 255.744
221.58337 235.9532 255.744
221.56026 235.94017 255.744
221.55186 235.93542 255.744
221.53719 235.92717 255.744
221.56349 235.942 255.744
221.54457 235.93137 255.744
221.55368 235.9365 255.744
221.57668 235.94943 255.744
221.56166 235.94095 255.744
221.57234 235.94699 255.744
221.55954 235.93979 255.744
221.54881 235.93373 255.744
221.56003 235.94008 255.744
221.56865 235.94493 255.744
221.5668 235.94385 255.744
221.56316 235.94182 255.744
221.55486 235.9371 255.744
221.56927 235.94525 255.744
221.55486 235.93713 255.744
221.56862 235.9449 255.744
221.56062 235.94038 255.744
221.57645 235.94931 255.744
221.55408 235.93669 255.744
221.55653 235.93808 255.744
221.55055 235.9347 255.744
221.56151 235.94089 255.744
221.5683 235.94472 255.744
221.54848 235.93356 255.744
221.56332 235.94193 255.744
221.55359 235.93642 255.744
221.57727 235.94977 255.744
221.57784 235.95012 255.744
221.55754 235.93864 255.744
221.56693 235.94394 255.744
221.58047 235.95157 255.744
221.54189 235.92984 255.744
221.56206 235.94118 255.744
221.55756 235.93864 255.744
221.57098 235.9462 255.744
221.57004 235.9457 255.744
221.5793 235.9509 255.744
221.56236 235.94138 255.744
221.5559 235.93771 255.744
221.5825 235.95273 255.744
221.56616 235.94351 255.744
221.56564 235.9432 255.744
221.57092 235.9462 255.744
221.57246 235.94707 255.744
221.57292 235.94731 255.744
221.549 235.93385 255.744
221.55867 235.93929 255.744
221.58778 235.95564 255.744
221.5681 235.94458 255.744
221.56808 235.94458 255.744
221.55598 235.93774 255.744
221.5755 235.94876 255.744
221.56383 235.94218 255.744
221.56512 235.94293 255.744
221.5796 235.95108 255.744
221.54832 235.93344 255.744
221.56267 235.94156 255.744
221.56479 235.9427 255.744
221.57086 235.94615 255.744
221.56027 235.94017 255.744
221.55394 235.93665 255.744
221.55478 235.9371 255.744
221.56882 235.945 255.744
221.56921 235.94522 255.744
221.56358 235.94205 255.744
221.56555 235.94319 255.744
221.5515 235.93523 255.744
221.56123 235.94077 255.744
221.55928 235.93962 255.744
221.56241 235.94138 255.744
221.55392 235.9366 255.744
221.55148 235.93526 255.744
221.57248 235.94707 255.744
221.5685 235.94482 255.744
221.56476 235.94267 255.744
221.56053 235.94034 255.744
221.57843 235.95042 255.744
221.55827 235.93904 255.744
221.57892 235.9507 255.744
221.56169 235.941 255.744
221.56952 235.94539 255.744
221.56294 235.94168 255.744
221.54845 235.93355 255.744
221.57602 235.94905 255.744
221.5607 235.94041 255.744
221.55446 235.93694 255.744
221.56218 235.94127 255.744
221.56747 235.94423 255.744
221.57014 235.94576 255.744
221.57309 235.94742 255.744
221.56926 235.94525 255.744
221.54105 235.92935 255.744
221.58316 235.95306 255.744
221.56354 235.942 255.744
221.57074 235.94609 255.744
221.55502 235.9372 255.744
221.56355 235.94205 255.744
221.55199 235.93555 255.744
221.56847 235.9448 255.744
221.55553 235.93753 255.744
221.58665 235.95505 255.744
221.5725 235.94704 255.744
221.54985 235.93431 255.744
221.56827 235.94469 255.744
221.56158 235.94095 255.744
221.55746 235.9386 255.744
221.57375 235.94778 255.744
221.57632 235.94922 255.744
221.57784 235.9501 255.744
221.54173 235.92972 255.744
221.5641 235.94234 255.744
221.55783 235.93883 255.744
221.56085 235.94049 255.744
221.56927 235.94525 255.744
221.56053 235.94034 255.744
221.54897 235.93384 255.744
221.56955 235.9454 255.744
221.56271 235.94156 255.744
221.56918 235.94522 255.744
221.55367 235.93648 255.744
221.55833 235.93912 255.744
221.56635 235.9436 255.744
221.58513 235.9542 255.744
221.56918 235.9452 255.744
221.56786 235.94446 255.744
221.54826 235.93341 255.744
221.5648 235.94273 255.744
221.55861 235.93924 255.744
221.55376 235.9365 255.744
221.5461 235.9322 255.744
221.54872 235.93367 255.744
221.55672 235.9382 255.744
221.56593 235.94337 255.744
221.57803 235.9502 255.744
221.56651 235.94368 255.744
221.57404 235.94792 255.744
221.56248 235.9414 255.744
221.57127 235.94638 255.744
221.5656 235.94319 255.744
221.54712 235.93275 255.744
221.55977 235.93991 255.744
221.56561 235.94319 255.744
221.56007 235.9401 255.744
221.57373 235.94778 255.744
221.57686 235.94954 255.744
221.57716 235.94972 255.744
221.56674 235.94382 255.744
221.54887 235.93379 255.744
221.57678 235.94948 255.744
221.54242 235.93013 255.744
221.55658 235.93813 255.744
221.55396 235.93663 255.744
221.53307 235.92487 255.744
221.56241 235.94139 255.744
221.55658 235.93811 255.744
221.5603 235.9402 255.744
221.5616 235.94095 255.744
221.55986 235.93996 255.744
221.56018 235.94014 255.744
221.57254 235.9471 255.744
221.53284 235.92476 255.744
221.55394 235.9366 255.744
221.5411 235.92938 255.744
221.56024 235.9402 255.744
221.57115 235.9463 255.744
221.56789 235.94447 255.744
221.55673 235.93822 255.744
221.54614 235.93222 255.744
221.58073 235.9517 255.744
221.56178 235.94106 255.744
221.56693 235.94395 255.744
221.56046 235.94028 255.744
221.56662 235.94379 255.744
221.55037 235.93462 255.744
221.57343 235.9476 255.744
221.56207 235.94122 255.744
221.55692 235.93832 255.744
221.54518 235.93169 255.744
221.58115 235.95195 255.744
221.5619 235.94112 255.744
221.5505 235.9347 255.744
221.55157 235.93526 255.744
221.5543 235.93681 255.744
221.55501 235.93723 255.744
221.5528 235.93597 255.744
221.55765 235.93872 255.744
221.56898 235.94508 255.744
221.55142 235.93521 255.744
221.56213 235.94125 255.744
221.56166 235.94098 255.744
221.5685 235.94482 255.744
221.55962 235.9398 255.744
221.54349 235.93073 255.744
221.56107 235.94066 255.744
221.56473 235.9427 255.744
221.56456 235.94258 255.744
221.57018 235.94579 255.744
221.57613 235.94913 255.744
221.55136 235.93515 255.744
221.55396 235.93665 255.744
221.55038 235.93463 255.744
221.55722 235.9385 255.744
221.56552 235.94313 255.744
221.5406 235.92914 255.744
221.57393 235.94788 255.744
221.54816 235.93336 255.744
221.57188 235.94672 255.744
221.55151 235.93526 255.744
221.55974 235.93991 255.744
221.56447 235.94257 255.744
221.5493 235.934 255.744
221.58257 235.95274 255.744
221.59431 235.95937 255.744
221.55078 235.93481 255.744
221.56287 235.94167 255.744
221.5593 235.93965 255.744
221.56793 235.94452 255.744
221.57318 235.94746 255.744
221.54404 235.93106 255.744
221.56082 235.94052 255.744
221.5652 235.94295 255.744
221.55739 235.93855 255.744
221.57397 235.9479 255.744
221.57568 235.94887 255.744
221.56474 235.94272 255.744
221.56027 235.94019 255.744
221.5701 235.94572 255.744
221.569 235.94511 255.744
221.55507 235.93727 255.744
221.55453 235.93695 255.744
221.56638 235.94365 255.744
221.56122 235.94072 255.744
221.55347 235.93633 255.744
221.57248 235.94707 255.744
221.54677 235.93256 255.744
221.5514 235.93521 255.744
221.58038 235.95154 255.744
221.57747 235.94984 255.744
221.57718 235.94972 255.744
221.55222 235.93568 255.744
221.56802 235.94453 255.744
221.54834 235.93346 255.744
221.58252 235.95273 255.744
221.55441 235.93689 255.744
221.53877 235.9281 255.744
221.57268 235.94719 255.744
221.54681 235.9326 255.744
221.55855 235.93922 255.744
221.56485 235.94275 255.744
221.54079 235.9292 255.744
221.55594 235.93776 255.744
221.5721 235.94685 255.744
221.54659 235.93245 255.744
221.55124 235.93509 255.744
221.578 235.95018 255.744
221.58047 235.95154 255.744
221.56053 235.94034 255.744
221.58551 235.9544 255.744
221.5626 235.9415 255.744
221.55476 235.93709 255.744
221.57077 235.94609 255.744
221.5685 235.94481 255.744
221.5678 235.94443 255.744
221.5669 235.94392 255.744
221.55875 235.93932 255.744
221.5593 235.93965 255.744
221.57312 235.94742 255.744
221.5729 235.9473 255.744
221.56729 235.94415 255.744
221.58408 235.95361 255.744
221.5919 235.95802 255.744
221.57762 235.94998 255.744
221.5641 235.94234 255.744
221.56598 235.9434 255.744
221.57866 235.95056 255.744
221.5639 235.94221 255.744
221.57858 235.95052 255.744
221.57565 235.94885 255.744
221.57092 235.9462 255.744
221.56625 235.94359 255.744
221.5511 235.93503 255.744
221.54861 235.93364 255.744
221.5676 235.9443 255.744
221.56642 235.94365 255.744
221.56255 235.94148 255.744
221.56343 235.94196 255.744
221.58112 235.95197 255.744
221.55563 235.93756 255.744
221.57516 235.94858 255.744
221.56989 235.94559 255.744
221.56792 235.94449 255.744
221.54478 235.93149 255.744
221.57361 235.9477 255.744
221.56467 235.94264 255.744
221.5533 235.93628 255.744
221.56696 235.94395 255.744
221.56558 235.94318 255.744
221.56055 235.94035 255.744
221.56041 235.94029 255.744
221.56697 235.94394 255.744
221.57088 235.94615 255.744
221.55942 235.93971 255.744
221.55595 235.93776 255.744
221.56464 235.94264 255.744
221.54343 235.9307 255.744
221.55629 235.93794 255.744
221.57011 235.94574 255.744
221.56763 235.94435 255.744
221.57558 235.9488 255.744
221.57779 235.95007 255.744
221.54352 235.93076 255.744
221.54002 235.92879 255.744
221.57628 235.9492 255.744
221.57643 235.9493 255.744
221.5703 235.94585 255.744
221.56903 235.94514 255.744
221.56401 235.94229 255.744
221.5528 235.93597 255.744
221.56699 235.94398 255.744
221.57071 235.94609 255.744
221.5724 235.94704 255.744
221.56493 235.9428 255.744
221.54785 235.9332 255.744
221.58308 235.95306 255.744
221.55939 235.93968 255.744
221.58272 235.95285 255.744
221.5648 235.94275 255.744
221.56184 235.94112 255.744
221.56767 235.94437 255.744
221.56693 235.94395 255.744
221.55478 235.93709 255.744
221.56927 235.94524 255.744
221.55879 235.93938 255.744
221.55925 235.9396 255.744
221.56934 235.94531 255.744
221.55496 235.9372 255.744
221.56584 235.94331 255.744
221.56656 235.94373 255.744
221.54613 235.9322 255.744
221.57584 235.94897 255.744
221.56479 235.94273 255.744
221.53838 235.92783 255.744
221.55748 235.93861 255.744
221.5713 235.94643 255.744
221.58252 235.9527 255.744
221.54977 235.93428 255.744
221.55452 235.93694 255.744
221.5655 235.94318 255.744
221.58325 235.95313 255.744
221.59184 235.95796 255.744
221.56906 235.94514 255.744
221.57002 235.94568 255.744
221.56898 235.9451 255.744
221.55493 235.93718 255.744
221.55904 235.93951 255.744
221.56898 235.94507 255.744
221.54869 235.93365 255.744
221.57538 235.94868 255.744
221.56664 235.94377 255.744
221.57376 235.94778 255.744
221.56915 235.9452 255.744
221.56529 235.94301 255.744
221.57425 235.94807 255.744
221.58577 235.95456 255.744
221.55959 235.93979 255.744
221.56387 235.94221 255.744
221.55748 235.9386 255.744
221.56792 235.94446 255.744
221.58163 235.95218 255.744
221.57018 235.94579 255.744
221.563 235.94174 255.744
221.5652 235.94295 255.744
221.56299 235.94174 255.744
221.5602 235.94012 255.744
221.5799 235.95123 255.744
221.56987 235.94562 255.744
221.58849 235.95609 255.744
221.56114 235.94069 255.744
221.57133 235.94644 255.744
221.57051 235.94592 255.744
221.57361 235.9477 255.744
221.54573 235.93198 255.744
221.55518 235.93735 255.744
221.568 235.94455 255.744
221.56912 235.94516 255.744
221.55244 235.93578 255.744
221.56844 235.94478 255.744
221.56534 235.94304 255.744
221.55515 235.9373 255.744
221.56279 235.94162 255.744
221.56728 235.94414 255.744
221.57942 235.95097 255.744
221.56888 235.94499 255.744
221.56189 235.94109 255.744
221.55197 235.93552 255.744
221.58588 235.9546 255.744
221.55818 235.93903 255.744
221.56009 235.9401 255.744
221.57896 235.95071 255.744
221.57642 235.9493 255.744
221.57928 235.9509 255.744
221.56311 235.94179 255.744
221.55318 235.93619 255.744
221.56299 235.9417 255.744
221.5585 235.93921 255.744
221.58188 235.95235 255.744
221.56496 235.94284 255.744
221.57692 235.94955 255.744
221.56232 235.94135 255.744
221.56223 235.94125 255.744
221.55057 235.9347 255.744
221.5743 235.94809 255.744
221.56276 235.9416 255.744
221.556 235.93774 255.744
221.56429 235.94243 255.744
221.56439 235.9425 255.744
221.54146 235.92957 255.744
221.55849 235.93918 255.744
221.57721 235.94972 255.744
221.57275 235.94722 255.744
221.56038 235.94026 255.744
221.58916 235.95645 255.744
221.56468 235.94264 255.744
221.55756 235.93863 255.744
221.57307 235.94737 255.744
221.56056 235.94034 255.744
221.56929 235.94528 255.744
221.57675 235.94948 255.744
221.55013 235.93448 255.744
221.56317 235.94183 255.744
221.57126 235.94638 255.744
221.56076 235.94046 255.744
221.55936 235.93971 255.744
221.57962 235.95111 255.744
221.5661 235.94345 255.744
221.55713 235.93842 255.744
221.55829 235.93907 255.744
221.5854 235.95433 255.744
221.5633 235.94186 255.744
221.58691 235.9552 255.744
221.56436 235.94249 255.744
221.58151 235.95216 255.744
221.56451 235.94257 255.744
221.56953 235.9454 255.744
221.56584 235.94331 255.744
221.5554 235.93745 255.744
221.56032 235.94019 255.744
221.59116 235.95758 255.744
221.5679 235.94446 255.744
221.56963 235.94547 255.744
221.54926 235.93398 255.744
221.56705 235.944 255.744
221.56657 235.94376 255.744
221.5779 235.95012 255.744
221.57117 235.94635 255.744
221.56865 235.9449 255.744
221.60478 235.96529 255.744
221.60913 235.96771 255.744
221.60294 235.96423 255.744
221.61867 235.97308 255.744
221.60286 235.96417 255.744
221.58362 235.95334 255.744
221.60114 235.96323 255.744
221.59499 235.95975 255.744
221.59999 235.96255 255.744
221.6046 235.96518 255.744
221.58205 235.95247 255.744
221.59616 235.9604 255.744
221.61443 235.97075 255.744
221.60551 235.96568 255.744
221.59052 235.95718 255.744
221.58394 235.95352 255.744
221.59955 235.96231 255.744
221.6108 235.96866 255.744
221.61581 235.97148 255.744
221.59917 235.96211 255.744
221.61751 235.97244 255.744
221.56787 235.94446 255.744
221.59245 235.9583 255.744
221.60406 235.96487 255.744
221.60922 235.96779 255.744
221.60896 235.96765 255.744
221.60191 235.96364 255.744
221.61525 235.97116 255.744
221.61606 235.97163 255.744
221.58737 235.95546 255.744
221.60126 235.9633 255.744
221.57555 235.94878 255.744
221.61574 235.97145 255.744
221.58534 235.95432 255.744
221.60666 235.96632 255.744
221.5984 235.96167 255.744
221.60722 235.96664 255.744
221.60214 235.96376 255.744
221.59286 235.95856 255.744
221.59421 235.95927 255.744
221.60744 235.96677 255.744
221.57886 235.95065 255.744
221.58752 235.95555 255.744
221.58243 235.95267 255.744
221.61021 235.96832 255.744
221.59238 235.95828 255.744
221.59242 235.9583 255.744
221.60535 235.96558 255.744
221.59633 235.96051 255.744
221.58437 235.95374 255.744
221.61337 235.9701 255.744
221.60854 235.96736 255.744
221.60101 235.96312 255.744
221.60025 235.9627 255.744
221.61737 235.97238 255.744
221.58665 235.95502 255.744
221.59105 235.95753 255.744
221.60019 235.96268 255.744
221.6177 235.9726 255.744
221.5815 235.95213 255.744
221.60916 235.96773 255.744
221.58968 235.95674 255.744
221.57748 235.94989 255.744
221.59044 235.95723 255.744
221.58482 235.95401 255.744
221.58374 235.95341 255.744
221.59982 235.96248 255.744
221.57773 235.95003 255.744
221.58546 235.95438 255.744
221.59671 235.9607 255.744
221.58507 235.95415 255.744
221.58781 235.95569 255.744
221.59079 235.95738 255.744
221.58699 235.95526 255.744
221.57503 235.94849 255.744
221.60161 235.96349 255.744
221.57733 235.94978 255.744
221.59213 235.95813 255.744
221.58205 235.95247 255.744
221.61293 235.96986 255.744
221.58553 235.9544 255.744
221.59224 235.9582 255.744
221.5983 235.96161 255.744
221.58719 235.95535 255.744
221.60362 235.9646 255.744
221.62337 235.97574 255.744
221.58673 235.95506 255.744
221.59038 235.95717 255.744
221.57648 235.94931 255.744
221.58647 235.95499 255.744
221.59367 235.95903 255.744
221.58566 235.9545 255.744
221.60492 235.96535 255.744
221.5853 235.95428 255.744
221.59497 235.95973 255.744
221.6001 235.96263 255.744
221.60185 235.96364 255.744
221.5996 235.96237 255.744
221.59367 235.95901 255.744
221.59969 235.96239 255.744
221.60204 235.96371 255.744
221.59653 235.96062 255.744
221.59593 235.96027 255.744
221.59596 235.9603 255.744
221.5849 235.95407 255.744
221.59671 235.96074 255.744
221.59196 235.95804 255.744
221.59952 235.9623 255.744
221.58742 235.95547 255.744
221.58998 235.95692 255.744
221.58514 235.95421 255.744
221.60294 235.96425 255.744
221.5773 235.94981 255.744
221.58902 235.95638 255.744
221.59253 235.95837 255.744
221.59602 235.96033 255.744
221.5872 235.95537 255.744
221.607 235.96654 255.744
221.58794 235.95576 255.744
221.59273 235.9585 255.744
221.59561 235.96007 255.744
221.60144 235.96338 255.744
221.58948 235.95663 255.744
221.59271 235.95847 255.744
221.59378 235.95906 255.744
221.5822 235.95251 255.744
221.62473 235.97652 255.744
221.59074 235.95734 255.744
221.59822 235.96156 255.744
221.60095 235.9631 255.744
221.59155 235.95781 255.744
221.58435 235.95377 255.744
221.58804 235.95583 255.744
221.60767 235.96689 255.744
221.58934 235.95657 255.744
221.5905 235.95723 255.744
221.57675 235.94946 255.744
221.61081 235.96864 255.744
221.60269 235.9641 255.744
221.6131 235.96996 255.744
221.59471 235.95963 255.744
221.60387 235.96478 255.744
221.60913 235.9677 255.744
221.577 235.94962 255.744
221.60625 235.96611 255.744
221.59315 235.9587 255.744
221.5958 235.9602 255.744
221.61118 235.96886 255.744
221.58551 235.95442 255.744
221.59601 235.96033 255.744
221.59921 235.96211 255.744
221.60753 235.96681 255.744
221.59792 235.96138 255.744
221.61734 235.97237 255.744
221.60086 235.96306 255.744
221.58662 235.95503 255.744
221.59167 235.9579 255.744
221.59618 235.96043 255.744
221.60445 235.96509 255.744
221.59424 235.9593 255.744
221.57513 235.94855 255.744
221.59807 235.96149 255.744
221.59659 235.96066 255.744
221.58253 235.95274 255.744
221.5639 235.94223 255.744
221.58095 235.95184 255.744
221.59953 235.96231 255.744
221.59782 235.96133 255.744
221.59625 235.96045 255.744
221.58983 235.95685 255.744
221.6085 235.96736 255.744
221.588 235.9558 255.744
221.59135 235.9577 255.744
221.57921 235.95085 255.744
221.58566 235.95451 255.744
221.60999 235.96817 255.744
221.59128 235.95766 255.744
221.60667 235.96632 255.744
221.56848 235.9448 255.744
221.59747 235.96114 255.744
221.5937 235.95905 255.744
221.5925 235.95836 255.744
221.60245 235.96397 255.744
221.6077 235.96689 255.744
221.6065 235.96626 255.744
221.57541 235.94872 255.744
221.58617 235.95476 255.744
221.62737 235.97798 255.744
221.58528 235.95428 255.744
221.59956 235.96231 255.744
221.61697 235.97212 255.744
221.58633 235.95486 255.744
221.58363 235.95335 255.744
221.5984 235.96167 255.744
221.57481 235.9484 255.744
221.59018 235.95703 255.744
221.58534 235.95432 255.744
221.5892 235.95648 255.744
221.59335 235.95885 255.744
221.58835 235.95601 255.744
221.60345 235.96454 255.744
221.59415 235.95929 255.744
221.59201 235.95807 255.744
221.59145 235.95773 255.744
221.60239 235.96394 255.744
221.59494 235.95975 255.744
221.59402 235.9592 255.744
221.58266 235.95277 255.744
221.58258 235.95274 255.744
221.58525 235.95425 255.744
221.58276 235.95285 255.744
221.6009 235.96309 255.744
221.57468 235.94829 255.744
221.57747 235.94989 255.744
221.59937 235.96223 255.744
221.58623 235.9548 255.744
221.58913 235.95644 255.744
221.60164 235.96353 255.744
221.58351 235.95326 255.744
221.59029 235.95709 255.744
221.58723 235.95538 255.744
221.59319 235.95872 255.744
221.59225 235.9582 255.744
221.59871 235.96182 255.744
221.58824 235.95595 255.744
221.58253 235.95274 255.744
221.60168 235.9635 255.744
221.60689 235.96646 255.744
221.57513 235.94858 255.744
221.59818 235.96155 255.744
221.59375 235.95908 255.744
221.5948 235.95963 255.744
221.59843 235.9617 255.744
221.61916 235.97339 255.744
221.62102 235.97443 255.744
221.59702 235.96092 255.744
221.59955 235.9623 255.744
221.58467 235.95393 255.744
221.57632 235.94922 255.744
221.58595 235.95465 255.744
221.59386 235.95909 255.744
221.58925 235.95653 255.744
221.6029 235.96422 255.744
221.58467 235.95392 255.744
221.5755 235.94876 255.744
221.59036 235.95714 255.744
221.59921 235.96211 255.744
221.6039 235.96475 255.744
221.58058 235.95161 255.744
221.59344 235.95888 255.744
221.6064 235.9662 255.744
221.57785 235.9501 255.744
221.59154 235.9578 255.744
221.59753 235.96118 255.744
221.5877 235.95567 255.744
221.59665 235.96072 255.744
221.57242 235.94705 255.744
221.60039 235.96281 255.744
221.59656 235.96063 255.744
221.58864 235.95619 255.744
221.59563 235.96013 255.744
221.6052 235.96552 255.744
221.61964 235.97366 255.744
221.57745 235.94986 255.744
221.59451 235.9595 255.744
221.58566 235.95448 255.744
221.589 235.95638 255.744
221.57643 235.94933 255.744
221.59665 235.9607 255.744
221.59036 235.95715 255.744
221.59836 235.96164 255.744
221.60757 235.96686 255.744
221.59572 235.9602 255.744
221.58421 235.95366 255.744
221.5896 235.95673 255.744
221.58525 235.95427 255.744
221.59299 235.95862 255.744
221.58176 235.95229 255.744
221.59381 235.95906 255.744
221.59999 235.96255 255.744
221.59528 235.95992 255.744
221.59714 235.96094 255.744
221.59007 235.95702 255.744
221.58769 235.95564 255.744
221.56903 235.94514 255.744
221.59483 235.95969 255.744
221.60872 235.96748 255.744
221.60751 235.9668 255.744
221.59488 235.9597 255.744
221.60268 235.96411 255.744
221.58699 235.95525 255.744
221.59026 235.95709 255.744
221.60107 235.9632 255.744
221.56898 235.94511 255.744
221.60844 235.96733 255.744
221.59335 235.95882 255.744
221.59769 235.96124 255.744
221.58199 235.9524 255.744
221.5843 235.95374 255.744
221.57846 235.95044 255.744
221.6187 235.9731 255.744
221.59216 235.95816 255.744
221.59486 235.95966 255.744
221.60265 235.96407 255.744
221.58179 235.95229 255.744
221.59161 235.95786 255.744
221.60806 235.96713 255.744
221.58653 235.955 255.744
221.58142 235.9521 255.744
221.5872 235.95538 255.744
221.57085 235.94615 255.744
221.59247 235.95831 255.744
221.61009 235.96825 255.744
221.5951 235.95984 255.744
221.58969 235.9568 255.744
221.603 235.96426 255.744
221.59155 235.95781 255.744
221.60303 235.96428 255.744
221.57938 235.95094 255.744
221.59674 235.96072 255.744
221.59471 235.9596 255.744
221.59634 235.96051 255.744
221.5755 235.94876 255.744
221.58574 235.95453 255.744
221.57518 235.9486 255.744
221.61336 235.9701 255.744
221.60066 235.96295 255.744
221.60072 235.96298 255.744
221.57845 235.95044 255.744
221.59418 235.95927 255.744
221.5979 235.9614 255.744
221.58337 235.95322 255.744
221.59023 235.95709 255.744
221.60107 235.9632 255.744
221.60146 235.96335 255.744
221.59128 235.95767 255.744
221.59277 235.95851 255.744
221.58546 235.95438 255.744
221.60321 235.96439 255.744
221.5991 235.9621 255.744
221.60443 235.96509 255.744
221.60278 235.96414 255.744
221.61047 235.96844 255.744
221.60332 235.96443 255.744
221.59344 235.95888 255.744
221.58862 235.95616 255.744
221.59187 235.958 255.744
221.58961 235.95673 255.744
221.614 235.97046 255.744
221.61163 235.96913 255.744
221.59904 235.96202 255.744
221.6044 235.96504 255.744
221.5677 235.94437 255.744
221.61697 235.97214 255.744
221.57777 235.95004 255.744
221.59953 235.96231 255.744
221.60718 235.96658 255.744
221.59091 235.95743 255.744
221.59749 235.96117 255.744
221.58356 235.95331 255.744
221.59488 235.95969 255.744
221.58342 235.95322 255.744
221.60179 235.9636 255.744
221.59654 235.96063 255.744
221.60513 235.96547 255.744
221.58063 235.95168 255.744
221.59464 235.95956 255.744
221.59886 235.96196 255.744
221.58418 235.95366 255.744
221.58643 235.95491 255.744
221.58418 235.95364 255.744
221.61258 235.96964 255.744
221.57538 235.94868 255.744
221.59631 235.96048 255.744
221.61 235.96823 255.744
221.60628 235.96614 255.744
221.61159 235.9691 255.744
221.57521 235.94861 255.744
221.60876 235.96751 255.744
221.59254 235.95839 255.744
221.60703 235.96652 255.744
221.59372 235.959 255.744
221.60492 235.96533 255.744
221.58876 235.95624 255.744
221.58861 235.95615 255.744
221.59897 235.962 255.744
221.57423 235.94806 255.744
221.58617 235.95477 255.744
221.58784 235.95573 255.744
221.58977 235.9568 255.744
221.5904 235.95714 255.744
221.58371 235.9534 255.744
221.59146 235.95775 255.744
221.60037 235.96278 255.744
221.60278 235.96416 255.744
221.5824 235.95268 255.744
221.60748 235.9668 255.744
221.59753 235.96118 255.744
221.5891 235.95644 255.744
221.58702 235.95526 255.744
221.58852 235.95609 255.744
221.58963 235.95673 255.744
221.5979 235.9614 255.744
221.59576 235.96019 255.744
221.5978 235.96132 255.744
221.60191 235.96367 255.744
221.59906 235.96202 255.744
221.59515 235.95984 255.744
221.59038 235.95715 255.744
221.59248 235.95836 255.744
221.57877 235.9506 255.744
221.59926 235.96213 255.744
221.58293 235.95296 255.744
221.608 235.9671 255.744
221.58731 235.95543 255.744
221.59541 235.95999 255.744
221.57857 235.95052 255.744
221.58519 235.95421 255.744
221.57881 235.95062 255.744
221.58356 235.95334 255.744
221.60983 235.96812 255.744
221.59317 235.95872 255.744
221.5851 235.95418 255.744
221.58928 235.95656 255.744
221.5766 235.94939 255.744
221.57858 235.9505 255.744
221.58852 235.95612 255.744
221.61115 235.96886 255.744
221.59605 235.96034 255.744
221.5825 235.9527 255.744
221.58109 235.95193 255.744
221.58122 235.95197 255.744
221.6041 235.9649 255.744
221.5876 235.9556 255.744
221.60292 235.96422 255.744
221.60703 235.9665 255.744
221.58652 235.95497 255.744
221.60188 235.96364 255.744
221.59811 235.9615 255.744
221.59192 235.95802 255.744
221.59113 235.95755 255.744
221.59953 235.96228 255.744
221.597 235.9609 255.744
221.58467 235.95395 255.744
221.59619 235.96043 255.744
221.59889 235.96194 255.744
221.60204 235.96375 255.744
221.61134 235.96895 255.744
221.59683 235.9608 255.744
221.59135 235.95767 255.744
221.58577 235.95454 255.744
221.59009 235.957 255.744
221.61067 235.96863 255.744
221.5994 235.96222 255.744
221.5958 235.9602 255.744
221.58403 235.95355 255.744
221.5886 235.95613 255.744
221.58775 235.95567 255.744
221.57968 235.95116 255.744
221.60349 235.96454 255.744
221.59714 235.96098 255.744
221.59428 235.95938 255.744
221.60487 235.96533 255.744
221.58841 235.95605 255.744
221.6085 235.96736 255.744
221.5958 235.9602 255.744
221.60265 235.96407 255.744
221.59908 235.96204 255.744
221.59892 235.96198 255.744
221.5959 235.96027 255.744
221.5799 235.95125 255.744
221.60144 235.96336 255.744
221.58105 235.95187 255.744
221.59435 235.95937 255.744
221.57462 235.94826 255.744
221.60387 235.96475 255.744
221.57875 235.9506 255.744
221.60979 235.96808 255.744
221.57819 235.95027 255.744
221.6077 235.9669 255.744
221.59946 235.96227 255.744
221.60988 235.96815 255.744
221.59818 235.96155 255.744
221.5849 235.95407 255.744
221.5896 235.95674 255.744
221.57738 235.94981 255.744
221.60318 235.96436 255.744
221.59108 235.95755 255.744
221.56651 235.9437 255.744
221.61089 235.9687 255.744
221.58836 235.95602 255.744
221.5866 235.95505 255.744
221.60788 235.96701 255.744
221.60323 235.96439 255.744
221.59079 235.9574 255.744
221.6053 235.96558 255.744
221.59761 235.96123 255.744
221.5987 235.96187 255.744
221.60725 235.96664 255.744
221.58467 235.95395 255.744
221.58656 235.955 255.744
221.59973 235.96245 255.744
221.57109 235.94627 255.744
221.5974 235.96109 255.744
221.59991 235.96252 255.744
221.59373 235.95903 255.744
221.5762 235.94919 255.744
221.59488 235.9597 255.744
221.58356 235.95331 255.744
221.60793 235.96701 255.744
221.58568 235.9545 255.744
221.57806 235.95023 255.744
221.60213 235.96376 255.744
221.62128 235.97455 255.744
221.60233 235.96388 255.744
221.57425 235.94806 255.744
221.60196 235.96368 255.744
221.60147 235.9634 255.744
221.61327 235.97005 255.744
221.59137 235.95772 255.744
221.59486 235.95969 255.744
221.5813 235.95203 255.744
221.59726 235.96103 255.744
221.59239 235.9583 255.744
221.61029 235.96835 255.744
221.61053 235.96852 255.744
221.59117 235.9576 255.744
221.58615 235.95477 255.744
221.60362 235.96465 255.744
221.60997 235.96817 255.744
221.60216 235.96379 255.744
221.59499 235.95978 255.744
221.6136 235.97025 255.744
221.59273 235.9585 255.744
221.5908 235.9574 255.744
221.60149 235.9634 255.744
221.60396 235.9648 255.744
221.60452 235.96513 255.744
221.5751 235.94856 255.744
221.58083 235.95177 255.744
221.59378 235.95906 255.744
221.59091 235.95744 255.744
221.60757 235.96684 255.744
221.59203 235.95807 255.744
221.6048 235.96524 255.744
221.59366 235.959 255.744
221.59138 235.95775 255.744
221.59602 235.96033 255.744
221.61201 235.96936 255.744
221.59937 235.96223 255.744
221.61194 235.9693 255.744
221.59238 235.95827 255.744
221.60008 235.96259 255.744
221.59088 235.95741 255.744
221.58344 235.95325 255.744
221.60574 235.9658 255.744
221.59546 235.96 255.744
221.59947 235.9623 255.744
221.59503 235.95976 255.744
221.60538 235.96559 255.744
221.59897 235.96198 255.744
221.61557 235.97136 255.744
221.5845 235.9538 255.744
221.5805 235.95158 255.744
221.59628 235.96048 255.744
221.59563 235.96011 255.744
221.59164 235.95789 255.744
221.60393 235.96481 255.744
221.60175 235.96355 255.744
221.59323 235.95877 255.744
221.60092 235.9631 255.744
221.59814 235.96152 255.744
221.59322 235.95872 255.744
221.60123 235.96327 255.744
221.5927 235.95847 255.744
221.58835 235.95602 255.744
221.59164 235.95786 255.744
221.59302 235.95865 255.744
221.59691 235.96083 255.744
221.58147 235.95215 255.744
221.61714 235.97226 255.744
221.5949 235.95972 255.744
221.60309 235.96432 255.744
221.5921 235.95811 255.744
221.59286 235.95856 255.744
221.61511 235.9711 255.744
221.59036 235.95714 255.744
221.5985 235.96172 255.744
221.59917 235.96213 255.744
221.58305 235.953 255.744
221.59384 235.9591 255.744
221.59909 235.96208 255.744
221.60446 235.96507 255.744
221.59619 235.96042 255.744
221.60089 235.9631 255.744
221.60725 235.96666 255.744
221.5849 235.95406 255.744
221.59418 235.95929 255.744
221.61275 235.96974 255.744
221.59718 235.961 255.744
221.63084 235.97992 255.744
221.62914 235.97897 255.744
221.62778 235.97823 255.744
221.63463 235.98212 255.744
221.6284 235.97858 255.744
221.64742 235.9893 255.744
221.61009 235.96826 255.744
221.63066 235.97987 255.744
221.63257 235.98093 255.744
221.63077 235.97993 255.744
221.62547 235.97693 255.744
221.62917 235.97899 255.744
221.61928 235.97343 255.744
221.62958 235.97925 255.744
221.64911 235.99025 255.744
221.62119 235.97449 255.744
221.63162 235.9804 255.744
221.63554 235.98259 255.744
221.64061 235.98547 255.744
221.64005 235.9851 255.744
221.6395 235.98482 255.744
221.61288 235.96982 255.744
221.61948 235.97354 255.744
221.62726 235.97795 255.744
221.61609 235.97165 255.744
221.61943 235.97353 255.744
221.63531 235.98248 255.744
221.62216 235.97507 255.744
221.6197 235.97368 255.744
221.61229 235.96947 255.744
221.62718 235.9779 255.744
221.63368 235.98157 255.744
221.62111 235.97446 255.744
221.6342 235.98184 255.744
221.60735 235.96667 255.744
221.61441 235.97069 255.744
221.63356 235.9815 255.744
221.61455 235.97075 255.744
221.61308 235.96996 255.744
221.63068 235.97986 255.744
221.63243 235.98082 255.744
221.62512 235.97675 255.744
221.63443 235.98196 255.744
221.6379 235.9839 255.744
221.63254 235.9809 255.744
221.6278 235.97826 255.744
221.63094 235.98001 255.744
221.624 235.97607 255.744
221.63574 235.98271 255.744
221.61938 235.97351 255.744
221.61827 235.97285 255.744
221.62988 235.97937 255.744
221.63249 235.98088 255.744
221.64091 235.98564 255.744
221.62198 235.97498 255.744
221.62157 235.97475 255.744
221.62878 235.97879 255.744
221.63213 235.9807 255.744
221.63138 235.9802 255.744
221.61496 235.971 255.744
221.6295 235.97916 255.744
221.61186 235.96924 255.744
221.62445 235.97633 255.744
221.61526 235.97118 255.744
221.61201 235.96935 255.744
221.62117 235.97449 255.744
221.61858 235.97305 255.744
221.6348 235.98216 255.744
221.63089 235.97997 255.744
221.60866 235.96747 255.744
221.62769 235.97816 255.744
221.61417 235.97057 255.744
221.6357 235.98268 255.744
221.62701 235.9778 255.744
221.60849 235.96738 255.744
221.6307 235.97987 255.744
221.6615 235.99722 255.744
221.63501 235.9823 255.744
221.63507 235.98233 255.744
221.63066 235.97983 255.744
221.63014 235.97957 255.744
221.6206 235.97418 255.744
221.61662 235.97197 255.744
221.59744 235.96115 255.744
221.62668 235.97762 255.744
221.62578 235.97708 255.744
221.64075 235.98552 255.744
221.62329 235.9757 255.744
221.65247 235.99214 255.744
221.63242 235.98083 255.744
221.61598 235.97154 255.744
221.61862 235.97305 255.744
221.6266 235.97757 255.744
221.63976 235.98495 255.744
221.62596 235.97722 255.744
221.62746 235.97804 255.744
221.60757 235.96686 255.744
221.61113 235.96886 255.744
221.6352 235.9824 255.744
221.62753 235.97807 255.744
221.61575 235.97145 255.744
221.63268 235.981 255.744
221.62445 235.97633 255.744
221.61063 235.96854 255.744
221.6506 235.99107 255.744
221.61148 235.96904 255.744
221.6024 235.96391 255.744
221.62149 235.97467 255.744
221.6054 235.96562 255.744
221.61925 235.97346 255.744
221.63258 235.98094 255.744
221.63557 235.98264 255.744
221.63367 235.98155 255.744
221.61137 235.96898 255.744
221.6441 235.98743 255.744
221.62181 235.97488 255.744
221.61217 235.96945 255.744
221.63213 235.98067 255.744
221.63672 235.98328 255.744
221.61646 235.97186 255.744
221.62242 235.97522 255.744
221.64587 235.98845 255.744
221.62521 235.97676 255.744
221.61453 235.97078 255.744
221.6425 235.98656 255.744
221.6373 235.98357 255.744
221.64276 235.98666 255.744
221.62115 235.97452 255.744
221.63153 235.98035 255.744
221.62314 235.97563 255.744
221.63432 235.9819 255.744
221.6155 235.97128 255.744
221.63358 235.98149 255.744
221.63225 235.98074 255.744
221.62631 235.97739 255.744
221.62514 235.97675 255.744
221.62077 235.97427 255.744
221.6276 235.97812 255.744
221.62323 235.97566 255.744
221.61801 235.97272 255.744
221.64375 235.98721 255.744
221.62743 235.97804 255.744
221.63797 235.98398 255.744
221.64616 235.98862 255.744
221.61452 235.97076 255.744
221.61969 235.97366 255.744
221.6337 235.98157 255.744
221.6142 235.97057 255.744
221.62651 235.97752 255.744
221.64018 235.9852 255.744
221.6431 235.98685 255.744
221.63632 235.98303 255.744
221.63237 235.98085 255.744
221.61903 235.97331 255.744
221.63371 235.98154 255.744
221.62762 235.97815 255.744
221.62888 235.97887 255.744
221.63162 235.9804 255.744
221.62083 235.97432 255.744
221.62184 235.97487 255.744
221.6221 235.975 255.744
221.62953 235.97922 255.744
221.65248 235.99216 255.744
221.6372 235.98357 255.744
221.63956 235.98485 255.744
221.6352 235.98239 255.744
221.63179 235.9805 255.744
221.61731 235.97232 255.744
221.62868 235.97874 255.744
221.63432 235.98192 255.744
221.62839 235.97856 255.744
221.62837 235.97856 255.744
221.63504 235.98233 255.744
221.63419 235.98183 255.744
221.62274 235.97542 255.744
221.61194 235.9693 255.744
221.6307 235.97986 255.744
221.60696 235.96649 255.744
221.62212 235.97505 255.744
221.6333 235.98134 255.744
221.62401 235.9761 255.744
221.6203 235.974 255.744
221.61668 235.97197 255.744
221.61992 235.9738 255.744
221.6319 235.98056 255.744
221.60605 235.966 255.744
221.62694 235.97775 255.744
221.6287 235.97871 255.744
221.62735 235.978 255.744
221.61667 235.97195 255.744
221.61943 235.97351 255.744
221.63326 235.98134 255.744
221.61789 235.97264 255.744
221.60907 235.9677 255.744
221.62933 235.97906 255.744
221.62787 235.97826 255.744
221.62123 235.97452 255.744
221.6256 235.977 255.744
221.63968 235.98495 255.744
221.6332 235.98128 255.744
221.65291 235.99237 255.744
221.62238 235.97517 255.744
221.62637 235.97746 255.744
221.62622 235.97733 255.744
221.64644 235.98872 255.744
221.62782 235.97829 255.744
221.63348 235.98143 255.744
221.63202 235.9806 255.744
221.60393 235.9648 255.744
221.631 235.98003 255.744
221.63611 235.98293 255.744
221.61272 235.96976 255.744
221.63448 235.98198 255.744
221.63548 235.98257 255.744
221.6298 235.97935 255.744
221.6396 235.98491 255.744
221.61673 235.972 255.744
221.6372 235.98355 255.744
221.60544 235.96565 255.744
221.61673 235.97197 255.744
221.60402 235.96484 255.744
221.61897 235.97325 255.744
221.618 235.97272 255.744
221.64212 235.98628 255.744
221.62187 235.97493 255.744
221.61395 235.9704 255.744
221.63707 235.98346 255.744
221.63026 235.97966 255.744
221.61797 235.9727 255.744
221.63655 235.98317 255.744
221.61647 235.97185 255.744
221.63141 235.9803 255.744
221.6234 235.97577 255.744
221.633 235.98117 255.744
221.61488 235.97096 255.744
221.6063 235.9661 255.744
221.6217 235.9748 255.744
221.61052 235.9685 255.744
221.61938 235.97351 255.744
221.6134 235.97011 255.744
221.63805 235.98401 255.744
221.63799 235.98398 255.744
221.63145 235.9803 255.744
221.6229 235.97548 255.744
221.64703 235.98904 255.744
221.63326 235.98134 255.744
221.63785 235.98392 255.744
221.634 235.98174 255.744
221.63771 235.98383 255.744
221.63422 235.98186 255.744
221.62283 235.97543 255.744
221.62321 235.97568 255.744
221.63066 235.97984 255.744
221.6289 235.97888 255.744
221.63911 235.9846 255.744
221.60703 235.9665 255.744
221.61037 235.9684 255.744
221.62202 235.97498 255.744
221.63622 235.98299 255.744
221.62534 235.97684 255.744
221.619 235.97328 255.744
221.63405 235.98174 255.744
221.62482 235.97655 255.744
221.62213 235.97505 255.744
221.62457 235.97643 255.744
221.62877 235.97879 255.744
221.63528 235.98245 255.744
221.62367 235.9759 255.744
221.61964 235.97365 255.744
221.63388 235.9817 255.744
221.6144 235.97073 255.744
221.62614 235.97733 255.744
221.6217 235.97481 255.744
221.63162 235.98041 255.744
221.61932 235.97346 255.744
221.64328 235.98698 255.744
221.63882 235.98447 255.744
221.61342 235.97012 255.744
221.63487 235.98222 255.744
221.62918 235.97905 255.744
221.64395 235.98735 255.744
221.62581 235.9771 255.744
221.62468 235.97646 255.744
221.62906 235.97893 255.744
221.60828 235.96724 255.744
221.63266 235.98099 255.744
221.62727 235.97792 255.744
221.6146 235.9708 255.744
221.63371 235.98157 255.744
221.62169 235.97481 255.744
221.62988 235.97942 255.744
221.62186 235.97488 255.744
221.62428 235.97626 255.744
221.6148 235.97092 255.744
221.62732 235.97797 255.744
221.633 235.98117 255.744
221.62321 235.97566 255.744
221.62749 235.97804 255.744
221.61357 235.97021 255.744
221.62306 235.97556 255.744
221.6202 235.97397 255.744
221.59549 235.96002 255.744
221.6253 235.97684 255.744
221.62411 235.97614 255.744
221.62314 235.97563 255.744
221.62515 235.97676 255.744
221.6158 235.9715 255.744
221.61731 235.97234 255.744
221.626 235.97725 255.744
221.64896 235.99016 255.744
221.61798 235.9727 255.744
221.63478 235.98218 255.744
221.61966 235.97363 255.744
221.63121 235.98016 255.744
221.61362 235.97025 255.744
221.62633 235.97742 255.744
221.6196 235.9736 255.744
221.63069 235.97986 255.744
221.6157 235.97142 255.744
221.61899 235.97325 255.744
221.62659 235.97754 255.744
221.62852 235.97868 255.744
221.63013 235.97957 255.744
221.61179 235.96921 255.744
221.6294 235.97916 255.744
221.61774 235.97256 255.744
221.61646 235.97185 255.744
221.64012 235.98515 255.744
221.61969 235.9737 255.744
221.63779 235.9839 255.744
221.63249 235.98088 255.744
221.61803 235.97272 255.744
221.62277 235.97542 255.744
221.63707 235.98347 255.744
221.6323 235.98076 255.744
221.61589 235.97154 255.744
221.60669 235.96632 255.744
221.606 235.96593 255.744
221.62834 235.97853 255.744
221.6305 235.97975 255.744
221.62016 235.97392 255.744
221.62227 235.97513 255.744
221.63385 235.98166 255.744
221.60774 235.96695 255.744
221.61734 235.97234 255.744
221.62502 235.97668 255.744
221.62212 235.97505 255.744
221.61226 235.96951 255.744
221.64542 235.98814 255.744
221.6355 235.98256 255.744
221.62999 235.97948 255.744
221.6365 235.98317 255.744
221.63301 235.98119 255.744
221.63362 235.98155 255.744
221.62997 235.97949 255.744
221.61969 235.97363 255.744
221.61336 235.97012 255.744
221.62207 235.97505 255.744
221.64592 235.98845 255.744
221.60951 235.96794 255.744
221.63252 235.98091 255.744
221.63419 235.98183 255.744
221.61478 235.97092 255.744
221.6345 235.98203 255.744
221.63206 235.98067 255.744
221.62901 235.97893 255.744
221.62433 235.97626 255.744
221.62747 235.97807 255.744
221.62263 235.97536 255.744
221.6295 235.9792 255.744
221.6135 235.97017 255.744
221.61555 235.97134 255.744
221.62877 235.97878 255.744
221.6374 235.98363 255.744
221.62325 235.97566 255.744
221.61824 235.97287 255.744
221.62695 235.97777 255.744
221.62416 235.97618 255.744
221.62842 235.97859 255.744
221.62022 235.97398 255.744
221.6318 235.98053 255.744
221.61238 235.96957 255.744
221.62988 235.9794 255.744
221.61588 235.97153 255.744
221.62674 235.97766 255.744
221.61992 235.97382 255.744
221.64064 235.98547 255.744
221.63432 235.9819 255.744
221.6108 235.96864 255.744
221.60304 235.96428 255.744
221.61935 235.97348 255.744
221.63885 235.98447 255.744
221.62323 235.97566 255.744
221.63435 235.98192 255.744
221.63115 235.9801 255.744
221.61053 235.96852 255.744
221.62793 235.97829 255.744
221.61026 235.96835 255.744
221.62843 235.97858 255.744
221.61806 235.97272 255.744
221.6176 235.9725 255.744
221.6382 235.9841 255.744
221.62599 235.97723 255.744
221.62825 235.97849 255.744
221.62857 235.97867 255.744
221.64241 235.98647 255.744
221.61975 235.97371 255.744
221.63797 235.98395 255.744
221.64221 235.98637 255.744
221.61255 235.96968 255.744
221.60966 235.96802 255.744
221.62737 235.97798 255.744
221.62947 235.97917 255.744
221.62224 235.97511 255.744
221.60352 235.96457 255.744
221.62166 235.97478 255.744
221.61797 235.9727 255.744
221.62692 235.97777 255.744
221.60797 235.96704 255.744
221.60641 235.96619 255.744
221.62752 235.9781 255.744
221.6228 235.97543 255.744
221.6197 235.9737 255.744
221.61716 235.97224 255.744
221.6262 235.97737 255.744
221.61855 235.97299 255.744
221.61363 235.97021 255.744
221.63393 235.98167 255.744
221.61595 235.97156 255.744
221.61504 235.97104 255.744
221.62755 235.97807 255.744
221.62656 235.97754 255.744
221.62405 235.97612 255.744
221.62064 235.97418 255.744
221.62244 235.97522 255.744
221.6426 235.98657 255.744
221.62135 235.97464 255.744
221.64568 235.98831 255.744
221.63829 235.98413 255.744
221.6364 235.98308 255.744
221.6204 235.97406 255.744
221.60152 235.96344 255.744
221.61723 235.97229 255.744
221.62839 235.97859 255.744
221.64066 235.9855 255.744
221.61891 235.97324 255.744
221.61934 235.97348 255.744
221.62204 235.97499 255.744
221.63538 235.9825 255.744
221.63138 235.98026 255.744
221.63766 235.9838 255.744
221.63684 235.98332 255.744
221.6378 235.98386 255.744
221.63217 235.9807 255.744
221.62303 235.97559 255.744
221.63455 235.98206 255.744
221.61853 235.97304 255.744
221.63692 235.98337 255.744
221.61053 235.96849 255.744
221.62666 235.9776 255.744
221.62614 235.97733 255.744
221.64479 235.98782 255.744
221.61844 235.97296 255.744
221.64128 235.98584 255.744
221.60834 235.96727 255.744
221.62088 235.97435 255.744
221.63226 235.98073 255.744
221.62817 235.97849 255.744
221.64198 235.9862 255.744
221.6305 235.97977 255.744
221.62549 235.97694 255.744
221.63046 235.97972 255.744
221.62463 235.97646 255.744
221.6218 235.97487 255.744
221.61499 235.97102 255.744
221.64189 235.98619 255.744
221.61742 235.97237 255.744
221.61678 235.97203 255.744
221.61992 235.9738 255.744
221.61661 235.97194 255.744
221.6243 235.9763 255.744
221.63919 235.98462 255.744
221.63554 235.98257 255.744
221.6465 235.98878 255.744
221.61836 235.97292 255.744
221.6421 235.98631 255.744
221.63501 235.9823 255.744
221.59676 235.96074 255.744
221.64658 235.98882 255.744
221.62941 235.97914 255.744
221.64058 235.98541 255.744
221.63463 235.98209 255.744
221.63672 235.98328 255.744
221.62201 235.97498 255.744
221.62811 235.97842 255.744
221.6292 235.979 255.744
221.62604 235.97728 255.744
221.63748 235.98369 255.744
221.61852 235.97298 255.744
221.62045 235.97409 255.744
221.62987 235.97939 255.744
221.6384 235.9842 255.744
221.62447 235.97633 255.744
221.62927 235.97905 255.744
221.61975 235.97368 255.744
221.62494 235.97664 255.744
221.62665 235.97762 255.744
221.62665 235.97763 255.744
221.61871 235.97311 255.744
221.61717 235.97223 255.744
221.63058 235.97983 255.744
221.62833 235.97855 255.744
221.62515 235.97675 255.744
221.6278 235.97826 255.744
221.6297 235.97931 255.744
221.6167 235.97198 255.744
221.63489 235.98222 255.744
221.62369 235.97592 255.744
221.64685 235.989 255.744
221.63399 235.98172 255.744
221.61646 235.97182 255.744
221.62535 235.97682 255.744
221.64378 235.98726 255.744
221.64537 235.98814 255.744
221.62079 235.97427 255.744
221.61932 235.97346 255.744
221.62117 235.9745 255.744
221.63077 235.97992 255.744
221.63065 235.97983 255.744
221.63345 235.98143 255.744
221.63333 235.98134 255.744
221.61177 235.96922 255.744
221.622 235.97496 255.744
221.62944 235.97916 255.744
221.6322 235.98074 255.744
221.63234 235.9808 255.744
221.63579 235.98276 255.744
221.6405 235.98541 255.744
221.62755 235.9781 255.744
221.63058 235.97983 255.744
221.63669 235.9832 255.744
221.62712 235.97789 255.744
221.63072 235.9799 255.744
221.63351 235.98145 255.744
221.62215 235.97507 255.744
221.62103 235.9744 255.744
221.65443 235.99324 255.744
221.61581 235.9715 255.744
221.63203 235.9806 255.744
221.62958 235.97923 255.744
221.62852 235.97865 255.744
221.62393 235.97606 255.744
221.63972 235.98494 255.744
221.64133 235.98587 255.744
221.6307 235.97986 255.744
221.62558 235.97699 255.744
221.63394 235.98169 255.744
221.63824 235.98412 255.744
221.63266 235.98097 255.744
221.63077 235.97992 255.744
221.60815 235.96716 255.744
221.63608 235.9829 255.744
221.62027 235.97401 255.744
221.62088 235.97435 255.744
221.61006 235.96823 255.744
221.6152 235.97116 255.744
221.65187 235.99184 255.744
221.62888 235.97884 255.744
221.63963 235.9849 255.744
221.63235 235.98079 255.744
221.62247 235.9752 255.744
221.63889 235.9845 255.744
221.63074 235.9799 255.744
221.61285 235.9698 255.744
221.64221 235.98636 255.744
221.63899 235.98456 255.744
221.63538 235.98253 255.744
221.6336 235.9815 255.744
221.6281 235.97842 255.744
221.61948 235.97354 255.744
221.63354 235.98149 255.744
221.6315 235.98032 255.744
221.62578 235.97713 255.744
221.6226 235.9753 255.744
221.61974 235.9737 255.744
221.63771 235.98384 255.744
221.61572 235.9714 255.744
221.60349 235.96454 255.744
221.63742 235.98366 255.744
221.63048 235.97975 255.744
221.62376 235.97597 255.744
221.61716 235.97223 255.744
221.63998 235.98512 255.744
221.6273 235.97797 255.744
221.63344 235.98143 255.744
221.64732 235.98924 255.744
221.62447 235.9764 255.744
221.62857 235.97867 255.744
221.62468 235.97647 255.744
221.62677 235.97763 255.744
221.64664 235.98885 255.744
221.68701 236.0116 255.744
221.6535 235.9927 255.744
221.66422 235.99876 255.744
221.63754 235.98372 255.744
221.66306 235.99812 255.744
221.66205 235.99751 255.744
221.65651 235.9944 255.744
221.67622 236.00552 255.744
221.66637 235.99994 255.744
221.65565 235.99396 255.744
221.66618 235.99988 255.744
221.66481 235.99913 255.744
221.65103 235.99132 255.744
221.64545 235.98816 255.744
221.65976 235.99626 255.744
221.65067 235.99113 255.744
221.6643 235.99884 255.744
221.6506 235.99113 255.744
221.6414 235.98587 255.744
221.66724 236.00046 255.744
221.67291 236.00365 255.744
221.65857 235.99559 255.744
221.67276 236.00354 255.744
221.65646 235.9944 255.744
221.64514 235.98802 255.744
221.66045 235.99664 255.744
221.66286 235.998 255.744
221.67104 236.00262 255.744
221.65326 235.99258 255.744
221.6582 235.99538 255.744
221.66034 235.99654 255.744
221.66849 236.00119 255.744
221.68304 236.00935 255.744
221.67671 236.0058 255.744
221.68213 236.00887 255.744
221.63258 235.98093 255.744
221.66498 235.99919 255.744
221.66724 236.00047 255.744
221.64746 235.98932 255.744
221.66698 236.00032 255.744
221.6467 235.98889 255.744
221.66211 235.99756 255.744
221.65744 235.99495 255.744
221.66493 235.99915 255.744
221.66669 236.00014 255.744
221.64937 235.99039 255.744
221.6492 235.99028 255.744
221.65346 235.9927 255.744
221.67134 236.00276 255.744
221.63507 235.98235 255.744
221.64717 235.98914 255.744
221.66664 236.0001 255.744
221.66512 235.99927 255.744
221.6757 236.00522 255.744
221.66083 235.99686 255.744
221.67676 236.00581 255.744
221.65634 235.99431 255.744
221.65912 235.99586 255.744
221.6628 235.99797 255.744
221.6569 235.99466 255.744
221.6511 235.99135 255.744
221.66783 236.00081 255.744
221.66786 236.00082 255.744
221.64655 235.98882 255.744
221.6609 235.9969 255.744
221.65518 235.99368 255.744
221.6688 236.00131 255.744
221.65396 235.99298 255.744
221.65268 235.99226 255.744
221.67038 236.00224 255.744
221.66995 236.00198 255.744
221.65787 235.99518 255.744
221.67271 236.00356 255.744
221.64178 235.98611 255.744
221.654 235.99301 255.744
221.6473 235.98924 255.744
221.65967 235.9962 255.744
221.66327 235.99821 255.744
221.66632 235.99995 255.744
221.6489 235.99013 255.744
221.66122 235.99707 255.744
221.66092 235.99693 255.744
221.65508 235.9936 255.744
221.66287 235.998 255.744
221.65033 235.99094 255.744
221.6577 235.9951 255.744
221.66107 235.99696 255.744
221.66847 236.00116 255.744
221.68706 236.01164 255.744
221.64738 235.98926 255.744
221.66136 235.99715 255.744
221.67204 236.00319 255.744
221.65096 235.9913 255.744
221.66748 236.00061 255.744
221.64537 235.98813 255.744
221.63493 235.98225 255.744
221.65958 235.99612 255.744
221.6527 235.99226 255.744
221.66612 235.99983 255.744
221.66478 235.99908 255.744
221.65881 235.99571 255.744
221.66083 235.99686 255.744
221.64426 235.98752 255.744
221.66063 235.9968 255.744
221.67091 236.00252 255.744
221.67712 236.00604 255.744
221.65305 235.99246 255.744
221.66365 235.99841 255.744
221.66663 236.0001 255.744
221.65158 235.99164 255.744
221.6383 235.98415 255.744
221.6597 235.99622 255.744
221.66347 235.99834 255.744
221.66853 236.0012 255.744
221.67972 236.00749 255.744
221.65834 235.99545 255.744
221.66148 235.99722 255.744
221.64653 235.9888 255.744
221.65514 235.99365 255.744
221.65862 235.9956 255.744
221.66785 236.0008 255.744
221.64816 235.98973 255.744
221.63724 235.98357 255.744
221.67296 236.00365 255.744
221.64061 235.98544 255.744
221.65187 235.99179 255.744
221.65367 235.99281 255.744
221.6449 235.98787 255.744
221.65648 235.9944 255.744
221.65688 235.99464 255.744
221.64943 235.99042 255.744
221.66441 235.99887 255.744
221.66913 236.00154 255.744
221.65503 235.99359 255.744
221.66461 235.99898 255.744
221.6596 235.99614 255.744
221.67227 236.00331 255.744
221.65866 235.99562 255.744
221.6384 235.9842 255.744
221.66878 236.00133 255.744
221.64937 235.99039 255.744
221.65143 235.99156 255.744
221.6566 235.99448 255.744
221.66954 236.00175 255.744
221.66612 235.99983 255.744
221.65323 235.99255 255.744
221.65323 235.99255 255.744
221.64561 235.9883 255.744
221.64293 235.98672 255.744
221.65846 235.99548 255.744
221.67172 236.00299 255.744
221.64668 235.98888 255.744
221.65787 235.99516 255.744
221.66533 235.9994 255.744
221.64159 235.98601 255.744
221.64807 235.98969 255.744
221.65222 235.992 255.744
221.65634 235.99431 255.744
221.64851 235.98991 255.744
221.65059 235.99109 255.744
221.65932 235.99599 255.744
221.65193 235.99185 255.744
221.65477 235.99342 255.744
221.66422 235.99881 255.744
221.65648 235.99437 255.744
221.65964 235.99617 255.744
221.66055 235.9967 255.744
221.66827 236.00102 255.744
221.67642 236.00563 255.744
221.67223 236.00325 255.744
221.6657 235.9996 255.744
221.64873 235.99004 255.744
221.65259 235.9922 255.744
221.64429 235.98752 255.744
221.67029 236.00217 255.744
221.66609 235.99982 255.744
221.64131 235.98582 255.744
221.64322 235.98695 255.744
221.66225 235.9976 255.744
221.6529 235.99236 255.744
221.67131 236.00276 255.744
221.67702 236.00598 255.744
221.64697 235.98904 255.744
221.6457 235.98834 255.744
221.6517 235.99168 255.744
221.64943 235.99045 255.744
221.65123 235.99147 255.744
221.65033 235.99095 255.744
221.6604 235.99661 255.744
221.6549 235.99355 255.744
221.65941 235.99603 255.744
221.66928 236.00162 255.744
221.66449 235.99893 255.744
221.64775 235.98947 255.744
221.65657 235.99443 255.744
221.664 235.99864 255.744
221.64627 235.98865 255.744
221.6477 235.98947 255.744
221.66826 236.00102 255.744
221.64989 235.99069 255.744
221.65012 235.99081 255.744
221.66032 235.99657 255.744
221.65901 235.99583 255.744
221.65706 235.9947 255.744
221.64616 235.98859 255.744
221.65747 235.99495 255.744
221.65164 235.99167 255.744
221.6649 235.99915 255.744
221.65895 235.99579 255.744
221.65771 235.9951 255.744
221.6458 235.9884 255.744
221.65956 235.99611 255.744
221.63869 235.9844 255.744
221.67093 236.00255 255.744
221.6582 235.99536 255.744
221.6483 235.98979 255.744
221.6669 236.00026 255.744
221.65396 235.993 255.744
221.6771 236.00601 255.744
221.65265 235.99225 255.744
221.65 235.99075 255.744
221.65495 235.99355 255.744
221.67967 236.00749 255.744
221.67836 236.00676 255.744
221.65977 235.99623 255.744
221.6676 236.00067 255.744
221.65883 235.99574 255.744
221.66629 235.99994 255.744
221.65976 235.99626 255.744
221.655 235.99358 255.744
221.66913 236.00153 255.744
221.64883 235.9901 255.744
221.66006 235.99643 255.744
221.65068 235.99113 255.744
221.65416 235.99306 255.744
221.6642 235.99872 255.744
221.65651 235.99443 255.744
221.65932 235.99599 255.744
221.66797 236.00087 255.744
221.66553 235.99951 255.744
221.65837 235.99547 255.744
221.6626 235.99786 255.744
221.67784 236.00645 255.744
221.65047 235.99101 255.744
221.66975 236.00188 255.744
221.65506 235.99362 255.744
221.64702 235.98907 255.744
221.67131 236.00275 255.744
221.67738 236.0062 255.744
221.67368 236.00412 255.744
221.6771 236.006 255.744
221.6602 235.9965 255.744
221.64832 235.98979 255.744
221.65222 235.992 255.744
221.65219 235.99197 255.744
221.67552 236.00513 255.744
221.65489 235.99352 255.744
221.6555 235.99387 255.744
221.6552 235.99367 255.744
221.65387 235.99294 255.744
221.65515 235.99362 255.744
221.6524 235.99211 255.744
221.65672 235.99455 255.744
221.65749 235.99495 255.744
221.6514 235.99156 255.744
221.6688 236.00134 255.744
221.62279 235.97539 255.744
221.65738 235.9949 255.744
221.66606 235.99982 255.744
221.66931 236.00165 255.744
221.64973 235.9906 255.744
221.64291 235.98672 255.744
221.65517 235.99367 255.744
221.65567 235.99393 255.744
221.66179 235.9974 255.744
221.67058 236.00237 255.744
221.65373 235.99283 255.744
221.66145 235.99721 255.744
221.66228 235.99768 255.744
221.64969 235.99057 255.744
221.6629 235.99802 255.744
221.65817 235.99536 255.744
221.66202 235.9975 255.744
221.65904 235.99583 255.744
221.65762 235.99501 255.744
221.65724 235.99484 255.744
221.65503 235.99359 255.744
221.66476 235.99908 255.744
221.67334 236.00394 255.744
221.66847 236.00116 255.744
221.6543 235.99315 255.744
221.65063 235.99107 255.744
221.6643 235.99881 255.744
220.07394 234.30627 254.16486
221.6093 235.96779 255.744
219.6516 234.06839 254.16486
221.67146 236.00285 255.744
221.5811 235.95192 255.744
221.58495 235.95412 255.744
221.57367 235.94772 255.744
221.55974 235.93988 255.744
221.65321 235.99255 255.744
221.60869 235.96747 255.744
221.63112 235.98015 255.744
221.62737 235.97803 255.744
221.66647 235.99998 255.744
221.6777 236.00638 255.744
221.68382 236.00978 255.744
221.64565 235.9883 255.744
221.656 235.99413 255.744
221.64706 235.9891 255.744
221.65497 235.99352 255.744
221.6615 235.99722 255.744
221.66295 235.99803 255.744
221.64774 235.98947 255.744
221.65746 235.99493 255.744
221.65126 235.99146 255.744
221.64542 235.9882 255.744
221.65665 235.99449 255.744
221.64226 235.9864 255.744
221.6514 235.99152 255.744
221.66313 235.99815 255.744
221.67976 236.00749 255.744
221.64377 235.98726 255.744
221.62628 235.97736 255.744
221.67401 236.00427 255.744
221.6614 235.99718 255.744
221.6517 235.99173 255.744
221.67485 236.00475 255.744
221.6691 236.0015 255.744
221.66176 235.99739 255.744
221.6503 235.99089 255.744
221.66107 235.997 255.744
221.64833 235.9898 255.744
221.64679 235.98892 255.744
221.6725 236.00346 255.744
221.6695 236.00174 255.744
221.64679 235.9889 255.744
221.6642 235.99875 255.744
221.6573 235.99486 255.744
221.64305 235.9868 255.744
221.65932 235.99602 255.744
221.65753 235.995 255.744
221.64532 235.98813 255.744
221.65118 235.99144 255.744
221.65414 235.9931 255.744
221.63992 235.98508 255.744
221.64478 235.98778 255.744
221.65019 235.99088 255.744
221.66243 235.99774 255.744
221.65475 235.99344 255.744
221.66374 235.99849 255.744
221.68 236.00764 255.744
221.66786 236.00082 255.744
221.65375 235.99289 255.744
221.66304 235.99812 255.744
221.67168 236.00298 255.744
221.65594 235.9941 255.744
221.66154 235.99724 255.744
221.66022 235.99652 255.744
221.66045 235.99664 255.744
221.63988 235.98502 255.744
221.65605 235.99416 255.744
221.66891 236.0014 255.744
221.658 235.99524 255.744
221.64383 235.98727 255.744
221.65608 235.99416 255.744
221.65051 235.99103 255.744
221.66017 235.99644 255.744
221.66965 236.00183 255.744
221.64578 235.98837 255.744
221.66902 236.00148 255.744
221.64558 235.98825 255.744
221.65167 235.99168 255.744
221.67096 236.00256 255.744
221.64473 235.98776 255.744
221.66899 236.00142 255.744
221.6664 235.99997 255.744
221.64937 235.99042 255.744
221.66461 235.999 255.744
221.65688 235.99464 255.744
221.67123 236.0027 255.744
221.65982 235.9963 255.744
221.64981 235.99063 255.744
221.64528 235.98805 255.744
221.65558 235.9939 255.744
221.67317 236.00378 255.744
221.6627 235.99791 255.744
221.64796 235.98958 255.744
221.63171 235.98045 255.744
221.65987 235.9963 255.744
221.66306 235.9981 255.744
221.64784 235.98955 255.744
221.68007 236.00769 255.744
221.65067 235.99112 255.744
221.64575 235.98836 255.744
221.66486 235.99913 255.744
221.67506 236.00485 255.744
221.65881 235.99574 255.744
221.67032 236.00223 255.744
221.64438 235.98758 255.744
221.6454 235.98813 255.744
221.66801 236.00087 255.744
221.6613 235.99712 255.744
221.68 236.00766 255.744
221.6657 235.99959 255.744
221.66223 235.99767 255.744
221.64827 235.98978 255.744
221.64555 235.98827 255.744
221.64232 235.98645 255.744
221.65642 235.99437 255.744
221.6791 236.00711 255.744
221.6531 235.99251 255.744
221.64873 235.99002 255.744
221.67131 236.00279 255.744
221.66483 235.9991 255.744
221.67213 236.00323 255.744
221.65474 235.99344 255.744
221.65475 235.99342 255.744
221.6528 235.99234 255.744
221.65144 235.99158 255.744
221.65292 235.99242 255.744
221.66248 235.99777 255.744
221.6447 235.98773 255.744
221.65839 235.99548 255.744
221.64612 235.98854 255.744
221.6627 235.99788 255.744
221.67566 236.0052 255.744
221.67209 236.00319 255.744
221.64912 235.99022 255.744
221.64977 235.9906 255.744
221.65369 235.99284 255.744
221.65012 235.99081 255.744
221.66357 235.9984 255.744
221.66306 235.99811 255.744
221.64714 235.98914 255.744
221.66446 235.9989 255.744
221.65472 235.9934 255.744
221.65428 235.99315 255.744
221.65932 235.99602 255.744
221.67233 236.00331 255.744
221.65541 235.9938 255.744
221.66637 235.99997 255.744
221.6658 235.99963 255.744
221.65007 235.99078 255.744
221.64653 235.9888 255.744
221.67004 236.00203 255.744
221.67711 236.00603 255.744
221.66722 236.00046 255.744
221.66112 235.99701 255.744
221.66014 235.99643 255.744
221.6601 235.99643 255.744
221.66985 236.00194 255.744
221.64839 235.9898 255.744
221.6394 235.9848 255.744
221.65552 235.99384 255.744
221.65466 235.99341 255.744
221.65968 235.9962 255.744
221.65356 235.99278 255.744
221.64728 235.9892 255.744
221.64583 235.9884 255.744
221.64876 235.99005 255.744
221.65773 235.99513 255.744
221.64719 235.98917 255.744
221.66849 236.00119 255.744
221.64767 235.98943 255.744
221.65562 235.9939 255.744
221.67 236.00206 255.744
221.66374 235.9985 255.744
221.65816 235.99535 255.744
221.65392 235.99294 255.744
221.66687 236.00026 255.744
221.67502 236.00487 255.744
221.67915 236.00717 255.744
221.6517 235.99168 255.744
221.65886 235.99574 255.744
221.67151 236.00288 255.744
221.64868 235.98999 255.744
221.66188 235.99744 255.744
221.67337 236.0039 255.744
221.66402 235.99863 255.744
221.65486 235.99347 255.744
221.67888 236.00702 255.744
221.65776 235.99512 255.744
221.68349 236.0096 255.744
221.65608 235.99417 255.744
221.66869 236.0013 255.744
221.64879 235.99007 255.744
221.64238 235.98645 255.744
221.66498 235.99916 255.744
221.65465 235.99338 255.744
221.67538 236.00505 255.744
221.65327 235.99258 255.744
221.6473 235.98924 255.744
221.64824 235.98976 255.744
221.65173 235.99171 255.744
221.6724 236.00334 255.744
221.67534 236.00502 255.744
221.67018 236.00212 255.744
221.67682 236.00587 255.744
221.66772 236.00076 255.744
221.66556 235.99953 255.744
221.66678 236.00021 255.744
221.67993 236.00761 255.744
221.66597 235.99974 255.744
221.64581 235.98837 255.744
221.66095 235.99692 255.744
221.66095 235.99692 255.744
221.64824 235.98976 255.744
221.6677 236.0007 255.744
221.65085 235.99124 255.744
221.65968 235.99622 255.744
221.6562 235.99425 255.744
221.66989 236.00197 255.744
221.67569 236.00523 255.744
221.65555 235.99388 255.744
221.6637 235.99847 255.744
221.65802 235.99524 255.744
221.65744 235.99493 255.744
221.66637 235.99997 255.744
221.65628 235.9943 255.744
221.6447 235.98775 255.744
221.64522 235.98802 255.744
221.66168 235.99733 255.744
221.66681 236.00023 255.744
221.67532 236.00504 255.744
221.67307 236.00375 255.744
221.6639 235.99858 255.744
221.68158 236.00858 255.744
221.66231 235.99768 255.744
221.65367 235.99284 255.744
221.68663 236.0114 255.744
221.65872 235.99567 255.744
221.65361 235.99277 255.744
221.66568 235.99962 255.744
221.65076 235.9912 255.744
221.65924 235.99593 255.744
221.66623 235.99986 255.744
221.6596 235.99614 255.744
221.6657 235.99957 255.744
221.67087 236.00253 255.744
221.65462 235.99336 255.744
221.653 235.99242 255.744
221.65793 235.99522 255.744
221.66176 235.99739 255.744
221.6523 235.99203 255.744
221.6534 235.99266 255.744
221.66333 235.99825 255.744
221.68167 236.0086 255.744
221.6629 235.99803 255.744
221.67604 236.00545 255.744
221.67075 236.00244 255.744
221.65257 235.99217 255.744
221.67479 236.00473 255.744
221.66444 235.99889 255.744
221.66145 235.99721 255.744
221.65572 235.99396 255.744
221.65596 235.99413 255.744
221.67365 236.00404 255.744
221.65869 235.99562 255.744
221.67365 236.00407 255.744
221.6578 235.99516 255.744
221.67035 236.00224 255.744
221.66185 235.9974 255.744
221.66145 235.99724 255.744
221.65822 235.99539 255.744
221.6641 235.9987 255.744
221.65837 235.99547 255.744
221.66463 235.999 255.744
221.6535 235.99274 255.744
221.67241 236.00336 255.744
221.6795 236.00739 255.744
221.65985 235.9963 255.744
221.6625 235.99779 255.744
221.66212 235.99759 255.744
221.64944 235.99045 255.744
221.66632 235.9999 255.744
221.661 235.99695 255.744
221.66495 235.99915 255.744
221.67719 236.00604 255.744
221.6425 235.9865 255.744
221.68045 236.00789 255.744
221.68065 236.00801 255.744
221.64415 235.98743 255.744
221.66962 236.00182 255.744
221.66238 235.99773 255.744
221.66037 235.9966 255.744
221.6442 235.98749 255.744
221.65375 235.99286 255.744
221.65202 235.99188 255.744
221.65332 235.99261 255.744
221.6472 235.98915 255.744
221.67609 236.00543 255.744
221.66591 235.99973 255.744
221.67473 236.0047 255.744
221.68233 236.00896 255.744
221.66425 235.99878 255.744
221.66168 235.99733 255.744
221.66277 235.99792 255.744
221.68935 236.01294 255.744
221.69116 236.01393 255.744
221.7 236.0189 255.744
221.70909 236.02402 255.744
221.70479 236.02162 255.744
221.6858 236.01091 255.744
221.68549 236.01074 255.744
221.6874 236.01181 255.744
221.68709 236.01164 255.744
221.68881 236.01263 255.744
221.69737 236.01746 255.744
221.67787 236.00647 255.744
221.67677 236.00581 255.744
221.68866 236.01254 255.744
221.66092 235.99687 255.744
221.69061 236.01364 255.744
221.69447 236.01581 255.744
221.70425 236.02133 255.744
221.67616 236.00551 255.744
221.69797 236.01779 255.744
221.69897 236.01836 255.744
221.69708 236.0173 255.744
221.6988 236.01826 255.744
221.69453 236.01585 255.744
221.68958 236.01305 255.744
221.68948 236.01302 255.744
221.67279 236.00357 255.744
221.67317 236.00378 255.744
221.68602 236.01106 255.744
221.69994 236.0189 255.744
221.67953 236.00739 255.744
221.68597 236.01103 255.744
221.68889 236.01266 255.744
221.68958 236.01306 255.744
221.68243 236.00905 255.744
221.66794 236.00085 255.744
221.67589 236.00534 255.744
221.69107 236.0139 255.744
221.69608 236.01671 255.744
221.68867 236.01253 255.744
221.68027 236.0078 255.744
221.70416 236.02127 255.744
221.6878 236.01207 255.744
221.68597 236.01102 255.744
221.69875 236.01823 255.744
221.68388 236.00984 255.744
221.70157 236.0198 255.744
221.68103 236.00822 255.744
221.7115 236.02539 255.744
221.68088 236.00813 255.744
221.6771 236.00603 255.744
221.70844 236.0237 255.744
221.69043 236.01352 255.744
221.69223 236.01453 255.744
221.69083 236.01375 255.744
221.70064 236.01929 255.744
221.69508 236.01616 255.744
221.70117 236.01959 255.744
221.67558 236.00516 255.744
221.67485 236.00475 255.744
221.68797 236.01215 255.744
221.70302 236.02065 255.744
221.70421 236.02132 255.744
221.69136 236.01408 255.744
221.67136 236.00278 255.744
221.68816 236.01225 255.744
221.69391 236.01552 255.744
221.6893 236.01292 255.744
221.68752 236.01189 255.744
221.70468 236.02158 255.744
221.68492 236.01042 255.744
221.69664 236.01704 255.744
221.69363 236.01535 255.744
221.70024 236.01906 255.744
221.68292 236.0093 255.744
221.67914 236.0072 255.744
221.6852 236.01059 255.744
221.67223 236.0033 255.744
221.68127 236.00838 255.744
221.67755 236.00627 255.744
221.69962 236.01874 255.744
221.68794 236.01213 255.744
221.70009 236.01897 255.744
221.68738 236.0118 255.744
221.67964 236.00746 255.744
221.68568 236.01085 255.744
221.70183 236.01997 255.744
221.6924 236.01463 255.744
221.6926 236.01472 255.744
221.70213 236.02011 255.744
221.69778 236.01767 255.744
221.6769 236.0059 255.744
221.68573 236.01086 255.744
221.68518 236.01059 255.744
221.69246 236.01468 255.744
221.69167 236.01424 255.744
221.68591 236.011 255.744
221.6697 236.00185 255.744
221.68562 236.01082 255.744
221.68857 236.0125 255.744
221.68344 236.00958 255.744
221.69289 236.01492 255.744
221.68803 236.01218 255.744
221.70604 236.02232 255.744
221.69366 236.01538 255.744
221.69838 236.01802 255.744
221.69547 236.01636 255.744
221.67415 236.00435 255.744
221.69234 236.0146 255.744
221.6931 236.01501 255.744
221.70415 236.02124 255.744
221.7038 236.02106 255.744
221.69179 236.01428 255.744
221.68706 236.01161 255.744
221.68309 236.00937 255.744
221.68254 236.00906 255.744
221.69678 236.0171 255.744
221.68335 236.00957 255.744
221.67966 236.00749 255.744
221.68451 236.01021 255.744
221.7037 236.02101 255.744
221.7023 236.02023 255.744
221.69624 236.01678 255.744
221.71155 236.02544 255.744
221.67053 236.00235 255.744
221.69527 236.01627 255.744
221.68036 236.00787 255.744
221.6717 236.00296 255.744
221.68373 236.00978 255.744
221.68509 236.01053 255.744
221.6966 236.017 255.744
221.68372 236.00972 255.744
221.68109 236.00827 255.744
221.67451 236.00455 255.744
221.69185 236.01431 255.744
221.68451 236.01021 255.744
221.6762 236.00551 255.744
221.69135 236.01405 255.744
221.68484 236.01039 255.744
221.67293 236.00368 255.744
221.69948 236.01862 255.744
221.66983 236.0019 255.744
221.67857 236.00688 255.744
221.68242 236.00902 255.744
221.68144 236.00847 255.744
221.70775 236.02328 255.744
221.70558 236.0221 255.744
221.68753 236.01189 255.744
221.68976 236.01315 255.744
221.68684 236.01149 255.744
221.67322 236.00381 255.744
221.68695 236.01158 255.744
221.70297 236.02063 255.744
221.6806 236.00801 255.744
221.69038 236.0135 255.744
221.67926 236.00725 255.744
221.69835 236.01799 255.744
221.69958 236.01869 255.744
221.67924 236.0072 255.744
221.70753 236.02318 255.744
221.66953 236.00174 255.744
221.67857 236.00685 255.744
221.68077 236.00812 255.744
221.70825 236.0236 255.744
221.68964 236.0131 255.744
221.68617 236.01115 255.744
221.68149 236.00845 255.744
221.68576 236.01091 255.744
221.70872 236.02386 255.744
221.68605 236.01106 255.744
221.69577 236.01656 255.744
221.68839 236.01239 255.744
221.68486 236.01039 255.744
221.68405 236.00992 255.744
221.69208 236.01443 255.744
221.67485 236.00473 255.744
221.70073 236.01932 255.744
221.68336 236.00954 255.744
221.71327 236.02641 255.744
221.67093 236.00255 255.744
221.69595 236.01666 255.744
221.69955 236.01868 255.744
221.69148 236.01411 255.744
221.6954 236.01634 255.744
221.6898 236.01321 255.744
221.6868 236.0115 255.744
221.70633 236.0225 255.744
221.72095 236.03072 255.744
221.69601 236.01666 255.744
221.67326 236.00385 255.744
221.69312 236.01506 255.744
221.68513 236.01059 255.744
221.67422 236.00441 255.744
221.69714 236.01735 255.744
221.68436 236.01012 255.744
221.68715 236.01169 255.744
221.70398 236.02116 255.744
221.70648 236.02258 255.744
221.68593 236.011 255.744
221.69212 236.01448 255.744
221.70432 236.02136 255.744
221.68419 236.01001 255.744
221.69754 236.01755 255.744
221.6888 236.01259 255.744
221.67471 236.00473 255.744
221.6941 236.01561 255.744
221.67633 236.00562 255.744
221.6785 236.00679 255.744
221.67232 236.00334 255.744
221.69748 236.01752 255.744
221.68883 236.01263 255.744
221.6911 236.01392 255.744
221.69106 236.01389 255.744
221.69476 236.01598 255.744
221.69087 236.01378 255.744
221.68196 236.00876 255.744
221.70003 236.01895 255.744
221.6913 236.014 255.744
221.7077 236.02327 255.744
221.67796 236.00648 255.744
221.67561 236.00517 255.744
221.68532 236.01065 255.744
221.67719 236.00604 255.744
221.6927 236.0148 255.744
221.69736 236.01744 255.744
221.66792 236.00085 255.744
221.68884 236.01265 255.744
221.70412 236.02126 255.744
221.70284 236.02054 255.744
221.6816 236.00858 255.744
221.69283 236.0149 255.744
221.68149 236.00847 255.744
221.68556 236.01079 255.744
221.69783 236.0177 255.744
221.69908 236.01842 255.744
221.68585 236.01097 255.744
221.67633 236.00558 255.744
221.69922 236.01851 255.744
221.69484 236.016 255.744
221.68669 236.01141 255.744
221.69643 236.01689 255.744
221.69176 236.0143 255.744
221.68097 236.0082 255.744
221.69283 236.01488 255.744
221.70688 236.0228 255.744
221.68283 236.00925 255.744
221.70236 236.02025 255.744
221.68314 236.0094 255.744
221.67256 236.00345 255.744
221.67033 236.0022 255.744
221.68094 236.00816 255.744
221.70471 236.02158 255.744
221.7114 236.0253 255.744
221.69762 236.01761 255.744
221.69804 236.01784 255.744
221.6865 236.0113 255.744
221.685 236.01048 255.744
221.69998 236.0189 255.744
221.68933 236.01294 255.744
221.68282 236.00922 255.744
221.71405 236.02686 255.744
221.68304 236.00938 255.744
221.70544 236.022 255.744
221.708 236.02344 255.744
221.69922 236.01848 255.744
221.67209 236.00322 255.744
221.68524 236.01057 255.744
221.69307 236.01503 255.744
221.6763 236.00557 255.744
221.69719 236.01735 255.744
221.69551 236.01639 255.744
221.69443 236.0158 255.744
221.70158 236.01979 255.744
221.67831 236.00673 255.744
221.69905 236.01839 255.744
221.68188 236.00871 255.744
221.67924 236.00722 255.744
221.6747 236.00464 255.744
221.67912 236.00717 255.744
221.68327 236.0095 255.744
221.67917 236.0072 255.744
221.69264 236.0148 255.744
221.70499 236.02173 255.744
221.69101 236.01382 255.744
221.67935 236.00731 255.744
221.69179 236.01431 255.744
221.60776 235.96695 255.744
218.40991 232.56644 252.31636
220.15405 234.36028 254.25693
217.96556 231.90054 251.61967
219.23276 233.83269 254.16486
219.28354 233.86122 254.16486
217.60759 232.1229 252.40912
207.73558 221.55324 241.09546
210.53352 225.31367 245.92755
212.41689 227.178 247.72926
211.61478 226.29944 246.83006
212.1555 227.08826 247.38893
213.80766 228.37354 248.76637
212.11435 227.04964 247.2943
209.75854 224.42896 244.87842
216.30553 230.98753 251.4801
214.08536 229.15694 249.79451
208.61765 223.42606 243.5354
213.74687 227.93451 248.01253
214.76439 229.33376 249.57797
213.52434 227.79863 247.77649
220.13472 234.7397 255.08408
217.75449 232.25298 252.02867
219.40646 233.93042 254.16486
218.52776 232.61812 252.4184
221.58263 235.95277 255.744
221.52332 235.91936 255.744
221.64041 235.98537 255.744
221.69049 236.01355 255.744
221.69977 236.0188 255.744
221.68752 236.01189 255.744
221.66238 235.99773 255.744
221.70654 236.0226 255.744
221.69289 236.01492 255.744
221.68628 236.01117 255.744
221.68886 236.01263 255.744
221.6997 236.01874 255.744
221.69756 236.01755 255.744
221.68195 236.00874 255.744
221.69862 236.01819 255.744
221.67947 236.00735 255.744
221.67924 236.00725 255.744
221.69432 236.01575 255.744
221.69443 236.0158 255.744
221.6796 236.00745 255.744
221.67824 236.00668 255.744
221.68626 236.01118 255.744
221.68123 236.00835 255.744
221.69194 236.01437 255.744
221.70078 236.01938 255.744
221.70193 236.02 255.744
221.69029 236.01344 255.744
221.69495 236.01608 255.744
221.68037 236.00786 255.744
221.70735 236.02309 255.744
221.6898 236.01317 255.744
221.6918 236.01433 255.744
221.70146 236.01976 255.744
221.70093 236.01947 255.744
221.67001 236.00203 255.744
221.70097 236.01947 255.744
221.67647 236.00568 255.744
221.67711 236.006 255.744
221.68826 236.01228 255.744
221.68913 236.01277 255.744
221.69365 236.0153 255.744
221.69705 236.01726 255.744
221.69026 236.01344 255.744
221.70868 236.0238 255.744
221.70554 236.02205 255.744
221.67336 236.00392 255.744
221.70529 236.02191 255.744
221.69073 236.0137 255.744
221.67581 236.0053 255.744
221.68457 236.01024 255.744
221.6973 236.01738 255.744
221.6926 236.01477 255.744
221.70212 236.0201 255.744
221.69344 236.01523 255.744
221.67657 236.0057 255.744
221.6724 236.00336 255.744
221.68259 236.00912 255.744
221.6947 236.01598 255.744
221.68726 236.01173 255.744
221.67923 236.00722 255.744
221.69656 236.01697 255.744
221.68178 236.00868 255.744
221.67892 236.00702 255.744
221.68391 236.00984 255.744
221.6915 236.01411 255.744
221.68079 236.00809 255.744
221.70213 236.02014 255.744
221.6792 236.00717 255.744
221.70027 236.0191 255.744
221.69847 236.01805 255.744
221.69727 236.01741 255.744
221.7091 236.02406 255.744
221.68825 236.01227 255.744
221.68692 236.01155 255.744
221.6877 236.012 255.744
221.68423 236.01004 255.744
221.70364 236.02098 255.744
221.70128 236.01965 255.744
221.69843 236.01802 255.744
221.68794 236.01215 255.744
221.687 236.01158 255.744
221.69579 236.01656 255.744
221.69334 236.0152 255.744
221.67212 236.0032 255.744
221.68594 236.01105 255.744
221.67317 236.00383 255.744
221.69159 236.0142 255.744
221.70589 236.02223 255.744
220.70929 234.64702 254.16486
220.7067 234.64673 254.16486
220.70045 234.64322 254.16486
219.6506 233.2372 252.31636
219.68764 233.25557 252.31636
218.65114 231.85216 250.45422
215.47752 227.56631 244.78282
214.93971 226.84044 243.82477
219.20326 232.5718 251.38701
218.08626 231.12314 249.51793
215.97697 228.2699 245.73714
217.51878 230.81546 249.51793
214.95842 226.85178 243.82477
218.07465 231.11726 249.51793
216.4934 229.40771 247.63475
220.16557 233.9353 253.2423
219.14087 232.53934 251.38701
221.70526 236.02188 255.744
221.22029 235.34215 255.08408
221.19904 235.33005 255.08408
221.69206 236.01443 255.744
221.67671 236.00584 255.744
221.6935 236.01527 255.744
221.70001 236.01894 255.744
221.69276 236.01483 255.744
221.70343 236.02087 255.744
221.68353 236.00966 255.744
221.67621 236.00554 255.744
221.69844 236.01807 255.744
221.70056 236.01923 255.744
221.69214 236.01453 255.744
221.69519 236.0162 255.744
221.69536 236.01633 255.744
221.68243 236.00902 255.744
221.68855 236.01247 255.744
221.68042 236.00789 255.744
221.689 236.01273 255.744
221.69455 236.01587 255.744
221.67467 236.00464 255.744
221.68546 236.01074 255.744
221.68297 236.00934 255.744
221.67502 236.00484 255.744
221.69481 236.016 255.744
221.6991 236.01842 255.744
221.70187 236.02002 255.744
221.69829 236.01797 255.744
221.67586 236.00533 255.744
221.68985 236.01321 255.744
221.69077 236.01372 255.744
221.69543 236.01634 255.744
221.68935 236.01292 255.744
221.69873 236.01823 255.744
221.69814 236.01787 255.744
221.68114 236.00832 255.744
221.68263 236.00914 255.744
221.67961 236.00745 255.744
221.70325 236.02074 255.744
221.68555 236.01077 255.744
221.6773 236.00613 255.744
221.67903 236.00711 255.744
221.68639 236.01126 255.744
221.71104 236.02515 255.744
221.67241 236.00339 255.744
221.70557 236.02205 255.744
221.69333 236.01512 255.744
221.68271 236.00917 255.744
221.69052 236.01358 255.744
221.66452 235.99893 255.744
221.70012 236.019 255.744
221.67647 236.00569 255.744
221.69786 236.01772 255.744
221.67728 236.0061 255.744
221.69221 236.01454 255.744
221.70801 236.02344 255.744
221.6915 236.01414 255.744
221.686 236.01103 255.744
221.68222 236.00891 255.744
221.68404 236.00992 255.744
221.69106 236.01385 255.744
221.69638 236.01689 255.744
221.69899 236.01837 255.744
221.69862 236.01814 255.744
221.68796 236.01216 255.744
221.7037 236.02103 255.744
221.70683 236.02278 255.744
221.68811 236.01222 255.744
221.69322 236.01512 255.744
221.70023 236.01904 255.744
221.68294 236.00932 255.744
221.69159 236.01419 255.744
221.7009 236.01942 255.744
221.69116 236.01393 255.744
221.6988 236.01825 255.744
221.68709 236.01164 255.744
221.69083 236.01375 255.744
221.69202 236.0144 255.744
221.70525 236.0219 255.744
221.6921 236.0145 255.744
221.70695 236.02283 255.744
221.68207 236.0088 255.744
221.68292 236.00926 255.744
221.68083 236.00813 255.744
221.69814 236.01788 255.744
221.69485 236.01604 255.744
221.69121 236.014 255.744
221.68013 236.00774 255.744
221.67735 236.00616 255.744
221.67722 236.00607 255.744
221.70158 236.01982 255.744
221.69269 236.01479 255.744
221.68443 236.01016 255.744
221.68845 236.01244 255.744
221.68079 236.00809 255.744
221.69478 236.01598 255.744
221.69276 236.01483 255.744
221.69049 236.01355 255.744
221.66803 236.00092 255.744
221.68684 236.01149 255.744
221.6892 236.01285 255.744
221.69167 236.01425 255.744
221.70456 236.02151 255.744
221.69106 236.0139 255.744
221.69237 236.01466 255.744
221.69522 236.01624 255.744
221.69511 236.01617 255.744
221.70857 236.02379 255.744
221.70819 236.02353 255.744
221.69743 236.0175 255.744
221.69147 236.0141 255.744
221.6866 236.01138 255.744
221.67474 236.00465 255.744
221.67831 236.00671 255.744
221.7027 236.02043 255.744
221.68051 236.00795 255.744
221.70294 236.0206 255.744
221.70981 236.02448 255.744
221.68916 236.0128 255.744
221.69096 236.01384 255.744
221.71559 236.02771 255.744
221.68275 236.00919 255.744
221.67744 236.00624 255.744
221.68509 236.0105 255.744
221.68692 236.01155 255.744
221.68857 236.01248 255.744
221.68677 236.01147 255.744
221.67859 236.00685 255.744
221.68137 236.00844 255.744
221.67465 236.00465 255.744
221.69206 236.01443 255.744
221.68282 236.00923 255.744
221.70412 236.02124 255.744
221.70921 236.02412 255.744
221.69366 236.01535 255.744
221.68373 236.00977 255.744
221.68556 236.0108 255.744
221.69115 236.01393 255.744
221.69954 236.01869 255.744
221.67963 236.00749 255.744
221.70798 236.0234 255.744
221.70604 236.02232 255.744
221.69202 236.01443 255.744
221.69295 236.01492 255.744
221.69942 236.01859 255.744
221.7071 236.02292 255.744
221.67798 236.0065 255.744
221.66415 235.99873 255.744
221.68658 236.01138 255.744
221.69461 236.01587 255.744
221.69104 236.01385 255.744
221.65678 235.99458 255.744
221.67776 236.00638 255.744
221.68974 236.01314 255.744
221.6968 236.01714 255.744
221.68205 236.00879 255.744
221.70432 236.02135 255.744
221.6846 236.01025 255.744
221.69476 236.01599 255.744
221.68512 236.01054 255.744
221.70117 236.01958 255.744
221.7042 236.02127 255.744
221.70673 236.02274 255.744
221.69115 236.01392 255.744
221.6919 236.01437 255.744
221.6917 236.01422 255.744
221.6785 236.0068 255.744
221.6822 236.00888 255.744
221.69096 236.01384 255.744
221.70593 236.02226 255.744
221.69969 236.01875 255.744
221.68298 236.00932 255.744
221.697 236.01724 255.744
221.68831 236.01237 255.744
221.67249 236.0034 255.744
221.68663 236.0114 255.744
221.67896 236.00706 255.744
221.6858 236.01091 255.744
221.67636 236.00558 255.744
221.68658 236.01135 255.744
221.69232 236.0146 255.744
221.69217 236.01451 255.744
221.70819 236.02353 255.744
221.72943 236.03552 255.744
221.73225 236.03714 255.744
221.70592 236.02226 255.744
221.72977 236.03572 255.744
221.7221 236.03139 255.744
221.70534 236.02196 255.744
221.72351 236.0322 255.744
221.72992 236.0358 255.744
221.70482 236.0216 255.744
221.70302 236.02061 255.744
221.71364 236.02663 255.744
221.71521 236.0275 255.744
221.73804 236.04039 255.744
221.73003 236.03583 255.744
221.72165 236.03114 255.744
221.71149 236.02539 255.744
221.71667 236.02835 255.744
221.71562 236.02776 255.744
221.7437 236.04356 255.744
221.72314 236.032 255.744
221.72874 236.03513 255.744
221.7253 236.03319 255.744
221.70465 236.02155 255.744
221.73555 236.03896 255.744
221.72716 236.03424 255.744
221.73781 236.04027 255.744
221.70445 236.02147 255.744
221.72491 236.03294 255.744
221.73611 236.03928 255.744
221.73009 236.0359 255.744
221.73608 236.03926 255.744
221.70387 236.02112 255.744
221.72426 236.03261 255.744
221.72186 236.03125 255.744
221.712 236.02565 255.744
221.7412 236.04214 255.744
221.72153 236.03105 255.744
221.72246 236.03156 255.744
221.71439 236.02704 255.744
221.71794 236.02905 255.744
221.71736 236.0287 255.744
221.70894 236.02397 255.744
221.71066 236.02493 255.744
221.7154 236.02759 255.744
221.6978 236.01772 255.744
221.71675 236.02837 255.744
221.71451 236.0271 255.744
221.71599 236.02794 255.744
221.71758 236.02882 255.744
221.70589 236.02226 255.744
221.72171 236.03116 255.744
221.71515 236.02745 255.744
221.73941 236.04112 255.744
221.70613 236.02238 255.744
221.72595 236.03354 255.744
221.71542 236.02762 255.744
221.71397 236.0268 255.744
221.727 236.03413 255.744
221.73154 236.03668 255.744
221.6999 236.01888 255.744
221.70297 236.02063 255.744
221.71571 236.02779 255.744
221.71944 236.02986 255.744
221.72704 236.03418 255.744
221.74898 236.04652 255.744
221.72098 236.03078 255.744
221.72125 236.03088 255.744
221.7213 236.03093 255.744
221.71411 236.02687 255.744
221.70619 236.02243 255.744
221.71019 236.0247 255.744
221.69937 236.01855 255.744
221.72299 236.03189 255.744
221.71811 236.02913 255.744
221.72849 236.035 255.744
221.72676 236.03404 255.744
221.73213 236.03703 255.744
221.72856 236.03505 255.744
221.72682 236.03404 255.744
221.70905 236.02405 255.744
221.72604 236.0336 255.744
221.7221 236.03139 255.744
221.71878 236.02953 255.744
221.73003 236.03586 255.744
221.71364 236.02661 255.744
221.71089 236.02507 255.744
221.71494 236.02733 255.744
221.73245 236.0372 255.744
221.7111 236.02519 255.744
221.7265 236.03386 255.744
221.75339 236.04903 255.744
221.74255 236.0429 255.744
221.70404 236.02116 255.744
221.72874 236.03514 255.744
221.71288 236.02615 255.744
221.72726 236.03427 255.744
221.71713 236.0286 255.744
221.73444 236.03835 255.744
221.72118 236.03085 255.744
221.71323 236.02641 255.744
221.71083 236.02505 255.744
221.71693 236.02849 255.744
221.71861 236.02939 255.744
221.72215 236.0314 255.744
221.73436 236.03828 255.744
221.73029 236.03601 255.744
221.71437 236.02702 255.744
221.71877 236.02951 255.744
221.71132 236.0253 255.744
221.7266 236.0339 255.744
221.71162 236.0255 255.744
221.71196 236.02565 255.744
221.71173 236.02553 255.744
221.74576 236.04472 255.744
221.71257 236.026 255.744
221.72214 236.03139 255.744
221.72119 236.03085 255.744
221.72711 236.0342 255.744
221.73253 236.03728 255.744
221.72978 236.03572 255.744
221.71057 236.02489 255.744
221.72952 236.03555 255.744
221.72433 236.03265 255.744
221.72751 236.03441 255.744
221.71054 236.02486 255.744
221.7472 236.04553 255.744
221.72386 236.03238 255.744
221.729 236.03526 255.744
221.71753 236.02881 255.744
221.72932 236.03545 255.744
221.71243 236.02592 255.744
221.72278 236.03178 255.744
221.70895 236.02399 255.744
221.73515 236.03873 255.744
221.72963 236.03563 255.744
221.71535 236.02759 255.744
221.73857 236.0407 255.744
221.72086 236.03065 255.744
221.72972 236.03569 255.744
221.71362 236.02658 255.744
221.72755 236.03447 255.744
221.74702 236.04543 255.744
221.72134 236.03094 255.744
221.73465 236.03848 255.744
221.71724 236.02864 255.744
221.73947 236.04117 255.744
221.73038 236.03604 255.744
221.73007 236.03589 255.744
221.7017 236.01987 255.744
221.69995 236.0189 255.744
221.70914 236.0241 255.744
221.71048 236.02481 255.744
221.72546 236.03328 255.744
221.70445 236.02144 255.744
221.71788 236.02899 255.744
221.71477 236.02724 255.744
221.70943 236.02426 255.744
221.70377 236.02104 255.744
221.72375 236.03233 255.744
221.71574 236.02782 255.744
221.72755 236.03442 255.744
221.7208 236.03067 255.744
221.74426 236.04385 255.744
221.71738 236.02873 255.744
221.72704 236.03413 255.744
221.71664 236.0283 255.744
221.73938 236.04114 255.744
221.70146 236.01974 255.744
221.73868 236.04074 255.744
221.70566 236.02211 255.744
221.7442 236.04384 255.744
221.71198 236.02565 255.744
221.73743 236.04001 255.744
221.72897 236.03526 255.744
221.72035 236.0304 255.744
221.72282 236.0318 255.744
221.71727 236.02869 255.744
221.73488 236.03859 255.744
221.72151 236.03104 255.744
221.71623 236.02806 255.744
221.72433 236.03265 255.744
221.7014 236.01971 255.744
221.74113 236.04214 255.744
221.70616 236.02243 255.744
221.71176 236.02559 255.744
221.73361 236.03786 255.744
221.7162 236.02806 255.744
221.73038 236.03607 255.744
221.73424 236.03824 255.744
221.7098 236.02444 255.744
221.71474 236.02724 255.744
221.7157 236.02779 255.744
221.71054 236.0249 255.744
221.71414 236.0269 255.744
221.70877 236.02383 255.744
221.71524 236.02753 255.744
221.71315 236.02634 255.744
221.72318 236.032 255.744
221.71188 236.02562 255.744
221.72505 236.03304 255.744
221.70895 236.02393 255.744
221.72704 236.03415 255.744
221.718 236.0291 255.744
221.72919 236.03537 255.744
221.71477 236.02725 255.744
221.72122 236.0309 255.744
221.73451 236.03838 255.744
221.72966 236.03563 255.744
221.71645 236.02817 255.744
221.725 236.03302 255.744
221.73495 236.03864 255.744
221.73196 236.03696 255.744
221.72095 236.03073 255.744
221.70694 236.02284 255.744
221.71487 236.02731 255.744
221.71861 236.0294 255.744
221.72272 236.03174 255.744
221.72845 236.035 255.744
221.70642 236.02257 255.744
221.72588 236.03352 255.744
221.71396 236.02682 255.744
221.7173 236.02867 255.744
221.72261 236.03168 255.744
221.72803 236.03474 255.744
221.70941 236.02423 255.744
221.7177 236.0289 255.744
221.74487 236.04424 255.744
221.71182 236.0256 255.744
221.70427 236.02132 255.744
221.71648 236.02821 255.744
221.72278 236.03177 255.744
221.71803 236.02911 255.744
221.72578 236.03343 255.744
221.71017 236.02463 255.744
221.72273 236.03175 255.744
221.7254 236.03323 255.744
221.72592 236.03352 255.744
221.74004 236.04152 255.744
221.72481 236.03293 255.744
221.72604 236.0336 255.744
221.72388 236.0324 255.744
221.71693 236.02843 255.744
221.72398 236.03244 255.744
221.74574 236.0447 255.744
221.70898 236.02397 255.744
221.74774 236.0458 255.744
221.73943 236.04117 255.744
221.72144 236.031 255.744
221.71156 236.02539 255.744
221.721 236.03075 255.744
221.72517 236.03311 255.744
221.72342 236.03214 255.744
221.72267 236.03168 255.744
221.71957 236.02995 255.744
221.72826 236.03485 255.744
221.71906 236.02966 255.744
221.71652 236.02823 255.744
221.71048 236.02486 255.744
221.7169 236.02847 255.744
221.72641 236.03383 255.744
221.7061 236.02237 255.744
221.71921 236.02975 255.744
221.71628 236.02809 255.744
221.7247 236.03284 255.744
221.7149 236.02733 255.744
221.73016 236.03592 255.744
221.71773 236.02892 255.744
221.72005 236.03021 255.744
221.73291 236.03748 255.744
221.7261 236.03365 255.744
221.71477 236.02722 255.744
221.73083 236.03632 255.744
221.7086 236.02376 255.744
221.7249 236.03294 255.744
221.71275 236.02611 255.744
221.7351 236.03873 255.744
221.72063 236.03056 255.744
221.72252 236.03162 255.744
221.70757 236.02318 255.744
221.74382 236.04364 255.744
221.72473 236.03285 255.744
220.24196 234.4171 254.25693
219.36378 233.51714 253.3347
218.62259 233.08832 253.2423
214.8607 229.35768 249.56483
213.77711 228.33116 248.71931
209.37737 224.2225 244.87842
205.18558 218.49872 237.79866
201.77325 216.17264 236.51566
204.65363 219.13705 238.96712
199.72932 215.41437 237.05933
195.61427 209.99094 230.36954
192.05623 207.86821 230.11513
191.73149 206.5748 227.84872
186.39816 201.79057 223.22806
191.8575 207.52733 229.43289
184.37265 199.3032 220.5912
190.52802 205.26189 226.30519
184.28076 199.68425 221.38556
189.55411 204.80486 225.40367
194.56967 210.7706 233.24718
187.93765 203.78711 225.73045
188.57664 203.85574 225.08672
189.87457 205.31834 226.55383
196.97752 210.86017 230.68915
193.15834 208.29233 229.34004
201.46104 217.344 239.23041
198.4653 213.76843 234.49771
201.12195 215.39987 235.82191
203.0117 218.10696 239.17511
204.33743 218.85681 239.2707
205.02144 219.67467 240.15178
210.60881 225.73898 246.83005
214.95023 229.4637 249.89285
216.54283 231.11177 251.38701
218.89378 233.24672 253.3347
220.35623 234.92247 254.70764
221.57042 235.94592 255.744
221.74048 236.04173 255.744
221.70956 236.02432 255.744
221.73178 236.03683 255.744
221.71187 236.02562 255.744
221.72136 236.03098 255.744
221.71829 236.0292 255.744
221.7079 236.02339 255.744
221.72742 236.03438 255.744
221.72607 236.0336 255.744
221.71718 236.02861 255.744
221.72289 236.03183 255.744
221.73074 236.03624 255.744
221.7213 236.03091 255.744
221.72252 236.03162 255.744
221.71936 236.02986 255.744
221.72661 236.03395 255.744
221.7299 236.03581 255.744
221.73206 236.037 255.744
221.71556 236.02771 255.744
221.71646 236.02821 255.744
221.73465 236.03845 255.744
221.72113 236.03084 255.744
221.71274 236.02612 255.744
221.72523 236.03314 255.744
221.72618 236.0337 255.744
221.72113 236.03084 255.744
221.72179 236.03119 255.744
221.70659 236.02264 255.744
221.74205 236.04265 255.744
221.72127 236.03091 255.744
221.71532 236.02756 255.744
221.7222 236.03146 255.744
221.71017 236.02466 255.744
221.72522 236.03316 255.744
221.68947 236.013 255.744
221.71042 236.02481 255.744
221.73573 236.03908 255.744
221.73573 236.03906 255.744
221.71806 236.02911 255.744
221.72115 236.03082 255.744
221.72574 236.03342 255.744
221.72119 236.03088 255.744
221.70428 236.02135 255.744
221.71103 236.02513 255.744
221.72073 236.03061 255.744
221.70796 236.02342 255.744
221.71938 236.02983 255.744
221.74493 236.04425 255.744
221.72386 236.03236 255.744
221.71542 236.0276 255.744
221.71342 236.0265 255.744
221.70331 236.0208 255.744
221.7172 236.02858 255.744
221.72601 236.0336 255.744
221.73018 236.03593 255.744
221.70494 236.02173 255.744
221.72456 236.03275 255.744
221.70752 236.02318 255.744
221.71371 236.02669 255.744
221.71838 236.02928 255.744
221.72737 236.03435 255.744
221.72917 236.03539 255.744
221.73698 236.03975 255.744
221.73003 236.03584 255.744
221.73172 236.0368 255.744
221.71219 236.02577 255.744
221.70642 236.02255 255.744
221.74062 236.0418 255.744
221.7223 236.03148 255.744
221.71173 236.02554 255.744
221.71857 236.0294 255.744
221.72255 236.03163 255.744
221.73277 236.03738 255.744
221.21526 235.34073 255.08408
219.23279 232.58746 251.38701
216.02377 228.29477 245.73714
208.45024 218.00346 232.01971
206.62178 215.65213 228.97336
204.59409 212.68802 224.84738
201.96213 209.39519 220.64426
199.4969 206.1477 216.3595
189.2512 192.03818 197.11287
193.25487 197.82913 205.25664
185.8477 188.10164 192.30452
184.5293 186.30856 189.85469
184.44528 186.26573 189.85469
183.35764 185.14624 188.61783
185.77122 188.06276 192.30452
181.55026 182.50998 184.85764
180.9128 181.6068 183.58711
181.37238 182.41907 184.85764
180.0128 180.56555 182.30774
182.54308 183.59164 186.11948
180.77202 181.53473 183.58711
181.95132 182.71512 184.85764
185.05663 187.13962 191.08353
187.85298 190.78172 195.92184
186.10027 188.22939 192.30452
187.76848 190.18704 194.72354
193.23413 197.81873 205.25664
194.58087 199.55196 207.52473
196.3778 201.49919 209.76831
200.46384 207.13733 217.4386
206.6611 215.66925 228.97336
214.36307 226.1 242.86292
213.98416 225.44832 241.89726
216.56247 229.01608 246.68777
220.24994 233.97943 253.2423
220.76073 234.67543 254.16486
221.72115 236.03084 255.744
221.70892 236.02397 255.744
221.72307 236.03194 255.744
221.72151 236.03107 255.744
221.71951 236.02994 255.744
221.72891 236.03519 255.744
221.71289 236.02615 255.744
221.73132 236.03659 255.744
221.723 236.03189 255.744
221.72191 236.0313 255.744
221.71736 236.0287 255.744
221.73114 236.03648 255.744
221.71162 236.02547 255.744
221.72108 236.03082 255.744
221.71411 236.02689 255.744
221.71837 236.02928 255.744
221.725 236.03302 255.744
221.7237 236.03227 255.744
221.70547 236.02202 255.744
221.71928 236.02982 255.744
221.73755 236.04013 255.744
221.71796 236.029 255.744
221.7139 236.02678 255.744
221.71765 236.02888 255.744
221.72865 236.03506 255.744
221.72375 236.03232 255.744
221.72229 236.03148 255.744
221.7158 236.02783 255.744
221.72876 236.03516 255.744
221.71202 236.0257 255.744
221.73471 236.03848 255.744
221.71645 236.0282 255.744
221.7249 236.03296 255.744
221.72827 236.03487 255.744
221.71904 236.02966 255.744
221.71355 236.02657 255.744
221.71902 236.0297 255.744
221.72253 236.03163 255.744
221.73123 236.03653 255.744
221.7133 236.02643 255.744
221.72304 236.0319 255.744
221.71661 236.0283 255.744
221.72392 236.03241 255.744
221.73215 236.03706 255.744
221.73003 236.03584 255.744
221.71677 236.02838 255.744
221.7285 236.03496 255.744
221.72145 236.03104 255.744
221.70055 236.01926 255.744
221.7164 236.02818 255.744
221.72493 236.03297 255.744
221.72975 236.03569 255.744
221.72014 236.03026 255.744
221.7194 236.02986 255.744
221.70285 236.02054 255.744
221.7266 236.0339 255.744
221.71692 236.02847 255.744
221.71254 236.026 255.744
221.73018 236.03593 255.744
221.71825 236.02924 255.744
221.72702 236.03416 255.744
221.72626 236.03374 255.744
221.72911 236.03532 255.744
221.73265 236.03731 255.744
221.73918 236.04102 255.744
221.70259 236.02037 255.744
221.73213 236.03702 255.744
221.70918 236.0241 255.744
221.70358 236.02094 255.744
221.7299 236.0358 255.744
221.72206 236.03137 255.744
221.70427 236.02132 255.744
221.7175 236.0288 255.744
221.71663 236.02829 255.744
221.71896 236.0296 255.744
221.72957 236.03563 255.744
221.71773 236.02892 255.744
221.72299 236.03189 255.744
221.71234 236.02588 255.744
221.73343 236.03775 255.744
221.73265 236.03731 255.744
221.70947 236.02425 255.744
221.72687 236.03409 255.744
221.72307 236.03194 255.744
221.7009 236.01944 255.744
221.73459 236.03842 255.744
221.71484 236.0273 255.744
221.71645 236.02818 255.744
221.72305 236.0319 255.744
221.71574 236.02779 255.744
221.71605 236.02797 255.744
221.72726 236.0343 255.744
221.72913 236.03534 255.744
221.72316 236.032 255.744
221.72679 236.03404 255.744
221.71806 236.0291 255.744
221.70218 236.02016 255.744
221.72707 236.03421 255.744
221.7115 236.02539 255.744
221.72371 236.03229 255.744
221.72379 236.03236 255.744
221.69843 236.01805 255.744
221.71484 236.0273 255.744
221.70978 236.02443 255.744
221.6994 236.01857 255.744
221.72003 236.0302 255.744
221.71413 236.02689 255.744
221.71968 236.03003 255.744
221.73386 236.03804 255.744
221.71802 236.0291 255.744
221.71727 236.02869 255.744
221.72389 236.0324 255.744
221.72899 236.03526 255.744
221.72675 236.03403 255.744
221.72298 236.03189 255.744
221.70248 236.02031 255.744
221.71405 236.02689 255.744
221.7207 236.03056 255.744
221.73839 236.04056 255.744
221.71558 236.02771 255.744
221.72728 236.03429 255.744
221.73572 236.03906 255.744
221.72295 236.03185 255.744
221.72011 236.03029 255.744
221.71782 236.02899 255.744
221.72285 236.03181 255.744
221.71107 236.02516 255.744
221.70786 236.02338 255.744
221.7004 236.01917 255.744
221.72365 236.03226 255.744
221.74939 236.04675 255.744
221.71976 236.03006 255.744
221.71968 236.03003 255.744
221.7197 236.03003 255.744
221.71848 236.02933 255.744
221.71214 236.02577 255.744
221.72978 236.03572 255.744
221.72244 236.03159 255.744
221.71417 236.02692 255.744
221.72511 236.0331 255.744
221.71385 236.02675 255.744
221.72523 236.03316 255.744
221.71613 236.02803 255.744
221.70564 236.02211 255.744
221.72153 236.03105 255.744
221.73164 236.03676 255.744
221.71303 236.02628 255.744
221.72783 236.0346 255.744
221.74403 236.04375 255.744
221.72867 236.03508 255.744
221.73354 236.03784 255.744
221.71944 236.02989 255.744
221.73012 236.03589 255.744
221.72643 236.03384 255.744
221.70897 236.02399 255.744
221.73647 236.0395 255.744
221.72237 236.03156 255.744
221.72588 236.0335 255.744
221.7087 236.02383 255.744
221.7308 236.03629 255.744
221.73532 236.0388 255.744
221.71547 236.02766 255.744
221.71596 236.02794 255.744
221.74026 236.04161 255.744
221.72183 236.03125 255.744
221.73532 236.03886 255.744
221.74652 236.04512 255.744
221.71329 236.02643 255.744
221.71918 236.02972 255.744
221.71815 236.02916 255.744
221.69908 236.01843 255.744
221.7508 236.04756 255.744
221.73233 236.03716 255.744
221.75977 236.0526 255.744
221.75154 236.04797 255.744
221.74474 236.04413 255.744
221.74669 236.04521 255.744
221.73633 236.03937 255.744
221.74872 236.0464 255.744
221.75601 236.05048 255.744
221.75592 236.05042 255.744
221.75348 236.04907 255.744
221.74513 236.04436 255.744
221.74606 236.04489 255.744
221.77238 236.05977 255.744
221.74715 236.0455 255.744
221.7458 236.04472 255.744
221.74893 236.0465 255.744
221.74226 236.04276 255.744
221.74565 236.04465 255.744
221.76093 236.05327 255.744
221.75838 236.05185 255.744
221.76605 236.05615 255.744
221.74574 236.04472 255.744
221.77701 236.06236 255.744
221.77495 236.06113 255.744
221.75426 236.04953 255.744
221.75543 236.05016 255.744
221.7577 236.05145 255.744
221.76033 236.05295 255.744
221.76012 236.05283 255.744
221.74753 236.04572 255.744
221.76816 236.05734 255.744
221.75334 236.04897 255.744
221.73482 236.03856 255.744
221.75665 236.05087 255.744
221.75424 236.0495 255.744
221.76964 236.05817 255.744
221.75444 236.0496 255.744
221.74594 236.04482 255.744
221.74362 236.04349 255.744
221.75604 236.05052 255.744
221.7465 236.04515 255.744
221.75551 236.05023 255.744
221.73611 236.03928 255.744
221.74403 236.04376 255.744
221.76505 236.05559 255.744
221.76006 236.05278 255.744
221.7506 236.04744 255.744
221.74753 236.04572 255.744
221.7452 236.04437 255.744
221.75897 236.05215 255.744
221.75336 236.049 255.744
221.75392 236.0493 255.744
221.76575 236.05602 255.744
221.75717 236.05112 255.744
221.75066 236.04745 255.744
221.76337 236.05463 255.744
221.76065 236.0531 255.744
221.73297 236.03752 255.744
221.75443 236.04962 255.744
221.73166 236.03677 255.744
221.74535 236.0445 255.744
221.74727 236.04558 255.744
221.74487 236.0442 255.744
221.74945 236.04681 255.744
221.75946 236.05243 255.744
221.74977 236.04698 255.744
221.73932 236.04109 255.744
221.75226 236.04842 255.744
221.76135 236.0535 255.744
221.72865 236.03508 255.744
221.76678 236.05656 255.744
221.75339 236.04903 255.744
221.75044 236.04736 255.744
221.75468 236.04974 255.744
221.74536 236.0445 255.744
221.74324 236.04332 255.744
221.76921 236.05795 255.744
221.74141 236.04227 255.744
221.75475 236.04977 255.744
221.76614 236.05621 255.744
221.75145 236.04793 255.744
221.76688 236.0566 255.744
221.75584 236.0504 255.744
221.7547 236.04974 255.744
221.75458 236.0497 255.744
221.7527 236.04861 255.744
221.75249 236.04854 255.744
221.75882 236.05208 255.744
221.72585 236.03348 255.744
221.733 236.03754 255.744
221.73618 236.03932 255.744
221.76598 236.0561 255.744
221.74399 236.0437 255.744
221.74779 236.04587 255.744
221.74121 236.04216 255.744
221.75095 236.04764 255.744
221.73598 236.0392 255.744
221.74283 236.04308 255.744
221.75432 236.04955 255.744
221.75282 236.0487 255.744
221.758 236.0516 255.744
221.75504 236.04993 255.744
221.7421 236.04265 255.744
221.7664 236.05638 255.744
221.74857 236.04633 255.744
221.75926 236.05235 255.744
221.75665 236.05089 255.744
221.74062 236.04181 255.744
221.74174 236.04245 255.744
221.75037 236.0473 255.744
221.74655 236.04518 255.744
221.74437 236.04396 255.744
221.74776 236.04585 255.744
221.75494 236.04993 255.744
221.74553 236.0446 255.744
221.7564 236.05072 255.744
221.76842 236.05748 255.744
221.75859 236.05197 255.744
221.75989 236.05266 255.744
221.74709 236.04547 255.744
221.75136 236.04785 255.744
221.76611 236.05618 255.744
221.73174 236.0368 255.744
221.76813 236.05733 255.744
221.75859 236.05196 255.744
221.75784 236.05151 255.744
221.74883 236.04643 255.744
221.76201 236.0539 255.744
221.74655 236.0452 255.744
221.73488 236.03856 255.744
221.75424 236.04948 255.744
221.7578 236.05151 255.744
221.7364 236.03946 255.744
221.75966 236.05254 255.744
221.7438 236.04364 255.744
221.73926 236.04103 255.744
221.746 236.04485 255.744
221.76259 236.05418 255.744
221.73647 236.03947 255.744
221.74472 236.04414 255.744
221.77434 236.06082 255.744
221.74963 236.04688 255.744
221.75105 236.04768 255.744
221.75903 236.0522 255.744
221.74399 236.04372 255.744
221.74649 236.0451 255.744
221.74916 236.04665 255.744
221.7473 236.0456 255.744
221.76585 236.05606 255.744
221.76385 236.05493 255.744
221.75803 236.05165 255.744
221.78062 236.06433 255.744
221.74846 236.04623 255.744
221.75273 236.04863 255.744
221.75278 236.04865 255.744
221.76357 236.05475 255.744
221.73651 236.03952 255.744
221.74362 236.04352 255.744
221.76457 236.0553 255.744
221.76825 236.05742 255.744
221.74544 236.04454 255.744
221.76157 236.05362 255.744
221.76503 236.05559 255.744
221.73547 236.03896 255.744
221.7548 236.04982 255.744
221.77226 236.05968 255.744
221.7498 236.047 255.744
221.7718 236.0594 255.744
221.74841 236.04623 255.744
221.75734 236.05125 255.744
221.75203 236.04825 255.744
221.76721 236.05681 255.744
221.77039 236.05861 255.744
221.77396 236.06061 255.744
221.7591 236.05223 255.744
221.73833 236.04054 255.744
221.75533 236.0501 255.744
221.74571 236.04471 255.744
221.742 236.0426 255.744
221.76408 236.05502 255.744
221.75499 236.0499 255.744
221.76282 236.05434 255.744
221.76869 236.05762 255.744
221.75745 236.0513 255.744
221.74849 236.04626 255.744
221.75047 236.04738 255.744
221.76091 236.05325 255.744
221.76128 236.05345 255.744
221.74586 236.0448 255.744
221.73952 236.04121 255.744
221.75883 236.0521 255.744
221.74467 236.04411 255.744
221.75923 236.0523 255.744
221.762 236.0539 255.744
221.75851 236.05191 255.744
221.76773 236.05707 255.744
221.75806 236.05167 255.744
221.74586 236.04478 255.744
221.73727 236.03993 255.744
221.76807 236.05725 255.744
221.73834 236.04053 255.744
221.75572 236.05034 255.744
221.75517 236.05002 255.744
221.7595 236.05244 255.744
221.75854 236.05193 255.744
221.75555 236.05023 255.744
221.75668 236.05089 255.744
221.7582 236.05174 255.744
221.7524 236.04845 255.744
221.75745 236.0513 255.744
221.77069 236.05876 255.744
221.7611 236.05338 255.744
221.74905 236.0466 255.744
221.76418 236.05513 255.744
221.761 236.05331 255.744
221.74763 236.04578 255.744
221.76688 236.05663 255.744
221.742 236.0426 255.744
221.75479 236.0498 255.744
221.7495 236.04683 255.744
221.74266 236.04295 255.744
221.76889 236.05775 255.744
221.75426 236.0495 255.744
221.76125 236.05342 255.744
221.73561 236.03899 255.744
221.75208 236.04831 255.744
221.75247 236.04851 255.744
221.7394 236.04112 255.744
221.74036 236.04166 255.744
221.75352 236.0491 255.744
221.74934 236.0467 255.744
221.75568 236.0503 255.744
221.76355 236.05473 255.744
221.73473 236.03848 255.744
221.75708 236.0511 255.744
221.7397 236.04129 255.744
221.75264 236.04861 255.744
221.74443 236.04398 255.744
221.73639 236.03941 255.744
221.76366 236.05481 255.744
221.75066 236.04747 255.744
221.75854 236.05194 255.744
221.75014 236.04718 255.744
221.76445 236.05524 255.744
221.76244 236.05412 255.744
221.76 236.05275 255.744
221.76465 236.05539 255.744
221.75075 236.04753 255.744
221.74274 236.04303 255.744
221.72716 236.03424 255.744
221.74063 236.04182 255.744
221.75131 236.04784 255.744
221.74951 236.04683 255.744
221.76459 236.05531 255.744
221.75526 236.05005 255.744
221.76007 236.05276 255.744
221.75732 236.05125 255.744
221.75853 236.05196 255.744
221.75998 236.05273 255.744
221.75027 236.04727 255.744
221.7482 236.04607 255.744
221.72966 236.03564 255.744
221.75592 236.05043 255.744
221.75699 236.05106 255.744
221.7551 236.04996 255.744
221.75046 236.04736 255.744
221.78035 236.06421 255.744
221.75545 236.05017 255.744
221.74127 236.04216 255.744
221.74683 236.04533 255.744
221.75372 236.04921 255.744
221.73268 236.03735 255.744
221.75436 236.04956 255.744
221.75443 236.04959 255.744
221.74962 236.0469 255.744
221.75015 236.04716 255.744
221.74979 236.047 255.744
221.70076 236.01933 255.744
219.717 234.1052 254.16486
219.00563 233.27051 253.24414
217.75237 232.59904 253.2423
214.69849 229.26157 249.70546
202.20038 216.85292 237.35533
208.6884 223.44821 244.20844
204.8151 220.39954 242.04236
199.20718 214.6839 236.174
197.48451 213.2839 235.3351
184.9606 200.43143 222.14546
190.59824 207.38425 229.77953
177.40947 193.57568 215.99033
180.71109 197.76036 220.7424
177.10182 194.12341 217.19527
168.81018 184.79703 207.01657
168.70218 185.7113 208.9858
165.79028 181.53061 203.88367
163.66872 179.43126 201.47742
170.26434 187.2022 210.83682
172.27643 189.33453 212.7695
168.01677 185.09148 208.55083
168.53142 186.12694 210.26982
168.3204 186.22905 209.29926
161.92403 178.50142 201.3844
168.92152 184.56184 205.7852
172.52364 189.66916 212.4845
159.31285 176.3937 199.36095
161.51462 179.04414 202.61118
164.87643 182.32895 204.78754
156.93887 172.5261 194.04955
176.49559 193.30093 215.83371
168.52078 184.40327 206.18008
181.8287 199.10194 222.05597
176.62216 193.14297 215.38264
190.17241 205.75185 227.692
184.25534 200.86618 223.0395
193.64981 208.95146 230.55234
202.26144 217.71043 239.2216
197.08076 211.79451 232.42287
213.63388 228.66425 249.51793
210.27162 225.12323 245.83713
211.73116 225.98543 246.07028
218.10722 232.86206 252.8631
218.55214 233.04868 253.2423
221.75482 236.0498 255.744
221.69809 236.01785 255.744
221.75102 236.04768 255.744
221.73376 236.03793 255.744
221.77377 236.0605 255.744
221.75606 236.05052 255.744
221.73897 236.0409 255.744
221.75061 236.04745 255.744
221.74818 236.04607 255.744
221.74683 236.0453 255.744
221.75356 236.04909 255.744
221.73967 236.04128 255.744
221.75221 236.04837 255.744
221.74445 236.04399 255.744
221.73337 236.03773 255.744
221.74013 236.04155 255.744
221.75848 236.0519 255.744
221.75937 236.0524 255.744
221.75291 236.04874 255.744
221.74663 236.0452 255.744
221.74588 236.0448 255.744
221.74883 236.04646 255.744
221.74895 236.0465 255.744
221.7537 236.04921 255.744
221.75858 236.05194 255.744
221.7538 236.04926 255.744
221.74583 236.04475 255.744
221.75475 236.04979 255.744
221.73705 236.03983 255.744
221.75943 236.05244 255.744
221.75356 236.0491 255.744
221.75244 236.04848 255.744
221.73535 236.0389 255.744
221.75238 236.04845 255.744
221.75914 236.05226 255.744
221.76736 236.0569 255.744
221.76318 236.05455 255.744
221.75414 236.04945 255.744
221.74803 236.046 255.744
221.7596 236.0525 255.744
221.75537 236.05013 255.744
221.74911 236.04659 255.744
221.74757 236.04573 255.744
221.7402 236.04158 255.744
221.75911 236.05225 255.744
221.75357 236.04913 255.744
221.76685 236.05661 255.744
221.75241 236.0485 255.744
221.76051 236.05304 255.744
221.75278 236.04866 255.744
221.75632 236.05067 255.744
221.76161 236.05363 255.744
221.75613 236.05055 255.744
221.7486 236.04631 255.744
221.76724 236.05681 255.744
221.75375 236.04924 255.744
221.7472 236.04552 255.744
221.7614 236.05356 255.744
221.7696 236.05818 255.744
221.73447 236.03836 255.744
221.76222 236.05402 255.744
221.75539 236.05011 255.744
221.74815 236.04607 255.744
221.75046 236.04738 255.744
220.72719 234.6599 254.16486
217.10725 229.74059 247.63475
210.70718 221.02557 236.02034
207.14713 216.39748 229.99329
200.08603 206.95114 217.4386
191.9029 195.54675 201.80669
186.12233 188.24141 192.30452
183.1718 184.48383 187.37282
179.53409 179.7369 181.01933
179.16331 179.54652 181.01933
178.15848 179.03154 181.01933
177.72302 178.80885 181.01933
177.35751 178.62212 181.01933
177.13988 178.51097 181.01933
176.8428 178.35945 181.01933
176.25021 178.05754 181.01933
176.2342 178.04938 181.01933
175.895 177.87682 181.01933
175.6989 177.7771 181.01933
176.07182 177.96674 181.01933
175.51978 177.68605 181.01933
175.58984 177.72165 181.01933
175.60822 177.73102 181.01933
175.3157 177.58241 181.01933
175.44385 177.6475 181.01933
175.728 177.79189 181.01933
175.80858 177.83284 181.01933
175.80453 177.8308 181.01933
175.59082 177.72218 181.01933
176.17221 178.01784 181.01933
176.1581 178.01064 181.01933
176.29222 178.07892 181.01933
176.54482 178.20758 181.01933
176.8982 178.3877 181.01933
177.22401 178.55394 181.01933
177.62575 178.75912 181.01933
178.502 179.20744 181.01933
178.78801 179.35403 181.01933
180.64528 181.46985 183.58711
182.40425 183.52083 186.11948
186.68294 189.08286 193.5178
193.69579 198.5815 206.3938
200.38715 207.10136 217.4386
204.44577 212.61575 224.84738
211.1115 221.69948 237.00995
213.8369 225.81242 242.86292
217.65697 230.46428 248.57813
221.74864 236.04633 255.744
221.73492 236.03862 255.744
221.7536 236.04915 255.744
221.76277 236.05432 255.744
221.73976 236.04137 255.744
221.74355 236.04347 255.744
221.763 236.05446 255.744
221.74614 236.04492 255.744
221.75668 236.05089 255.744
221.73183 236.03688 255.744
221.7498 236.047 255.744
221.74263 236.04294 255.744
221.75282 236.0487 255.744
221.75156 236.04797 255.744
221.76125 236.05345 255.744
221.76147 236.0536 255.744
221.73523 236.03877 255.744
221.7488 236.04642 255.744
221.73366 236.03792 255.744
221.75038 236.04735 255.744
221.7678 236.05716 255.744
221.7491 236.04663 255.744
221.75616 236.05058 255.744
221.75633 236.05067 255.744
221.76297 236.05443 255.744
221.75652 236.05078 255.744
221.74825 236.0461 255.744
221.76027 236.0529 255.744
221.75748 236.0513 255.744
221.73703 236.03983 255.744
221.75426 236.04951 255.744
221.77214 236.05962 255.744
221.75899 236.05219 255.744
221.76036 236.05293 255.744
221.73245 236.03722 255.744
221.74174 236.04247 255.744
221.7501 236.04718 255.744
221.74884 236.04648 255.744
221.74635 236.04506 255.744
221.75717 236.05116 255.744
221.7535 236.04907 255.744
221.75491 236.0499 255.744
221.75095 236.04765 255.744
221.76608 236.0562 255.744
221.75735 236.05125 255.744
221.76685 236.05658 255.744
221.75047 236.04736 255.744
221.73499 236.03865 255.744
221.75386 236.04932 255.744
221.75386 236.0493 255.744
221.74434 236.0439 255.744
221.75383 236.0493 255.744
221.7423 236.04272 255.744
221.76233 236.05405 255.744
221.77243 236.05974 255.744
221.76657 236.05647 255.744
221.75012 236.0472 255.744
221.75137 236.04788 255.744
221.76549 236.05582 255.744
221.74814 236.04605 255.744
221.75641 236.05072 255.744
221.7412 236.04218 255.744
221.74965 236.04692 255.744
221.77429 236.0608 255.744
221.75139 236.04788 255.744
221.74266 236.04297 255.744
221.75569 236.05032 255.744
221.73686 236.0397 255.744
221.74292 236.04312 255.744
221.75183 236.04816 255.744
221.753 236.04878 255.744
221.7486 236.04631 255.744
221.75162 236.048 255.744
221.74393 236.04369 255.744
221.75583 236.05038 255.744
221.76965 236.0582 255.744
221.75706 236.05107 255.744
221.75606 236.05052 255.744
221.73885 236.04082 255.744
221.74394 236.04369 255.744
221.7531 236.04886 255.744
221.76553 236.05588 255.744
221.76067 236.0531 255.744
221.75531 236.05011 255.744
221.7494 236.04678 255.744
221.76314 236.05452 255.744
221.7393 236.04108 255.744
221.7495 236.04686 255.744
221.76003 236.05276 255.744
221.75134 236.04785 255.744
221.73433 236.03827 255.744
221.75507 236.04994 255.744
221.75523 236.05006 255.744
221.77286 236.05998 255.744
221.7319 236.03691 255.744
221.764 236.05501 255.744
221.77815 236.06297 255.744
221.74634 236.04503 255.744
221.74951 236.04681 255.744
221.7483 236.04613 255.744
221.7402 236.04158 255.744
221.72458 236.03279 255.744
221.76328 236.05461 255.744
221.75508 236.04997 255.744
221.74962 236.04689 255.744
221.75201 236.04825 255.744
221.7536 236.04912 255.744
221.74924 236.04669 255.744
221.75085 236.04758 255.744
221.75641 236.0507 255.744
221.74605 236.04486 255.744
221.75089 236.0476 255.744
221.75629 236.05066 255.744
221.77443 236.06087 255.744
221.75677 236.05092 255.744
221.74655 236.04521 255.744
221.75584 236.05038 255.744
221.74168 236.04242 255.744
221.76588 236.05606 255.744
221.73936 236.04114 255.744
221.77579 236.06165 255.744
221.75452 236.04965 255.744
221.74678 236.04526 255.744
221.75357 236.04913 255.744
221.75311 236.04887 255.744
221.75356 236.0491 255.744
221.74876 236.04642 255.744
221.7611 236.05338 255.744
221.74457 236.04407 255.744
221.75284 236.0487 255.744
221.75084 236.04758 255.744
221.74275 236.04305 255.744
221.74171 236.04243 255.744
221.77032 236.05856 255.744
221.75465 236.04971 255.744
221.76709 236.05673 255.744
221.75111 236.04776 255.744
221.73495 236.03862 255.744
221.76039 236.05298 255.744
221.76213 236.05396 255.744
221.7363 236.03938 255.744
221.74417 236.04381 255.744
221.74323 236.0433 255.744
221.76398 236.055 255.744
221.76373 236.05482 255.744
221.75182 236.04817 255.744
221.7344 236.03831 255.744
221.73656 236.03954 255.744
221.76395 236.055 255.744
221.75693 236.051 255.744
221.74599 236.04485 255.744
221.74274 236.04305 255.744
221.75044 236.04735 255.744
221.74802 236.04599 255.744
221.7494 236.04677 255.744
221.7483 236.04613 255.744
221.73662 236.0396 255.744
221.7625 236.05415 255.744
221.75299 236.04878 255.744
221.7563 236.05066 255.744
221.74734 236.0456 255.744
221.74394 236.04367 255.744
221.7436 236.04349 255.744
221.75874 236.052 255.744
221.73157 236.03671 255.744
221.74109 236.0421 255.744
221.75032 236.0473 255.744
221.72966 236.03564 255.744
221.78128 236.06474 255.744
221.7736 236.0604 255.744
221.76779 236.05716 255.744
221.77188 236.05946 255.744
221.77348 236.06035 255.744
221.77147 236.0592 255.744
221.78038 236.06422 255.744
221.78284 236.06561 255.744
221.78629 236.06755 255.744
221.78304 236.06577 255.744
221.79764 236.07396 255.744
221.79344 236.0716 255.744
221.78375 236.06613 255.744
221.78152 236.06485 255.744
221.77509 236.06122 255.744
221.78073 236.0644 255.744
221.78091 236.06454 255.744
221.78627 236.06755 255.744
221.76271 236.05429 255.744
221.78242 236.06538 255.744
221.78049 236.06427 255.744
221.77098 236.05896 255.744
221.78427 236.06642 255.744
221.77739 236.06253 255.744
221.78918 236.0692 255.744
221.79224 236.07095 255.744
221.78078 236.06447 255.744
221.78543 236.06706 255.744
221.7773 236.06252 255.744
221.77173 236.05936 255.744
221.7846 236.06665 255.744
221.77538 236.06145 255.744
221.79065 236.06998 255.744
221.76997 236.05833 255.744
221.79988 236.07523 255.744
221.78027 236.0642 255.744
221.78459 236.0666 255.744
221.78078 236.06444 255.744
221.78627 236.06757 255.744
221.78128 236.06474 255.744
221.7832 236.06581 255.744
221.789 236.06908 255.744
221.7825 236.06543 255.744
221.78639 236.06761 255.744
221.7902 236.06981 255.744
221.77992 236.06395 255.744
221.79602 236.07303 255.744
221.78325 236.06581 255.744
221.79594 236.07303 255.744
221.78918 236.06921 255.744
221.78033 236.06421 255.744
221.77553 236.06148 255.744
221.793 236.07133 255.744
221.79843 236.0744 255.744
221.75594 236.05048 255.744
221.79109 236.07027 255.744
221.79002 236.06966 255.744
221.7833 236.06586 255.744
221.79257 236.07114 255.744
221.77226 236.05965 255.744
221.77809 236.06296 255.744
221.76749 236.05696 255.744
221.77902 236.06343 255.744
221.80598 236.07869 255.744
221.78609 236.06747 255.744
221.77753 236.06259 255.744
221.80005 236.0753 255.744
221.77086 236.05888 255.744
221.77997 236.064 255.744
221.79562 236.07285 255.744
221.78198 236.06512 255.744
221.79831 236.07434 255.744
221.79047 236.06995 255.744
221.78392 236.06621 255.744
221.78918 236.0692 255.744
221.79396 236.0719 255.744
221.77835 236.06306 255.744
221.78784 236.06844 255.744
221.77902 236.06349 255.744
221.76614 236.05618 255.744
221.78401 236.06628 255.744
221.78983 236.06958 255.744
221.78134 236.06474 255.744
221.80388 236.07747 255.744
221.79556 236.07277 255.744
221.79913 236.0748 255.744
221.7817 236.06497 255.744
221.78694 236.0679 255.744
221.78525 236.06699 255.744
221.79082 236.0701 255.744
221.77061 236.05873 255.744
221.79895 236.07472 255.744
221.78435 236.06645 255.744
221.78862 236.0689 255.744
221.76912 236.05786 255.744
221.7784 236.0631 255.744
221.78319 236.06581 255.744
221.78749 236.06827 255.744
221.7852 236.06694 255.744
221.76569 236.05595 255.744
221.79123 236.07034 255.744
221.7734 236.06029 255.744
221.77405 236.06068 255.744
221.78427 236.0664 255.744
221.79549 236.07277 255.744
221.77876 236.06332 255.744
221.77174 236.05936 255.744
221.77615 236.06186 255.744
221.79393 236.07188 255.744
221.78944 236.06932 255.744
221.77055 236.05867 255.744
221.77872 236.06331 255.744
221.80122 236.07596 255.744
221.79129 236.07037 255.744
221.78587 236.06734 255.744
221.7794 236.06367 255.744
221.77238 236.05972 255.744
221.77269 236.05989 255.744
221.79489 236.07242 255.744
221.80138 236.07605 255.744
221.77272 236.05994 255.744
221.78804 236.06856 255.744
221.79169 236.0706 255.744
221.79561 236.07283 255.744
221.78786 236.06845 255.744
221.79852 236.07446 255.744
221.79933 236.0749 255.744
221.77309 236.06012 255.744
221.77823 236.06302 255.744
221.79056 236.06998 255.744
221.78705 236.06796 255.744
221.78854 236.06882 255.744
221.78033 236.0642 255.744
221.77408 236.06067 255.744
221.77924 236.06358 255.744
221.79466 236.07228 255.744
221.79652 236.07333 255.744
221.79817 236.07422 255.744
221.79124 236.07037 255.744
221.76927 236.05797 255.744
221.78741 236.06822 255.744
221.78664 236.06775 255.744
221.79709 236.07364 255.744
221.78766 236.06833 255.744
221.76747 236.05696 255.744
221.78023 236.06413 255.744
221.78111 236.06467 255.744
221.77087 236.05885 255.744
221.78485 236.06677 255.744
221.78517 236.06696 255.744
221.79453 236.07217 255.744
221.76006 236.05276 255.744
221.78589 236.06735 255.744
221.7843 236.06644 255.744
221.78802 236.06854 255.744
221.79535 236.07266 255.744
221.77176 236.05936 255.744
221.78647 236.06766 255.744
221.79492 236.07243 255.744
221.78905 236.06912 255.744
221.78421 236.06639 255.744
221.79912 236.0748 255.744
221.78386 236.06621 255.744
221.7684 236.05745 255.744
221.78265 236.0655 255.744
221.7784 236.06311 255.744
221.78917 236.06918 255.744
221.78764 236.06833 255.744
221.77151 236.05922 255.744
221.7765 236.06206 255.744
221.80072 236.07568 255.744
221.78804 236.06854 255.744
221.79889 236.07466 255.744
221.78346 236.06598 255.744
221.77768 236.06271 255.744
221.76993 236.05833 255.744
221.78981 236.06953 255.744
221.78983 236.06955 255.744
221.77905 236.06349 255.744
221.78851 236.0688 255.744
221.8024 236.07663 255.744
221.78891 236.06905 255.744
221.7859 236.06735 255.744
221.77028 236.05856 255.744
221.78494 236.06677 255.744
221.79465 236.07227 255.744
221.79675 236.07347 255.744
221.76286 236.05437 255.744
221.76407 236.05502 255.744
221.79898 236.07472 255.744
221.78455 236.0666 255.744
221.792 236.07077 255.744
221.78967 236.06944 255.744
221.78693 236.06792 255.744
221.80557 236.07843 255.744
221.77924 236.06357 255.744
221.80208 236.07648 255.744
221.77316 236.06018 255.744
221.78282 236.0656 255.744
221.77672 236.06218 255.744
221.78148 236.06488 255.744
221.80096 236.07587 255.744
221.7927 236.07118 255.744
221.78816 236.06865 255.744
221.80516 236.07822 255.744
221.77992 236.06398 255.744
221.79747 236.07385 255.744
221.7906 236.06999 255.744
221.78183 236.06502 255.744
221.78957 236.06941 255.744
221.78049 236.06429 255.744
221.75911 236.05223 255.744
221.78699 236.06795 255.744
221.79276 236.0712 255.744
221.79274 236.0712 255.744
221.78642 236.06763 255.744
221.79477 236.07233 255.744
221.78644 236.06767 255.744
221.78128 236.06474 255.744
221.7853 236.06702 255.744
221.79832 236.07436 255.744
221.75317 236.0489 255.744
221.76288 236.05435 255.744
221.77217 236.05962 255.744
221.7738 236.06052 255.744
221.78291 236.06569 255.744
221.7899 236.06961 255.744
221.79256 236.07108 255.744
221.76678 236.05658 255.744
221.7756 236.06151 255.744
221.79776 236.074 255.744
221.78844 236.06879 255.744
221.7834 236.06595 255.744
221.77736 236.06253 255.744
221.79549 236.07274 255.744
221.77388 236.06058 255.744
221.79124 236.07036 255.744
221.78038 236.06422 255.744
221.78342 236.06596 255.744
221.78021 236.06413 255.744
221.7749 236.06117 255.744
221.77936 236.06366 255.744
221.7782 236.06303 255.744
221.76918 236.05792 255.744
221.76921 236.05795 255.744
221.80437 236.07774 255.744
221.77562 236.06155 255.744
221.78137 236.06477 255.744
221.78398 236.06625 255.744
221.78113 236.06467 255.744
221.79253 236.0711 255.744
221.79132 236.07039 255.744
221.7839 236.06622 255.744
221.7775 236.0626 255.744
221.79594 236.07301 255.744
221.77908 236.0635 255.744
221.78563 236.06721 255.744
221.77931 236.06363 255.744
221.77995 236.064 255.744
221.80486 236.07803 255.744
221.77081 236.05884 255.744
221.77681 236.06221 255.744
221.76173 236.05373 255.744
221.78572 236.06723 255.744
221.78055 236.06432 255.744
221.79254 236.07108 255.744
221.77477 236.06105 255.744
221.78683 236.06789 255.744
221.78085 236.06451 255.744
221.77963 236.0638 255.744
221.7891 236.06914 255.744
221.78363 236.06609 255.744
221.78215 236.06523 255.744
219.77887 234.14005 254.16486
219.53941 234.00522 254.16486
213.87419 227.99321 247.82372
214.43942 228.70628 248.76637
212.1857 227.05293 247.82372
207.01015 222.08975 242.51729
195.60785 211.40353 233.42772
193.12375 208.67455 230.38121
174.64847 190.54852 212.64957
180.96527 198.07031 221.31102
168.15115 184.53561 206.53497
176.04343 192.58693 215.24727
167.81566 183.59949 205.92207
161.50902 179.1776 201.98515
167.66798 184.72192 208.20035
155.502 172.6176 195.87337
156.92244 173.60187 196.52364
162.86086 180.46751 203.28021
165.27283 184.45636 209.53413
156.6156 174.58853 198.2958
160.64319 177.16797 200.41507
158.54982 175.19487 198.30737
151.97694 169.86992 194.06131
158.9413 177.49605 201.79515
152.62782 170.0476 192.95732
158.3668 176.42204 200.94893
150.97893 168.83072 192.82658
159.48276 178.17592 203.42395
164.18068 182.37854 206.60919
157.60915 176.04604 199.80197
161.49689 179.55782 203.17076
157.5599 175.75075 199.73103
160.21153 177.75847 201.69069
165.76888 184.73955 209.01949
154.57953 172.44894 196.39343
166.34956 184.10571 208.29984
166.79326 185.492 210.2086
160.08 177.90074 200.67305
164.67966 182.58194 204.19936
160.44328 178.02118 201.03403
165.6189 181.09691 202.1579
166.28922 182.32071 203.91197
178.25896 194.05688 216.23293
180.48792 197.14172 219.15529
184.43782 200.39769 221.3645
194.33414 209.45006 230.29333
200.18665 215.3122 236.20604
198.17232 212.90182 232.96608
210.67935 225.35092 245.83713
212.3591 227.17033 247.29904
216.43365 231.13196 251.00502
221.348 235.82063 255.744
221.72871 236.03513 255.744
221.7869 236.06792 255.744
221.78348 236.06601 255.744
221.79266 236.07117 255.744
221.78792 236.06848 255.744
221.79466 236.07227 255.744
221.77058 236.05873 255.744
221.7906 236.06998 255.744
221.7799 236.06398 255.744
221.78592 236.06737 255.744
221.78514 236.06694 255.744
221.78882 236.06898 255.744
221.79257 236.07114 255.744
221.77908 236.0635 255.744
221.79596 236.07303 255.744
221.79315 236.07144 255.744
221.80952 236.08067 255.744
221.76515 236.05566 255.744
221.81363 236.083 255.744
221.76955 236.05812 255.744
221.79121 236.07036 255.744
221.78787 236.06844 255.744
221.78072 236.0644 255.744
221.78897 236.06908 255.744
221.7672 236.05681 255.744
221.76402 236.055 255.744
221.79146 236.0705 255.744
221.76848 236.05751 255.744
221.80742 236.07947 255.744
221.80197 236.0764 255.744
221.7925 236.07108 255.744
221.78972 236.06952 255.744
221.7952 236.07256 255.744
221.77429 236.06079 255.744
221.79059 236.06996 255.744
221.78633 236.0676 255.744
221.78207 236.06519 255.744
221.78043 236.06429 255.744
221.81192 236.08202 255.744
221.79607 236.07304 255.744
221.7998 236.07518 255.744
221.79637 236.07326 255.744
221.79222 236.0709 255.744
221.77179 236.05939 255.744
221.79608 236.07306 255.744
221.79483 236.07239 255.744
221.7726 236.05983 255.744
221.77914 236.06352 255.744
221.75365 236.04915 255.744
221.78343 236.06596 255.744
221.8024 236.07664 255.744
221.7857 236.06723 255.744
221.78717 236.06808 255.744
221.78798 236.06851 255.744
221.7981 236.07422 255.744
221.26025 235.36745 255.08408
216.18365 228.37721 245.73714
210.78163 221.06476 236.02034
203.58983 211.20308 222.75572
193.85405 198.13208 205.25664
188.98099 191.90263 197.11287
178.276 178.46327 179.7217
179.37819 180.24063 182.30774
178.61508 179.26538 181.01933
177.2972 178.59128 181.01933
176.73915 178.3066 181.01933
176.37802 178.1226 181.01933
175.79147 177.82416 181.01933
175.36009 177.60497 181.01933
174.88135 177.36205 181.01933
174.7487 177.2948 181.01933
174.61595 177.22752 181.01933
174.03458 176.93318 181.01933
173.97192 176.90147 181.01933
173.72867 176.7785 181.01933
173.49942 176.66267 181.01933
173.24876 176.53612 181.01933
173.2368 176.53008 181.01933
172.91975 176.37013 181.01933
173.02258 176.42198 181.01933
172.79315 176.30629 181.01933
172.77194 176.2956 181.01933
172.71793 176.26839 181.01933
172.55971 176.18869 181.01933
172.54758 176.18259 181.01933
172.73396 176.27647 181.01933
172.75497 176.28708 181.01933
173.06996 176.4459 181.01933
173.08922 176.45558 181.01933
173.24632 176.5349 181.01933
173.1845 176.50366 181.01933
173.38771 176.60625 181.01933
173.5888 176.70784 181.01933
173.69295 176.76044 181.01933
174.0578 176.9449 181.01933
174.43178 177.13422 181.01933
174.66676 177.25325 181.01933
174.99855 177.42148 181.01933
175.42693 177.63893 181.01933
175.97705 177.9185 181.01933
176.0013 177.93088 181.01933
177.03958 178.4598 181.01933
177.24997 178.5672 181.01933
177.8388 178.86801 181.01933
179.16475 180.13133 182.30774
182.39417 183.51561 186.11948
184.94345 186.52066 189.85469
194.87947 199.70215 207.52473
203.12505 210.97273 222.75572
211.21718 221.75304 237.00995
218.22025 231.19383 249.51793
220.79063 234.69455 254.16486
221.27968 235.37526 255.08408
221.79097 236.07022 255.744
221.79485 236.07237 255.744
221.77968 236.06383 255.744
221.78185 236.06503 255.744
221.7821 236.06522 255.744
221.79291 236.07127 255.744
221.785 236.06683 255.744
221.78603 236.06744 255.744
221.78166 236.06494 255.744
221.80101 236.07587 255.744
221.77524 236.06133 255.744
221.77269 236.05989 255.744
221.7914 236.07043 255.744
221.78043 236.06425 255.744
221.7827 236.06555 255.744
221.78094 236.06456 255.744
221.78062 236.06438 255.744
221.77759 236.06265 255.744
221.78763 236.06831 255.744
221.78055 236.06433 255.744
221.7886 236.06886 255.744
221.7929 236.07129 255.744
221.78203 236.06516 255.744
221.7866 236.06772 255.744
221.79327 236.07155 255.744
221.79318 236.07147 255.744
221.79204 236.0708 255.744
221.78864 236.0689 255.744
221.79121 236.07031 255.744
221.79254 236.07109 255.744
221.7875 236.06824 255.744
221.78615 236.0675 255.744
221.79976 236.07516 255.744
221.77867 236.06326 255.744
221.79344 236.07156 255.744
221.78883 236.06902 255.744
221.79228 236.07095 255.744
221.77986 236.06393 255.744
221.77275 236.05994 255.744
221.79144 236.07045 255.744
221.79494 236.07242 255.744
221.7698 236.05829 255.744
221.8045 236.07782 255.744
221.77994 236.064 255.744
221.77336 236.06027 255.744
221.77681 236.06223 255.744
221.76106 236.05334 255.744
221.79826 236.07431 255.744
221.7838 236.06615 255.744
221.77791 236.06284 255.744
221.77704 236.06236 255.744
221.7782 236.06297 255.744
221.79079 236.0701 255.744
221.76828 236.05742 255.744
221.78654 236.06773 255.744
221.781 236.06459 255.744
221.79482 236.07237 255.744
221.78554 236.06714 255.744
221.76974 236.05823 255.744
221.77129 236.0591 255.744
221.78233 236.06537 255.744
221.78944 236.06934 255.744
221.77661 236.06212 255.744
221.7821 236.0652 255.744
221.78087 236.0645 255.744
221.77325 236.06021 255.744
221.78314 236.06578 255.744
221.7924 236.07101 255.744
221.77835 236.06308 255.744
221.7765 236.06204 255.744
221.78441 236.0665 255.744
221.76721 236.05681 255.744
221.78004 236.06404 255.744
221.80865 236.0802 255.744
221.78181 236.06506 255.744
221.77652 236.06201 255.744
221.7926 236.07114 255.744
221.78853 236.06882 255.744
221.781 236.0646 255.744
221.78636 236.06764 255.744
221.7729 236.06003 255.744
221.76018 236.05284 255.744
221.77496 236.0612 255.744
221.7823 236.06532 255.744
221.79518 236.07257 255.744
221.79022 236.06978 255.744
221.778 236.06288 255.744
221.79424 236.07202 255.744
221.78839 236.06876 255.744
221.7959 236.07298 255.744
221.78102 236.0646 255.744
221.782 236.06517 255.744
221.7857 236.06723 255.744
221.76126 236.05345 255.744
221.78719 236.06808 255.744
221.78242 236.06538 255.744
221.7733 236.06026 255.744
221.77823 236.063 255.744
221.77597 236.06177 255.744
221.78256 236.06548 255.744
221.78363 236.06606 255.744
221.7693 236.05797 255.744
221.79712 236.07365 255.744
221.79245 236.07104 255.744
221.77151 236.05922 255.744
221.80049 236.07558 255.744
221.79408 236.07198 255.744
221.77473 236.06105 255.744
221.79118 236.07036 255.744
221.76761 236.05702 255.744
221.771 236.05893 255.744
221.78242 236.06538 255.744
221.78044 236.06425 255.744
221.80865 236.08018 255.744
221.77559 236.06151 255.744
221.78786 236.06844 255.744
221.78523 236.06696 255.744
221.76888 236.05775 255.744
221.77124 236.05908 255.744
221.78702 236.06798 255.744
221.7746 236.06096 255.744
221.77725 236.06247 255.744
221.79019 236.06972 255.744
221.7874 236.06816 255.744
221.77493 236.06119 255.744
221.77812 236.06296 255.744
221.76067 236.0531 255.744
221.78542 236.06706 255.744
221.79076 236.07007 255.744
221.79396 236.07187 255.744
221.77974 236.06386 255.744
221.78033 236.0642 255.744
221.78273 236.06557 255.744
221.79323 236.07146 255.744
221.78459 236.0666 255.744
221.78044 236.06425 255.744
221.77159 236.05928 255.744
221.7516 236.04799 255.744
221.77562 236.06157 255.744
221.79279 236.07124 255.744
221.78615 236.0675 255.744
221.78787 236.06845 255.744
221.79747 236.07388 255.744
221.78288 236.06566 255.744
221.79164 236.07057 255.744
221.788 236.06854 255.744
221.77711 236.06238 255.744
221.78354 236.06604 255.744
221.77547 236.06146 255.744
221.78741 236.0682 255.744
221.79361 236.07169 255.744
221.76758 236.057 255.744
221.79402 236.07191 255.744
221.77179 236.05936 255.744
221.78734 236.06816 255.744
221.77173 236.05934 255.744
221.80057 236.07559 255.744
221.78294 236.06567 255.744
221.78673 236.06781 255.744
221.78247 236.06541 255.744
221.7564 236.05074 255.744
221.77652 236.06207 255.744
221.83615 236.09566 255.744
221.81195 236.08205 255.744
221.80957 236.08069 255.744
221.80695 236.0792 255.744
221.82959 236.09196 255.744
221.80347 236.07726 255.744
221.81206 236.08209 255.744
221.8138 236.08305 255.744
221.82292 236.08823 255.744
221.78928 236.06924 255.744
221.80763 236.0796 255.744
221.82684 236.09042 255.744
221.80064 236.07565 255.744
221.80806 236.0798 255.744
221.82846 236.09134 255.744
221.80283 236.07687 255.744
221.82324 236.08842 255.744
221.814 236.08315 255.744
221.81024 236.08107 255.744
221.8161 236.08438 255.744
221.82683 236.09044 255.744
221.80272 236.07683 255.744
221.81805 236.0855 255.744
221.82477 236.08925 255.744
221.81145 236.08177 255.744
221.79858 236.07451 255.744
221.82695 236.09048 255.744
221.80916 236.08044 255.744
221.82039 236.08682 255.744
221.79716 236.07368 255.744
221.80826 236.07993 255.744
221.82036 236.08678 255.744
221.81914 236.08607 255.744
221.81241 236.0823 255.744
221.82309 236.08832 255.744
221.8192 236.08609 255.744
221.83163 236.09315 255.744
221.82858 236.09137 255.744
221.83017 236.0923 255.744
221.80345 236.07726 255.744
221.82681 236.09041 255.744
221.8183 236.0856 255.744
221.81792 236.08539 255.744
221.8224 236.0879 255.744
221.79678 236.07349 255.744
221.83276 236.09377 255.744
221.81407 236.08324 255.744
221.80779 236.0797 255.744
221.80846 236.08008 255.744
221.81068 236.08133 255.744
221.82423 236.08896 255.744
221.82396 236.0888 255.744
221.81247 236.08232 255.744
221.80263 236.07678 255.744
221.8318 236.09322 255.744
221.8247 236.08925 255.744
221.81693 236.08484 255.744
221.7839 236.06624 255.744
221.80743 236.07948 255.744
221.82094 236.08708 255.744
221.83391 236.09442 255.744
221.81259 236.08237 255.744
221.8175 236.08517 255.744
221.8125 236.08237 255.744
221.80278 236.07686 255.744
221.80602 236.07866 255.744
221.79034 236.06985 255.744
221.83054 236.09253 255.744
221.8083 236.07999 255.744
221.82228 236.08788 255.744
221.82762 236.09085 255.744
221.81845 236.0857 255.744
221.80681 236.07913 255.744
221.80989 236.08086 255.744
221.81583 236.0842 255.744
221.80762 236.07957 255.744
221.80818 236.0799 255.744
221.83253 236.09364 255.744
221.8261 236.09 255.744
221.7925 236.07106 255.744
221.82454 236.08914 255.744
221.82326 236.08841 255.744
221.82408 236.08888 255.744
221.83708 236.09619 255.744
221.81052 236.08124 255.744
221.80875 236.08028 255.744
221.82234 236.08788 255.744
221.81674 236.08472 255.744
221.82132 236.08731 255.744
221.82394 236.08882 255.744
221.80846 236.08008 255.744
221.82083 236.08705 255.744
221.82335 236.08849 255.744
221.82304 236.08829 255.744
221.79216 236.07086 255.744
221.80928 236.08055 255.744
221.81068 236.08133 255.744
221.80156 236.07617 255.744
221.81535 236.08394 255.744
221.82236 236.08789 255.744
221.8234 236.08849 255.744
221.82643 236.09021 255.744
221.82707 236.09055 255.744
221.81859 236.08578 255.744
221.81258 236.08238 255.744
221.8189 236.08594 255.744
221.81528 236.08391 255.744
221.81151 236.08179 255.744
221.8198 236.08646 255.744
221.82526 236.08954 255.744
221.79025 236.0698 255.744
221.84048 236.09811 255.744
221.81677 236.08473 255.744
221.80899 236.08038 255.744
221.83089 236.09271 255.744
221.82445 236.08908 255.744
221.80797 236.0798 255.744
221.8155 236.08403 255.744
221.82669 236.09036 255.744
221.82692 236.09047 255.744
221.81041 236.08116 255.744
221.83289 236.09383 255.744
221.8205 236.08684 255.744
221.81306 236.08266 255.744
221.81721 236.085 255.744
221.79988 236.07521 255.744
221.80458 236.07788 255.744
221.80154 236.07616 255.744
221.82074 236.08699 255.744
221.815 236.08377 255.744
221.81703 236.08488 255.744
221.81879 236.0859 255.744
221.81653 236.08463 255.744
221.81534 236.08395 255.744
221.82733 236.09071 255.744
221.81699 236.08487 255.744
221.82643 236.09021 255.744
221.80888 236.08029 255.744
221.8015 236.07611 255.744
221.82225 236.08784 255.744
221.808 236.0798 255.744
221.83682 236.09604 255.744
221.81544 236.08401 255.744
221.83572 236.09543 255.744
221.82657 236.09026 255.744
221.82262 236.08804 255.744
221.81389 236.08311 255.744
221.80331 236.07715 255.744
221.81985 236.08649 255.744
221.82442 236.0891 255.744
221.80048 236.07558 255.744
221.82835 236.09126 255.744
221.82129 236.08731 255.744
221.82277 236.08813 255.744
221.81874 236.08586 255.744
221.81035 236.08113 255.744
221.8258 236.08987 255.744
221.81078 236.08139 255.744
221.81435 236.0834 255.744
221.81023 236.08105 255.744
221.8373 236.09631 255.744
221.83464 236.09482 255.744
221.80693 236.0792 255.744
221.82236 236.08792 255.744
221.82143 236.08736 255.744
221.8209 236.08708 255.744
221.82558 236.0897 255.744
221.81961 236.08636 255.744
221.81566 236.08412 255.744
221.81705 236.0849 255.744
221.82344 236.08853 255.744
221.80869 236.08017 255.744
221.81126 236.08165 255.744
221.8216 236.08748 255.744
221.82178 236.08762 255.744
221.82054 236.08687 255.744
221.79549 236.07274 255.744
221.81819 236.08556 255.744
221.81467 236.08357 255.744
221.80838 236.08003 255.744
221.78447 236.06656 255.744
221.81674 236.08473 255.744
221.8254 236.08963 255.744
221.80727 236.07939 255.744
221.82542 236.08963 255.744
221.82489 236.08932 255.744
221.83125 236.09293 255.744
221.81868 236.08582 255.744
221.81813 236.0855 255.744
221.81374 236.08302 255.744
221.81937 236.08621 255.744
221.81416 236.08328 255.744
221.81346 236.08289 255.744
221.808 236.0798 255.744
221.82492 236.08937 255.744
221.81435 236.08337 255.744
221.82109 236.08716 255.744
221.82516 236.08948 255.744
221.8255 236.08966 255.744
221.80814 236.07988 255.744
221.81418 236.08328 255.744
221.83261 236.09366 255.744
221.806 236.07864 255.744
221.8115 236.08176 255.744
221.81265 236.08243 255.744
221.81801 236.08542 255.744
221.81905 236.08603 255.744
221.83456 236.0948 255.744
221.80872 236.0802 255.744
221.81366 236.08301 255.744
221.80505 236.07814 255.744
221.81847 236.0857 255.744
221.8145 236.08347 255.744
221.81473 236.0836 255.744
221.80464 236.0779 255.744
221.82597 236.08994 255.744
221.83092 236.09273 255.744
221.82658 236.09027 255.744
221.84352 236.09984 255.744
221.81577 236.08415 255.744
221.80962 236.08072 255.744
221.83443 236.09471 255.744
221.8226 236.08801 255.744
221.80911 236.08041 255.744
221.81703 236.08487 255.744
221.8213 236.08731 255.744
221.80794 236.07976 255.744
221.80415 236.07762 255.744
221.81487 236.08365 255.744
221.83638 236.0958 255.744
221.82097 236.08714 255.744
221.81757 236.08522 255.744
221.8232 236.08835 255.744
221.81822 236.08556 255.744
221.81084 236.08139 255.744
221.82187 236.08762 255.744
221.79692 236.07358 255.744
221.81618 236.08443 255.744
221.8204 236.08679 255.744
221.81795 236.0854 255.744
221.81464 236.08354 255.744
221.82393 236.08878 255.744
221.81554 236.08403 255.744
221.82635 236.09013 255.744
221.81268 236.08243 255.744
221.80109 236.07591 255.744
221.81226 236.08218 255.744
221.81235 236.08226 255.744
221.83154 236.09308 255.744
221.81975 236.08644 255.744
221.82777 236.09093 255.744
221.83548 236.09528 255.744
221.83073 236.0926 255.744
221.82689 236.09045 255.744
221.82312 236.08832 255.744
221.83185 236.09323 255.744
221.80629 236.07884 255.744
221.80647 236.07892 255.744
221.8136 236.08298 255.744
221.81697 236.08485 255.744
221.79651 236.07333 255.744
221.80968 236.08076 255.744
221.81412 236.08325 255.744
221.8203 236.08675 255.744
221.81252 236.08234 255.744
221.82689 236.09047 255.744
221.78754 236.06825 255.744
221.82309 236.08827 255.744
221.8445 236.1004 255.744
221.80048 236.07556 255.744
220.21718 234.387 254.16486
219.5005 233.9833 254.16486
218.13852 232.81604 253.2423
211.12675 224.96686 244.5915
204.47636 219.39459 240.14929
204.26459 219.67645 241.02486
184.75928 199.92065 221.0708
181.97745 197.45923 218.99385
181.878 198.4206 220.6337
166.88387 184.11043 206.90805
167.95148 184.36261 207.13129
170.96332 189.45084 214.29422
166.98738 183.89825 206.72302
166.08041 184.58061 209.19716
161.21391 179.58315 204.32117
168.0849 185.94818 210.48967
160.59258 177.48572 201.1096
153.12172 170.8267 194.73433
160.08719 179.02759 204.28506
149.78853 167.49605 191.01007
149.47684 166.25046 189.13835
153.47433 171.10542 194.41083
156.27411 174.98782 199.57921
152.40848 171.8308 196.98227
151.00522 168.6092 192.29964
151.35951 170.69711 195.91675
155.08705 174.37793 198.86261
153.64673 172.55782 196.566
153.64897 171.4942 194.76567
151.39207 169.30574 193.45854
152.00998 171.25479 196.51717
150.62299 168.54561 192.73611
145.83214 164.54445 188.78778
153.32597 170.97983 194.41383
145.57205 163.32323 186.02278
152.75824 171.33339 195.81755
144.37376 161.9424 183.67653
155.96548 174.47067 199.23878
157.27946 176.78058 202.37425
147.50124 167.3398 190.26822
155.06232 172.76985 196.70755
160.1844 178.62354 203.49298
159.69249 176.92577 200.28163
157.74442 177.19771 199.30342
155.82312 172.41698 194.64546
157.8079 175.83788 198.31696
159.57579 177.37474 200.61679
176.34824 194.6188 218.21022
173.82127 190.73022 212.45157
180.265 197.31876 219.68755
175.51273 192.06378 214.74646
185.27992 202.08391 224.52449
194.72656 211.01872 233.2141
202.06097 217.0001 237.69139
210.28595 225.64337 246.39351
209.41551 223.78432 243.88586
219.12663 233.77296 254.16486
221.5843 235.95375 255.744
221.82008 236.0866 255.744
221.82397 236.08879 255.744
221.81232 236.08223 255.744
221.80334 236.07721 255.744
221.81296 236.08258 255.744
221.80127 236.076 255.744
221.82356 236.08861 255.744
221.81773 236.0853 255.744
221.8289 236.09158 255.744
221.81659 236.08466 255.744
221.80609 236.07872 255.744
221.81123 236.08163 255.744
221.82292 236.08821 255.744
221.83376 236.09431 255.744
221.82368 236.08865 255.744
221.83675 236.096 255.744
221.8132 236.08273 255.744
221.8285 236.09138 255.744
221.81706 236.08492 255.744
221.81348 236.0829 255.744
221.82841 236.0913 255.744
221.81831 236.08565 255.744
221.8288 236.09152 255.744
221.81686 236.0848 255.744
221.81679 236.08478 255.744
221.82309 236.0883 255.744
221.82802 236.0911 255.744
221.8047 236.07794 255.744
221.79675 236.07346 255.744
221.80252 236.07672 255.744
221.81746 236.08516 255.744
221.811 236.08151 255.744
221.83923 236.09746 255.744
221.80786 236.0797 255.744
221.81094 236.08145 255.744
221.82979 236.0921 255.744
221.82956 236.09193 255.744
221.80455 236.07787 255.744
221.82074 236.08699 255.744
221.81955 236.0863 255.744
221.83029 236.09236 255.744
221.82928 236.09181 255.744
221.83334 236.09404 255.744
221.80989 236.08087 255.744
221.81572 236.08414 255.744
221.8129 236.08257 255.744
221.82855 236.09138 255.744
221.82664 236.09032 255.744
221.29721 235.38702 255.08408
215.69196 227.67926 244.78282
207.56639 216.60667 229.99329
196.11067 201.36746 209.76831
189.58853 192.75641 198.29675
180.69469 180.91559 182.30774
179.5119 180.30911 182.30774
178.13348 179.01877 181.01933
177.10564 178.4935 181.01933
176.5011 178.18529 181.01933
175.85655 177.85724 181.01933
175.17517 177.51111 181.01933
174.99146 177.41786 181.01933
174.35243 177.09404 181.01933
173.77286 176.80081 181.01933
173.34874 176.58655 181.01933
173.25903 176.54129 181.01933
172.72983 176.27441 181.01933
172.43185 176.1243 181.01933
172.06532 175.93985 181.01933
171.97273 175.89326 181.01933
171.60425 175.70811 181.01933
171.55045 175.68109 181.01933
171.21074 175.51056 181.01933
171.1409 175.47552 181.01933
170.98758 175.39865 181.01933
170.84607 175.3277 181.01933
170.85306 175.33122 181.01933
170.78038 175.29482 181.01933
170.60248 175.2057 181.01933
170.60521 175.20705 181.01933
170.56973 175.18929 181.01933
170.4882 175.14848 181.01933
170.37846 175.09355 181.01933
170.56305 175.18594 181.01933
170.63707 175.223 181.01933
170.66214 175.23557 181.01933
170.75807 175.2836 181.01933
170.78523 175.29723 181.01933
171.12279 175.46645 181.01933
171.16927 175.48978 181.01933
171.33783 175.57436 181.01933
171.57298 175.6924 181.01933
171.74973 175.7812 181.01933
172.00304 175.90852 181.01933
172.20142 176.00832 181.01933
172.4538 176.13535 181.01933
172.62173 176.2199 181.01933
173.17885 176.50085 181.01933
173.49652 176.6612 181.01933
173.92653 176.87852 181.01933
174.16548 176.99939 181.01933
174.9885 177.41637 181.01933
175.20493 177.52621 181.01933
175.86613 177.8621 181.01933
176.48357 178.17636 181.01933
177.62042 178.75636 181.01933
178.12125 179.01253 181.01933
180.06483 181.1733 183.58711
181.96985 182.72514 184.85764
188.9374 191.88086 197.11287
199.58871 206.67168 217.4386
205.66959 214.20819 226.91974
218.2664 231.21973 249.51793
220.81662 234.70929 254.16486
221.33313 235.40585 255.08408
221.82054 236.0869 255.744
221.82597 236.08994 255.744
221.82816 236.09117 255.744
221.83772 236.0966 255.744
221.82089 236.08707 255.744
221.82382 236.08871 255.744
221.83176 236.09322 255.744
221.81136 236.08168 255.744
221.81276 236.08247 255.744
221.8178 236.08531 255.744
221.80716 236.07932 255.744
221.82092 236.08708 255.744
221.8133 236.0828 255.744
221.80418 236.07765 255.744
221.82436 236.08902 255.744
221.80356 236.07732 255.744
221.80731 236.0794 255.744
221.80328 236.07715 255.744
221.8221 236.08775 255.744
221.81577 236.08417 255.744
221.82326 236.08841 255.744
221.83316 236.09402 255.744
221.79962 236.07507 255.744
221.81139 236.08174 255.744
221.80698 236.07922 255.744
221.80891 236.0803 255.744
221.80911 236.08041 255.744
221.82043 236.08682 255.744
221.81857 236.08575 255.744
221.80617 236.07878 255.744
221.8106 236.08125 255.744
221.81514 236.08382 255.744
221.81113 236.08159 255.744
221.81235 236.08223 255.744
221.80354 236.07726 255.744
221.81602 236.08435 255.744
221.83023 236.09233 255.744
221.79402 236.0719 255.744
221.82854 236.09138 255.744
221.806 236.07869 255.744
221.80875 236.08022 255.744
221.80675 236.0791 255.744
221.80983 236.08081 255.744
221.82085 236.08707 255.744
221.80107 236.0759 255.744
221.80984 236.08084 255.744
221.81372 236.08304 255.744
221.81522 236.08388 255.744
221.83304 236.09392 255.744
221.81169 236.08188 255.744
221.80989 236.08089 255.744
221.80006 236.07532 255.744
221.79991 236.07527 255.744
221.8298 236.09207 255.744
221.8134 236.08286 255.744
221.82686 236.09045 255.744
221.82365 236.08862 255.744
221.81209 236.08212 255.744
221.82832 236.09123 255.744
221.82536 236.08957 255.744
221.81996 236.08655 255.744
221.80717 236.07935 255.744
221.83263 236.09366 255.744
221.83392 236.0944 255.744
221.82509 236.08946 255.744
221.81859 236.08575 255.744
221.8027 236.07684 255.744
221.83824 236.09685 255.744
221.80893 236.08029 255.744
221.81528 236.08392 255.744
221.80945 236.0806 255.744
221.81638 236.08453 255.744
221.82523 236.08951 255.744
221.83624 236.09573 255.744
221.81555 236.08403 255.744
221.81856 236.08575 255.744
221.82373 236.08864 255.744
221.81491 236.08371 255.744
221.8424 236.09918 255.744
221.81676 236.08473 255.744
221.8199 236.08653 255.744
221.81493 236.0837 255.744
221.8244 236.08905 255.744
221.8239 236.08878 255.744
221.81395 236.08316 255.744
221.82693 236.09052 255.744
221.8193 236.0862 255.744
221.821 236.08713 255.744
221.82175 236.08757 255.744
221.80727 236.07938 255.744
221.81744 236.08513 255.744
221.81299 236.08263 255.744
221.82608 236.08998 255.744
221.8074 236.07948 255.744
221.80434 236.07774 255.744
221.815 236.08372 255.744
221.83577 236.09546 255.744
221.8163 236.08452 255.744
221.80623 236.07881 255.744
221.82175 236.08755 255.744
221.8262 236.09007 255.744
221.82054 236.08685 255.744
221.80585 236.0786 255.744
221.80028 236.07545 255.744
221.81647 236.08458 255.744
221.82782 236.09096 255.744
221.81532 236.08391 255.744
221.81184 236.08195 255.744
221.82446 236.0891 255.744
221.81184 236.08202 255.744
221.82642 236.0902 255.744
221.81099 236.08148 255.744
221.823 236.08824 255.744
221.81158 236.08185 255.744
221.81158 236.08182 255.744
221.81833 236.08563 255.744
221.81625 236.08444 255.744
221.83278 236.0938 255.744
221.82413 236.08887 255.744
221.84839 236.10255 255.744
221.81297 236.08261 255.744
221.81767 236.08527 255.744
221.82954 236.09192 255.744
221.78421 236.06639 255.744
221.8072 236.07935 255.744
221.82846 236.09131 255.744
221.82074 236.08699 255.744
221.81537 236.08395 255.744
221.8064 236.07892 255.744
221.82253 236.088 255.744
221.81699 236.08484 255.744
221.82349 236.08853 255.744
221.81578 236.0842 255.744
221.82024 236.08665 255.744
221.81493 236.08371 255.744
221.8294 236.09187 255.744
221.82384 236.08875 255.744
221.81528 236.08391 255.744
221.81407 236.08324 255.744
221.79225 236.0709 255.744
221.7967 236.07343 255.744
221.7802 236.06413 255.744
221.7942 236.07204 255.744
221.81297 236.08261 255.744
221.81377 236.08307 255.744
221.83258 236.09369 255.744
221.81639 236.08456 255.744
221.79865 236.07454 255.744
221.8196 236.0863 255.744
221.81161 236.08185 255.744
221.8002 236.07541 255.744
221.78761 236.06828 255.744
221.81625 236.08443 255.744
221.82523 236.0895 255.744
221.80853 236.08008 255.744
221.83112 236.09285 255.744
221.80988 236.08084 255.744
221.78928 236.06923 255.744
221.83408 236.09451 255.744
221.86151 236.10995 255.744
221.85953 236.10884 255.744
221.83424 236.0946 255.744
221.82831 236.09125 255.744
221.84587 236.10115 255.744
221.83984 236.09775 255.744
221.84483 236.10057 255.744
221.85626 236.10701 255.744
221.84412 236.10016 255.744
221.84029 236.09798 255.744
221.83603 236.09563 255.744
221.83812 236.09679 255.744
221.81145 236.08176 255.744
221.85161 236.10437 255.744
221.84447 236.10034 255.744
221.85146 236.10431 255.744
221.85042 236.1037 255.744
221.85822 236.10811 255.744
221.8459 236.10115 255.744
221.84688 236.10173 255.744
221.85883 236.10846 255.744
221.85368 236.10556 255.744
221.83992 236.09781 255.744
221.84889 236.10283 255.744
221.84076 236.09827 255.744
221.84178 236.09883 255.744
221.8505 236.10376 255.744
221.8465 236.10149 255.744
221.83943 236.09753 255.744
221.86159 236.11 255.744
221.85323 236.10533 255.744
221.84697 236.10176 255.744
221.83527 236.0952 255.744
221.85222 236.10475 255.744
221.84137 236.0986 255.744
221.83476 236.09488 255.744
221.85873 236.10843 255.744
221.84254 236.09926 255.744
221.85474 236.10616 255.744
221.8368 236.09604 255.744
221.82521 236.0895 255.744
221.83844 236.09697 255.744
221.8415 236.09865 255.744
221.82593 236.0899 255.744
221.83452 236.09474 255.744
221.83836 236.09694 255.744
221.8324 236.09357 255.744
221.85898 236.10854 255.744
221.83376 236.09431 255.744
221.84193 236.09892 255.744
221.86176 236.11012 255.744
221.85942 236.10878 255.744
221.8475 236.10207 255.744
221.85294 236.10516 255.744
221.85358 236.10547 255.744
221.84897 236.10289 255.744
221.83905 236.09732 255.744
221.84726 236.10194 255.744
221.84824 236.1025 255.744
221.86943 236.11444 255.744
221.85492 236.10626 255.744
221.83067 236.09256 255.744
221.85423 236.10585 255.744
221.836 236.09558 255.744
221.85878 236.10844 255.744
221.84666 236.10158 255.744
221.84128 236.09856 255.744
221.84578 236.10109 255.744
221.84846 236.10265 255.744
221.85951 236.10881 255.744
221.83247 236.09361 255.744
221.8473 236.10194 255.744
221.85423 236.10588 255.744
221.82922 236.09178 255.744
221.86353 236.1111 255.744
221.8511 236.1041 255.744
221.85202 236.10463 255.744
221.84047 236.09811 255.744
221.8623 236.11044 255.744
221.85399 236.10571 255.744
221.84483 236.10059 255.744
221.84227 236.09912 255.744
221.85327 236.10532 255.744
221.85204 236.10463 255.744
221.81955 236.0863 255.744
221.85225 236.10478 255.744
221.85588 236.1068 255.744
221.85994 236.10907 255.744
221.86421 236.11148 255.744
221.85652 236.10716 255.744
221.84528 236.10081 255.744
221.84682 236.10167 255.744
221.84875 236.10281 255.744
221.83592 236.09555 255.744
221.85475 236.10619 255.744
221.83864 236.09706 255.744
221.8513 236.1042 255.744
221.85104 236.10405 255.744
221.82834 236.09126 255.744
221.83978 236.0977 255.744
221.83986 236.09776 255.744
221.85454 236.10605 255.744
221.85687 236.10735 255.744
221.84088 236.09834 255.744
221.86667 236.11287 255.744
221.84093 236.09837 255.744
221.84363 236.09991 255.744
221.85803 236.10805 255.744
221.86015 236.10916 255.744
221.85338 236.10541 255.744
221.84328 236.0997 255.744
221.85239 236.10483 255.744
221.84201 236.09898 255.744
221.85898 236.10855 255.744
221.85426 236.1059 255.744
221.83904 236.09727 255.744
221.84251 236.09929 255.744
221.8427 236.09935 255.744
221.85689 236.10735 255.744
221.84555 236.101 255.744
221.84344 236.0998 255.744
221.85628 236.10701 255.744
221.84706 236.1018 255.744
221.8234 236.08849 255.744
221.84332 236.09972 255.744
221.84618 236.10133 255.744
221.84735 236.10197 255.744
221.8546 236.1061 255.744
221.85085 236.10399 255.744
221.85854 236.1083 255.744
221.84985 236.10336 255.744
221.84792 236.10233 255.744
221.83699 236.09613 255.744
221.84644 236.10147 255.744
221.83984 236.09775 255.744
221.84792 236.1023 255.744
221.8546 236.10608 255.744
221.84048 236.09811 255.744
221.84734 236.10196 255.744
221.85425 236.10588 255.744
221.85092 236.10397 255.744
221.85101 236.10403 255.744
221.86285 236.11072 255.744
221.85193 236.10455 255.744
221.85562 236.10669 255.744
221.84389 236.10004 255.744
221.83774 236.09657 255.744
221.85895 236.1085 255.744
221.8584 236.10818 255.744
221.86348 236.1111 255.744
221.84961 236.10327 255.744
221.84213 236.09908 255.744
221.84787 236.1023 255.744
221.84352 236.09984 255.744
221.88103 236.12096 255.744
221.86633 236.1127 255.744
221.85857 236.10829 255.744
221.84872 236.10281 255.744
221.87013 236.11482 255.744
221.85696 236.10739 255.744
221.85684 236.10732 255.744
221.83995 236.0978 255.744
221.84532 236.10085 255.744
221.84723 236.1019 255.744
221.85254 236.10489 255.744
221.85431 236.10591 255.744
221.86908 236.11423 255.744
221.84926 236.10306 255.744
221.85098 236.10403 255.744
221.85876 236.10844 255.744
221.85454 236.10605 255.744
221.85713 236.1075 255.744
221.86542 236.11217 255.744
221.84485 236.1006 255.744
221.85136 236.10426 255.744
221.86122 236.10983 255.744
221.85005 236.10352 255.744
221.8679 236.11359 255.744
221.85168 236.10443 255.744
221.87326 236.11658 255.744
221.85027 236.10362 255.744
221.8478 236.10226 255.744
221.88022 236.12053 255.744
221.84119 236.09851 255.744
221.8516 236.10439 255.744
221.84547 236.10092 255.744
221.84145 236.09863 255.744
221.863 236.11081 255.744
221.85274 236.10503 255.744
221.85641 236.1071 255.744
221.82803 236.0911 255.744
221.869 236.11423 255.744
221.84212 236.09903 255.744
221.8502 236.10359 255.744
221.8513 236.10423 255.744
221.85278 236.10506 255.744
221.83939 236.09747 255.744
221.85632 236.10704 255.744
221.8461 236.10127 255.744
221.85269 236.105 255.744
221.83345 236.09413 255.744
221.84018 236.09795 255.744
221.85226 236.10472 255.744
221.85216 236.1047 255.744
221.85988 236.10905 255.744
221.85788 236.10793 255.744
221.8454 236.10088 255.744
221.8534 236.10541 255.744
221.83972 236.0977 255.744
221.8636 236.11111 255.744
221.82808 236.09113 255.744
221.86707 236.1131 255.744
221.84264 236.09932 255.744
221.86452 236.11168 255.744
221.84554 236.10095 255.744
221.84721 236.1019 255.744
221.85275 236.105 255.744
221.85277 236.10503 255.744
221.8373 236.09634 255.744
221.86107 236.10971 255.744
221.85527 236.10646 255.744
221.8579 236.10796 255.744
221.83 236.09224 255.744
221.85686 236.10735 255.744
221.85034 236.10367 255.744
221.84367 236.0999 255.744
221.86145 236.10994 255.744
221.84882 236.10278 255.744
221.86644 236.11275 255.744
221.8384 236.09695 255.744
221.86086 236.10959 255.744
221.8516 236.10435 255.744
221.83376 236.09431 255.744
221.8373 236.09636 255.744
221.84 236.09785 255.744
221.8543 236.1059 255.744
221.85796 236.10797 255.744
221.84807 236.10239 255.744
221.86122 236.10979 255.744
221.8433 236.0997 255.744
221.84738 236.10199 255.744
221.85826 236.10814 255.744
221.85603 236.10686 255.744
221.86244 236.1105 255.744
221.84163 236.09875 255.744
221.85359 236.10551 255.744
221.85196 236.1046 255.744
221.85616 236.10693 255.744
221.84648 236.10152 255.744
221.83965 236.09764 255.744
221.84169 236.09882 255.744
221.8644 236.1116 255.744
221.87329 236.11664 255.744
221.8553 236.10649 255.744
221.83601 236.09561 255.744
221.83621 236.0957 255.744
221.83887 236.0972 255.744
221.84834 236.10257 255.744
221.8377 236.09657 255.744
221.83028 236.09238 255.744
221.84415 236.1002 255.744
221.84029 236.098 255.744
221.86119 236.1098 255.744
221.85484 236.10622 255.744
221.83665 236.09595 255.744
221.85988 236.10905 255.744
221.8419 236.09892 255.744
218.46751 232.63884 252.50182
221.49011 235.90067 255.744
215.93639 230.38524 250.54765
209.4357 224.66124 245.73714
198.47809 214.28212 236.2186
198.92741 214.5466 236.03029
186.73813 202.7357 225.35942
175.53064 192.23624 215.38368
167.94733 185.35027 209.09776
171.55557 189.28777 213.47346
165.77266 182.42036 205.3525
160.50925 179.35329 203.87224
153.97697 171.40976 194.0804
154.5003 172.32874 196.45871
148.6903 162.5562 183.28406
158.73373 175.3064 198.76831
155.31221 173.39827 197.45697
162.22417 181.90234 206.91945
150.98181 169.20723 193.38478
153.47809 171.33089 195.65825
145.56845 162.89162 185.57294
154.57571 173.66933 197.33348
155.00983 173.98788 199.35039
150.74394 169.64919 194.10359
147.46007 165.322 189.34485
149.60417 167.49362 191.44456
148.39491 166.24837 190.59908
147.653 164.03203 186.9977
145.14888 163.4747 187.42282
150.7361 167.87796 191.7133
144.23157 161.80972 185.61577
146.5575 163.7762 186.68332
143.41908 160.87012 184.27917
144.80501 164.01746 188.29582
143.51532 162.39027 184.76794
144.58382 162.90785 185.64116
140.79056 158.19368 180.22124
146.78061 165.63179 187.8768
151.05374 169.0855 193.45732
152.64691 171.64429 195.28783
158.73424 179.5848 205.32181
148.35307 167.39044 190.71574
146.63004 165.2852 187.99513
145.50679 165.52678 188.59212
150.11061 168.68567 191.07088
157.38878 176.04628 199.6309
154.09108 171.39354 195.27542
163.24565 181.926 206.20102
156.2902 175.34578 196.70625
158.99065 175.93503 198.63295
153.14748 170.99295 192.71053
158.83505 174.99773 197.58138
158.87291 173.99753 195.26976
166.43083 184.76093 207.55725
170.37654 186.3592 207.89668
182.97005 199.69661 221.72783
182.25807 198.7629 221.11583
188.76364 205.89992 228.1337
195.48593 210.11737 230.85689
206.10834 220.09546 239.85185
208.85663 223.36081 243.39627
216.87344 231.30176 251.43356
219.88954 234.2024 254.16486
221.82274 236.0881 255.744
221.83435 236.09465 255.744
221.84482 236.10057 255.744
221.8495 236.10323 255.744
221.82397 236.08884 255.744
221.84483 236.10056 255.744
221.85304 236.10518 255.744
221.86028 236.1093 255.744
221.85712 236.1075 255.744
221.84126 236.09854 255.744
221.84212 236.09901 255.744
221.864 236.11139 255.744
221.84206 236.09903 255.744
221.85695 236.1074 255.744
221.83472 236.09488 255.744
221.85861 236.10834 255.744
221.85268 236.105 255.744
221.84785 236.10226 255.744
221.84554 236.10097 255.744
221.84601 236.10126 255.744
221.85867 236.10835 255.744
221.85452 236.10603 255.744
221.84503 236.10066 255.744
221.86023 236.10925 255.744
221.8687 236.11403 255.744
221.84361 236.09987 255.744
221.84882 236.1028 255.744
221.847 236.1018 255.744
221.87549 236.11784 255.744
221.85887 236.10847 255.744
221.84474 236.10051 255.744
221.84981 236.10335 255.744
221.85078 236.10393 255.744
221.84146 236.09866 255.744
221.83595 236.09555 255.744
221.84587 236.10115 255.744
221.85133 236.10422 255.744
221.84029 236.09804 255.744
221.84271 236.0994 255.744
221.8465 236.1015 255.744
221.86115 236.10976 255.744
221.84514 236.10075 255.744
216.6765 229.50537 247.63475
211.8314 222.53036 237.99544
204.6627 212.72868 224.84738
191.50269 195.34747 201.80669
182.998 184.3958 187.37282
178.48781 179.20016 181.01933
178.05815 178.98021 181.01933
176.7474 178.3108 181.01933
175.9346 177.89693 181.01933
175.47595 177.66382 181.01933
174.6767 177.25827 181.01933
173.9713 176.90115 181.01933
173.69374 176.76083 181.01933
173.15257 176.48758 181.01933
172.67795 176.24826 181.01933
172.31944 176.06769 181.01933
171.953 175.88338 181.01933
171.60605 175.70898 181.01933
171.10536 175.4577 181.01933
170.84605 175.32771 181.01933
170.70697 175.258 181.01933
170.41191 175.11028 181.01933
170.09782 174.95316 181.01933
169.78935 174.79898 181.01933
169.66214 174.73546 181.01933
169.6429 174.72585 181.01933
169.38075 174.595 181.01933
169.16856 174.48917 181.01933
168.91722 174.36392 181.01933
169.01479 174.4125 181.01933
168.87602 174.34337 181.01933
168.87263 174.3417 181.01933
168.81934 174.31514 181.01933
168.5784 174.19519 181.01933
168.74225 174.27675 181.01933
168.72331 174.26732 181.01933
168.70128 174.25633 181.01933
168.59819 174.20505 181.01933
168.75478 174.283 181.01933
168.90547 174.35803 181.01933
168.92284 174.3667 181.01933
169.02219 174.41621 181.01933
169.21272 174.5112 181.01933
169.21466 174.51216 181.01933
169.47798 174.64352 181.01933
169.53352 174.67126 181.01933
169.76929 174.78897 181.01933
169.81656 174.81258 181.01933
170.21059 175.00955 181.01933
170.35616 175.0824 181.01933
170.64201 175.22552 181.01933
170.75452 175.28185 181.01933
171.31273 175.56174 181.01933
171.52069 175.66612 181.01933
171.78802 175.80043 181.01933
172.32033 176.06813 181.01933
172.62613 176.22214 181.01933
173.31209 176.56807 181.01933
173.69289 176.7604 181.01933
174.12563 176.97922 181.01933
174.70378 177.272 181.01933
175.25189 177.55002 181.01933
176.05779 177.95961 181.01933
176.82271 178.3492 181.01933
177.8445 178.87093 181.01933
178.74158 179.3302 181.01933
185.47581 187.91399 192.30452
189.79242 192.86069 198.29675
196.44164 201.53555 209.76831
213.97708 225.4553 241.89726
218.89212 231.97968 250.45422
221.8572 236.10754 255.744
221.85391 236.10567 255.744
221.83165 236.09311 255.744
221.83987 236.09778 255.744
221.85999 236.1091 255.744
221.84004 236.09789 255.744
221.84244 236.09923 255.744
221.83865 236.09712 255.744
221.8156 236.08408 255.744
221.84027 236.09799 255.744
221.85529 236.10645 255.744
221.82967 236.09203 255.744
221.82909 236.09169 255.744
221.82913 236.0917 255.744
221.84958 236.10323 255.744
221.8374 236.09637 255.744
221.85014 236.10358 255.744
221.85277 236.10504 255.744
221.85643 236.10712 255.744
221.84212 236.09903 255.744
221.85202 236.10463 255.744
221.86188 236.11017 255.744
221.86473 236.11177 255.744
221.86244 236.11047 255.744
221.84282 236.09943 255.744
221.85286 236.1051 255.744
221.85031 236.10365 255.744
221.85097 236.10402 255.744
221.83446 236.09474 255.744
221.8406 236.09818 255.744
221.8555 236.10657 255.744
221.84961 236.10324 255.744
221.85199 236.10461 255.744
221.83577 236.09549 255.744
221.85313 236.10529 255.744
221.85939 236.10876 255.744
221.8475 236.1021 255.744
221.83365 236.09422 255.744
221.84547 236.1009 255.744
221.85596 236.10684 255.744
221.86136 236.1099 255.744
221.85248 236.10487 255.744
221.8455 236.10094 255.744
221.82788 236.091 255.744
221.84288 236.09944 255.744
221.86028 236.10925 255.744
221.84721 236.1019 255.744
221.84315 236.09961 255.744
221.85616 236.10695 255.744
221.85957 236.1089 255.744
221.85884 236.10844 255.744
221.855 236.10628 255.744
221.8483 236.10254 255.744
221.83606 236.0956 255.744
221.85664 236.10721 255.744
221.8323 236.09349 255.744
221.84564 236.10103 255.744
221.85461 236.10611 255.744
221.8358 236.09549 255.744
221.84001 236.09787 255.744
221.84572 236.10107 255.744
221.84335 236.0997 255.744
221.86632 236.11269 255.744
221.8758 236.11806 255.744
221.86244 236.11049 255.744
221.8475 236.10208 255.744
221.81906 236.08601 255.744
221.82817 236.09119 255.744
221.85776 236.10785 255.744
221.83746 236.09644 255.744
221.84958 236.10326 255.744
221.84758 236.10211 255.744
221.86116 236.10977 255.744
221.8613 236.10988 255.744
221.84967 236.10326 255.744
221.82947 236.0919 255.744
221.8624 236.11044 255.744
221.83511 236.09511 255.744
221.85112 236.10411 255.744
221.85 236.1035 255.744
221.85634 236.10706 255.744
221.82283 236.0882 255.744
221.8413 236.09857 255.744
221.84334 236.09972 255.744
221.82892 236.09158 255.744
221.838 236.09671 255.744
221.83966 236.09766 255.744
221.86075 236.10954 255.744
221.85924 236.10867 255.744
221.85036 236.10367 255.744
221.84685 236.1017 255.744
221.85426 236.10588 255.744
221.83328 236.09409 255.744
221.84082 236.09833 255.744
221.84088 236.09831 255.744
221.85094 236.10399 255.744
221.84842 236.10257 255.744
221.85918 236.10866 255.744
221.84698 236.10178 255.744
221.84752 236.10208 255.744
221.84137 236.0986 255.744
221.86102 236.10971 255.744
221.82898 236.09164 255.744
221.84183 236.09886 255.744
221.8403 236.098 255.744
221.85588 236.1068 255.744
221.84836 236.10252 255.744
221.85832 236.10817 255.744
221.85649 236.10713 255.744
221.85596 236.10686 255.744
221.8322 236.09349 255.744
221.8298 236.09212 255.744
221.82904 236.09169 255.744
221.83893 236.09726 255.744
221.84521 236.10078 255.744
221.86327 236.11096 255.744
221.84322 236.09966 255.744
221.83546 236.09529 255.744
221.84477 236.10054 255.744
221.85779 236.10783 255.744
221.8386 236.09705 255.744
221.83699 236.09615 255.744
221.85039 236.1037 255.744
221.82986 236.09212 255.744
221.8326 236.09366 255.744
221.84265 236.09933 255.744
221.85802 236.10799 255.744
221.84326 236.09969 255.744
221.83414 236.09454 255.744
221.83931 236.09744 255.744
221.84138 236.09862 255.744
221.84837 236.10255 255.744
221.85696 236.1074 255.744
221.83492 236.09499 255.744
221.83957 236.09761 255.744
221.83643 236.09583 255.744
221.83705 236.09618 255.744
221.83804 236.09677 255.744
221.83865 236.09705 255.744
221.84883 236.10284 255.744
221.83658 236.09592 255.744
221.84619 236.10133 255.744
221.86504 236.11198 255.744
221.84404 236.10011 255.744
221.8447 236.1005 255.744
221.85678 236.1073 255.744
221.84232 236.09914 255.744
221.84723 236.1019 255.744
221.84192 236.09892 255.744
221.8431 236.09958 255.744
221.83624 236.0957 255.744
221.85133 236.10423 255.744
221.85439 236.10596 255.744
221.84819 236.10245 255.744
221.83336 236.09412 255.744
221.84044 236.09808 255.744
221.87053 236.11504 255.744
221.9002 236.1318 255.744
221.89906 236.13115 255.744
221.87268 236.11629 255.744
221.87491 236.11751 255.744
221.86374 236.11122 255.744
221.87822 236.11937 255.744
221.88583 236.12369 255.744
221.86833 236.11382 255.744
221.86375 236.11125 255.744
221.87553 236.11787 255.744
221.88573 236.12361 255.744
221.86633 236.1127 255.744
221.87997 236.12039 255.744
221.86726 236.11316 255.744
221.88887 236.12541 255.744
221.8613 236.10983 255.744
221.88393 236.12259 255.744
221.88138 236.12119 255.744
221.87436 236.11723 255.744
221.8683 236.11377 255.744
221.86673 236.11288 255.744
221.87221 236.11601 255.744
221.862 236.11024 255.744
221.88443 236.1229 255.744
221.88051 236.12067 255.744
221.884 236.12265 255.744
221.88329 236.12224 255.744
221.8695 236.1145 255.744
221.86981 236.11464 255.744
221.87164 236.11569 255.744
221.88043 236.12062 255.744
221.87639 236.11835 255.744
221.88104 236.12097 255.744
221.89227 236.12732 255.744
221.8887 236.12527 255.744
221.89333 236.12791 255.744
221.86392 236.11131 255.744
221.87108 236.11539 255.744
221.87004 236.11476 255.744
221.86668 236.11287 255.744
221.89204 236.12715 255.744
221.87653 236.11844 255.744
221.88966 236.12582 255.744
221.89201 236.12717 255.744
221.87321 236.11658 255.744
221.87946 236.12009 255.744
221.90077 236.13211 255.744
221.862 236.11024 255.744
221.87683 236.11864 255.744
221.87679 236.11858 255.744
221.87576 236.11801 255.744
221.87793 236.11925 255.744
221.86694 236.11302 255.744
221.87845 236.11952 255.744
221.88414 236.12274 255.744
221.88472 236.12306 255.744
221.89313 236.12778 255.744
221.8844 236.12288 255.744
221.88693 236.12428 255.744
221.87466 236.11743 255.744
221.89923 236.13123 255.744
221.89267 236.12753 255.744
221.8828 236.12195 255.744
221.90433 236.1341 255.744
221.87895 236.11978 255.744
221.8742 236.11713 255.744
221.86455 236.11168 255.744
221.86363 236.11116 255.744
221.87164 236.11568 255.744
221.8936 236.12807 255.744
221.89146 236.12685 255.744
221.87221 236.11601 255.744
221.87201 236.1159 255.744
221.88103 236.12099 255.744
221.88103 236.12099 255.744
221.88124 236.12111 255.744
221.8888 236.12535 255.744
221.88103 236.121 255.744
221.86285 236.11072 255.744
221.8696 236.11452 255.744
221.89229 236.12735 255.744
221.86911 236.11424 255.744
221.88794 236.12486 255.744
221.86674 236.11292 255.744
221.87411 236.11708 255.744
221.88637 236.12398 255.744
221.87659 236.11847 255.744
221.89203 236.12718 255.744
221.89754 236.13031 255.744
221.8814 236.1212 255.744
221.8789 236.11977 255.744
221.87119 236.11539 255.744
221.8914 236.12685 255.744
221.88947 236.12569 255.744
221.87996 236.12038 255.744
221.88661 236.12413 255.744
221.86676 236.11292 255.744
221.88792 236.12485 255.744
221.87508 236.1176 255.744
221.87598 236.1181 255.744
221.87462 236.11737 255.744
221.8847 236.12308 255.744
221.89952 236.13138 255.744
221.89053 236.12631 255.744
221.85764 236.10779 255.744
221.87251 236.1162 255.744
221.88004 236.12042 255.744
221.88109 236.121 255.744
221.86455 236.11168 255.744
221.85303 236.1052 255.744
221.89885 236.13103 255.744
221.88531 236.12338 255.744
221.89561 236.12921 255.744
221.88731 236.12451 255.744
221.89854 236.13084 255.744
221.88048 236.12064 255.744
221.87906 236.11987 255.744
221.8801 236.12045 255.744
221.87904 236.11984 255.744
221.88959 236.12581 255.744
221.87769 236.11911 255.744
221.87335 236.11667 255.744
221.88979 236.1259 255.744
221.88799 236.12492 255.744
221.89824 236.13066 255.744
221.86728 236.11322 255.744
221.88788 236.12479 255.744
221.8904 236.12625 255.744
221.8838 236.12253 255.744
221.88112 236.12103 255.744
221.89604 236.12944 255.744
221.87212 236.11594 255.744
221.87776 236.11913 255.744
221.87384 236.1169 255.744
221.87746 236.11897 255.744
221.86826 236.11377 255.744
221.878 236.11926 255.744
221.8898 236.12593 255.744
221.87352 236.11676 255.744
221.85684 236.10733 255.744
221.87677 236.11855 255.744
221.88065 236.12077 255.744
221.86592 236.11249 255.744
221.89502 236.12888 255.744
221.85541 236.10655 255.744
221.87267 236.11627 255.744
221.87802 236.11928 255.744
221.86824 236.11377 255.744
221.88255 236.12183 255.744
221.87375 236.11684 255.744
221.88493 236.12317 255.744
221.87943 236.12009 255.744
221.86809 236.1137 255.744
221.87811 236.11937 255.744
221.88083 236.12086 255.744
221.88104 236.121 255.744
221.87317 236.11656 255.744
221.86116 236.10974 255.744
221.87755 236.11899 255.744
221.90764 236.13597 255.744
221.87427 236.11717 255.744
221.89929 236.13129 255.744
221.87975 236.12025 255.744
221.8825 236.12181 255.744
221.85854 236.10832 255.744
221.87938 236.12006 255.744
221.8714 236.11559 255.744
221.88875 236.12532 255.744
221.89334 236.1279 255.744
221.89273 236.12756 255.744
221.8934 236.12793 255.744
221.87825 236.11942 255.744
221.89929 236.13127 255.744
221.88103 236.12096 255.744
221.88431 236.12282 255.744
221.87689 236.11862 255.744
221.87563 236.11795 255.744
221.88632 236.12396 255.744
221.87563 236.11795 255.744
221.88025 236.12051 255.744
221.8677 236.11346 255.744
221.88222 236.12164 255.744
221.89261 236.1275 255.744
221.85895 236.1085 255.744
221.88525 236.12335 255.744
221.87125 236.11546 255.744
221.8828 236.12196 255.744
221.89453 236.1286 255.744
221.88441 236.1229 255.744
221.87947 236.1201 255.744
221.8839 236.12262 255.744
221.88533 236.12341 255.744
221.88994 236.126 255.744
221.88695 236.12428 255.744
221.88507 236.12323 255.744
221.87529 236.11772 255.744
221.87973 236.12025 255.744
221.86853 236.11394 255.744
221.8893 236.12563 255.744
221.90126 236.1324 255.744
221.88652 236.12405 255.744
221.87622 236.11827 255.744
221.88766 236.1247 255.744
221.87517 236.11766 255.744
221.88477 236.12308 255.744
221.89352 236.128 255.744
221.8855 236.12349 255.744
221.88916 236.12555 255.744
221.88266 236.12189 255.744
221.89178 236.12704 255.744
221.8716 236.11566 255.744
221.87303 236.11647 255.744
221.89656 236.12975 255.744
221.86855 236.11394 255.744
221.89232 236.12732 255.744
221.88301 236.12212 255.744
221.88008 236.12047 255.744
221.86977 236.11462 255.744
221.88678 236.12424 255.744
221.86803 236.11365 255.744
221.88269 236.12193 255.744
221.86714 236.11316 255.744
221.88196 236.12152 255.744
221.87611 236.11821 255.744
221.89375 236.12816 255.744
221.87582 236.11807 255.744
221.89157 236.12692 255.744
221.89664 236.12979 255.744
221.88982 236.12592 255.744
221.87854 236.11961 255.744
221.89009 236.12607 255.744
221.86047 236.10939 255.744
221.88586 236.1237 255.744
221.87799 236.11926 255.744
221.88077 236.12086 255.744
221.88948 236.12575 255.744
221.88158 236.12129 255.744
221.87701 236.11871 255.744
221.87192 236.11584 255.744
221.86493 236.11191 255.744
221.87491 236.11752 255.744
221.8844 236.1229 255.744
221.89445 236.12856 255.744
221.88893 236.12543 255.744
221.87288 236.11638 255.744
221.88412 236.12271 255.744
221.87909 236.11989 255.744
221.86592 236.11244 255.744
221.88763 236.12468 255.744
221.89311 236.1278 255.744
221.89706 236.13004 255.744
221.89088 236.12653 255.744
221.87022 236.11487 255.744
221.91661 236.14102 255.744
221.87428 236.11716 255.744
221.88791 236.12485 255.744
221.8777 236.11911 255.744
221.87369 236.11684 255.744
221.88661 236.12411 255.744
221.86354 236.1111 255.744
221.86424 236.11153 255.744
221.8558 236.10677 255.744
221.89107 236.12663 255.744
221.87349 236.11673 255.744
219.24373 233.43813 253.2423
218.78023 233.17706 253.2423
210.97177 224.74779 244.11256
210.55402 225.69676 246.78264
194.60446 209.51689 230.35428
196.50546 212.3156 234.3334
191.48322 206.45605 227.74341
162.88553 180.3011 203.87
169.24292 186.1697 209.38747
167.65129 184.2188 207.24257
157.74057 174.17937 196.7195
161.88577 180.00363 204.20695
163.70192 182.6215 208.25653
153.61256 170.72276 194.36862
152.63503 170.39182 193.62671
154.01096 172.10483 196.5253
145.74019 164.64517 188.02708
153.33768 171.67313 196.19046
152.59999 170.8748 194.95184
147.4531 164.61206 188.39433
149.4285 168.07253 192.47488
147.00253 164.0785 186.9965
148.12581 166.76453 191.25511
146.60863 163.75194 187.19661
150.73413 169.0545 193.24435
148.13776 166.9007 190.66556
141.27887 159.38794 183.28398
142.65181 159.58871 182.17809
153.46901 172.3317 197.70569
146.33951 164.9418 189.35477
144.9808 162.90079 187.3728
145.2283 162.8687 186.8725
139.52412 156.25392 179.38931
145.70651 164.77794 188.71722
145.8923 163.72662 187.7723
145.81128 165.01906 190.08882
145.21939 163.05147 186.73479
143.48341 162.13611 186.49641
143.95308 163.88937 187.70375
146.63676 164.8257 189.48447
145.75641 163.66867 187.10414
146.78412 165.9247 191.08354
143.79059 161.74487 185.17213
146.17194 164.6586 188.67868
141.74197 160.298 183.8803
148.78073 166.0805 189.28687
137.30296 155.04723 176.45602
149.23553 168.62387 192.63303
141.30261 159.01437 179.57803
148.37231 167.68358 190.24164
143.35857 159.99498 181.95586
148.97401 167.41443 190.06432
141.61107 161.39012 183.31953
151.7898 170.6761 193.15262
152.52354 170.34247 191.81732
161.33849 181.47565 206.35994
152.6214 170.89336 192.55367
166.26389 184.91722 208.26123
162.30847 180.29997 203.12885
156.01425 173.80057 196.091
170.30287 187.92792 211.03654
175.77383 194.62384 218.70518
184.38956 201.8101 223.88675
185.73312 201.87158 223.53407
203.14357 218.27 239.23041
211.344 226.12732 246.87746
214.79694 229.31119 249.61172
220.64174 235.02518 255.08408
221.9 236.13167 255.744
221.86856 236.11394 255.744
221.89714 236.13005 255.744
221.88089 236.12091 255.744
221.87086 236.11525 255.744
221.86024 236.10925 255.744
221.87506 236.1176 255.744
221.8751 236.11765 255.744
221.88681 236.12425 255.744
221.88866 236.12527 255.744
221.85565 236.10664 255.744
221.88007 236.12044 255.744
221.88892 236.12541 255.744
221.87466 236.11739 255.744
221.87999 236.12036 255.744
221.86906 236.11423 255.744
221.9011 236.13232 255.744
221.88716 236.12444 255.744
221.88661 236.1241 255.744
221.88881 236.12534 255.744
221.877 236.11867 255.744
221.88985 236.12596 255.744
221.87987 236.1203 255.744
221.8835 236.12236 255.744
221.87183 236.11578 255.744
221.86966 236.1146 255.744
221.89445 236.12856 255.744
221.88972 236.1259 255.744
221.8823 236.12169 255.744
221.87032 236.1149 255.744
221.88008 236.12044 255.744
221.86342 236.11105 255.744
221.88493 236.12317 255.744
221.86874 236.11407 255.744
221.87079 236.11522 255.744
221.88351 236.12238 255.744
221.37746 235.43094 255.08408
219.84572 233.34651 252.31636
210.8577 221.10721 236.02034
197.09602 202.38568 210.88113
185.0788 186.59033 189.85469
179.7852 180.4492 182.30774
178.36787 179.13876 181.01933
177.22563 178.55475 181.01933
176.36176 178.11433 181.01933
175.23381 177.54088 181.01933
174.9216 177.38246 181.01933
173.97968 176.90538 181.01933
173.3514 176.58792 181.01933
172.86856 176.34433 181.01933
172.27519 176.04543 181.01933
171.8523 175.83272 181.01933
171.39578 175.60342 181.01933
171.01964 175.41472 181.01933
170.62843 175.21867 181.01933
170.17856 174.99355 181.01933
169.82054 174.81456 181.01933
169.70912 174.75893 181.01933
169.31557 174.56247 181.01933
168.95375 174.3821 181.01933
168.67622 174.24388 181.01933
168.4899 174.15114 181.01933
168.28838 174.05087 181.01933
168.1059 173.9602 181.01933
167.9609 173.88815 181.01933
167.68816 173.75272 181.01933
167.77084 173.79373 181.01933
167.55978 173.68901 181.01933
167.50815 173.66336 181.01933
167.32521 173.57265 181.01933
167.29457 173.55748 181.01933
167.07893 173.4506 181.01933
167.05287 173.4377 181.01933
167.11223 173.4671 181.01933
167.05426 173.43842 181.01933
167.12975 173.4758 181.01933
167.00069 173.41188 181.01933
167.02446 173.42363 181.01933
167.0781 173.4502 181.01933
167.14763 173.48465 181.01933
167.39742 173.60847 181.01933
167.2755 173.54802 181.01933
167.42368 173.62148 181.01933
167.6744 173.74588 181.01933
167.60384 173.71086 181.01933
167.67278 173.74509 181.01933
167.94801 173.88174 181.01933
168.24052 174.0271 181.01933
168.35536 174.08423 181.01933
168.57808 174.19505 181.01933
168.793 174.30203 181.01933
169.02333 174.41678 181.01933
169.2695 174.53949 181.01933
169.59073 174.69978 181.01933
170.0175 174.91301 181.01933
170.34058 175.07458 181.01933
170.53807 175.17345 181.01933
171.07841 175.4442 181.01933
171.26309 175.53685 181.01933
171.93483 175.87425 181.01933
172.4354 176.12607 181.01933
172.97652 176.39877 181.01933
173.52272 176.67442 181.01933
173.93196 176.88124 181.01933
174.84985 177.34605 181.01933
175.4354 177.64322 181.01933
175.96832 177.9141 181.01933
176.76393 178.31926 181.01933
178.21616 179.06107 181.01933
180.40248 181.346 183.58711
185.79156 187.51474 191.08353
196.87814 202.27629 210.88113
210.68921 221.02492 236.02034
219.32784 232.64616 251.38701
221.89186 236.12709 255.744
221.89561 236.1292 255.744
221.8906 236.12639 255.744
221.86998 236.11476 255.744
221.8857 236.1236 255.744
221.89398 236.12825 255.744
221.86688 236.113 255.744
221.87732 236.11887 255.744
221.88358 236.1224 255.744
221.89655 236.1297 255.744
221.87498 236.11757 255.744
221.88795 236.1249 255.744
221.89333 236.12793 255.744
221.87103 236.11536 255.744
221.87862 236.1196 255.744
221.87149 236.1156 255.744
221.87207 236.11594 255.744
221.88013 236.12044 255.744
221.8639 236.1113 255.744
221.88449 236.12294 255.744
221.8924 236.12741 255.744
221.88332 236.12227 255.744
221.88843 236.12512 255.744
221.89478 236.12872 255.744
221.86217 236.11032 255.744
221.87456 236.11732 255.744
221.8792 236.11996 255.744
221.86981 236.11464 255.744
221.8659 236.11243 255.744
221.88098 236.12093 255.744
221.8616 236.11002 255.744
221.87123 236.11542 255.744
221.8709 236.11525 255.744
221.88669 236.12415 255.744
221.88487 236.12312 255.744
221.8828 236.122 255.744
221.87805 236.1193 255.744
221.89557 236.1292 255.744
221.88577 236.12363 255.744
221.86247 236.11053 255.744
221.89467 236.12868 255.744
221.86357 236.11113 255.744
221.88072 236.12079 255.744
221.86394 236.11134 255.744
221.87552 236.11787 255.744
221.88431 236.12285 255.744
221.88991 236.12596 255.744
221.87302 236.11644 255.744
221.8753 236.11774 255.744
221.87993 236.12036 255.744
221.86116 236.10979 255.744
221.88042 236.12064 255.744
221.88898 236.12546 255.744
221.88937 236.12567 255.744
221.85963 236.10892 255.744
221.88492 236.12317 255.744
221.8893 236.12564 255.744
221.89731 236.13014 255.744
221.89479 236.12872 255.744
221.88402 236.12267 255.744
221.86252 236.11053 255.744
221.87038 236.11499 255.744
221.87343 236.11668 255.744
221.88057 236.12071 255.744
221.87 236.11475 255.744
221.8957 236.12924 255.744
221.89294 236.1277 255.744
221.891 236.12656 255.744
221.89381 236.12819 255.744
221.87578 236.11804 255.744
221.8784 236.11948 255.744
221.87709 236.11874 255.744
221.87303 236.11647 255.744
221.87689 236.11865 255.744
221.87988 236.12033 255.744
221.88817 236.12502 255.744
221.88132 236.12111 255.744
221.86446 236.11165 255.744
221.86887 236.11409 255.744
221.88615 236.12386 255.744
221.87566 236.11795 255.744
221.87338 236.11667 255.744
221.86336 236.11101 255.744
221.878 236.11928 255.744
221.86969 236.11456 255.744
221.87625 236.11832 255.744
221.86871 236.11403 255.744
221.88013 236.12045 255.744
221.86987 236.11469 255.744
221.88757 236.12466 255.744
221.86475 236.1118 255.744
221.87949 236.12013 255.744
221.88647 236.12405 255.744
221.88802 236.12492 255.744
221.8696 236.11453 255.744
221.86452 236.11166 255.744
221.86507 236.11198 255.744
221.86473 236.11179 255.744
221.84933 236.10312 255.744
221.87932 236.12001 255.744
221.89424 236.12842 255.744
221.88452 236.12294 255.744
221.86505 236.11197 255.744
221.8816 236.12128 255.744
221.8815 236.12123 255.744
221.86794 236.11359 255.744
221.87685 236.11859 255.744
221.87482 236.11748 255.744
221.87515 236.11768 255.744
221.89146 236.12685 255.744
221.88945 236.12572 255.744
221.8952 236.12895 255.744
221.84529 236.10083 255.744
221.89368 236.12808 255.744
221.88171 236.12132 255.744
221.88797 236.12488 255.744
221.88939 236.1257 255.744
221.87567 236.11797 255.744
221.86525 236.1121 255.744
221.87714 236.11877 255.744
221.88316 236.1222 255.744
221.86894 236.11417 255.744
221.86803 236.11363 255.744
221.88568 236.12361 255.744
221.87666 236.11853 255.744
221.883 236.1221 255.744
221.8626 236.11058 255.744
221.8629 236.11075 255.744
221.85909 236.10861 255.744
221.89754 236.13026 255.744
221.87897 236.11981 255.744
221.8827 236.12192 255.744
221.87688 236.11864 255.744
221.8777 236.11911 255.744
221.8872 236.12448 255.744
221.8819 236.12149 255.744
221.88577 236.12366 255.744
221.88368 236.12247 255.744
221.86989 236.1147 255.744
221.87874 236.11967 255.744
221.88402 236.12267 255.744
221.88031 236.12056 255.744
221.87927 236.11998 255.744
221.88184 236.12144 255.744
221.8603 236.10931 255.744
221.86198 236.11023 255.744
221.86595 236.11246 255.744
221.88028 236.12054 255.744
221.88159 236.12129 255.744
221.87518 236.11766 255.744
221.86357 236.11115 255.744
221.8706 236.11511 255.744
221.87929 236.12001 255.744
221.90607 236.13507 255.744
221.92947 236.14832 255.744
221.90509 236.13455 255.744
221.89005 236.12607 255.744
221.90596 236.13503 255.744
221.89609 236.12947 255.744
221.90796 236.13614 255.744
221.90506 236.13454 255.744
221.90154 236.1325 255.744
221.90976 236.13716 255.744
221.89705 236.13002 255.744
221.90623 236.13518 255.744
221.90251 236.13312 255.744
221.91208 236.13849 255.744
221.89012 236.1261 255.744
221.91516 236.14021 255.744
221.91106 236.13791 255.744
221.90613 236.13513 255.744
221.92055 236.14326 255.744
221.89809 236.13057 255.744
221.91957 236.14268 255.744
221.9116 236.1382 255.744
221.90219 236.13292 255.744
221.89726 236.13011 255.744
221.92082 236.14342 255.744
221.91751 236.14156 255.744
221.91318 236.13908 255.744
221.91414 236.13966 255.744
221.90457 236.13425 255.744
221.90167 236.13261 255.744
221.89622 236.12953 255.744
221.90143 236.13246 255.744
221.88057 236.12074 255.744
221.90318 236.13347 255.744
221.91762 236.1416 255.744
221.89357 236.12802 255.744
221.90489 236.13443 255.744
221.90878 236.13666 255.744
221.90915 236.13684 255.744
221.90929 236.13689 255.744
221.90085 236.13214 255.744
221.91003 236.13734 255.744
221.9033 236.13356 255.744
221.90819 236.13629 255.744
221.91998 236.14296 255.744
221.89507 236.12888 255.744
221.913 236.13902 255.744
221.91211 236.13852 255.744
221.9112 236.13797 255.744
221.89119 236.12671 255.744
221.89818 236.13065 255.744
221.90642 236.13528 255.744
221.8993 236.13126 255.744
221.91277 236.13887 255.744
221.92262 236.14442 255.744
221.9228 236.1445 255.744
221.93411 236.15091 255.744
221.90256 236.13313 255.744
221.93114 236.14925 255.744
221.90007 236.1317 255.744
221.91321 236.13913 255.744
221.90152 236.13252 255.744
221.91872 236.14221 255.744
221.89749 236.13023 255.744
221.91237 236.13864 255.744
221.90417 236.13403 255.744
221.92241 236.1443 255.744
221.92033 236.14316 255.744
221.9183 236.142 255.744
221.90186 236.13269 255.744
221.9297 236.14842 255.744
221.90419 236.13403 255.744
221.9082 236.13629 255.744
221.90842 236.13641 255.744
221.92038 236.14316 255.744
221.88976 236.1259 255.744
221.91219 236.13852 255.744
221.9005 236.13193 255.744
221.9106 236.13766 255.744
221.91484 236.14003 255.744
221.88834 236.12509 255.744
221.90836 236.1364 255.744
221.9151 236.14018 255.744
221.90698 236.13564 255.744
221.91077 236.13776 255.744
221.91272 236.13884 255.744
221.91907 236.14241 255.744
221.9053 236.13466 255.744
221.91512 236.14018 255.744
221.90805 236.13623 255.744
221.90074 236.13205 255.744
221.90286 236.13327 255.744
221.89008 236.1261 255.744
221.92448 236.14548 255.744
221.91315 236.13908 255.744
221.91579 236.14058 255.744
221.89742 236.13022 255.744
221.9229 236.14458 255.744
221.92673 236.14674 255.744
221.90858 236.13654 255.744
221.91913 236.14244 255.744
221.90959 236.13712 255.744
221.92152 236.14381 255.744
221.92366 236.14499 255.744
221.9151 236.1402 255.744
221.91678 236.14114 255.744
221.89801 236.13052 255.744
221.91154 236.13817 255.744
221.91164 236.13824 255.744
221.92429 236.14537 255.744
221.9243 236.1454 255.744
221.9192 236.1425 255.744
221.91473 236.13997 255.744
221.91255 236.13876 255.744
221.9064 236.13527 255.744
221.91046 236.13763 255.744
221.90431 236.1341 255.744
221.9006 236.13202 255.744
221.92075 236.14337 255.744
221.91385 236.13948 255.744
221.91461 236.13991 255.744
221.9067 236.13545 255.744
221.9103 236.13745 255.744
221.9227 236.14449 255.744
221.92128 236.14366 255.744
221.9181 236.14188 255.744
221.91927 236.1425 255.744
221.92532 236.14594 255.744
221.91211 236.13849 255.744
221.9155 236.14043 255.744
221.9086 236.13649 255.744
221.90778 236.13603 255.744
221.90456 236.13422 255.744
221.8947 236.12871 255.744
221.92868 236.14786 255.744
221.88562 236.12355 255.744
221.90138 236.13245 255.744
221.9202 236.14307 255.744
221.8974 236.13023 255.744
221.91982 236.14284 255.744
221.899 236.13113 255.744
221.90071 236.13206 255.744
221.90714 236.1357 255.744
221.9189 236.14235 255.744
221.91115 236.13794 255.744
221.92589 236.14627 255.744
221.90659 236.13538 255.744
221.9024 236.13303 255.744
221.9346 236.15118 255.744
221.9016 236.13255 255.744
221.90227 236.13295 255.744
221.91135 236.13808 255.744
221.92154 236.14383 255.744
221.90764 236.13599 255.744
221.91162 236.13823 255.744
221.91046 236.13757 255.744
221.89838 236.13074 255.744
221.90239 236.13303 255.744
221.92146 236.14378 255.744
221.92076 236.14336 255.744
221.9126 236.13876 255.744
221.91817 236.1419 255.744
221.91635 236.1409 255.744
221.91231 236.1386 255.744
221.91171 236.13826 255.744
221.92021 236.14308 255.744
221.90057 236.132 255.744
221.89597 236.1294 255.744
221.8911 236.12663 255.744
221.90349 236.13365 255.744
221.90733 236.13582 255.744
221.92418 236.14532 255.744
221.91396 236.13954 255.744
221.88635 236.124 255.744
221.92686 236.14685 255.744
221.91792 236.14178 255.744
221.92284 236.14455 255.744
221.89351 236.128 255.744
221.91614 236.14076 255.744
221.89578 236.12933 255.744
221.90984 236.13722 255.744
221.91577 236.14058 255.744
221.91171 236.13826 255.744
221.9059 236.13501 255.744
221.92935 236.14822 255.744
221.90326 236.13348 255.744
221.93558 236.15172 255.744
221.91666 236.14108 255.744
221.90874 236.13663 255.744
221.91075 236.13774 255.744
221.91821 236.14194 255.744
221.91232 236.13861 255.744
221.8984 236.13078 255.744
221.88953 236.12575 255.744
221.92456 236.14552 255.744
221.9094 236.13693 255.744
221.9347 236.15121 255.744
221.90752 236.1359 255.744
221.91772 236.14168 255.744
221.90804 236.13615 255.744
221.91666 236.14107 255.744
221.91748 236.14154 255.744
221.91226 236.13858 255.744
221.92221 236.1442 255.744
221.90721 236.13573 255.744
221.91269 236.13882 255.744
221.92766 236.14725 255.744
221.91737 236.14146 255.744
221.9239 236.14516 255.744
221.91936 236.14261 255.744
221.90347 236.13367 255.744
221.90259 236.13313 255.744
221.91132 236.13808 255.744
221.90997 236.13728 255.744
221.92038 236.14316 255.744
221.91379 236.13943 255.744
221.90692 236.13556 255.744
221.9208 236.1434 255.744
221.91495 236.1401 255.744
221.93524 236.15154 255.744
221.90623 236.13518 255.744
221.92874 236.14786 255.744
221.88432 236.12285 255.744
221.90985 236.13722 255.744
221.90701 236.13562 255.744
221.90309 236.13342 255.744
221.90204 236.13281 255.744
221.9026 236.13315 255.744
221.91638 236.1409 255.744
221.92621 236.14641 255.744
221.90276 236.13321 255.744
221.91626 236.14082 255.744
221.91585 236.1406 255.744
221.90916 236.13684 255.744
221.92807 236.14748 255.744
221.92499 236.14575 255.744
221.91008 236.13734 255.744
221.8942 236.1284 255.744
221.90776 236.13605 255.744
221.9165 236.14096 255.744
221.91914 236.14247 255.744
221.90736 236.13583 255.744
221.91858 236.14215 255.744
221.894 236.12828 255.744
221.90721 236.13576 255.744
221.8922 236.12729 255.744
221.92264 236.14447 255.744
221.92383 236.14508 255.744
221.90797 236.1362 255.744
221.9358 236.15187 255.744
221.92633 236.14651 255.744
221.9163 236.14085 255.744
221.92116 236.14362 255.744
221.92012 236.14302 255.744
221.91013 236.13737 255.744
221.91476 236.14 255.744
221.90671 236.13542 255.744
221.90308 236.1334 255.744
221.91173 236.13828 255.744
221.92682 236.1468 255.744
221.92308 236.14465 255.744
221.90753 236.13593 255.744
221.91408 236.13959 255.744
221.8671 236.11313 255.744
219.33612 233.8908 254.16486
212.66324 227.53728 248.29549
205.81007 221.37668 242.86292
189.70581 205.12729 225.96579
188.98917 205.06387 227.34122
175.07274 190.28853 211.43541
171.96657 187.62749 209.83536
160.02698 177.78795 201.33066
158.50165 174.79094 197.58728
157.12746 174.93452 198.57996
150.24478 166.43935 188.93027
153.84 171.9491 196.40628
148.10455 166.21767 190.83838
153.76738 171.74883 195.331
151.09204 167.83331 190.83952
152.42784 170.99483 196.04128
142.02336 160.22026 183.40802
143.33107 161.0548 184.08154
149.3295 169.18858 193.60683
148.41138 165.21272 188.2452
144.67532 162.04729 186.11954
149.22577 166.57416 190.21803
141.95126 160.11082 183.70187
136.47232 154.16046 177.01202
143.65009 161.50462 185.74182
138.82187 156.00952 179.59142
142.64127 161.11017 185.0981
143.00995 162.05933 186.36462
147.30737 165.5733 189.59566
145.9121 164.3758 189.12592
145.64333 164.25922 188.98973
145.78929 164.78568 189.59569
142.88876 161.12517 184.85136
141.3983 158.60556 181.78706
142.35606 159.66748 183.20424
140.65817 158.30052 181.45848
142.31316 160.83499 185.0981
146.80643 165.06184 188.96507
145.1591 163.50578 187.39723
139.04205 157.22044 181.2968
146.54388 165.59209 190.10258
145.69981 165.12828 188.95274
139.32727 155.8807 177.30981
140.6718 155.23189 176.70757
142.63722 160.24542 182.67384
138.88121 158.40451 181.2909
147.3747 165.99463 188.95895
141.91563 158.3948 180.29912
151.18787 171.4696 197.45107
138.83905 154.9785 174.99077
144.24265 163.15979 185.38762
139.62247 156.36339 177.79707
139.8054 158.4153 180.33476
150.86296 171.3009 195.75182
147.46893 166.22653 188.63676
148.61514 167.96175 191.54053
144.23337 162.14946 184.44626
145.10905 162.82718 184.09283
156.44745 176.7025 198.93231
154.205 171.653 194.16101
156.18158 174.86552 197.58095
146.33263 164.54381 185.20135
153.61299 172.77484 194.38995
164.25394 182.50636 205.28079
159.81656 175.92545 197.0649
175.76213 192.78131 214.54944
182.97653 199.13696 220.12341
197.63391 213.48802 234.71272
205.99165 221.05977 242.01819
213.28719 228.11157 248.63368
220.35233 234.86217 255.08408
221.87952 236.1201 255.744
221.8983 236.1307 255.744
221.90938 236.13696 255.744
221.9267 236.14673 255.744
221.91536 236.14035 255.744
221.9235 236.14491 255.744
221.90797 236.13617 255.744
221.90771 236.13603 255.744
221.90703 236.13564 255.744
221.90005 236.13167 255.744
221.91049 236.13759 255.744
221.9224 236.1443 255.744
221.90872 236.13657 255.744
221.91582 236.1406 255.744
221.91908 236.14243 255.744
221.90244 236.13304 255.744
221.92111 236.14357 255.744
221.91139 236.1381 255.744
221.91182 236.13832 255.744
221.90303 236.13335 255.744
221.938 236.15309 255.744
221.89719 236.1301 255.744
221.91006 236.13736 255.744
221.9151 236.1402 255.744
221.90904 236.13676 255.744
221.91953 236.14267 255.744
221.90599 236.13504 255.744
221.90572 236.13487 255.744
221.91681 236.14114 255.744
221.90579 236.13492 255.744
221.9292 236.14809 255.744
221.91751 236.14154 255.744
219.87573 233.36302 252.31636
213.20859 224.14864 239.95428
196.89081 202.28247 210.88113
185.57692 187.40576 191.08353
179.31635 179.62505 181.01933
177.87485 178.88646 181.01933
176.73575 178.30487 181.01933
175.86417 177.86111 181.01933
175.02834 177.43657 181.01933
174.22282 177.02843 181.01933
173.49759 176.66174 181.01933
172.88683 176.35352 181.01933
172.29385 176.0548 181.01933
171.75652 175.78462 181.01933
171.22249 175.51645 181.01933
170.82037 175.31487 181.01933
170.34183 175.07521 181.01933
169.89488 174.85173 181.01933
169.59581 174.70233 181.01933
169.39926 174.60423 181.01933
168.97568 174.39304 181.01933
168.43951 174.12604 181.01933
168.36516 174.08907 181.01933
167.94197 173.87875 181.01933
167.60065 173.70926 181.01933
167.3645 173.59215 181.01933
167.16344 173.49246 181.01933
167.10756 173.46478 181.01933
166.80513 173.31505 181.01933
166.61334 173.22012 181.01933
166.48166 173.15501 181.01933
166.14232 172.98732 181.01933
166.15326 172.9927 181.01933
166.02638 172.93002 181.01933
166.09758 172.96523 181.01933
165.93484 172.88487 181.01933
165.7478 172.79256 181.01933
165.65587 172.74722 181.01933
165.66597 172.7522 181.01933
165.56456 172.70216 181.01933
165.7236 172.78062 181.01933
165.59317 172.7163 181.01933
165.61096 172.7251 181.01933
165.63239 172.73566 181.01933
165.77943 172.80817 181.01933
165.73306 172.7853 181.01933
165.88734 172.86142 181.01933
165.88832 172.86191 181.01933
166.02481 172.92928 181.01933
166.17538 173.00363 181.01933
166.23271 173.03198 181.01933
166.41129 173.1202 181.01933
166.49815 173.16316 181.01933
166.5925 173.20981 181.01933
166.87761 173.35089 181.01933
167.01576 173.41934 181.01933
167.24428 173.53255 181.01933
167.411 173.61522 181.01933
167.5848 173.70142 181.01933
167.97993 173.89761 181.01933
168.35397 174.08351 181.01933
168.47902 174.14574 181.01933
168.84053 174.32571 181.01933
169.11505 174.4625 181.01933
169.5505 174.67973 181.01933
169.97327 174.89088 181.01933
170.31245 175.06049 181.01933
170.7422 175.27567 181.01933
171.30331 175.557 181.01933
171.97708 175.89548 181.01933
172.44165 176.12923 181.01933
172.9138 176.36714 181.01933
173.5545 176.6905 181.01933
174.43864 177.13773 181.01933
174.84003 177.3411 181.01933
176.10484 177.98357 181.01933
176.86227 178.36937 181.01933
177.96184 178.93095 181.01933
180.47504 181.38336 183.58711
183.5036 184.08446 186.11948
198.20332 203.97432 213.08939
213.5495 224.78479 240.92773
217.82663 230.55705 248.57813
221.905 236.1345 255.744
221.93094 236.14911 255.744
221.91493 236.14008 255.744
221.92233 236.14424 255.744
221.90115 236.13232 255.744
221.9015 236.1325 255.744
221.90417 236.134 255.744
221.91464 236.13994 255.744
221.8933 236.12788 255.744
221.90698 236.13564 255.744
221.93282 236.15018 255.744
221.9182 236.14194 255.744
221.90784 236.1361 255.744
221.91219 236.13852 255.744
221.90768 236.136 255.744
221.92534 236.14598 255.744
221.92 236.14294 255.744
221.91093 236.13785 255.744
221.91685 236.14117 255.744
221.91139 236.13809 255.744
221.94215 236.15546 255.744
221.9274 236.14711 255.744
221.90671 236.13545 255.744
221.91154 236.13817 255.744
221.90407 236.13397 255.744
221.93259 236.15004 255.744
221.90508 236.13455 255.744
221.91911 236.14246 255.744
221.93752 236.15282 255.744
221.91782 236.1417 255.744
221.90596 236.13506 255.744
221.91577 236.14056 255.744
221.92409 236.14526 255.744
221.91025 236.13745 255.744
221.90175 236.13263 255.744
221.8946 236.12863 255.744
221.91061 236.13763 255.744
221.90132 236.13242 255.744
221.93092 236.14911 255.744
221.90184 236.1327 255.744
221.90617 236.13516 255.744
221.8989 236.13106 255.744
221.91771 236.14163 255.744
221.89798 236.13052 255.744
221.89717 236.13008 255.744
221.90686 236.13556 255.744
221.9099 236.13724 255.744
221.90443 236.13417 255.744
221.88742 236.12457 255.744
221.9072 236.13576 255.744
221.92407 236.14526 255.744
221.91551 236.1404 255.744
221.91164 236.13823 255.744
221.90675 236.1355 255.744
221.89824 236.13069 255.744
221.88942 236.12572 255.744
221.90878 236.13664 255.744
221.91144 236.13812 255.744
221.92578 236.14621 255.744
221.91452 236.13986 255.744
221.91754 236.14157 255.744
221.90646 236.13533 255.744
221.91833 236.14197 255.744
221.93501 236.1514 255.744
221.93037 236.14882 255.744
221.88995 236.126 255.744
221.92055 236.14323 255.744
221.9126 236.13876 255.744
221.93419 236.15097 255.744
221.91302 236.139 255.744
221.89789 236.1305 255.744
221.90762 236.13599 255.744
221.90987 236.13722 255.744
221.90869 236.13657 255.744
221.91527 236.14027 255.744
221.88928 236.12564 255.744
221.91325 236.13913 255.744
221.91599 236.14067 255.744
221.92368 236.14503 255.744
221.91858 236.14215 255.744
221.90475 236.13435 255.744
221.9016 236.13258 255.744
221.89024 236.12614 255.744
221.9076 236.13596 255.744
221.89871 236.13094 255.744
221.92502 236.1458 255.744
221.92984 236.14848 255.744
221.91557 236.14046 255.744
221.91109 236.13792 255.744
221.92271 236.14449 255.744
221.91516 236.1402 255.744
221.9229 236.14459 255.744
221.9032 236.1335 255.744
221.92278 236.1445 255.744
221.89508 236.12892 255.744
221.90254 236.1331 255.744
221.89128 236.12677 255.744
221.89317 236.1278 255.744
221.91757 236.1416 255.744
221.90628 236.13521 255.744
221.92871 236.14787 255.744
221.92033 236.14311 255.744
221.90976 236.13716 255.744
221.92886 236.14793 255.744
221.90327 236.1335 255.744
221.92813 236.14754 255.744
221.927 236.14688 255.744
221.92052 236.14325 255.744
221.90788 236.13612 255.744
221.91364 236.13937 255.744
221.92029 236.14313 255.744
221.9341 236.1509 255.744
221.91142 236.13814 255.744
221.91173 236.13828 255.744
221.90349 236.13364 255.744
221.91374 236.1394 255.744
221.90639 236.13525 255.744
221.90445 236.13417 255.744
221.91507 236.14017 255.744
221.90302 236.13335 255.744
221.91722 236.14137 255.744
221.89514 236.12894 255.744
221.90253 236.13307 255.744
221.91579 236.14055 255.744
221.88388 236.12259 255.744
221.90291 236.1333 255.744
221.89201 236.12717 255.744
221.8954 236.12904 255.744
221.8977 236.13039 255.744
221.89272 236.12758 255.744
221.91798 236.14183 255.744
221.92201 236.14407 255.744
221.87836 236.11946 255.744
221.92198 236.14404 255.744
221.89558 236.12917 255.744
221.91011 236.13736 255.744
221.90977 236.13719 255.744
221.89838 236.13075 255.744
221.89896 236.13109 255.744
221.90561 236.1348 255.744
221.91182 236.13834 255.744
221.89128 236.1268 255.744
221.91283 236.1389 255.744
221.89548 236.12912 255.744
221.91676 236.1411 255.744
221.90132 236.13243 255.744
221.90443 236.13419 255.744
221.92986 236.1485 255.744
221.90935 236.13693 255.744
221.90434 236.13411 255.744
221.93912 236.15372 255.744
221.92953 236.14828 255.744
221.92444 236.14546 255.744
221.93579 236.15187 255.744
221.94925 236.15944 255.744
221.94698 236.15816 255.744
221.9384 236.1533 255.744
221.92058 236.14328 255.744
221.93857 236.15341 255.744
221.91747 236.14151 255.744
221.93617 236.15205 255.744
221.94254 236.15565 255.744
221.95123 236.16055 255.744
221.94629 236.15776 255.744
221.94463 236.15683 255.744
221.94342 236.15614 255.744
221.93576 236.15182 255.744
221.9348 236.15129 255.744
221.92804 236.14746 255.744
221.93106 236.1492 255.744
221.95073 236.16026 255.744
221.9268 236.14677 255.744
221.95006 236.1599 255.744
221.91791 236.14177 255.744
221.9425 236.15565 255.744
221.94205 236.15538 255.744
221.95274 236.16144 255.744
221.94945 236.15953 255.744
221.93451 236.15114 255.744
221.92966 236.1484 255.744
221.95894 236.16489 255.744
221.92532 236.14598 255.744
221.91867 236.14218 255.744
221.93285 236.1502 255.744
221.93341 236.15053 255.744
221.92691 236.1468 255.744
221.94803 236.15872 255.744
221.94571 236.15744 255.744
221.93724 236.15266 255.744
221.92412 236.14525 255.744
221.93634 236.15219 255.744
221.93579 236.15186 255.744
221.93903 236.15367 255.744
221.944 236.15646 255.744
221.92029 236.14311 255.744
221.9366 236.1523 255.744
221.9399 236.15416 255.744
221.94588 236.15752 255.744
221.93654 236.15227 255.744
221.94136 236.15498 255.744
221.94722 236.15831 255.744
221.92317 236.14474 255.744
221.9482 236.15887 255.744
221.93782 236.153 255.744
221.9292 236.14812 255.744
221.94568 236.15741 255.744
221.92825 236.1476 255.744
221.96274 236.16702 255.744
221.94283 236.15582 255.744
221.9451 236.15707 255.744
221.95035 236.16005 255.744
221.94942 236.15955 255.744
221.92131 236.1437 255.744
221.94995 236.15984 255.744
221.91284 236.13892 255.744
221.94313 236.15596 255.744
221.935 236.15141 255.744
221.92639 236.14656 255.744
221.94305 236.15596 255.744
221.96399 236.16774 255.744
221.933 236.1503 255.744
221.94646 236.15784 255.744
221.94376 236.15634 255.744
221.94548 236.1573 255.744
221.93706 236.15256 255.744
221.93611 236.15205 255.744
221.92926 236.14816 255.744
221.9417 236.15517 255.744
221.93112 236.14923 255.744
221.93462 236.15118 255.744
221.95456 236.16243 255.744
221.94997 236.15987 255.744
221.93867 236.15349 255.744
221.92851 236.14775 255.744
221.97572 236.17433 255.744
221.93443 236.1511 255.744
221.95238 236.16121 255.744
221.95776 236.16426 255.744
221.93742 236.1528 255.744
221.95338 236.16176 255.744
221.95314 236.16165 255.744
221.93767 236.15288 255.744
221.94435 236.15666 255.744
221.9133 236.13918 255.744
221.92778 236.14734 255.744
221.94151 236.15504 255.744
221.94661 236.15794 255.744
221.94008 236.1543 255.744
221.95148 236.16069 255.744
221.92302 236.14464 255.744
221.93994 236.1542 255.744
221.95685 236.16373 255.744
221.94917 236.15938 255.744
221.93135 236.14932 255.744
221.93956 236.15399 255.744
221.92651 236.14665 255.744
221.94821 236.15887 255.744
221.93742 236.1528 255.744
221.93237 236.14993 255.744
221.93553 236.15172 255.744
221.93628 236.1521 255.744
221.92519 236.14586 255.744
221.94057 236.15456 255.744
221.92363 236.14502 255.744
221.94405 236.15654 255.744
221.94919 236.15941 255.744
221.94543 236.15729 255.744
221.95961 236.1653 255.744
221.93237 236.14993 255.744
221.9249 236.14574 255.744
221.93164 236.1495 255.744
221.93478 236.15129 255.744
221.9275 236.14719 255.744
221.95311 236.1616 255.744
221.96063 236.16586 255.744
221.94452 236.15677 255.744
221.93803 236.1531 255.744
221.9586 236.16472 255.744
221.93806 236.15315 255.744
221.93678 236.15242 255.744
221.95042 236.16011 255.744
221.94481 236.15695 255.744
221.94023 236.15433 255.744
221.94762 236.15851 255.744
221.95003 236.1599 255.744
221.93356 236.15059 255.744
221.9304 236.14882 255.744
221.95122 236.16057 255.744
221.95418 236.16222 255.744
221.94904 236.15935 255.744
221.95673 236.16364 255.744
221.94565 236.1574 255.744
221.94658 236.15793 255.744
221.9443 236.15663 255.744
221.93822 236.15323 255.744
221.93849 236.1534 255.744
221.9506 236.1602 255.744
221.95537 236.1629 255.744
221.94746 236.15845 255.744
221.9298 236.14847 255.744
221.94264 236.15572 255.744
221.94435 236.1567 255.744
221.92531 236.14592 255.744
221.95302 236.16159 255.744
221.9451 236.15709 255.744
221.95454 236.16243 255.744
221.94853 236.15903 255.744
221.94084 236.15471 255.744
221.94879 236.15916 255.744
221.95369 236.16191 255.744
221.95737 236.16399 255.744
221.93347 236.15054 255.744
221.94899 236.15927 255.744
221.94684 236.15808 255.744
221.9621 236.1667 255.744
221.94292 236.15587 255.744
221.94492 236.15697 255.744
221.93182 236.14963 255.744
221.94862 236.1591 255.744
221.93552 236.1517 255.744
221.9433 236.1561 255.744
221.95699 236.1638 255.744
221.9262 236.14645 255.744
221.95892 236.1649 255.744
221.94067 236.1546 255.744
221.93231 236.14986 255.744
221.94186 236.15527 255.744
221.94669 236.158 255.744
221.94766 236.15854 255.744
221.9478 236.15865 255.744
221.94942 236.15953 255.744
221.94577 236.15749 255.744
221.9569 236.16374 255.744
221.9568 236.1637 255.744
221.92769 236.14731 255.744
221.94455 236.1568 255.744
221.93561 236.15178 255.744
221.93843 236.15332 255.744
221.93475 236.15125 255.744
221.96014 236.16556 255.744
221.94179 236.15521 255.744
221.93987 236.15416 255.744
221.96408 236.16782 255.744
221.96045 236.16577 255.744
221.95938 236.16518 255.744
221.9444 236.15671 255.744
221.92984 236.14853 255.744
221.95973 236.16533 255.744
221.94704 236.15817 255.744
221.9458 236.15752 255.744
221.93726 236.15268 255.744
221.94923 236.15941 255.744
221.9532 236.16165 255.744
221.93341 236.15051 255.744
221.94989 236.15977 255.744
221.9409 236.15475 255.744
221.95781 236.16428 255.744
221.96172 236.16649 255.744
221.94087 236.15472 255.744
221.93967 236.15405 255.744
221.94351 236.15622 255.744
221.95166 236.1608 255.744
221.94612 236.15767 255.744
221.94365 236.15625 255.744
221.94458 236.15683 255.744
221.9474 236.1584 255.744
221.94304 236.15593 255.744
221.95862 236.16472 255.744
221.95624 236.16339 255.744
221.94768 236.15855 255.744
221.92526 236.14592 255.744
221.94374 236.15634 255.744
221.92593 236.14629 255.744
221.93935 236.15385 255.744
221.9296 236.14835 255.744
221.94812 236.1588 255.744
221.94838 236.15892 255.744
221.94514 236.15714 255.744
221.94182 236.15523 255.744
221.95679 236.1637 255.744
221.95737 236.16402 255.744
221.95238 236.16121 255.744
221.95526 236.16283 255.744
221.94374 236.15631 255.744
221.93518 236.1515 255.744
221.9257 236.14615 255.744
221.93709 236.15262 255.744
221.94395 236.15643 255.744
221.96025 236.16565 255.744
221.94319 236.15602 255.744
221.94792 236.15868 255.744
221.94594 236.15758 255.744
221.94884 236.15921 255.744
221.94797 236.1587 255.744
221.94159 236.15512 255.744
221.93633 236.15216 255.744
221.95403 236.16211 255.744
221.92427 236.14532 255.744
221.94608 236.15767 255.744
221.94675 236.15804 255.744
221.95801 236.16437 255.744
221.95651 236.16353 255.744
221.94528 236.15723 255.744
221.95079 236.16031 255.744
221.938 236.15308 255.744
221.94493 236.15698 255.744
221.94514 236.15714 255.744
221.9455 236.15735 255.744
221.94153 236.15508 255.744
221.93747 236.1528 255.744
221.9459 236.15756 255.744
219.11517 233.3657 253.2423
219.51314 234.19041 254.62488
207.1064 221.7123 242.13904
201.68279 216.08768 236.37807
189.11787 204.9218 226.18628
173.93454 188.95642 210.10277
178.14297 195.78123 219.79398
178.81177 196.66475 220.96225
156.71378 173.57953 196.75632
160.39058 179.23938 203.75854
159.7786 176.89738 200.5852
161.13676 180.359 205.88286
154.79518 172.69864 196.6219
147.63696 165.83739 190.4702
146.6057 165.87129 191.11966
148.16605 165.95145 189.85472
148.464 166.50525 190.33493
141.36008 159.61174 184.09637
140.46344 158.03598 181.81923
140.2808 157.42384 180.50595
148.81363 167.08965 192.0021
143.53227 160.7889 184.2235
141.65085 157.9588 180.2202
138.3124 157.37314 180.66356
141.38976 160.50066 185.55301
139.34074 158.27829 182.21411
146.74332 165.47621 190.83598
140.57327 158.54524 181.63902
143.25523 163.4942 188.57246
145.56596 164.5399 189.78688
139.19104 155.77905 177.60608
142.47136 162.00851 186.98523
141.32996 160.38512 184.19817
143.81665 160.51662 183.45323
137.4422 155.04074 178.22359
144.07458 161.81998 185.67252
139.94682 159.52339 182.64786
137.51921 154.98903 178.13533
141.79453 162.04486 186.97906
141.70233 158.52567 181.20033
143.73785 163.03072 188.23282
142.10909 160.598 184.54333
139.76363 155.98175 178.00752
139.1246 157.78932 179.93019
138.03331 154.56262 177.07132
140.1553 158.75279 183.72452
140.37674 159.5656 183.88657
143.71553 162.94547 188.2135
143.27937 161.39961 185.63783
142.79291 162.16405 186.33578
140.71562 160.36552 181.82416
147.2759 167.2598 191.78668
142.54259 160.09142 181.93118
142.73808 159.7918 182.0824
137.75555 155.51392 178.7162
135.87611 155.97783 174.59554
138.94655 157.82285 178.70276
146.43782 164.8708 188.71071
140.48636 157.88007 178.97018
141.67885 159.85501 182.27834
143.22812 162.50517 185.1505
150.53952 170.83177 193.85893
138.27634 156.10577 175.13414
141.86037 157.89438 177.2006
148.96695 168.65909 190.77083
153.98625 172.91612 195.96689
144.18442 162.173 183.23814
151.62611 168.72392 189.97134
152.75166 170.91528 192.35338
164.58704 182.12698 203.43585
163.09842 179.54541 201.46332
178.12668 194.08527 214.19495
199.05157 215.7286 238.2854
205.1695 220.45006 241.40816
214.92839 229.81027 250.64105
215.45096 229.72205 249.70546
221.84021 236.09796 255.744
221.94937 236.1595 255.744
221.95079 236.16034 255.744
221.91936 236.1426 255.744
221.94763 236.15854 255.744
221.93008 236.14864 255.744
221.96645 236.16914 255.744
221.94615 236.1577 255.744
221.95824 236.16446 255.744
221.95891 236.16492 255.744
221.9602 236.1656 255.744
221.93811 236.15314 255.744
221.94173 236.15518 255.744
221.96748 236.16974 255.744
221.95491 236.16264 255.744
221.94919 236.15944 255.744
221.95137 236.16063 255.744
221.93266 236.15009 255.744
221.93912 236.15375 255.744
221.93806 236.15315 255.744
221.93855 236.15343 255.744
221.95251 236.1613 255.744
221.9423 236.15553 255.744
221.95836 236.16458 255.744
221.95851 236.16464 255.744
221.94733 236.15836 255.744
221.95204 236.16103 255.744
219.47852 232.72429 251.38701
210.40334 220.41302 235.02657
199.47276 205.6344 215.27498
187.37224 189.43619 193.5178
179.75645 180.43459 182.30774
178.22282 179.06451 181.01933
176.59 178.23058 181.01933
175.73587 177.79588 181.01933
174.93471 177.38908 181.01933
174.25792 177.04617 181.01933
173.26326 176.54343 181.01933
172.60068 176.2093 181.01933
172.04573 175.92998 181.01933
171.48611 175.64877 181.01933
171.06769 175.43884 181.01933
170.5224 175.1656 181.01933
170.0056 174.90704 181.01933
169.4581 174.63359 181.01933
169.03593 174.42307 181.01933
168.75081 174.281 181.01933
168.235 174.02435 181.01933
167.86084 173.83844 181.01933
167.74495 173.7809 181.01933
167.24689 173.53383 181.01933
167.04193 173.43228 181.01933
166.75105 173.28827 181.01933
166.50598 173.16704 181.01933
166.13443 172.98341 181.01933
165.98685 172.91054 181.01933
165.81325 172.82484 181.01933
165.66588 172.75217 181.01933
165.40552 172.62381 181.01933
165.27763 172.56079 181.01933
165.13905 172.49257 181.01933
164.9518 172.40038 181.01933
164.8422 172.34647 181.01933
164.64246 172.24823 181.01933
164.54308 172.19939 181.01933
164.53899 172.19742 181.01933
164.43106 172.14438 181.01933
164.3508 172.10493 181.01933
164.34245 172.10083 181.01933
164.353 172.10603 181.01933
164.33376 172.09654 181.01933
164.34065 172.09995 181.01933
164.29672 172.07838 181.01933
164.3221 172.09082 181.01933
164.41032 172.13416 181.01933
164.36862 172.11368 181.01933
164.43602 172.14679 181.01933
164.54979 172.2027 181.01933
164.73222 172.29234 181.01933
164.7446 172.29846 181.01933
164.7849 172.31827 181.01933
164.8972 172.37352 181.01933
165.1301 172.48813 181.01933
165.3095 172.57649 181.01933
165.53606 172.68816 181.01933
165.5804 172.71 181.01933
165.74643 172.79189 181.01933
166.0444 172.93895 181.01933
166.34656 173.08823 181.01933
166.46185 173.1452 181.01933
166.8366 173.3306 181.01933
167.06026 173.44136 181.01933
167.27904 173.54979 181.01933
167.73512 173.77603 181.01933
167.84235 173.82925 181.01933
168.31993 174.06659 181.01933
168.76418 174.28766 181.01933
169.16339 174.4866 181.01933
169.59108 174.69998 181.01933
169.95549 174.88202 181.01933
170.58234 175.19559 181.01933
170.87491 175.34218 181.01933
171.70819 175.76033 181.01933
172.28618 176.05095 181.01933
172.85284 176.33643 181.01933
173.58725 176.70702 181.01933
174.15135 176.99223 181.01933
174.9655 177.40471 181.01933
175.83612 177.84686 181.01933
176.603 178.23721 181.01933
178.18625 179.04578 181.01933
179.03209 179.4792 181.01933
185.63023 187.43378 191.08353
200.54684 207.18863 217.4386
213.65219 224.83627 240.92773
219.95415 233.40627 252.31636
221.94566 236.15742 255.744
221.93365 236.15062 255.744
221.94368 236.15631 255.744
221.93951 236.15398 255.744
221.92961 236.14836 255.744
221.92674 236.14676 255.744
221.93822 236.15321 255.744
221.96559 236.16866 255.744
221.94464 236.15683 255.744
221.91255 236.13875 255.744
221.92737 236.1471 255.744
221.93364 236.15063 255.744
221.9689 236.17052 255.744
221.94995 236.15984 255.744
221.9576 236.16414 255.744
221.92236 236.14427 255.744
221.93672 236.15237 255.744
221.92316 236.14471 255.744
221.95331 236.16174 255.744
221.95334 236.16173 255.744
221.94225 236.1555 255.744
221.9526 236.16133 255.744
221.94373 236.15633 255.744
221.92743 236.14716 255.744
221.93759 236.15288 255.744
221.92949 236.14833 255.744
221.92487 236.14569 255.744
221.94363 236.15627 255.744
221.9522 236.16109 255.744
221.93437 236.1511 255.744
221.94832 236.1589 255.744
221.94655 236.15791 255.744
221.94092 236.15475 255.744
221.9276 236.14723 255.744
221.96367 236.16754 255.744
221.93373 236.15068 255.744
221.94354 236.15623 255.744
221.93494 236.15138 255.744
221.9397 236.15405 255.744
221.94673 236.15802 255.744
221.92204 236.14409 255.744
221.94159 236.15512 255.744
221.9588 236.16486 255.744
221.93451 236.15114 255.744
221.9517 236.16083 255.744
221.94276 236.15579 255.744
221.93358 236.15062 255.744
221.9364 236.1522 255.744
221.9536 236.16188 255.744
221.94504 236.15706 255.744
221.94653 236.15791 255.744
221.94052 236.15453 255.744
221.94417 236.15656 255.744
221.94084 236.15471 255.744
221.9342 236.15094 255.744
221.95157 236.16075 255.744
221.96408 236.16782 255.744
221.9331 236.15033 255.744
221.92606 236.14633 255.744
221.93097 236.14914 255.744
221.94786 236.15866 255.744
221.93175 236.14958 255.744
221.95728 236.16399 255.744
221.93538 236.15161 255.744
221.94853 236.15906 255.744
221.93152 236.14944 255.744
221.92838 236.14767 255.744
221.96642 236.16913 255.744
221.9487 236.15912 255.744
221.9383 236.15323 255.744
221.95412 236.1622 255.744
221.91888 236.14232 255.744
221.93842 236.1533 255.744
221.94434 236.15668 255.744
221.93968 236.15404 255.744
221.96442 236.16801 255.744
221.94264 236.15572 255.744
221.94266 236.15572 255.744
221.94974 236.15973 255.744
221.92532 236.14595 255.744
221.9431 236.15596 255.744
221.93442 236.15108 255.744
221.94975 236.15974 255.744
221.93025 236.14874 255.744
221.93576 236.15186 255.744
221.93567 236.15175 255.744
221.92435 236.1454 255.744
221.93651 236.15224 255.744
221.95198 236.16101 255.744
221.95854 236.16469 255.744
221.93906 236.1537 255.744
221.93309 236.15033 255.744
221.9215 236.14377 255.744
221.9202 236.14305 255.744
221.93237 236.1499 255.744
221.92984 236.14848 255.744
221.93404 236.15085 255.744
221.94681 236.15808 255.744
221.92735 236.1471 255.744
221.96202 236.16666 255.744
221.93568 236.15182 255.744
221.93019 236.14871 255.744
221.9399 236.15417 255.744
221.9177 236.14165 255.744
221.92894 236.14798 255.744
221.91953 236.14268 255.744
221.9279 236.14743 255.744
221.94853 236.15904 255.744
221.95387 236.16203 255.744
221.94402 236.15651 255.744
221.93372 236.15068 255.744
221.94817 236.15881 255.744
221.95383 236.16205 255.744
221.93626 236.15211 255.744
221.93756 236.15288 255.744
221.94998 236.15987 255.744
221.91428 236.13976 255.744
221.93195 236.14969 255.744
221.94014 236.15431 255.744
221.94055 236.15453 255.744
221.9349 236.15134 255.744
221.91997 236.14293 255.744
221.92789 236.14742 255.744
221.9411 236.15483 255.744
221.9362 236.15205 255.744
221.93674 236.15239 255.744
221.9315 236.14943 255.744
221.92986 236.14851 255.744
221.93553 236.1517 255.744
221.94336 236.1561 255.744
221.94853 236.15904 255.744
221.93988 236.15414 255.744
221.946 236.15764 255.744
221.94778 236.15862 255.744
221.93393 236.15079 255.744
221.953 236.16158 255.744
221.93144 236.1494 255.744
221.9497 236.15968 255.744
221.92883 236.14793 255.744
221.94855 236.15907 255.744
221.94826 236.15889 255.744
221.93211 236.1498 255.744
221.94731 236.15836 255.744
221.9355 236.15169 255.744
221.94531 236.15723 255.744
221.93279 236.15015 255.744
221.94179 236.15526 255.744
221.97008 236.17117 255.744
221.9766 236.17488 255.744
221.97044 236.17139 255.744
221.97139 236.1719 255.744
221.97293 236.17279 255.744
221.96538 236.16852 255.744
221.96588 236.16881 255.744
221.95897 236.16495 255.744
221.95905 236.16498 255.744
221.99345 236.18436 255.744
221.97012 236.17122 255.744
221.96965 236.17094 255.744
221.9682 236.1701 255.744
221.95634 236.16344 255.744
221.96617 236.16896 255.744
221.95296 236.16154 255.744
221.97359 236.17316 255.744
221.97826 236.1758 255.744
221.97559 236.17427 255.744
221.98303 236.1785 255.744
221.94691 236.15813 255.744
221.97227 236.17244 255.744
221.97838 236.1759 255.744
221.98372 236.17886 255.744
221.95932 236.16515 255.744
221.9726 236.1726 255.744
221.96194 236.16663 255.744
221.97002 236.17116 255.744
221.97325 236.17297 255.744
221.98262 236.17824 255.744
221.98547 236.17987 255.744
221.97054 236.17143 255.744
221.98897 236.18184 255.744
221.95613 236.16331 255.744
221.96675 236.16931 255.744
221.95659 236.16357 255.744
221.96846 236.17024 255.744
221.97969 236.17662 255.744
221.97488 236.17386 255.744
221.98494 236.17957 255.744
221.96188 236.16658 255.744
221.9757 236.17435 255.744
221.95885 236.16483 255.744
221.97237 236.17249 255.744
221.9726 236.17258 255.744
221.98102 236.17735 255.744
221.95703 236.16382 255.744
221.96786 236.16994 255.744
221.97852 236.17593 255.744
221.97075 236.17155 255.744
221.99358 236.18442 255.744
221.96855 236.17036 255.744
221.96321 236.16733 255.744
221.9689 236.17053 255.744
221.96193 236.1666 255.744
221.98506 236.17963 255.744
221.96298 236.16718 255.744
221.96826 236.17017 255.744
221.95776 236.16426 255.744
221.95946 236.16519 255.744
221.97018 236.17125 255.744
221.97171 236.17209 255.744
221.98463 236.1794 255.744
221.98032 236.17699 255.744
221.98259 236.17822 255.744
221.97528 236.17415 255.744
221.97438 236.17363 255.744
221.96194 236.16661 255.744
221.97797 236.17563 255.744
221.95601 236.16325 255.744
221.97685 236.17502 255.744
221.9745 236.17368 255.744
221.97897 236.1762 255.744
221.97765 236.17549 255.744
221.97562 236.1743 255.744
221.9712 236.17184 255.744
221.97131 236.17188 255.744
221.9638 236.16765 255.744
221.95903 236.165 255.744
221.9748 236.17384 255.744
221.9588 236.16483 255.744
221.9668 236.16934 255.744
221.98228 236.17809 255.744
221.97026 236.17128 255.744
221.97911 236.17628 255.744
221.96918 236.1707 255.744
221.97913 236.17633 255.744
221.97537 236.17416 255.744
221.98613 236.18024 255.744
221.96413 236.16783 255.744
221.96135 236.16629 255.744
221.98032 236.17694 255.744
221.96204 236.16666 255.744
221.9684 236.17024 255.744
221.99176 236.18344 255.744
221.96663 236.16922 255.744
221.97127 236.17186 255.744
221.98615 236.18025 255.744
221.98262 236.17827 255.744
221.9654 236.16853 255.744
221.98279 236.17836 255.744
221.96432 236.16794 255.744
221.97731 236.17525 255.744
221.97803 236.17566 255.744
221.98161 236.17769 255.744
221.97716 236.17517 255.744
221.967 236.16948 255.744
221.96098 236.16606 255.744
221.96962 236.17093 255.744
221.97078 236.17159 255.744
221.98875 236.18173 255.744
221.98296 236.17847 255.744
221.98413 236.17911 255.744
221.98253 236.1782 255.744
221.96123 236.16621 255.744
221.97746 236.17535 255.744
221.96703 236.16948 255.744
221.98318 236.17859 255.744
221.98363 236.17883 255.744
221.98608 236.18022 255.744
221.99089 236.18297 255.744
221.9658 236.1688 255.744
221.97885 236.1761 255.744
221.96373 236.16763 255.744
221.98422 236.17918 255.744
221.98201 236.1779 255.744
221.97473 236.17383 255.744
221.97137 236.17192 255.744
221.97456 236.1737 255.744
221.96617 236.16898 255.744
221.97603 236.17456 255.744
221.96835 236.17021 255.744
221.96233 236.16682 255.744
221.96829 236.1702 255.744
221.98125 236.1775 255.744
221.96915 236.17064 255.744
221.98532 236.17978 255.744
221.98517 236.1797 255.744
221.98831 236.18147 255.744
221.96526 236.16849 255.744
221.97319 236.17294 255.744
221.97751 236.17535 255.744
221.97206 236.1723 255.744
221.9797 236.17662 255.744
221.96823 236.17012 255.744
221.9799 236.17671 255.744
221.96156 236.16638 255.744
221.9767 236.17491 255.744
221.98058 236.17711 255.744
221.98363 236.17883 255.744
221.97562 236.17432 255.744
221.99449 236.18497 255.744
221.96013 236.16557 255.744
221.96512 236.16841 255.744
221.9646 236.16808 255.744
221.99243 236.18378 255.744
221.96663 236.16924 255.744
221.97176 236.17213 255.744
221.9516 236.16077 255.744
221.98178 236.1778 255.744
221.97324 236.17299 255.744
221.98317 236.17854 255.744
221.96594 236.16885 255.744
221.9968 236.18626 255.744
221.9707 236.17152 255.744
221.96645 236.16919 255.744
221.977 236.1751 255.744
221.98126 236.1775 255.744
221.96483 236.16821 255.744
221.97215 236.17233 255.744
221.95853 236.16467 255.744
221.9872 236.18082 255.744
221.99864 236.18729 255.744
221.99878 236.18738 255.744
221.96953 236.17088 255.744
221.9708 236.1716 255.744
221.97964 236.17659 255.744
221.97025 236.17128 255.744
221.97946 236.17648 255.744
221.98029 236.17693 255.744
221.96342 236.16743 255.744
221.95131 236.1606 255.744
221.96452 236.16808 255.744
221.97412 236.17348 255.744
221.96341 236.1674 255.744
221.975 236.17398 255.744
221.98946 236.18213 255.744
221.98602 236.18018 255.744
221.97534 236.17418 255.744
221.97246 236.17253 255.744
221.9844 236.17928 255.744
221.96008 236.16557 255.744
221.95181 236.16092 255.744
221.98143 236.17758 255.744
221.95773 236.16423 255.744
221.99147 236.18324 255.744
221.96884 236.1705 255.744
221.9868 236.18062 255.744
221.98256 236.17822 255.744
222.00119 236.18874 255.744
221.97783 236.17557 255.744
221.96031 236.16566 255.744
221.9731 236.17288 255.744
221.98239 236.17812 255.744
221.98222 236.17804 255.744
221.97641 236.17477 255.744
221.96548 236.1686 255.744
221.96121 236.1662 255.744
221.98781 236.18114 255.744
221.96025 236.16562 255.744
221.98453 236.17934 255.744
221.96063 236.16586 255.744
221.9757 236.17435 255.744
221.98752 236.18103 255.744
221.97546 236.17422 255.744
221.96991 236.17108 255.744
221.9883 236.18146 255.744
221.9707 236.17155 255.744
221.9777 236.17549 255.744
221.97252 236.17258 255.744
221.97894 236.17616 255.744
221.97426 236.17352 255.744
221.96986 236.17107 255.744
221.97655 236.17484 255.744
221.96826 236.17017 255.744
221.97467 236.1738 255.744
221.96533 236.16849 255.744
221.97025 236.17131 255.744
221.96805 236.17004 255.744
221.99147 236.18324 255.744
221.97414 236.17348 255.744
221.97644 236.17477 255.744
221.9661 236.16895 255.744
221.96733 236.16963 255.744
221.96536 236.16855 255.744
221.98932 236.18205 255.744
221.96924 236.1707 255.744
221.99086 236.18292 255.744
221.97356 236.17314 255.744
221.96526 236.16847 255.744
221.98268 236.1783 255.744
221.97786 236.17552 255.744
221.97675 236.17496 255.744
221.9692 236.1707 255.744
221.97035 236.17131 255.744
221.96536 236.16853 255.744
221.96783 236.16992 255.744
221.98372 236.17891 255.744
221.96562 236.16869 255.744
221.97073 236.17152 255.744
221.97331 236.17302 255.744
221.96085 236.166 255.744
221.97438 236.17358 255.744
221.9666 236.16922 255.744
221.98282 236.17836 255.744
221.95888 236.16486 255.744
221.9828 236.17836 255.744
221.9646 236.1681 255.744
221.98746 236.18102 255.744
221.96994 236.17111 255.744
217.37473 231.98378 252.31636
210.74443 225.3939 245.87996
201.33174 215.9037 236.41669
192.93773 208.55475 230.29839
178.83289 193.748 215.05742
172.86198 188.97107 211.55446
163.72574 181.14516 205.08553
165.98909 185.0031 210.32547
163.00018 181.11127 205.83737
159.68903 177.28172 200.7291
154.47748 172.84062 197.46878
153.71793 170.84558 194.3626
153.50098 171.77704 196.19585
150.24208 168.56133 192.48584
147.95822 165.19434 188.86584
146.77802 163.46802 186.6469
145.65945 163.57013 187.24791
146.92088 165.50224 190.22417
142.46515 161.401 186.62181
151.75801 170.43288 195.80235
142.31099 159.6299 182.55156
142.46115 160.65527 184.4013
145.8827 162.73497 186.01224
138.41849 154.01437 176.23672
139.93654 157.27654 180.09903
135.97017 150.92258 172.54585
146.92215 166.58916 192.46207
142.35468 160.51672 184.08498
140.76083 157.7098 180.83694
142.9189 162.39922 186.47136
144.08891 163.48242 187.54028
140.59227 159.32216 182.79507
139.98746 158.075 181.14537
142.55405 159.30716 181.78065
142.22783 160.54514 184.11807
143.38783 162.63538 187.25558
138.63564 156.245 179.71529
144.88954 164.86012 189.70679
143.98613 163.86525 186.86383
135.74313 153.56816 176.826
140.21019 159.09148 183.7676
140.36543 157.04945 179.91693
143.8575 163.35582 188.48134
137.81703 154.74478 176.9459
142.81075 161.16519 185.35083
138.3746 155.66621 179.22612
145.22542 164.75816 189.70679
141.2365 158.57716 181.43204
145.48073 163.93727 188.22662
141.61513 160.72293 184.83873
141.09259 160.14578 183.2236
143.043 162.23116 186.21391
138.82578 158.05838 180.96797
142.02246 161.17482 184.1106
145.881 165.90628 190.56238
135.99055 152.87839 172.8775
139.88232 157.23772 180.05222
147.05496 166.15369 189.56494
140.86444 157.62392 179.49377
144.08972 163.07803 186.04819
143.6673 163.1677 186.76619
140.18745 158.916 182.68665
139.4508 158.42548 178.92462
150.5105 171.22021 195.99966
137.10439 156.00139 176.32729
143.3232 162.77615 182.25018
151.5901 171.8473 195.75475
141.32489 159.54315 178.1261
142.96097 162.1603 182.66599
148.24243 168.28996 188.18452
157.6588 176.79605 198.07607
165.03108 184.33434 207.85681
163.37466 181.42279 203.14505
166.25812 182.21718 203.84685
182.27484 198.7255 220.57007
190.74876 207.3373 229.1492
203.7681 219.49951 240.27603
207.34877 222.75865 243.08458
218.37984 232.95174 253.2423
221.91249 236.13872 255.744
221.88724 236.12448 255.744
221.98213 236.178 255.744
221.96281 236.16707 255.744
221.99474 236.18509 255.744
221.98442 236.17929 255.744
221.98605 236.1802 255.744
221.96901 236.1706 255.744
221.96051 236.1658 255.744
221.99168 236.1834 255.744
221.97318 236.17294 255.744
221.97937 236.1764 255.744
221.96304 236.1672 255.744
221.97171 236.1721 255.744
221.98671 236.18056 255.744
221.96468 236.16815 255.744
221.97684 236.17499 255.744
221.97781 236.17555 255.744
221.97144 236.17195 255.744
221.96553 236.16861 255.744
221.97406 236.17339 255.744
221.98778 236.18117 255.744
221.97466 236.17377 255.744
215.86938 227.77605 244.78282
202.0888 208.96588 219.5809
190.15097 193.04393 198.29675
181.98497 182.73386 184.85764
178.56422 179.23933 181.01933
177.18256 178.53276 181.01933
176.08911 177.97554 181.01933
174.91017 177.37666 181.01933
174.2277 177.03088 181.01933
173.25388 176.53871 181.01933
172.66966 176.24408 181.01933
171.9645 175.88914 181.01933
171.14436 175.47726 181.01933
170.60617 175.20755 181.01933
170.23137 175.01997 181.01933
169.60698 174.70792 181.01933
169.35037 174.57986 181.01933
168.89404 174.35236 181.01933
168.24707 174.03036 181.01933
167.88187 173.84888 181.01933
167.63994 173.72879 181.01933
167.17836 173.4999 181.01933
166.792 173.30853 181.01933
166.48715 173.15773 181.01933
166.21169 173.02159 181.01933
165.86139 172.84862 181.01933
165.68883 172.76347 181.01933
165.31306 172.57823 181.01933
165.21434 172.52962 181.01933
164.91808 172.38377 181.01933
164.68256 172.26794 181.01933
164.50792 172.18213 181.01933
164.3015 172.08073 181.01933
164.22516 172.04324 181.01933
164.0115 171.9384 181.01933
163.81194 171.84052 181.01933
163.69168 171.78156 181.01933
163.6441 171.75827 181.01933
163.49544 171.68542 181.01933
163.42422 171.65056 181.01933
163.46344 171.66975 181.01933
163.31435 171.59679 181.01933
163.24545 171.56306 181.01933
163.1543 171.51845 181.01933
163.16028 171.52138 181.01933
163.16516 171.52379 181.01933
163.18387 171.5329 181.01933
163.17995 171.531 181.01933
163.12538 171.50433 181.01933
163.21626 171.54877 181.01933
163.28067 171.58029 181.01933
163.32785 171.60341 181.01933
163.36545 171.62178 181.01933
163.47124 171.67358 181.01933
163.56865 171.72128 181.01933
163.62355 171.74818 181.01933
163.79115 171.83032 181.01933
163.86781 171.8679 181.01933
164.02406 171.94455 181.01933
164.21884 172.04016 181.01933
164.39272 172.12553 181.01933
164.61214 172.23334 181.01933
164.71054 172.28172 181.01933
164.97855 172.41354 181.01933
165.22475 172.53474 181.01933
165.38623 172.61427 181.01933
165.67224 172.75528 181.01933
165.95624 172.89542 181.01933
166.20222 173.0169 181.01933
166.45413 173.1414 181.01933
166.85336 173.3389 181.01933
167.2715 173.54604 181.01933
167.61978 173.7188 181.01933
167.98235 173.8988 181.01933
168.44882 174.13068 181.01933
168.8345 174.3227 181.01933
169.14563 174.47775 181.01933
169.78163 174.79515 181.01933
170.25993 175.03423 181.01933
170.81955 175.31442 181.01933
171.37434 175.59264 181.01933
171.94733 175.88048 181.01933
172.73152 176.27524 181.01933
173.48306 176.65442 181.01933
174.15393 176.99356 181.01933
174.91635 177.3798 181.01933
175.9052 177.88196 181.01933
177.06467 178.47266 181.01933
178.59541 179.25533 181.01933
181.82335 182.65086 184.85764
189.44687 192.14168 197.11287
207.68243 216.6733 229.99329
219.44875 232.71066 251.38701
221.96391 236.16771 255.744
221.96661 236.16922 255.744
221.97514 236.17406 255.744
221.96777 236.16989 255.744
221.96843 236.17027 255.744
221.97623 236.17465 255.744
221.99176 236.18343 255.744
221.98166 236.17773 255.744
221.98503 236.17964 255.744
221.95903 236.16498 255.744
221.9763 236.1747 255.744
221.96599 236.1689 255.744
221.98703 236.18076 255.744
221.97179 236.17215 255.744
221.96944 236.1708 255.744
221.9487 236.1591 255.744
222.00003 236.18808 255.744
221.98123 236.1775 255.744
221.95497 236.16269 255.744
221.97444 236.17363 255.744
221.9805 236.17703 255.744
221.9892 236.18199 255.744
221.98343 236.17868 255.744
221.96645 236.16917 255.744
221.96255 236.16698 255.744
221.98445 236.17928 255.744
221.95972 236.16534 255.744
221.96156 236.16638 255.744
221.98273 236.1783 255.744
221.99188 236.1835 255.744
221.98737 236.18092 255.744
221.98425 236.17917 255.744
221.97493 236.17392 255.744
221.9641 236.16782 255.744
221.98004 236.17682 255.744
221.97046 236.1714 255.744
221.98804 236.18132 255.744
221.96571 236.16873 255.744
221.95352 236.16185 255.744
221.96931 236.17076 255.744
221.97758 236.17542 255.744
221.98117 236.17744 255.744
221.97282 236.17271 255.744
221.98442 236.17929 255.744
221.95554 236.16298 255.744
221.98634 236.18034 255.744
221.99358 236.18442 255.744
221.96523 236.16843 255.744
221.99199 236.18355 255.744
221.98782 236.18117 255.744
221.96631 236.16907 255.744
221.96445 236.168 255.744
221.98616 236.18027 255.744
221.97029 236.1713 255.744
221.97159 236.17204 255.744
221.98383 236.17891 255.744
221.97615 236.1746 255.744
221.96402 236.16779 255.744
221.97432 236.1736 255.744
221.97299 236.17284 255.744
221.99075 236.18285 255.744
221.97331 236.17302 255.744
221.9657 236.16873 255.744
221.97214 236.17232 255.744
221.97226 236.1724 255.744
221.95364 236.1619 255.744
221.98679 236.18063 255.744
221.9864 236.18039 255.744
221.96959 236.17091 255.744
221.96582 236.1688 255.744
221.987 236.18071 255.744
221.9677 236.16988 255.744
221.968 236.17001 255.744
221.96898 236.17056 255.744
221.97185 236.17218 255.744
221.99225 236.18369 255.744
221.98541 236.17982 255.744
221.96902 236.17061 255.744
221.95874 236.16476 255.744
221.97775 236.1755 255.744
221.9818 236.17778 255.744
221.9691 236.17061 255.744
221.9813 236.17752 255.744
221.9749 236.17389 255.744
221.96037 236.16571 255.744
221.97668 236.1749 255.744
221.95917 236.16501 255.744
221.97499 236.17395 255.744
221.9622 236.16675 255.744
221.94597 236.1576 255.744
221.96695 236.1694 255.744
221.9801 236.17683 255.744
221.97925 236.17635 255.744
221.96956 236.17087 255.744
221.96112 236.16614 255.744
221.96939 236.17079 255.744
221.96123 236.16618 255.744
221.97298 236.17284 255.744
221.98036 236.17697 255.744
221.98804 236.18132 255.744
221.96684 236.16936 255.744
221.96625 236.16902 255.744
221.95493 236.16267 255.744
221.95544 236.16293 255.744
221.97307 236.17285 255.744
221.96077 236.16594 255.744
221.95966 236.1653 255.744
221.97862 236.176 255.744
221.98878 236.1817 255.744
221.9619 236.16658 255.744
221.99599 236.1858 255.744
221.97491 236.17393 255.744
221.96138 236.16626 255.744
221.97435 236.17363 255.744
221.98602 236.18018 255.744
221.99326 236.18423 255.744
221.96228 236.1668 255.744
221.95802 236.1644 255.744
221.97423 236.17354 255.744
221.98442 236.17929 255.744
221.9768 236.175 255.744
221.96495 236.1683 255.744
221.96655 236.1692 255.744
221.98499 236.1796 255.744
221.98026 236.1769 255.744
221.95789 236.16429 255.744
221.95749 236.1641 255.744
221.97511 236.17401 255.744
221.97139 236.17195 255.744
221.98326 236.17859 255.744
221.9642 236.16791 255.744
221.96713 236.16954 255.744
221.95247 236.16124 255.744
221.95898 236.16493 255.744
221.97173 236.17212 255.744
221.96393 236.16774 255.744
221.9658 236.16878 255.744
221.96858 236.17036 255.744
221.97922 236.17635 255.744
221.9798 236.17668 255.744
221.95753 236.16411 255.744
221.9869 236.18065 255.744
221.95395 236.16211 255.744
221.98372 236.1789 255.744
221.95726 236.164 255.744
222.00073 236.18846 255.744
221.98643 236.18042 255.744
221.99591 236.18576 255.744
222.012 236.19481 255.744
221.99332 236.1843 255.744
222.00543 236.19113 255.744
221.98245 236.17816 255.744
222.0055 236.19113 255.744
222.00116 236.18872 255.744
222.0005 236.18832 255.744
221.98589 236.1801 255.744
222.00053 236.18837 255.744
221.98767 236.18112 255.744
222.01204 236.19484 255.744
222.00986 236.1936 255.744
222.00998 236.19368 255.744
222.00432 236.1905 255.744
221.99883 236.1874 255.744
221.99358 236.18445 255.744
221.98914 236.18193 255.744
222.00404 236.19032 255.744
222.01341 236.19563 255.744
221.98799 236.1813 255.744
221.9858 236.18007 255.744
222.01312 236.19545 255.744
221.98825 236.18144 255.744
222.01382 236.19588 255.744
221.98666 236.18051 255.744
221.98557 236.17993 255.744
221.98758 236.18108 255.744
221.99123 236.1831 255.744
222.00806 236.1926 255.744
222.01187 236.19475 255.744
222.01295 236.19536 255.744
221.99438 236.18488 255.744
222.01572 236.19691 255.744
221.9968 236.18625 255.744
222.00137 236.18883 255.744
222.00346 236.19002 255.744
222.01527 236.19666 255.744
222.01515 236.19658 255.744
221.99803 236.18695 255.744
222.01872 236.19861 255.744
221.99272 236.18396 255.744
221.9969 236.18633 255.744
222.00346 236.19003 255.744
221.99861 236.18727 255.744
222.00163 236.18895 255.744
221.99252 236.18385 255.744
222.02585 236.20265 255.744
222.0128 236.19531 255.744
222.00201 236.1892 255.744
222.00804 236.19261 255.744
222.00151 236.18892 255.744
221.99968 236.18788 255.744
222.0008 236.18849 255.744
222.02063 236.1997 255.744
222.01451 236.19623 255.744
221.99799 236.18694 255.744
222.00165 236.18901 255.744
222.00644 236.19168 255.744
222.00401 236.1903 255.744
221.99905 236.18755 255.744
221.98846 236.18156 255.744
221.996 236.1858 255.744
222.00781 236.19246 255.744
221.9978 236.1868 255.744
222.00691 236.19196 255.744
221.99677 236.18625 255.744
221.98499 236.17961 255.744
222.01065 236.19403 255.744
222.00325 236.18988 255.744
222.01717 236.19775 255.744
221.98907 236.18192 255.744
221.98367 236.17885 255.744
221.99976 236.18796 255.744
222.0102 236.19379 255.744
222.01004 236.19371 255.744
221.9855 236.17989 255.744
221.99232 236.18372 255.744
221.98643 236.18039 255.744
221.99687 236.1863 255.744
222.01895 236.19875 255.744
222.00528 236.19104 255.744
221.99918 236.1876 255.744
221.995 236.18523 255.744
222.01248 236.1951 255.744
221.98917 236.18192 255.744
221.99165 236.18335 255.744
222.00829 236.19275 255.744
222.01192 236.19482 255.744
222.00711 236.19208 255.744
221.99442 236.18492 255.744
222.0008 236.18854 255.744
222.00024 236.1882 255.744
221.99243 236.18379 255.744
222.01405 236.19601 255.744
222.00732 236.19218 255.744
221.98488 236.17958 255.744
222.02069 236.19974 255.744
222.01172 236.19469 255.744
222.00693 236.19193 255.744
221.99594 236.18578 255.744
222.01677 236.19753 255.744
221.9985 236.18723 255.744
222.01216 236.19492 255.744
222.00465 236.19072 255.744
221.9993 236.18765 255.744
222.01767 236.19801 255.744
222.01079 236.19414 255.744
222.02733 236.20348 255.744
221.99823 236.18707 255.744
222.01175 236.19469 255.744
222.0067 236.19188 255.744
222.0059 236.1914 255.744
222.00668 236.1918 255.744
221.99646 236.18605 255.744
222.00806 236.1926 255.744
222.00879 236.19304 255.744
222.01439 236.19617 255.744
222.03223 236.20622 255.744
222.0186 236.19853 255.744
222.00343 236.18996 255.744
222.00252 236.18948 255.744
222.02037 236.19954 255.744
222.02066 236.1997 255.744
222.02197 236.20044 255.744
221.98843 236.18155 255.744
222.01599 236.19711 255.744
222.02248 236.20071 255.744
221.98401 236.17905 255.744
222.01122 236.19437 255.744
222.02286 236.20096 255.744
221.99779 236.18683 255.744
221.99643 236.18605 255.744
222.00728 236.19217 255.744
221.99074 236.18282 255.744
222.00093 236.18857 255.744
221.98788 236.18121 255.744
221.99487 236.18518 255.744
221.99887 236.18744 255.744
222.00938 236.19334 255.744
222.02191 236.20042 255.744
222.02002 236.19934 255.744
221.98041 236.17702 255.744
221.99695 236.18634 255.744
221.99014 236.18248 255.744
222.00015 236.18814 255.744
222.00569 236.1913 255.744
222.00778 236.19244 255.744
222.02492 236.20212 255.744
222.03476 236.20767 255.744
222.00084 236.18855 255.744
222.01543 236.19676 255.744
222.02026 236.19948 255.744
222.00458 236.19063 255.744
222.01799 236.19821 255.744
221.9943 236.18484 255.744
222.01006 236.19374 255.744
221.99861 236.18727 255.744
222.01215 236.19489 255.744
222.00339 236.18996 255.744
222.01335 236.19557 255.744
221.99893 236.18745 255.744
222.01265 236.1952 255.744
222.01749 236.19792 255.744
221.99808 236.18698 255.744
222.00449 236.1906 255.744
221.99332 236.18431 255.744
222.00558 236.19121 255.744
222.01308 236.19545 255.744
222.00945 236.19339 255.744
222.00136 236.18884 255.744
221.99678 236.18626 255.744
222.01341 236.1956 255.744
222.0192 236.19888 255.744
222.00139 236.18886 255.744
222.00987 236.19362 255.744
222.01308 236.19542 255.744
221.99818 236.18704 255.744
222.0239 236.20152 255.744
222.01831 236.19836 255.744
221.9994 236.18773 255.744
222.02179 236.20036 255.744
221.99884 236.18744 255.744
222.02205 236.2005 255.744
222.01317 236.19548 255.744
222.01021 236.19385 255.744
222.00151 236.18889 255.744
222.02126 236.2 255.744
222.01682 236.19754 255.744
222.00761 236.19232 255.744
222.01474 236.1964 255.744
222.00867 236.19296 255.744
222.01202 236.19482 255.744
222.013 236.1954 255.744
221.99301 236.18413 255.744
221.99936 236.18771 255.744
222.023 236.20103 255.744
222.02257 236.20079 255.744
222.00812 236.19264 255.744
222.00058 236.18837 255.744
222.00497 236.19089 255.744
222.00668 236.19183 255.744
222.00226 236.18932 255.744
221.99849 236.1872 255.744
222.00945 236.19339 255.744
222.01039 236.19392 255.744
222.00461 236.19064 255.744
222.02364 236.20139 255.744
222.01294 236.1954 255.744
222.01915 236.19885 255.744
222.0228 236.2009 255.744
222.01888 236.1987 255.744
222.01846 236.19847 255.744
222.01384 236.19586 255.744
222.01335 236.19557 255.744
222.01187 236.19475 255.744
222.02713 236.20335 255.744
221.99529 236.18538 255.744
222.01231 236.19502 255.744
222.00443 236.19057 255.744
221.98203 236.17793 255.744
222.01613 236.19717 255.744
221.98566 236.18 255.744
221.9887 236.18167 255.744
222.00049 236.18835 255.744
222.0342 236.20735 255.744
221.99838 236.18713 255.744
222.00014 236.18814 255.744
222.0365 236.20863 255.744
222.0204 236.19957 255.744
222.00862 236.1929 255.744
222.00935 236.19334 255.744
222.0098 236.19357 255.744
221.99982 236.18797 255.744
221.996 236.1858 255.744
222.01044 236.19395 255.744
222.01756 236.19794 255.744
222.02473 236.20201 255.744
222.00719 236.19214 255.744
222.01979 236.19922 255.744
222.01265 236.19518 255.744
222.00134 236.18884 255.744
222.0219 236.2004 255.744
222.00983 236.19362 255.744
221.99406 236.1847 255.744
221.99968 236.18787 255.744
222.00926 236.19327 255.744
222.00055 236.18835 255.744
221.995 236.18526 255.744
222.00526 236.19101 255.744
222.01036 236.1939 255.744
222.00165 236.189 255.744
222.00607 236.19147 255.744
222.00174 236.18904 255.744
222.01666 236.19746 255.744
220.04301 234.28885 254.16486
219.11742 233.56744 253.704
210.94063 225.12523 245.165
205.19643 219.77147 240.19801
193.02481 209.08653 231.21126
173.10178 189.36003 211.93292
169.62422 186.74821 210.21414
165.53577 183.26886 207.0731
160.07832 177.84964 201.50497
166.81046 184.96532 209.8241
147.45317 164.61311 187.87492
156.85179 175.00636 199.20833
145.74783 163.74208 188.12082
152.30951 170.38708 194.8437
151.78717 169.78175 194.42581
149.24797 167.11333 190.70349
140.77571 156.80637 178.50009
147.42746 166.28548 191.33447
145.82855 165.30359 190.21191
140.57658 158.05215 181.4069
149.71805 167.6481 192.18279
152.29907 171.97006 198.23183
144.62956 164.23984 189.97792
137.34602 155.55496 178.69325
140.46161 158.49977 181.33055
144.73238 164.89316 191.01007
140.13689 158.59796 182.80782
139.3384 155.70232 178.67743
138.18971 157.39313 182.01682
139.93465 157.85014 181.78067
143.91971 161.60567 185.62238
142.68457 160.43402 184.23067
134.28967 151.56767 174.08574
141.10394 159.98656 183.67009
139.17255 156.50955 178.24547
141.07042 159.58263 183.71461
137.6212 153.73215 176.17032
136.90881 154.1655 176.2908
142.16829 160.57837 183.81657
137.73756 152.84946 173.40517
137.90875 154.3954 176.82677
141.104 160.4251 185.48334
143.09569 160.67444 184.85764
141.9379 160.60892 185.80481
137.52733 155.69751 178.91905
141.31844 159.61574 183.83559
141.47867 159.87248 184.21083
136.45448 154.15091 176.69595
141.65164 160.56216 185.1727
137.57098 157.11942 180.06042
136.27779 154.78944 177.48578
142.76004 162.24965 186.47136
139.15681 157.79778 181.14093
136.90308 155.40579 178.52338
139.79 158.57397 183.20786
142.69989 160.58922 183.8776
134.94313 150.74251 172.48347
138.96233 156.2264 178.11284
138.96104 157.4227 180.67
138.58507 157.39229 180.80397
139.06454 156.37177 179.59796
137.8284 155.58035 178.38979
143.13892 161.6729 184.43391
142.91632 160.72246 183.60631
142.76517 162.38872 184.62267
139.66618 157.05322 179.17924
136.69168 156.14648 177.78952
145.51036 165.66974 188.90433
146.52179 164.8639 186.0461
143.79532 163.59923 185.63248
141.09001 160.06917 180.7481
142.53534 160.09166 180.35371
147.67021 167.34836 188.63644
149.98337 169.07196 189.61252
144.347 164.05472 182.61673
156.41904 176.3645 195.80247
144.50356 161.32695 180.1999
151.91998 170.3658 190.26413
161.69235 178.87923 198.81635
173.9646 191.03288 212.7491
197.76794 214.34589 235.29048
203.42686 218.35284 239.27051
212.25569 227.2758 248.10689
218.16293 232.88237 252.8631
221.85864 236.10835 255.744
222.0132 236.19551 255.744
222.01889 236.19872 255.744
222.00647 236.19168 255.744
222.00835 236.19275 255.744
221.98592 236.1801 255.744
222.0192 236.19887 255.744
221.99664 236.18614 255.744
221.99274 236.18394 255.744
222.01863 236.19855 255.744
222.02492 236.20212 255.744
222.01987 236.19928 255.744
222.01108 236.19429 255.744
222.00096 236.18863 255.744
221.99164 236.18335 255.744
222.00174 236.18901 255.744
222.00598 236.19145 255.744
222.01266 236.19518 255.744
220.98589 234.80518 254.16486
215.78702 227.73987 244.78282
198.69412 204.7371 214.18497
184.8537 185.9124 188.61783
178.92421 179.42384 181.01933
177.49187 178.69072 181.01933
176.47134 178.17012 181.01933
175.41821 177.63446 181.01933
174.21812 177.02606 181.01933
173.67496 176.75134 181.01933
172.88147 176.35081 181.01933
171.96983 175.89183 181.01933
171.45035 175.63083 181.01933
170.79465 175.30193 181.01933
170.23462 175.02158 181.01933
169.67412 174.74144 181.01933
169.14417 174.47699 181.01933
168.53587 174.17404 181.01933
168.08963 173.95209 181.01933
167.68564 173.75148 181.01933
167.34784 173.5839 181.01933
166.9118 173.36786 181.01933
166.63791 173.23228 181.01933
166.25365 173.0423 181.01933
165.92055 172.8778 181.01933
165.48347 172.66223 181.01933
165.15657 172.50116 181.01933
165.01195 172.42998 181.01933
164.6493 172.25162 181.01933
164.40369 172.13094 181.01933
164.24525 172.0531 181.01933
164.06647 171.96536 181.01933
163.6608 171.76643 181.01933
163.52917 171.70195 181.01933
163.28787 171.58383 181.01933
163.17184 171.52702 181.01933
163.01736 171.45146 181.01933
162.92372 171.4057 181.01933
162.76031 171.32585 181.01933
162.7026 171.29765 181.01933
162.64223 171.26816 181.01933
162.39777 171.1488 181.01933
162.3687 171.13461 181.01933
162.32695 171.11426 181.01933
162.15216 171.029 181.01933
162.09755 171.00241 181.01933
161.99924 170.95445 181.01933
162.11833 171.01248 181.01933
162.10611 171.00656 181.01933
162.07048 170.98918 181.01933
162.03668 170.97272 181.01933
162.0858 170.99667 181.01933
162.22038 171.06229 181.01933
162.09904 171.0031 181.01933
162.13536 171.02081 181.01933
162.29068 171.09654 181.01933
162.34436 171.12276 181.01933
162.42279 171.16101 181.01933
162.54144 171.21895 181.01933
162.63428 171.26427 181.01933
162.70149 171.2971 181.01933
162.89624 171.39227 181.01933
163.11943 171.5014 181.01933
163.15555 171.51904 181.01933
163.3778 171.62784 181.01933
163.55623 171.71523 181.01933
163.82735 171.84808 181.01933
163.96626 171.9162 181.01933
164.16855 172.01546 181.01933
164.5297 172.19283 181.01933
164.73549 172.29395 181.01933
165.06766 172.4574 181.01933
165.29524 172.56947 181.01933
165.66801 172.75322 181.01933
165.92651 172.88075 181.01933
166.32642 173.07826 181.01933
166.5951 173.2111 181.01933
167.03186 173.42729 181.01933
167.41005 173.61475 181.01933
167.80281 173.80963 181.01933
168.29478 174.0541 181.01933
168.64941 174.23053 181.01933
169.29208 174.55077 181.01933
169.68962 174.74916 181.01933
170.22198 175.01524 181.01933
170.66148 175.23524 181.01933
171.30354 175.55713 181.01933
172.1662 175.9906 181.01933
172.81544 176.31757 181.01933
173.4874 176.6566 181.01933
174.3403 177.08789 181.01933
175.50885 177.68053 181.01933
176.49144 178.1804 181.01933
177.52379 178.70703 181.01933
178.64355 179.27998 181.01933
181.78333 182.05408 183.58711
194.80467 199.14531 206.3938
215.24796 227.01262 243.82477
221.51277 235.5078 255.08408
221.99908 236.18755 255.744
221.99246 236.1838 255.744
222.01558 236.19685 255.744
222.00981 236.1936 255.744
222.00793 236.19254 255.744
222.01399 236.19594 255.744
221.99843 236.18721 255.744
222.0128 236.19528 255.744
222.00815 236.19266 255.744
222.01245 236.19508 255.744
222.00154 236.18895 255.744
222.01231 236.19504 255.744
221.99391 236.18465 255.744
222.01189 236.19475 255.744
222.005 236.19087 255.744
221.99648 236.18608 255.744
221.99562 236.18558 255.744
222.01135 236.19449 255.744
221.99678 236.18625 255.744
222.02222 236.20058 255.744
222.00438 236.19055 255.744
222.01164 236.19463 255.744
222.01456 236.19626 255.744
221.99773 236.18677 255.744
221.9933 236.18428 255.744
221.98477 236.17947 255.744
221.99265 236.18391 255.744
222.0092 236.19322 255.744
222.00098 236.18861 255.744
222.00159 236.18893 255.744
222.00957 236.19347 255.744
221.99846 236.18718 255.744
222.0124 236.19507 255.744
221.99005 236.18245 255.744
222.00122 236.18875 255.744
222.00679 236.1919 255.744
221.9922 236.18367 255.744
221.9991 236.18755 255.744
222.02754 236.2036 255.744
221.99629 236.18597 255.744
222.02594 236.20271 255.744
222.00963 236.19345 255.744
222.02147 236.20016 255.744
222.01912 236.19888 255.744
222.01036 236.19391 255.744
222.02011 236.1994 255.744
222.00642 236.1917 255.744
222.02899 236.20442 255.744
222.01797 236.1982 255.744
222.0068 236.19193 255.744
222.00034 236.18822 255.744
222.02567 236.20256 255.744
222.0053 236.19106 255.744
221.9902 236.18254 255.744
222.01318 236.1955 255.744
221.99371 236.18451 255.744
221.99936 236.18768 255.744
221.99278 236.18398 255.744
222.00371 236.19014 255.744
222.0229 236.20099 255.744
222.0088 236.19304 255.744
222.0126 236.19514 255.744
222.01227 236.19498 255.744
222.0092 236.1932 255.744
222.02104 236.1999 255.744
221.97742 236.17532 255.744
221.98994 236.18239 255.744
222.0001 236.18811 255.744
222.01054 236.19402 255.744
221.9913 236.18315 255.744
222.02489 236.20209 255.744
222.00853 236.19287 255.744
221.99591 236.18575 255.744
222.0078 236.19244 255.744
222.0019 236.18913 255.744
221.99812 236.18703 255.744
221.9979 236.18686 255.744
222.00153 236.18893 255.744
222.00441 236.19054 255.744
222.00342 236.19002 255.744
222.01959 236.1991 255.744
222.01866 236.19861 255.744
222.01137 236.19447 255.744
221.9965 236.1861 255.744
222.0103 236.19388 255.744
221.98898 236.18184 255.744
221.99648 236.18607 255.744
221.98372 236.17888 255.744
222.0216 236.20026 255.744
222.01663 236.19743 255.744
222.00879 236.19302 255.744
222.00217 236.18929 255.744
221.99983 236.18796 255.744
222.01784 236.1981 255.744
222.00507 236.19092 255.744
222.00674 236.1919 255.744
222.00327 236.18994 255.744
221.9936 236.18448 255.744
221.99771 236.18677 255.744
221.99158 236.18329 255.744
221.99353 236.1844 255.744
222.0263 236.20293 255.744
222.00339 236.18996 255.744
222.01527 236.1967 255.744
221.99944 236.18774 255.744
222.00633 236.1916 255.744
221.99394 236.18468 255.744
221.99292 236.18404 255.744
222.01704 236.1977 255.744
222.01173 236.19469 255.744
222.01416 236.19603 255.744
222.00375 236.19017 255.744
222.00665 236.1918 255.744
221.99953 236.18779 255.744
221.98572 236.18002 255.744
222.01845 236.19849 255.744
222.00728 236.19215 255.744
221.98824 236.18138 255.744
221.98518 236.17976 255.744
221.99748 236.18661 255.744
221.9993 236.18765 255.744
221.99461 236.18501 255.744
222.00935 236.19334 255.744
221.99776 236.18677 255.744
221.98222 236.17804 255.744
221.99763 236.18674 255.744
221.99048 236.18266 255.744
222.00412 236.19038 255.744
221.99223 236.1837 255.744
222.0071 236.19208 255.744
221.9939 236.18462 255.744
222.0115 236.19453 255.744
222.00943 236.19336 255.744
222.00021 236.18816 255.744
222.00818 236.19267 255.744
222.00241 236.18942 255.744
222.03159 236.20589 255.744
221.99783 236.18683 255.744
221.9836 236.1788 255.744
222.00938 236.19334 255.744
222.02177 236.20035 255.744
222.0068 236.19188 255.744
222.01582 236.19696 255.744
222.00598 236.19144 255.744
222.04253 236.21204 255.744
222.03865 236.20987 255.744
222.03526 236.20795 255.744
222.04005 236.21066 255.744
222.03291 236.20665 255.744
222.0264 236.20296 255.744
222.0218 236.20035 255.744
222.02107 236.19994 255.744
222.0472 236.21466 255.744
222.02496 236.20213 255.744
222.03905 236.21007 255.744
222.03015 236.20505 255.744
222.02827 236.20403 255.744
222.02515 236.20222 255.744
222.03018 236.20508 255.744
222.02824 236.20398 255.744
222.04137 236.2114 255.744
222.02917 236.20453 255.744
222.04088 236.2111 255.744
222.04456 236.21321 255.744
222.0316 236.20586 255.744
222.02878 236.20432 255.744
222.02203 236.2005 255.744
222.02675 236.20314 255.744
222.01767 236.19803 255.744
222.03426 236.2074 255.744
222.0257 236.20255 255.744
222.05476 236.21895 255.744
222.03636 236.20856 255.744
222.03157 236.20589 255.744
222.0485 236.21541 255.744
222.02423 236.2017 255.744
222.0351 236.20786 255.744
222.01906 236.1988 255.744
222.01967 236.19916 255.744
222.03268 236.20653 255.744
222.05182 236.21729 255.744
222.02602 236.20271 255.744
222.03021 236.20508 255.744
222.04378 236.21274 255.744
222.0322 236.20619 255.744
222.02243 236.2007 255.744
222.03265 236.20648 255.744
222.03957 236.21036 255.744
222.0268 236.20316 255.744
222.03499 236.20781 255.744
222.03204 236.20615 255.744
222.03094 236.20549 255.744
222.03975 236.2105 255.744
222.04681 236.21446 255.744
222.03082 236.20543 255.744
222.03519 236.2079 255.744
222.0432 236.21242 255.744
222.02986 236.2049 255.744
222.03564 236.20815 255.744
222.0245 236.20187 255.744
222.0379 236.20941 255.744
222.01846 236.19853 255.744
222.03133 236.20573 255.744
222.04117 236.21127 255.744
222.04152 236.21147 255.744
222.03801 236.20953 255.744
222.07076 236.22797 255.744
222.04659 236.21436 255.744
222.0403 236.21075 255.744
222.04626 236.21414 255.744
222.04941 236.21591 255.744
222.03847 236.2098 255.744
222.02652 236.203 255.744
222.03343 236.20692 255.744
222.0454 236.21365 255.744
222.05544 236.2193 255.744
222.03764 236.2093 255.744
222.0556 236.21944 255.744
222.04695 236.21455 255.744
222.06151 236.22276 255.744
222.03722 236.20909 255.744
222.05312 236.21802 255.744
222.03136 236.20575 255.744
222.04245 236.212 255.744
222.03061 236.20532 255.744
222.03079 236.20543 255.744
222.02467 236.20197 255.744
222.02437 236.20181 255.744
222.01578 236.19695 255.744
222.04536 236.21365 255.744
222.03188 236.20602 255.744
222.04192 236.21172 255.744
222.03409 236.20729 255.744
222.04416 236.21294 255.744
222.04285 236.21225 255.744
222.04256 236.21204 255.744
222.03848 236.20978 255.744
222.05179 236.21725 255.744
222.04042 236.21085 255.744
222.04613 236.2141 255.744
222.04066 236.21098 255.744
222.0332 236.2068 255.744
222.03885 236.20999 255.744
222.04565 236.21379 255.744
222.04135 236.21138 255.744
222.0438 236.21275 255.744
222.05304 236.21799 255.744
222.04898 236.21568 255.744
222.03645 236.20862 255.744
222.03912 236.21011 255.744
222.0268 236.20314 255.744
222.04489 236.21336 255.744
222.02818 236.20395 255.744
222.04239 236.21198 255.744
222.03534 236.208 255.744
222.03642 236.20859 255.744
222.0385 236.20978 255.744
222.06036 236.2221 255.744
222.04181 236.21162 255.744
222.02888 236.20436 255.744
222.04604 236.21402 255.744
222.01369 236.19577 255.744
222.02043 236.19957 255.744
222.02812 236.20389 255.744
222.02824 236.20398 255.744
222.0402 236.21074 255.744
222.03177 236.20596 255.744
222.04976 236.21613 255.744
222.04854 236.21544 255.744
222.04398 236.21288 255.744
222.03317 236.20677 255.744
222.0391 236.2101 255.744
222.04036 236.21082 255.744
222.03793 236.20946 255.744
222.03032 236.20515 255.744
222.03946 236.21033 255.744
222.03882 236.20995 255.744
222.03992 236.21059 255.744
222.02916 236.20454 255.744
222.03717 236.20905 255.744
222.03831 236.20966 255.744
222.05257 236.21771 255.744
222.03694 236.20891 255.744
222.02492 236.20212 255.744
222.03458 236.20755 255.744
222.04745 236.21481 255.744
222.03293 236.20662 255.744
222.03958 236.21037 255.744
222.03703 236.20891 255.744
222.04459 236.21321 255.744
222.02698 236.20328 255.744
222.03401 236.20724 255.744
222.02786 236.20378 255.744
222.02464 236.20198 255.744
222.03171 236.20592 255.744
222.04677 236.21445 255.744
222.04378 236.21274 255.744
222.03174 236.20598 255.744
222.04 236.2106 255.744
222.04768 236.21497 255.744
222.022 236.20045 255.744
222.05579 236.21953 255.744
222.02774 236.20372 255.744
222.06314 236.22368 255.744
222.02013 236.19943 255.744
222.03279 236.20657 255.744
222.03787 236.20941 255.744
222.07 236.22754 255.744
222.0391 236.2101 255.744
222.0433 236.21248 255.744
222.039 236.21007 255.744
222.03017 236.20508 255.744
222.04796 236.21515 255.744
222.03526 236.20796 255.744
222.02841 236.20406 255.744
222.05092 236.21681 255.744
222.04353 236.21263 255.744
222.02573 236.20256 255.744
222.03291 236.20662 255.744
222.04457 236.2132 255.744
222.04074 236.21103 255.744
222.03807 236.2095 255.744
222.03934 236.21024 255.744
222.05066 236.21663 255.744
222.04228 236.21193 255.744
222.04027 236.21077 255.744
222.04527 236.21361 255.744
222.03984 236.21053 255.744
222.04498 236.21346 255.744
222.04088 236.21112 255.744
222.02113 236.19997 255.744
222.02617 236.2028 255.744
222.04332 236.21248 255.744
222.02324 236.20116 255.744
222.0172 236.19775 255.744
222.01663 236.19745 255.744
222.03595 236.20831 255.744
222.0381 236.20956 255.744
222.02826 236.204 255.744
222.06857 236.22673 255.744
222.01338 236.1956 255.744
222.0306 236.20529 255.744
222.04372 236.21274 255.744
222.05238 236.21762 255.744
222.04042 236.21085 255.744
222.05591 236.21959 255.744
222.06378 236.22403 255.744
222.06155 236.22278 255.744
222.0421 236.21182 255.744
222.03137 236.20578 255.744
222.0664 236.22554 255.744
222.03584 236.20828 255.744
222.04341 236.21252 255.744
222.05449 236.2188 255.744
222.05972 236.22176 255.744
222.04877 236.21556 255.744
222.07254 236.22897 255.744
222.04906 236.21576 255.744
222.04936 236.21588 255.744
222.0421 236.21182 255.744
222.04971 236.21611 255.744
222.03539 236.20804 255.744
222.05197 236.21738 255.744
222.03474 236.20767 255.744
222.03867 236.20988 255.744
222.0224 236.20068 255.744
222.04292 236.21223 255.744
222.03691 236.2089 255.744
222.05257 236.21773 255.744
222.04137 236.2114 255.744
222.04337 236.21252 255.744
222.03722 236.20906 255.744
222.04475 236.21332 255.744
222.04521 236.21356 255.744
222.03674 236.20879 255.744
222.03752 236.20921 255.744
222.04036 236.2108 255.744
222.03003 236.20502 255.744
222.05026 236.21642 255.744
222.04114 236.21124 255.744
222.04655 236.2143 255.744
222.04672 236.21443 255.744
222.04489 236.21338 255.744
222.02484 236.20207 255.744
222.03654 236.2087 255.744
222.05315 236.21805 255.744
222.03214 236.20619 255.744
222.03835 236.20969 255.744
222.0557 236.21947 255.744
222.05331 236.21811 255.744
222.03346 236.2069 255.744
222.04889 236.21564 255.744
222.03883 236.20995 255.744
222.04118 236.21132 255.744
222.04369 236.2127 255.744
222.04305 236.21237 255.744
222.04768 236.21497 255.744
222.02591 236.20268 255.744
219.12491 233.38354 253.3347
215.95128 230.77942 251.38701
205.78508 220.96973 242.0907
192.84195 208.0777 229.23387
178.88559 195.66243 218.52309
172.87585 189.028 211.65886
163.52496 180.97066 204.10745
163.11546 181.06502 204.43994
152.88014 169.56882 192.29251
156.23282 174.84367 199.70813
149.65088 166.00282 188.48134
151.60469 169.71962 194.48299
146.6269 164.94621 189.62401
152.93622 171.32968 196.03534
144.62729 162.13313 184.0584
145.65744 164.2195 188.99094
145.83684 162.65706 186.29175
143.2857 159.07199 181.14859
149.36974 167.85854 191.98787
140.19151 157.62993 180.53333
139.24353 156.71387 180.5905
150.05495 168.35371 193.39682
143.67018 162.22539 186.10695
138.551 155.00279 177.88908
148.08693 166.58672 191.58507
146.8378 166.80342 192.91212
140.7845 158.2044 181.7291
137.8075 156.10237 179.77702
141.22815 159.6886 183.38307
140.4148 158.66289 183.13391
140.50514 158.59055 182.15196
142.03943 160.47548 184.2045
142.83331 161.52977 186.55916
138.36102 156.95428 181.66469
145.43205 164.24983 189.6083
141.8636 161.18994 185.98114
137.47914 155.73758 179.65532
137.2427 155.13318 178.93924
137.1448 155.77739 179.57195
141.60512 159.6673 183.60623
136.88322 152.56487 174.90361
135.29898 152.39458 174.14061
135.8566 154.51216 178.17181
141.7769 160.3293 184.46477
139.13014 155.93977 177.86288
138.56517 156.79907 180.88354
137.87045 154.453 176.55524
143.34727 163.0382 188.11815
142.84116 160.53885 184.08372
136.84998 154.36848 176.70706
139.62726 158.72118 183.31932
136.73105 153.20845 174.67609
143.62639 162.64241 187.11035
139.62587 156.42757 179.46103
141.17986 160.52106 184.717
136.60307 153.97342 176.95908
139.76263 158.95584 183.05226
137.98291 156.34032 177.77748
145.48196 163.81363 188.10843
140.77542 160.22446 184.72472
136.73033 153.71579 175.319
135.67628 154.51086 175.76495
143.13524 162.6055 188.03308
144.7079 164.5624 189.39812
141.30334 158.18465 180.31924
144.98236 165.01552 190.89359
147.5937 167.33688 191.53636
142.09056 160.44966 183.67552
141.01682 161.4218 184.22887
138.89084 160.14355 180.24698
141.652 162.85304 182.39064
140.49568 160.30504 181.95091
129.9646 150.91779 166.85367
136.59143 154.1335 172.439
133.06381 151.53346 167.28558
140.96472 159.42279 178.4296
143.95477 162.74475 181.31862
149.19104 167.93181 186.80518
141.31963 162.07889 178.9289
158.00284 177.09494 198.22176
164.31427 183.02403 204.25748
172.7557 189.3218 210.49208
176.6719 192.15218 212.51205
198.73428 215.40683 236.63553
201.85944 217.61305 238.32869
213.09021 227.58417 247.91812
220.58633 234.99394 255.08408
221.17877 235.32779 255.08408
222.03526 236.20798 255.744
222.04352 236.2126 255.744
222.05815 236.22089 255.744
222.02066 236.1997 255.744
222.05199 236.21738 255.744
222.04723 236.2147 255.744
222.06091 236.22243 255.744
222.02191 236.20042 255.744
222.04706 236.21461 255.744
222.05305 236.218 255.744
222.03899 236.21004 255.744
222.0454 236.21367 255.744
222.04413 236.21297 255.744
221.02588 234.82715 254.16486
209.96939 219.72786 234.02856
191.60153 194.86359 200.64354
182.96364 183.80861 186.11948
178.20366 179.05469 181.01933
177.07072 178.4757 181.01933
175.95927 177.9095 181.01933
175.13036 177.48836 181.01933
174.20587 177.01984 181.01933
173.18028 176.50156 181.01933
172.31169 176.06381 181.01933
171.78542 175.7991 181.01933
171.07672 175.44333 181.01933
170.29543 175.05199 181.01933
169.85512 174.83185 181.01933
169.2893 174.5494 181.01933
168.66562 174.2386 181.01933
168.21695 174.0154 181.01933
167.61623 173.71701 181.01933
167.3196 173.5699 181.01933
166.77351 173.2994 181.01933
166.40869 173.11896 181.01933
165.98679 172.91049 181.01933
165.68874 172.76343 181.01933
165.3609 172.60182 181.01933
164.85966 172.35504 181.01933
164.66473 172.25919 181.01933
164.4446 172.15102 181.01933
164.04102 171.95288 181.01933
163.73413 171.80238 181.01933
163.52725 171.70102 181.01933
163.33412 171.60645 181.01933
163.07524 171.47978 181.01933
162.79225 171.34145 181.01933
162.6224 171.25848 181.01933
162.43561 171.1673 181.01933
162.31946 171.1106 181.01933
162.14037 171.02325 181.01933
161.91246 170.91219 181.01933
161.88979 170.90111 181.01933
161.7007 170.80902 181.01933
161.61047 170.76514 181.01933
161.48288 170.70305 181.01933
161.37907 170.65254 181.01933
161.41643 170.6707 181.01933
161.27837 170.60356 181.01933
161.19815 170.56458 181.01933
161.15869 170.54538 181.01933
161.14833 170.54037 181.01933
161.08888 170.51146 181.01933
161.05011 170.49265 181.01933
161.05293 170.49402 181.01933
161.06117 170.498 181.01933
161.1259 170.52946 181.01933
161.12523 170.52914 181.01933
161.14154 170.53705 181.01933
161.21448 170.57251 181.01933
161.28435 170.60649 181.01933
161.29443 170.61137 181.01933
161.5558 170.73853 181.01933
161.50813 170.71532 181.01933
161.68866 170.80318 181.01933
161.75105 170.83356 181.01933
161.90375 170.90793 181.01933
162.00473 170.95715 181.01933
162.15648 171.03111 181.01933
162.35251 171.12672 181.01933
162.48207 171.18997 181.01933
162.68384 171.28848 181.01933
162.97783 171.43216 181.01933
163.10233 171.49304 181.01933
163.33548 171.60713 181.01933
163.61742 171.74518 181.01933
163.87848 171.87315 181.01933
164.24443 172.05272 181.01933
164.52995 172.19298 181.01933
164.72792 172.29025 181.01933
165.0017 172.42496 181.01933
165.3432 172.59308 181.01933
165.79916 172.81792 181.01933
166.11209 172.97238 181.01933
166.48016 173.15427 181.01933
166.92944 173.37659 181.01933
167.26843 173.54453 181.01933
167.7868 173.80167 181.01933
168.28163 174.04755 181.01933
168.73177 174.2715 181.01933
169.21397 174.51181 181.01933
169.93176 174.87012 181.01933
170.40623 175.10745 181.01933
171.06422 175.43706 181.01933
171.81677 175.81487 181.01933
172.32404 176.07002 181.01933
173.14436 176.4834 181.01933
174.05017 176.94106 181.01933
174.87137 177.35698 181.01933
175.87624 177.86725 181.01933
177.06097 178.47073 181.01933
178.79286 179.35649 181.01933
181.61478 181.96779 183.58711
196.47595 201.55942 209.76831
210.98814 221.18048 236.02034
219.49036 232.73682 251.38701
222.03577 236.20825 255.744
222.04163 236.21155 255.744
222.03217 236.20618 255.744
222.0511 236.21687 255.744
222.03358 236.207 255.744
222.01903 236.19879 255.744
222.03784 236.2094 255.744
222.04485 236.21336 255.744
222.05042 236.21649 255.744
222.0448 236.21333 255.744
222.02658 236.20305 255.744
222.03116 236.20564 255.744
222.05574 236.21948 255.744
222.04097 236.21121 255.744
222.02911 236.20447 255.744
222.04729 236.21474 255.744
222.0466 236.21436 255.744
222.0358 236.20825 255.744
222.02611 236.20277 255.744
222.0285 236.20415 255.744
222.0523 236.21756 255.744
222.0519 236.21735 255.744
222.00671 236.19185 255.744
222.04353 236.21262 255.744
222.04883 236.2156 255.744
222.04036 236.21082 255.744
222.05081 236.21672 255.744
222.0306 236.20532 255.744
222.03864 236.20987 255.744
222.02196 236.20044 255.744
222.03519 236.2079 255.744
222.03587 236.2083 255.744
222.04051 236.21094 255.744
222.0153 236.19669 255.744
222.01825 236.19836 255.744
222.04172 236.2116 255.744
222.04143 236.21144 255.744
222.02075 236.19974 255.744
222.01389 236.19589 255.744
222.03857 236.20984 255.744
222.0294 236.20464 255.744
222.04495 236.21342 255.744
222.04411 236.21292 255.744
222.03421 236.20737 255.744
222.0643 236.22433 255.744
222.01454 236.19627 255.744
222.04054 236.21092 255.744
222.04262 236.21207 255.744
222.03815 236.20958 255.744
222.03018 236.2051 255.744
222.04776 236.21498 255.744
222.02417 236.20166 255.744
222.0512 236.21696 255.744
222.04294 236.21227 255.744
222.02513 236.20222 255.744
222.05592 236.21962 255.744
222.02405 236.20164 255.744
222.03137 236.20576 255.744
222.03833 236.2097 255.744
222.03342 236.2069 255.744
222.0636 236.22392 255.744
222.03683 236.20885 255.744
222.03812 236.20958 255.744
222.0509 236.21677 255.744
222.03308 236.20673 255.744
222.0341 236.20729 255.744
222.05379 236.21838 255.744
222.03708 236.20898 255.744
222.04594 236.21399 255.744
222.03088 236.20549 255.744
222.02475 236.20201 255.744
222.03738 236.20914 255.744
222.04459 236.21321 255.744
222.0379 236.20941 255.744
222.02414 236.20169 255.744
222.02866 236.20421 255.744
222.05037 236.21646 255.744
222.04321 236.21243 255.744
222.04686 236.21448 255.744
222.04753 236.21486 255.744
222.03815 236.20958 255.744
222.02457 236.20189 255.744
222.0196 236.19911 255.744
222.06096 236.22241 255.744
222.0292 236.20454 255.744
222.00652 236.19173 255.744
222.03061 236.20534 255.744
222.02295 236.20102 255.744
222.05107 236.21684 255.744
222.01427 236.19614 255.744
222.01863 236.19855 255.744
222.0423 236.21194 255.744
222.01797 236.1982 255.744
222.03497 236.20778 255.744
222.04085 236.21109 255.744
222.02765 236.20364 255.744
222.0147 236.19633 255.744
222.04488 236.21336 255.744
222.03821 236.20963 255.744
222.03159 236.20586 255.744
222.03427 236.20738 255.744
222.03021 236.20506 255.744
222.03647 236.20863 255.744
222.04242 236.21198 255.744
222.02502 236.20216 255.744
222.03896 236.21004 255.744
222.04535 236.21365 255.744
222.04471 236.21329 255.744
222.0371 236.209 255.744
222.03606 236.2084 255.744
222.03828 236.20966 255.744
222.0369 236.20888 255.744
222.03084 236.20544 255.744
222.0341 236.20734 255.744
222.03526 236.20796 255.744
222.0326 236.20645 255.744
222.02876 236.20428 255.744
222.02531 236.20235 255.744
222.0361 236.20842 255.744
222.02809 236.20389 255.744
222.02553 236.20247 255.744
222.0019 236.18912 255.744
222.03864 236.20984 255.744
222.03305 236.20668 255.744
221.99855 236.18724 255.744
222.0134 236.19562 255.744
222.01451 236.19629 255.744
222.02661 236.20305 255.744
222.03807 236.20953 255.744
222.01694 236.1976 255.744
222.03244 236.20636 255.744
222.04192 236.21172 255.744
222.04526 236.21356 255.744
222.01927 236.19891 255.744
222.03459 236.20758 255.744
222.03688 236.20886 255.744
222.02841 236.20409 255.744
222.0335 236.20694 255.744
222.03487 236.20776 255.744
222.01366 236.19577 255.744
222.08095 236.23373 255.744
222.05879 236.22127 255.744
222.06168 236.22284 255.744
222.0644 236.22437 255.744
222.06157 236.22276 255.744
222.04697 236.21451 255.744
222.05475 236.21893 255.744
222.05507 236.21915 255.744
222.06316 236.22368 255.744
222.06873 236.22682 255.744
222.06937 236.22722 255.744
222.0642 236.22424 255.744
222.05658 236.22 255.744
222.06903 236.227 255.744
222.06453 236.22444 255.744
222.05031 236.21643 255.744
222.07858 236.23236 255.744
222.05472 236.21892 255.744
222.05457 236.21884 255.744
222.07187 236.22858 255.744
222.0605 236.2222 255.744
222.05664 236.22003 255.744
222.0476 236.2149 255.744
222.06349 236.22388 255.744
222.06975 236.22739 255.744
222.05319 236.21805 255.744
222.06538 236.22496 255.744
222.10513 236.24738 255.744
222.06282 236.22348 255.744
222.0717 236.22852 255.744
222.04778 236.21501 255.744
222.07231 236.22887 255.744
222.08092 236.2337 255.744
222.06778 236.22629 255.744
222.08174 236.23415 255.744
222.0573 236.22038 255.744
222.07817 236.23215 255.744
222.06415 236.22426 255.744
222.06067 236.22227 255.744
222.06006 236.22194 255.744
222.0612 236.22258 255.744
222.06131 236.22263 255.744
222.06082 236.22238 255.744
222.05441 236.2188 255.744
222.07071 236.22792 255.744
222.05783 236.22069 255.744
222.06644 236.22552 255.744
222.08621 236.23668 255.744
222.05011 236.21632 255.744
222.06575 236.22517 255.744
222.06532 236.2249 255.744
222.07802 236.23203 255.744
222.06041 236.22212 255.744
222.05751 236.22049 255.744
222.0879 236.23766 255.744
222.05605 236.21968 255.744
222.0551 236.2191 255.744
222.04654 236.2143 255.744
222.06154 236.22276 255.744
222.0748 236.23026 255.744
222.06921 236.2271 255.744
222.05885 236.22125 255.744
222.05362 236.21832 255.744
222.06554 236.225 255.744
222.05835 236.22098 255.744
222.06224 236.22316 255.744
222.07095 236.22807 255.744
222.04259 236.21208 255.744
222.06317 236.2237 255.744
222.0832 236.235 255.744
222.07149 236.22838 255.744
222.06126 236.2226 255.744
222.05563 236.21944 255.744
222.06677 236.22572 255.744
222.0782 236.23216 255.744
222.05786 236.22067 255.744
222.04292 236.21228 255.744
222.0595 236.22162 255.744
222.08334 236.23509 255.744
222.0539 236.21844 255.744
222.07378 236.22969 255.744
222.06924 236.22713 255.744
222.0708 236.22798 255.744
222.08017 236.23326 255.744
222.07076 236.22795 255.744
222.04112 236.21121 255.744
222.05937 236.22157 255.744
222.05449 236.2188 255.744
222.07233 236.22884 255.744
222.07263 236.22905 255.744
222.05525 236.21924 255.744
222.04906 236.21573 255.744
222.05942 236.22159 255.744
222.07677 236.23134 255.744
222.06174 236.22287 255.744
222.06972 236.22734 255.744
222.06429 236.22429 255.744
222.0535 236.21822 255.744
222.07547 236.23064 255.744
222.0783 236.23221 255.744
222.07256 236.22896 255.744
222.06842 236.22665 255.744
222.08412 236.23553 255.744
222.06857 236.22673 255.744
222.08925 236.2384 255.744
222.05943 236.2216 255.744
222.08151 236.23402 255.744
222.08238 236.2345 255.744
222.0824 236.23454 255.744
222.0488 236.21556 255.744
222.07588 236.23087 255.744
222.06989 236.2275 255.744
222.05798 236.22075 255.744
222.07501 236.23036 255.744
222.06758 236.22617 255.744
222.07202 236.2287 255.744
222.05307 236.218 255.744
222.0538 236.21841 255.744
222.08356 236.23518 255.744
222.05367 236.21834 255.744
222.08133 236.23393 255.744
222.07428 236.22995 255.744
222.06964 236.22736 255.744
222.06442 236.2244 255.744
222.07352 236.2295 255.744
222.0612 236.2226 255.744
222.0802 236.23328 255.744
222.04868 236.21553 255.744
222.07184 236.22858 255.744
222.05432 236.2187 255.744
222.08804 236.2377 255.744
222.07593 236.23087 255.744
222.06345 236.22385 255.744
222.06764 236.2262 255.744
222.06706 236.2259 255.744
222.06789 236.22636 255.744
222.06905 236.227 255.744
222.07156 236.22844 255.744
222.07411 236.22989 255.744
222.06915 236.22707 255.744
222.06667 236.22565 255.744
222.08055 236.23352 255.744
222.0571 236.22028 255.744
222.06857 236.22673 255.744
222.06833 236.2266 255.744
222.08704 236.23714 255.744
222.032 236.2061 255.744
222.08742 236.23737 255.744
222.08728 236.23727 255.744
222.06158 236.22278 255.744
222.06723 236.22598 255.744
222.06352 236.22385 255.744
222.07135 236.22829 255.744
222.0598 236.2218 255.744
222.07797 236.23206 255.744
222.06374 236.22401 255.744
222.08421 236.23555 255.744
222.07498 236.23036 255.744
222.09264 236.24031 255.744
222.06627 236.22546 255.744
222.06085 236.2224 255.744
222.0795 236.23286 255.744
222.071 236.22809 255.744
222.06744 236.22609 255.744
222.06697 236.22583 255.744
222.06024 236.22206 255.744
222.07281 236.22916 255.744
222.07071 236.22794 255.744
222.07727 236.23164 255.744
222.05956 236.2217 255.744
222.05345 236.21825 255.744
222.08665 236.23694 255.744
222.08226 236.23444 255.744
222.06657 236.2256 255.744
222.05862 236.2211 255.744
222.07616 236.231 255.744
222.06927 236.22714 255.744
222.0813 236.23393 255.744
222.06575 236.22516 255.744
222.06593 236.22522 255.744
222.04494 236.21341 255.744
222.06789 236.22635 255.744
222.05695 236.22017 255.744
222.07541 236.23058 255.744
222.0639 236.2241 255.744
222.07599 236.23094 255.744
222.09485 236.24155 255.744
222.07509 236.2304 255.744
222.07771 236.2319 255.744
222.07968 236.23299 255.744
222.07037 236.22774 255.744
222.07379 236.22969 255.744
222.07051 236.22781 255.744
222.07144 236.22838 255.744
222.07375 236.22963 255.744
222.06349 236.22389 255.744
222.07697 236.23149 255.744
222.05537 236.2193 255.744
222.07277 236.22914 255.744
222.07558 236.23068 255.744
222.06862 236.22676 255.744
222.0592 236.22144 255.744
222.0651 236.22478 255.744
222.0745 236.23007 255.744
222.07207 236.22871 255.744
222.05447 236.21877 255.744
222.0609 236.2224 255.744
222.06712 236.22592 255.744
222.07794 236.23203 255.744
222.09091 236.23933 255.744
222.06047 236.22215 255.744
222.08704 236.23714 255.744
222.06076 236.22232 255.744
222.0644 236.22437 255.744
222.07243 236.22897 255.744
222.08278 236.23474 255.744
222.07068 236.22794 255.744
222.07486 236.23026 255.744
222.08438 236.23563 255.744
222.07784 236.23198 255.744
222.06224 236.22319 255.744
222.0745 236.23007 255.744
222.06006 236.22191 255.744
222.07515 236.23044 255.744
222.06616 236.22542 255.744
222.06885 236.2269 255.744
222.08038 236.23341 255.744
222.06529 236.22485 255.744
222.08908 236.23828 255.744
222.08418 236.23553 255.744
222.10027 236.24463 255.744
222.07414 236.22987 255.744
222.06705 236.22586 255.744
222.08035 236.23338 255.744
222.08075 236.23363 255.744
222.06775 236.22629 255.744
222.0725 236.22893 255.744
222.06508 236.22478 255.744
222.07231 236.22885 255.744
222.06505 236.22475 255.744
222.08537 236.23619 255.744
222.08961 236.23863 255.744
222.07808 236.2321 255.744
222.08006 236.23318 255.744
222.08014 236.23328 255.744
222.06763 236.2262 255.744
222.0704 236.22778 255.744
222.08037 236.23341 255.744
222.06845 236.22665 255.744
222.09247 236.24022 255.744
222.07492 236.2303 255.744
222.09908 236.24394 255.744
222.08923 236.23839 255.744
222.0018 236.18909 255.744
219.19905 233.41293 253.2423
212.82356 226.9918 246.83005
199.78004 215.07593 235.71275
196.28029 212.17429 234.13106
188.7755 204.95117 227.64061
169.30266 186.13966 209.20967
169.20723 186.06041 209.20973
149.56859 166.9749 189.97182
160.83762 178.94713 203.42395
157.23624 174.97946 199.30807
156.53488 175.5528 200.87683
152.10095 169.95033 194.001
153.37996 171.17314 195.0238
147.72395 166.55026 191.255
150.01634 168.77466 193.77164
148.65666 166.96213 191.57288
143.43996 160.26398 183.58711
138.61855 157.85493 180.98073
141.68243 157.96422 179.87671
149.34773 168.23785 192.77867
140.79161 159.3811 183.45326
143.41394 161.201 184.33151
144.89317 164.45569 189.59566
140.28517 158.33002 182.09332
139.84825 156.63762 180.04698
142.71039 161.49559 184.45851
142.91167 161.51067 185.59694
139.13527 156.88586 180.15222
141.25787 161.65907 187.48526
140.22945 157.50163 180.31009
139.89868 157.836 180.95345
141.19804 160.55602 185.641
137.35059 155.05902 178.39299
139.64441 157.33434 181.1486
140.57208 159.27077 183.44688
142.78593 161.30843 185.99368
138.01016 153.84904 176.10387
138.64178 156.49286 180.64398
142.2793 161.17493 185.74187
140.8854 159.65497 184.60422
136.52832 155.47545 179.18059
140.40916 158.08112 181.52296
140.79518 159.87128 184.98419
139.89424 157.96219 182.56433
140.6721 159.75937 184.33783
140.12257 157.49179 180.22247
137.49731 153.00935 174.61841
134.73387 152.97185 176.55524
135.33904 151.88177 174.15593
142.34311 159.18497 182.59639
136.56638 153.44812 176.70612
140.9966 157.81282 181.01933
139.70436 152.90091 172.81696
139.9952 158.42842 183.07643
140.93991 159.84286 184.72466
137.3937 153.90375 176.62811
137.57895 156.59473 180.47557
140.18037 157.45146 180.35876
139.35155 157.86565 181.64575
137.11282 154.66196 175.85818
137.36232 154.77379 178.51134
142.4573 162.01456 185.6979
141.77159 160.14871 183.69559
138.79027 157.87433 182.86862
134.02518 150.69475 172.34581
138.91661 158.24017 182.22954
139.18889 156.42004 179.50343
135.98218 155.09793 176.97255
137.24675 155.48837 177.72406
142.67633 161.2716 184.04573
138.14172 156.78085 179.36499
138.69157 157.07945 178.60764
139.70462 159.2887 181.5592
135.56134 156.28114 176.17091
143.86485 162.9854 184.5982
131.20425 150.91467 168.62233
135.6277 152.01218 168.55568
144.70564 164.27621 183.56966
134.57922 154.87129 172.62288
144.77159 165.04648 183.1927
132.75761 150.35425 165.54964
138.59673 157.7725 174.40205
157.41806 176.6406 196.77916
144.93878 162.53192 177.98792
152.68246 170.63646 188.28291
167.31572 184.47098 205.66301
181.4139 196.93813 217.14952
184.46117 200.15424 221.18942
209.50583 224.23607 244.84975
213.46512 227.37997 247.01964
220.90102 235.17122 255.08408
221.99571 236.18565 255.744
222.08302 236.23488 255.744
222.06528 236.22487 255.744
222.04738 236.2148 255.744
222.09367 236.2409 255.744
222.071 236.2281 255.744
222.07133 236.22827 255.744
222.07846 236.23228 255.744
222.06287 236.22354 255.744
222.05849 236.22105 255.744
220.56041 234.1567 253.2423
207.65749 216.66492 229.99329
193.2577 197.30806 204.11313
180.30841 180.7178 182.30774
178.1871 179.04622 181.01933
176.70682 178.29013 181.01933
175.62555 177.7398 181.01933
174.59671 177.21777 181.01933
173.64447 176.73593 181.01933
172.90141 176.36087 181.01933
172.15584 175.98537 181.01933
171.32336 175.56708 181.01933
170.65805 175.23352 181.01933
169.91876 174.86365 181.01933
169.42574 174.61743 181.01933
168.81885 174.3149 181.01933
168.30452 174.05893 181.01933
167.91597 173.86581 181.01933
167.29874 173.55956 181.01933
166.80144 173.31322 181.01933
166.30077 173.06558 181.01933
165.9603 172.89743 181.01933
165.63689 172.73785 181.01933
165.28741 172.56561 181.01933
164.86452 172.35745 181.01933
164.50322 172.17981 181.01933
164.15134 172.007 181.01933
163.78938 171.82947 181.01933
163.4749 171.67537 181.01933
163.26312 171.57169 181.01933
163.00925 171.44753 181.01933
162.83199 171.36086 181.01933
162.5822 171.23885 181.01933
162.33817 171.11975 181.01933
162.0265 170.96774 181.01933
161.82616 170.87015 181.01933
161.72289 170.81985 181.01933
161.53415 170.72798 181.01933
161.4025 170.66393 181.01933
161.14166 170.53711 181.01933
161.04468 170.49002 181.01933
160.86255 170.40155 181.01933
160.7851 170.36397 181.01933
160.6432 170.29512 181.01933
160.50217 170.2267 181.01933
160.47417 170.21313 181.01933
160.40623 170.18016 181.01933
160.32767 170.1421 181.01933
160.33217 170.14429 181.01933
160.1665 170.06401 181.01933
160.19084 170.0758 181.01933
160.20154 170.081 181.01933
160.16112 170.06142 181.01933
160.14139 170.05185 181.01933
160.19608 170.07834 181.01933
160.17216 170.06676 181.01933
160.22527 170.09248 181.01933
160.32545 170.14104 181.01933
160.30635 170.13179 181.01933
160.39607 170.17526 181.01933
160.48029 170.21608 181.01933
160.41922 170.1865 181.01933
160.64537 170.29614 181.01933
160.68335 170.31456 181.01933
160.72827 170.3364 181.01933
161.01842 170.47725 181.01933
161.0805 170.5074 181.01933
161.27374 170.60133 181.01933
161.43102 170.6778 181.01933
161.62012 170.76982 181.01933
161.82272 170.86845 181.01933
161.86656 170.88982 181.01933
162.15352 171.02968 181.01933
162.33638 171.11887 181.01933
162.58012 171.23782 181.01933
162.8271 171.35846 181.01933
163.01747 171.45152 181.01933
163.33917 171.6089 181.01933
163.58453 171.72906 181.01933
164.04321 171.95396 181.01933
164.31033 172.08507 181.01933
164.70142 172.2772 181.01933
164.94098 172.39505 181.01933
165.2484 172.54639 181.01933
165.7011 172.76953 181.01933
166.06409 172.94865 181.01933
166.55663 173.19208 181.01933
166.9234 173.3736 181.01933
167.45122 173.63516 181.01933
167.85728 173.83667 181.01933
168.23654 174.02513 181.01933
168.9089 174.35976 181.01933
169.52698 174.66795 181.01933
170.04594 174.92722 181.01933
170.86017 175.33478 181.01933
171.51404 175.66278 181.01933
172.24269 176.02908 181.01933
172.97523 176.39812 181.01933
173.57541 176.70105 181.01933
174.55333 177.19579 181.01933
175.69212 177.77365 181.01933
176.77222 178.32346 181.01933
178.12404 179.01395 181.01933
180.92053 181.61176 183.58711
192.93704 196.61298 202.9632
208.81161 218.19868 232.01971
220.03589 233.4525 252.31636
222.05757 236.22054 255.744
222.08669 236.23697 255.744
222.07097 236.22809 255.744
222.0807 236.23357 255.744
222.08365 236.23523 255.744
222.06897 236.22694 255.744
222.05789 236.22073 255.744
222.07999 236.23317 255.744
222.06119 236.22256 255.744
222.03886 236.20996 255.744
222.07393 236.22978 255.744
222.06628 236.2254 255.744
222.05655 236.21996 255.744
222.06775 236.22629 255.744
222.07446 236.23007 255.744
222.08344 236.23514 255.744
222.07785 236.23195 255.744
222.08966 236.23863 255.744
222.05211 236.21744 255.744
222.06349 236.22389 255.744
222.0682 236.2265 255.744
222.05304 236.21797 255.744
222.0651 236.22478 255.744
222.06743 236.22609 255.744
222.08917 236.23834 255.744
222.09392 236.24103 255.744
222.059 236.22134 255.744
222.07426 236.22997 255.744
222.06914 236.22707 255.744
222.08516 236.2361 255.744
222.07066 236.22794 255.744
222.05486 236.21898 255.744
222.0691 236.22704 255.744
222.07826 236.2322 255.744
222.06496 236.22472 255.744
222.08908 236.23831 255.744
222.05852 236.22108 255.744
222.06631 236.22546 255.744
222.04791 236.21509 255.744
222.08134 236.23395 255.744
222.0611 236.2225 255.744
222.07306 236.22928 255.744
222.05753 236.2205 255.744
222.06256 236.22336 255.744
222.06119 236.22258 255.744
222.07771 236.23187 255.744
222.07237 236.22888 255.744
222.06584 236.22519 255.744
222.0723 236.22884 255.744
222.06738 236.2261 255.744
222.06526 236.22487 255.744
222.06348 236.22386 255.744
222.06386 236.22404 255.744
222.0635 236.22389 255.744
222.06038 236.22212 255.744
222.0555 236.21935 255.744
222.0632 236.2237 255.744
222.06407 236.22417 255.744
222.07042 236.22778 255.744
222.06953 236.22726 255.744
222.06917 236.22707 255.744
222.08072 236.2336 255.744
222.05551 236.21931 255.744
222.07126 236.22824 255.744
222.05692 236.22017 255.744
222.06668 236.22568 255.744
222.05646 236.21994 255.744
222.06253 236.22331 255.744
222.05692 236.22018 255.744
222.06186 236.22295 255.744
222.05057 236.2166 255.744
222.06656 236.22562 255.744
222.087 236.23714 255.744
222.0613 236.22261 255.744
222.05269 236.21777 255.744
222.0559 236.21956 255.744
222.0776 236.23183 255.744
222.05269 236.21776 255.744
222.06366 236.22397 255.744
222.05693 236.22015 255.744
222.07611 236.23097 255.744
222.06277 236.22343 255.744
222.04872 236.21553 255.744
222.0853 236.23618 255.744
222.05232 236.21758 255.744
222.07132 236.22829 255.744
222.07565 236.23071 255.744
222.06876 236.22684 255.744
222.04993 236.21623 255.744
222.06932 236.22716 255.744
222.04977 236.21613 255.744
222.07625 236.23106 255.744
222.06769 236.22623 255.744
222.06544 236.22496 255.744
222.06174 236.22289 255.744
222.06091 236.2224 255.744
222.06161 236.22282 255.744
222.05858 236.22112 255.744
222.06958 236.22733 255.744
222.06859 236.22673 255.744
222.05185 236.2173 255.744
222.06404 236.22418 255.744
222.07765 236.23187 255.744
222.07652 236.23123 255.744
222.07506 236.23038 255.744
222.07307 236.22926 255.744
222.07109 236.22816 255.744
222.0531 236.21802 255.744
222.06366 236.22395 255.744
222.0485 236.21542 255.744
222.0511 236.21689 255.744
222.04941 236.21591 255.744
222.06078 236.22235 255.744
222.06245 236.22327 255.744
222.06213 236.2231 255.744
222.07286 236.22917 255.744
222.06186 236.22293 255.744
222.04826 236.21532 255.744
222.07086 236.22801 255.744
222.04256 236.21205 255.744
222.06288 236.22356 255.744
222.05994 236.22188 255.744
222.06091 236.22237 255.744
222.0677 236.22624 255.744
222.06061 236.22224 255.744
222.07172 236.2285 255.744
222.0515 236.21712 255.744
222.08 236.23322 255.744
222.06735 236.22606 255.744
222.04459 236.21318 255.744
222.07953 236.23291 255.744
222.06226 236.22319 255.744
222.07507 236.2304 255.744
222.06595 236.22525 255.744
222.0642 236.22429 255.744
222.05905 236.22136 255.744
222.07448 236.23007 255.744
222.07857 236.23238 255.744
222.10046 236.24474 255.744
222.08452 236.23573 255.744
222.09914 236.24399 255.744
222.08337 236.23509 255.744
222.08798 236.23769 255.744
222.07974 236.23303 255.744
222.08148 236.23404 255.744
222.09093 236.23933 255.744
222.08722 236.23727 255.744
222.08952 236.23856 255.744
222.09753 236.24307 255.744
222.08263 236.23468 255.744
222.10043 236.2447 255.744
222.08861 236.238 255.744
222.07382 236.2297 255.744
222.09473 236.24152 255.744
222.09503 236.24165 255.744
222.10164 236.24538 255.744
222.09123 236.23952 255.744
222.10237 236.2458 255.744
222.08452 236.23575 255.744
222.08083 236.23361 255.744
222.102 236.2456 255.744
222.10031 236.24463 255.744
222.0933 236.24068 255.744
222.08221 236.23442 255.744
222.09312 236.24055 255.744
222.08157 236.23405 255.744
222.10078 236.24492 255.744
222.0769 236.23145 255.744
222.10863 236.24933 255.744
222.11765 236.25441 255.744
222.10962 236.2499 255.744
222.09435 236.24124 255.744
222.085 236.23602 255.744
222.08655 236.23688 255.744
222.10936 236.24974 255.744
222.11201 236.25124 255.744
222.11334 236.252 255.744
222.07802 236.23209 255.744
222.07823 236.23216 255.744
222.10074 236.24489 255.744
222.09084 236.23929 255.744
222.10643 236.2481 255.744
222.09349 236.24081 255.744
222.12492 236.25851 255.744
222.09969 236.2443 255.744
222.10008 236.24449 255.744
222.10796 236.24898 255.744
222.08884 236.23813 255.744
222.10327 236.24634 255.744
222.08337 236.23508 255.744
222.11723 236.25417 255.744
222.1011 236.2451 255.744
222.10286 236.24606 255.744
222.103 236.24617 255.744
222.10052 236.24477 255.744
222.09776 236.24321 255.744
222.06741 236.22607 255.744
222.10185 236.24551 255.744
222.08908 236.23831 255.744
222.10806 236.249 255.744
222.09914 236.24393 255.744
222.10568 236.24767 255.744
222.10297 236.24612 255.744
222.08849 236.23798 255.744
222.09993 236.2444 255.744
222.10518 236.24738 255.744
222.10542 236.24753 255.744
222.09052 236.23914 255.744
222.0798 236.23308 255.744
222.09375 236.24095 255.744
222.09029 236.239 255.744
222.10641 236.24806 255.744
222.1162 236.2536 255.744
222.11511 236.25299 255.744
222.08295 236.23483 255.744
222.10818 236.24907 255.744
222.08673 236.23697 255.744
222.12119 236.25641 255.744
222.09666 236.24257 255.744
222.10129 236.24516 255.744
222.09857 236.24368 255.744
222.10762 236.24878 255.744
222.11626 236.25365 255.744
222.10146 236.24527 255.744
222.06978 236.22742 255.744
222.08337 236.2351 255.744
222.10002 236.24448 255.744
222.0942 236.24118 255.744
222.10194 236.24559 255.744
222.08847 236.23798 255.744
222.10182 236.24548 255.744
222.0968 236.24266 255.744
222.10374 236.24658 255.744
222.09363 236.24088 255.744
222.09097 236.23935 255.744
222.10431 236.24692 255.744
222.08096 236.23373 255.744
222.10889 236.24948 255.744
222.09482 236.24155 255.744
222.09802 236.24333 255.744
222.10251 236.24588 255.744
222.11356 236.2521 255.744
222.11273 236.25163 255.744
222.09222 236.24008 255.744
222.09125 236.23952 255.744
222.1084 236.24922 255.744
222.08524 236.23611 255.744
222.1134 236.25204 255.744
222.10405 236.2467 255.744
222.11192 236.2512 255.744
222.09196 236.23994 255.744
222.09892 236.24385 255.744
222.1128 236.25171 255.744
222.09811 236.24341 255.744
222.09627 236.24236 255.744
222.09059 236.23915 255.744
222.11668 236.25388 255.744
222.09764 236.24312 255.744
222.07138 236.22832 255.744
222.08614 236.23666 255.744
222.0957 236.24202 255.744
222.09396 236.24104 255.744
222.09224 236.24008 255.744
222.10646 236.24811 255.744
222.11563 236.25328 255.744
222.0959 236.24213 255.744
222.0859 236.23651 255.744
222.10258 236.24593 255.744
222.10187 236.24553 255.744
222.10092 236.245 255.744
222.09882 236.24379 255.744
222.10959 236.24985 255.744
222.1053 236.24745 255.744
222.10246 236.24585 255.744
222.10435 236.2469 255.744
222.10796 236.24895 255.744
222.11664 236.25385 255.744
222.09238 236.24016 255.744
222.0985 236.24362 255.744
222.0818 236.23418 255.744
222.11288 236.25174 255.744
222.0656 236.22505 255.744
222.10771 236.2488 255.744
222.102 236.2456 255.744
222.09221 236.24007 255.744
222.10814 236.24904 255.744
222.11153 236.25095 255.744
222.08893 236.2382 255.744
222.12456 236.2583 255.744
222.0954 236.24187 255.744
222.10846 236.24924 255.744
222.1139 236.25233 255.744
222.10867 236.24933 255.744
222.115 236.25294 255.744
222.0953 236.24182 255.744
222.09933 236.24411 255.744
222.11198 236.2512 255.744
222.10135 236.24522 255.744
222.10251 236.2459 255.744
222.11705 236.25409 255.744
222.1067 236.24825 255.744
222.0931 236.24055 255.744
222.10602 236.24786 255.744
222.09723 236.24289 255.744
222.09283 236.24039 255.744
222.09991 236.24443 255.744
222.10779 236.24887 255.744
222.10999 236.25009 255.744
222.1053 236.24742 255.744
222.0874 236.23735 255.744
222.09921 236.24402 255.744
222.08961 236.23862 255.744
222.09888 236.24384 255.744
222.09566 236.24205 255.744
222.10495 236.24724 255.744
222.12073 236.25615 255.744
222.08963 236.2386 255.744
222.08804 236.23772 255.744
222.08308 236.2349 255.744
222.1011 236.24512 255.744
222.10524 236.2474 255.744
222.0977 236.2432 255.744
222.106 236.24785 255.744
222.08514 236.2361 255.744
222.1028 236.24603 255.744
222.11407 236.25241 255.744
222.09108 236.23947 255.744
222.09529 236.2418 255.744
222.12717 236.25981 255.744
222.0938 236.24097 255.744
222.109 236.24954 255.744
222.07729 236.23169 255.744
222.09523 236.24176 255.744
222.1074 236.24864 255.744
222.11046 236.25037 255.744
222.09938 236.24413 255.744
222.0886 236.23804 255.744
222.0962 236.24236 255.744
222.09938 236.24411 255.744
222.11314 236.25189 255.744
222.12036 236.25597 255.744
222.12321 236.25757 255.744
222.09021 236.23894 255.744
222.1088 236.24944 255.744
222.07674 236.23134 255.744
222.09584 236.24211 255.744
222.11563 236.25328 255.744
222.10118 236.24513 255.744
222.1047 236.24713 255.744
222.11577 236.25337 255.744
222.10498 236.24727 255.744
222.0904 236.23904 255.744
222.09686 236.24269 255.744
222.07893 236.23256 255.744
222.12509 236.25864 255.744
222.09242 236.2402 255.744
222.10692 236.24837 255.744
222.09236 236.24017 255.744
222.08788 236.23763 255.744
222.11252 236.25153 255.744
222.09735 236.24295 255.744
222.11636 236.25371 255.744
222.0925 236.24025 255.744
222.10315 236.24625 255.744
222.11154 236.25099 255.744
222.10583 236.24774 255.744
222.08128 236.23392 255.744
222.10776 236.24881 255.744
222.09879 236.24379 255.744
222.1114 236.25089 255.744
222.07512 236.23044 255.744
222.10547 236.24751 255.744
222.09201 236.23997 255.744
222.11723 236.2542 255.744
222.10515 236.24736 255.744
222.10872 236.24939 255.744
222.10684 236.24834 255.744
222.10178 236.24548 255.744
222.10863 236.24933 255.744
222.09972 236.24431 255.744
222.08775 236.23758 255.744
222.0983 236.24353 255.744
222.10634 236.24805 255.744
222.10492 236.24724 255.744
222.09772 236.24318 255.744
222.0991 236.24396 255.744
222.09502 236.24164 255.744
222.13234 236.26271 255.744
222.09222 236.24007 255.744
222.1042 236.24681 255.744
222.11772 236.25447 255.744
218.06818 232.37964 252.40912
207.43254 222.30331 242.95927
199.53122 214.33351 234.87767
188.82822 205.83575 229.02448
171.83891 187.52953 209.72366
172.8112 189.97694 213.58308
163.805 181.6493 205.35928
154.18721 171.98517 196.05203
151.203 169.1195 192.59464
150.92563 169.11533 193.26974
146.05548 161.75331 184.03279
141.21408 157.01228 178.82088
148.74016 166.2831 190.34717
144.0804 161.74901 185.74182
149.0322 167.26573 192.01968
140.3279 159.18051 183.44688
143.34868 161.06076 184.92091
143.96822 162.20926 186.9351
141.15355 159.6347 184.29266
144.2486 163.01166 187.61006
146.2197 166.2305 192.48723
143.57068 161.46169 185.42024
138.57756 157.04594 181.79347
143.47935 163.36224 189.73135
143.04344 161.1832 185.74182
140.13528 157.27728 180.37167
139.49168 157.7813 182.19939
141.20653 159.46378 182.82045
140.43564 157.938 181.27133
141.29558 159.58641 184.15993
137.73253 154.88303 177.36206
137.16939 153.58755 176.1836
141.17172 159.84288 184.38792
142.83878 159.17737 182.56433
139.33286 157.74442 181.52296
140.75594 159.07292 183.52335
138.22409 153.63216 175.10422
140.05089 157.71973 181.4842
141.50815 158.53793 182.33266
138.41637 156.58578 180.29063
141.77568 160.21718 184.92093
133.62465 151.39218 173.88371
141.99059 161.22502 186.87248
135.88744 153.2584 176.29651
142.88768 161.39427 186.49637
139.89691 158.69174 183.19153
137.47064 155.68637 180.13295
135.31995 153.13416 176.97246
140.57281 159.69206 184.21083
140.41252 158.03877 182.11507
139.61734 156.44768 179.48509
141.88814 161.05983 186.62181
138.67596 156.98662 179.3895
139.62616 157.61 181.66469
137.88379 156.14186 179.44156
140.70778 157.54306 180.50139
137.84918 157.02534 181.12929
137.26779 155.401 178.64096
142.23206 161.31819 185.4645
138.41574 157.16692 182.06033
140.34688 157.26723 179.9599
139.21 156.80226 180.22894
139.44218 158.86514 182.92308
135.29646 152.81624 174.23273
136.16208 154.26619 177.19711
140.56372 158.52937 181.1345
136.12901 154.82863 178.49777
139.44432 158.18326 182.67975
141.62337 160.61674 184.95901
142.73846 161.67911 185.33826
140.20477 158.69852 181.27026
143.36848 162.04541 186.03778
135.48816 154.0986 175.5758
139.03015 160.25992 181.45338
142.64104 161.46349 184.24457
137.0765 155.61717 175.95714
132.19359 153.25035 173.1763
131.79587 153.35815 171.28075
132.6403 154.30493 172.32256
127.916275 149.54863 163.9006
136.09293 155.88559 172.19318
127.21022 146.64464 160.83875
133.36159 152.90306 169.57002
127.86203 146.79863 159.82594
132.51404 152.61218 165.84056
138.17628 159.23048 173.56688
143.1136 164.13965 178.96715
157.457 175.5654 194.12505
161.0784 177.52621 196.93811
180.0192 197.17146 216.95332
197.19054 212.64706 233.0461
204.51515 219.09898 239.25783
217.56049 232.08823 252.31636
222.01651 236.19736 255.744
222.08754 236.23743 255.744
222.09947 236.24417 255.744
222.12704 236.2597 255.744
222.08534 236.23619 255.744
222.08752 236.2374 255.744
222.08832 236.23787 255.744
219.08716 232.09256 250.45422
207.10934 215.90886 228.97336
188.93315 191.33578 195.92184
179.73514 179.84018 181.01933
177.9372 178.91835 181.01933
176.81326 178.34439 181.01933
175.29294 177.57088 181.01933
174.34335 177.08942 181.01933
173.69405 176.761 181.01933
172.7038 176.26128 181.01933
171.82605 175.81953 181.01933
171.1245 175.46732 181.01933
170.29501 175.0518 181.01933
169.71346 174.76108 181.01933
169.26413 174.53685 181.01933
168.48427 174.14835 181.01933
167.98192 173.89857 181.01933
167.48798 173.65338 181.01933
166.9297 173.37671 181.01933
166.54045 173.18408 181.01933
166.13055 172.98149 181.01933
165.61935 172.72922 181.01933
165.29984 172.57173 181.01933
164.92603 172.38768 181.01933
164.48093 172.16884 181.01933
164.12604 171.99458 181.01933
163.7246 171.7977 181.01933
163.45134 171.66385 181.01933
163.10506 171.49437 181.01933
162.8178 171.35391 181.01933
162.56415 171.23003 181.01933
162.2849 171.09375 181.01933
162.08224 170.99493 181.01933
161.77979 170.84755 181.01933
161.54048 170.73106 181.01933
161.32957 170.62846 181.01933
161.15659 170.54437 181.01933
160.95631 170.44707 181.01933
160.78587 170.3643 181.01933
160.56227 170.25584 181.01933
160.42181 170.18774 181.01933
160.28943 170.12357 181.01933
160.14458 170.05339 181.01933
160.04828 170.00677 181.01933
159.86984 169.92041 181.01933
159.8027 169.88792 181.01933
159.69385 169.83527 181.01933
159.6362 169.8074 181.01933
159.56389 169.77243 181.01933
159.54164 169.76167 181.01933
159.42525 169.70544 181.01933
159.38826 169.68759 181.01933
159.33191 169.66037 181.01933
159.38506 169.68602 181.01933
159.35184 169.66998 181.01933
159.30916 169.64937 181.01933
159.33965 169.66411 181.01933
159.36003 169.67393 181.01933
159.38243 169.68478 181.01933
159.51587 169.74924 181.01933
159.48085 169.7323 181.01933
159.52464 169.75348 181.01933
159.60477 169.7922 181.01933
159.69115 169.83397 181.01933
159.78743 169.88054 181.01933
159.82298 169.89772 181.01933
159.94507 169.95682 181.01933
160.00784 169.98718 181.01933
160.20845 170.08434 181.01933
160.31389 170.13542 181.01933
160.49815 170.22475 181.01933
160.5845 170.26662 181.01933
160.82271 170.3822 181.01933
161.05617 170.49559 181.01933
161.25522 170.59233 181.01933
161.45256 170.68828 181.01933
161.61172 170.76573 181.01933
161.95798 170.93439 181.01933
162.09396 171.00064 181.01933
162.33952 171.1204 181.01933
162.58368 171.23958 181.01933
162.95123 171.41916 181.01933
163.22725 171.55414 181.01933
163.49269 171.68408 181.01933
163.85466 171.86147 181.01933
164.22704 172.04414 181.01933
164.61269 172.2336 181.01933
165.04095 172.44427 181.01933
165.4214 172.63164 181.01933
165.80269 172.81964 181.01933
166.14499 172.98862 181.01933
166.61493 173.22093 181.01933
167.13411 173.47797 181.01933
167.65997 173.73872 181.01933
168.09525 173.95486 181.01933
168.72139 174.26636 181.01933
169.18721 174.49846 181.01933
169.84561 174.8271 181.01933
170.44275 175.12572 181.01933
171.32779 175.56929 181.01933
171.88242 175.84787 181.01933
172.63182 176.22499 181.01933
173.58347 176.70512 181.01933
174.62674 177.23299 181.01933
175.37173 177.61087 181.01933
176.56966 178.22021 181.01933
177.87357 178.88582 181.01933
179.80637 179.87683 181.01933
190.08969 193.01599 198.29675
207.68288 216.67969 229.99329
219.53271 232.76018 251.38701
222.11763 236.2544 255.744
222.09564 236.242 255.744
222.0779 236.23198 255.744
222.10324 236.2463 255.744
222.0889 236.2382 255.744
222.0874 236.23734 255.744
222.10567 236.24765 255.744
222.0965 236.24246 255.744
222.11078 236.25053 255.744
222.08923 236.23837 255.744
222.11345 236.25204 255.744
222.10573 236.24771 255.744
222.09332 236.24066 255.744
222.08994 236.23878 255.744
222.11156 236.25096 255.744
222.09886 236.24382 255.744
222.09425 236.24118 255.744
222.1143 236.25255 255.744
222.09897 236.24391 255.744
222.1085 236.24927 255.744
222.09935 236.2441 255.744
222.09595 236.24219 255.744
222.08998 236.2388 255.744
222.08261 236.23463 255.744
222.10257 236.24593 255.744
222.09787 236.24326 255.744
222.09276 236.24037 255.744
222.08926 236.23839 255.744
222.0979 236.24329 255.744
222.10246 236.24586 255.744
222.11198 236.25124 255.744
222.09181 236.23987 255.744
222.10791 236.2489 255.744
222.10301 236.24617 255.744
222.1107 236.25049 255.744
222.09305 236.24055 255.744
222.10297 236.24612 255.744
222.09244 236.24019 255.744
222.08517 236.23611 255.744
222.10088 236.24495 255.744
222.10953 236.24983 255.744
222.09229 236.24008 255.744
222.10359 236.24649 255.744
222.09076 236.23926 255.744
222.10107 236.24506 255.744
222.09103 236.23941 255.744
222.08438 236.23563 255.744
222.104 236.24675 255.744
222.08937 236.23846 255.744
222.08977 236.23868 255.744
222.09264 236.24033 255.744
222.08553 236.23627 255.744
222.10219 236.24568 255.744
222.09846 236.24359 255.744
222.09499 236.24165 255.744
222.07059 236.22787 255.744
222.10274 236.24602 255.744
222.11235 236.25142 255.744
222.0826 236.23463 255.744
222.10413 236.2468 255.744
222.10092 236.24493 255.744
222.10077 236.2449 255.744
222.08105 236.23378 255.744
222.09819 236.24345 255.744
222.10294 236.24611 255.744
222.1055 236.24757 255.744
222.08026 236.2333 255.744
222.0913 236.23956 255.744
222.09586 236.24211 255.744
222.1026 236.24591 255.744
222.09547 236.24188 255.744
222.10254 236.24588 255.744
222.09012 236.23889 255.744
222.08011 236.23325 255.744
222.09583 236.2421 255.744
222.10403 236.24672 255.744
222.10432 236.2469 255.744
222.10774 236.24883 255.744
222.103 236.24617 255.744
222.09908 236.24396 255.744
222.09943 236.24416 255.744
222.08887 236.23817 255.744
222.08466 236.23578 255.744
222.08937 236.23846 255.744
222.09338 236.24075 255.744
222.08939 236.23848 255.744
222.076 236.23096 255.744
222.09103 236.23941 255.744
222.09335 236.24075 255.744
222.08885 236.23819 255.744
222.08168 236.23415 255.744
222.1019 236.24553 255.744
222.0791 236.23267 255.744
222.0883 236.23784 255.744
222.09064 236.23918 255.744
222.10655 236.24817 255.744
222.10573 236.24773 255.744
222.09323 236.24065 255.744
222.07947 236.23288 255.744
222.11322 236.25192 255.744
222.09305 236.24052 255.744
222.10396 236.2467 255.744
222.10574 236.24773 255.744
222.0956 236.24196 255.744
222.09932 236.2441 255.744
222.07703 236.23149 255.744
222.09627 236.24236 255.744
222.09195 236.23991 255.744
222.0809 236.23369 255.744
222.09193 236.2399 255.744
222.09381 236.24098 255.744
222.07892 236.23257 255.744
222.10643 236.24808 255.744
222.10175 236.24544 255.744
222.0884 236.23793 255.744
222.11404 236.2524 255.744
222.08833 236.2379 255.744
222.09753 236.24309 255.744
222.09923 236.24403 255.744
222.08456 236.23578 255.744
222.08995 236.2388 255.744
222.09474 236.24149 255.744
222.09256 236.24028 255.744
222.08028 236.23334 255.744
222.09367 236.2409 255.744
222.09578 236.24208 255.744
222.10088 236.24492 255.744
222.08997 236.23878 255.744
222.0794 236.23285 255.744
222.09407 236.24112 255.744
222.096 236.2422 255.744
222.10393 236.24669 255.744
222.09744 236.24301 255.744
222.08693 236.23706 255.744
222.0898 236.2387 255.744
222.10474 236.24715 255.744
222.10829 236.24913 255.744
222.1373 236.2655 255.744
222.13474 236.2641 255.744
222.10754 236.2487 255.744
222.13019 236.26152 255.744
222.10431 236.24689 255.744
222.133 236.26308 255.744
222.11963 236.25551 255.744
222.10406 236.24677 255.744
222.13646 236.26506 255.744
222.11165 236.25104 255.744
222.12633 236.25932 255.744
222.12596 236.2591 255.744
222.12605 236.25916 255.744
222.14258 236.26845 255.744
222.12262 236.25725 255.744
222.12764 236.26003 255.744
222.11656 236.25378 255.744
222.12054 236.25603 255.744
222.12144 236.25655 255.744
222.12413 236.25807 255.744
222.1223 236.25703 255.744
222.11955 236.25548 255.744
222.12271 236.25726 255.744
222.13998 236.26698 255.744
222.1351 236.26427 255.744
222.13876 236.26636 255.744
222.12802 236.26027 255.744
222.1339 236.26355 255.744
222.12523 236.2587 255.744
222.13362 236.26341 255.744
222.12476 236.25842 255.744
222.13988 236.26697 255.744
222.12698 236.25969 255.744
222.11127 236.25082 255.744
222.13196 236.26248 255.744
222.1266 236.25948 255.744
222.1172 236.25418 255.744
222.13004 236.26141 255.744
222.12646 236.25943 255.744
222.13336 236.26329 255.744
222.16223 236.27956 255.744
222.12646 236.25935 255.744
222.11127 236.25081 255.744
222.10236 236.2458 255.744
222.15005 236.27267 255.744
222.13687 236.26526 255.744
222.13136 236.26218 255.744
222.141 236.26758 255.744
222.13339 236.26328 255.744
222.12508 236.25864 255.744
222.1376 236.26569 255.744
222.13602 236.26479 255.744
222.121 236.2563 255.744
222.12445 236.25826 255.744
222.13217 236.2626 255.744
222.1349 236.26411 255.744
222.12256 236.25717 255.744
222.12578 236.25897 255.744
222.14244 236.26842 255.744
222.12727 236.25986 255.744
222.1414 236.26784 255.744
222.12286 236.25735 255.744
222.12746 236.25995 255.744
222.12181 236.25679 255.744
222.12968 236.26122 255.744
222.13141 236.26216 255.744
222.1207 236.25612 255.744
222.14206 236.26819 255.744
222.14061 236.2674 255.744
222.1358 236.26468 255.744
222.12987 236.26129 255.744
222.1319 236.26245 255.744
222.13188 236.26248 255.744
222.12846 236.26053 255.744
222.1322 236.26262 255.744
222.11966 236.25557 255.744
222.12463 236.25833 255.744
222.12636 236.25934 255.744
222.11023 236.25023 255.744
222.13837 236.26608 255.744
222.11697 236.25406 255.744
222.13177 236.2624 255.744
222.15086 236.27316 255.744
222.14717 236.27106 255.744
222.11816 236.25475 255.744
222.1286 236.2606 255.744
222.13187 236.2624 255.744
222.14047 236.26729 255.744
222.12428 236.25816 255.744
222.14302 236.26872 255.744
222.14177 236.26805 255.744
222.12434 236.25821 255.744
222.12094 236.25629 255.744
222.14522 236.26996 255.744
222.12946 236.26111 255.744
222.14769 236.27135 255.744
222.13167 236.26233 255.744
222.14435 236.2695 255.744
222.1469 236.27094 255.744
222.11383 236.25229 255.744
222.1141 236.25243 255.744
222.13753 236.26561 255.744
222.12889 236.26076 255.744
222.12134 236.2565 255.744
222.12785 236.26015 255.744
222.14711 236.27101 255.744
222.13257 236.26282 255.744
222.13408 236.26369 255.744
222.12708 236.25972 255.744
222.12929 236.261 255.744
222.1542 236.27501 255.744
222.13841 236.26611 255.744
222.1326 236.26283 255.744
222.13156 236.26224 255.744
222.1215 236.25659 255.744
222.12767 236.26007 255.744
222.12555 236.25883 255.744
222.13628 236.26492 255.744
222.13628 236.2649 255.744
222.12062 236.25609 255.744
222.12737 236.25989 255.744
222.11005 236.25014 255.744
222.11517 236.253 255.744
222.12871 236.26065 255.744
222.1218 236.25676 255.744
222.12407 236.25803 255.744
222.13846 236.26614 255.744
222.1259 236.25906 255.744
222.13156 236.26227 255.744
222.12642 236.25937 255.744
222.15887 236.27768 255.744
222.14357 236.26906 255.744
222.13956 236.26675 255.744
222.1323 236.26266 255.744
222.14351 236.26904 255.744
222.13667 236.26517 255.744
222.1284 236.26045 255.744
222.13185 236.26244 255.744
222.14893 236.27205 255.744
222.1358 236.26466 255.744
222.11636 236.25366 255.744
222.15492 236.27547 255.744
222.12193 236.2568 255.744
222.14546 236.27011 255.744
222.14139 236.26779 255.744
222.12076 236.25618 255.744
222.13753 236.26563 255.744
222.13124 236.26212 255.744
222.14082 236.26749 255.744
222.1283 236.26042 255.744
222.11911 236.25522 255.744
222.13855 236.2662 255.744
222.13704 236.26537 255.744
222.14209 236.2682 255.744
222.1519 236.27373 255.744
222.14868 236.27194 255.744
222.1278 236.26012 255.744
222.1455 236.27014 255.744
222.13448 236.26393 255.744
222.14278 236.26859 255.744
222.13185 236.26244 255.744
222.1313 236.26212 255.744
222.12318 236.25757 255.744
222.13133 236.26213 255.744
222.1399 236.26698 255.744
222.13431 236.26382 255.744
222.1316 236.2623 255.744
222.1462 236.27054 255.744
222.1422 236.26826 255.744
222.12651 236.25945 255.744
222.13196 236.2625 255.744
222.12898 236.26085 255.744
222.13435 236.26384 255.744
222.13 236.26138 255.744
222.1407 236.26738 255.744
222.14546 236.27011 255.744
222.13756 236.26563 255.744
222.1523 236.27396 255.744
222.1259 236.2591 255.744
222.11638 236.25371 255.744
222.13744 236.26558 255.744
222.13065 236.26175 255.744
222.1237 236.25784 255.744
222.1407 236.26741 255.744
222.12747 236.25996 255.744
222.121 236.25632 255.744
222.15143 236.27347 255.744
222.13222 236.26263 255.744
222.14604 236.27045 255.744
222.1406 236.26738 255.744
222.11864 236.25496 255.744
222.1113 236.25085 255.744
222.14272 236.26855 255.744
222.13419 236.26376 255.744
222.13513 236.26427 255.744
222.14474 236.2697 255.744
222.12567 236.25894 255.744
222.1268 236.25958 255.744
222.11644 236.25374 255.744
222.1477 236.27138 255.744
222.14812 236.27164 255.744
222.14743 236.27118 255.744
222.14217 236.26826 255.744
222.11476 236.25282 255.744
222.13551 236.2645 255.744
222.16202 236.27942 255.744
222.12788 236.26016 255.744
222.12637 236.25934 255.744
222.12407 236.25804 255.744
222.13478 236.26408 255.744
222.13069 236.26178 255.744
222.15123 236.27336 255.744
222.12811 236.2603 255.744
222.15306 236.27438 255.744
222.14973 236.27252 255.744
222.15453 236.27522 255.744
222.1235 236.2577 255.744
222.13849 236.26614 255.744
222.13165 236.2623 255.744
222.13994 236.267 255.744
222.14433 236.26947 255.744
222.11604 236.25352 255.744
222.1284 236.2605 255.744
222.1615 236.27917 255.744
222.136 236.26479 255.744
222.15115 236.27333 255.744
222.12802 236.26027 255.744
222.1357 236.26459 255.744
222.15134 236.27342 255.744
222.11517 236.25302 255.744
222.1361 236.26482 255.744
222.15779 236.27708 255.744
222.13658 236.2651 255.744
222.13162 236.26231 255.744
222.12799 236.26027 255.744
222.15749 236.2769 255.744
222.14702 236.27098 255.744
222.1204 236.256 255.744
222.12859 236.26059 255.744
222.15598 236.27603 255.744
222.13742 236.2656 255.744
222.13266 236.2629 255.744
222.1382 236.266 255.744
222.13176 236.26236 255.744
222.1372 236.26541 255.744
222.12456 236.2583 255.744
222.13101 236.26196 255.744
222.1225 236.25714 255.744
222.13277 236.26294 255.744
222.1345 236.26393 255.744
220.03047 234.28177 254.16486
213.32756 228.09464 248.67227
203.27612 218.25635 239.12373
187.53362 202.85703 224.22192
171.39867 189.12132 212.28316
166.05301 181.79405 203.88368
166.77719 185.68018 210.88113
156.08975 172.04172 194.32059
159.39262 177.61908 202.15433
155.09857 172.68677 196.5778
144.34329 160.91545 182.69756
150.73903 167.388 190.51003
150.92017 168.30534 191.68286
146.57913 166.43102 192.54778
139.81601 156.32242 179.02359
144.24104 162.37695 186.87373
142.02548 160.6372 185.24944
142.2505 160.82507 185.32011
136.02974 153.9898 177.08472
136.3531 154.36243 177.4598
145.83633 165.4522 191.45065
141.68593 160.03839 183.05098
144.11916 161.13731 184.6676
142.16884 159.66821 183.58711
142.77779 161.64114 185.9182
145.22656 163.4853 188.12082
142.56656 161.04858 185.0981
141.35576 159.70665 184.22359
140.56657 158.08156 181.92218
138.94878 155.00806 176.95833
141.90602 160.51407 185.23709
140.77684 159.66731 183.70187
139.1464 157.36429 181.2649
141.145 158.47523 182.05078
140.62024 157.8108 181.14859
139.14252 157.29485 181.29793
143.46616 162.61124 187.48528
140.87021 160.05681 185.74182
139.56793 157.90791 182.4361
138.28503 155.81592 179.99496
146.05428 165.03996 190.86905
139.67062 158.28165 183.24545
140.98712 159.74791 184.73097
142.1936 160.65585 185.48962
138.15092 155.26643 178.01411
138.91962 157.18849 181.53644
137.79955 156.79976 180.9897
138.18744 156.74054 181.00858
140.20663 159.6383 184.46475
141.03432 158.88228 182.94855
138.51274 156.21246 179.99478
140.68349 159.56819 184.47107
137.74435 156.07579 180.22893
141.56941 160.07834 184.47107
140.04059 158.77496 183.19151
136.80205 155.06839 177.7585
138.0492 155.78691 178.92557
142.26811 159.9691 184.09637
138.40213 156.3214 179.03288
142.42064 161.62178 186.80986
137.42073 154.55214 176.99815
139.40013 158.43166 183.08777
139.56207 158.46817 181.36829
139.11986 155.06863 175.49706
141.77968 160.56325 184.9716
138.03255 155.67084 178.79471
141.67896 160.32484 184.38063
139.37006 156.30798 179.32584
135.92717 154.4012 177.1336
137.74416 155.60968 177.229
136.6158 155.76161 176.32744
138.46965 156.3507 178.97142
140.12672 158.32423 182.28859
139.9801 159.48708 183.36401
140.59589 160.15411 185.10443
136.45387 156.92464 178.07065
140.63744 160.61336 183.0083
142.30386 163.93709 188.39601
140.54585 160.61453 184.69313
130.19614 148.39731 166.6597
134.96855 155.13156 174.30162
140.12654 160.96062 180.20233
129.55078 148.82364 166.91464
130.21187 151.07994 166.84253
133.55263 154.99701 171.15942
131.03557 151.36533 164.15677
134.1765 157.21716 167.85736
125.25074 152.34544 158.06117
138.62085 160.87038 171.94534
140.95865 160.9867 174.67482
158.50504 176.72003 194.30383
153.93591 173.53267 188.96085
182.63959 200.07002 220.94217
188.1269 203.89856 223.90128
201.36102 216.64421 236.89641
215.71074 230.64441 251.38701
220.49045 234.58844 254.2192
221.21077 235.34586 255.08408
222.14575 236.27026 255.744
222.12479 236.25847 255.744
219.08252 232.09134 250.45422
205.66 214.1863 226.91974
189.09108 191.41568 195.92184
179.96257 180.54037 182.30774
177.84135 178.86934 181.01933
176.56985 178.22032 181.01933
175.36697 177.60846 181.01933
174.50284 177.1702 181.01933
173.35402 176.58925 181.01933
172.45972 176.13832 181.01933
171.7979 175.80539 181.01933
170.98907 175.39938 181.01933
170.16014 174.98431 181.01933
169.54492 174.67691 181.01933
169.09158 174.45078 181.01933
168.31636 174.06482 181.01933
167.90303 173.85939 181.01933
167.37477 173.59726 181.01933
166.72263 173.27419 181.01933
166.41168 173.12044 181.01933
165.8642 172.84999 181.01933
165.36833 172.60548 181.01933
164.9429 172.396 181.01933
164.51468 172.18544 181.01933
164.26054 172.06062 181.01933
163.78331 171.82648 181.01933
163.52167 171.69827 181.01933
163.13985 171.51138 181.01933
162.78452 171.33766 181.01933
162.47165 171.18488 181.01933
162.1921 171.04848 181.01933
161.8656 170.88934 181.01933
161.7396 170.82797 181.01933
161.3695 170.6479 181.01933
161.15306 170.54268 181.01933
160.92906 170.43384 181.01933
160.71579 170.33032 181.01933
160.49054 170.22107 181.01933
160.26472 170.1116 181.01933
160.0675 170.01608 181.01933
159.93095 169.94998 181.01933
159.70882 169.84254 181.01933
159.56792 169.77438 181.01933
159.4328 169.7091 181.01933
159.35306 169.67056 181.01933
159.27618 169.63342 181.01933
159.13101 169.56335 181.01933
159.04407 169.52142 181.01933
158.90251 169.45311 181.01933
158.83171 169.41899 181.01933
158.68494 169.34822 181.01933
158.69405 169.3526 181.01933
158.63654 169.32489 181.01933
158.63174 169.32259 181.01933
158.64381 169.32841 181.01933
158.61176 169.31296 181.01933
158.58534 169.30025 181.01933
158.56708 169.29146 181.01933
158.54521 169.28091 181.01933
158.5869 169.30101 181.01933
158.6517 169.3322 181.01933
158.6641 169.33818 181.01933
158.6872 169.34933 181.01933
158.73715 169.37338 181.01933
158.75987 169.38434 181.01933
158.86638 169.43568 181.01933
159.03012 169.51466 181.01933
159.07976 169.53862 181.01933
159.12299 169.5595 181.01933
159.33311 169.66092 181.01933
159.34227 169.66536 181.01933
159.58253 169.78145 181.01933
159.65076 169.81445 181.01933
159.81487 169.89381 181.01933
159.97426 169.97093 181.01933
160.19293 170.07683 181.01933
160.39005 170.17235 181.01933
160.55296 170.25133 181.01933
160.78487 170.36383 181.01933
161.0257 170.48079 181.01933
161.214 170.5723 181.01933
161.5214 170.72179 181.01933
161.65616 170.78735 181.01933
162.01006 170.95975 181.01933
162.38287 171.14156 181.01933
162.53676 171.21664 181.01933
162.95302 171.42003 181.01933
163.20087 171.54124 181.01933
163.64658 171.75949 181.01933
163.90475 171.88602 181.01933
164.23976 172.05042 181.01933
164.66484 172.25923 181.01933
165.17906 172.51225 181.01933
165.59093 172.71521 181.01933
165.98285 172.90855 181.01933
166.27995 173.05533 181.01933
166.92068 173.37224 181.01933
167.39717 173.60834 181.01933
167.94925 173.88235 181.01933
168.48773 174.15005 181.01933
169.0986 174.45428 181.01933
169.67477 174.74178 181.01933
170.35654 175.08258 181.01933
171.0244 175.4171 181.01933
171.76291 175.78783 181.01933
172.53908 176.1783 181.01933
173.37068 176.59767 181.01933
174.3663 177.10104 181.01933
175.57906 177.71617 181.01933
176.64583 178.25903 181.01933
178.09406 178.99858 181.01933
179.83417 179.8911 181.01933
189.7615 192.30447 197.11287
208.3662 217.50336 231.00871
221.14154 234.8909 254.16486
222.13522 236.2643 255.744
222.14641 236.27065 255.744
222.13785 236.26581 255.744
222.13762 236.2657 255.744
222.12178 236.25671 255.744
222.11798 236.25458 255.744
222.13928 236.26663 255.744
222.12927 236.26097 255.744
222.14493 236.26984 255.744
222.15123 236.27336 255.744
222.14636 236.27061 255.744
222.14537 236.27005 255.744
222.1349 236.26416 255.744
222.11795 236.25456 255.744
222.1226 236.2572 255.744
222.12624 236.25926 255.744
222.1396 236.26677 255.744
222.11366 236.25217 255.744
222.1297 236.26125 255.744
222.13924 236.2666 255.744
222.13062 236.26173 255.744
222.12418 236.2581 255.744
222.13095 236.26193 255.744
222.13655 236.26509 255.744
222.11348 236.25203 255.744
222.13612 236.26485 255.744
222.1146 236.25269 255.744
222.12859 236.26057 255.744
222.12299 236.25743 255.744
222.13655 236.26509 255.744
222.14116 236.26767 255.744
222.13257 236.26283 255.744
222.12587 236.25903 255.744
222.13666 236.26518 255.744
222.12729 236.25984 255.744
222.13449 236.26393 255.744
222.1345 236.26393 255.744
222.119 236.25517 255.744
222.13794 236.26587 255.744
222.13089 236.26189 255.744
222.1357 236.26462 255.744
222.13724 236.26544 255.744
222.11287 236.25171 255.744
222.14645 236.27066 255.744
222.11766 236.25441 255.744
222.12012 236.25581 255.744
222.12631 236.25931 255.744
222.1367 236.26515 255.744
222.12906 236.2609 255.744
222.11931 236.25536 255.744
222.12793 236.26024 255.744
222.1247 236.25839 255.744
222.13545 236.26447 255.744
222.12296 236.2574 255.744
222.12473 236.2584 255.744
222.11882 236.2551 255.744
222.12248 236.25716 255.744
222.1303 236.26154 255.744
222.12755 236.26 255.744
222.14175 236.268 255.744
222.10307 236.24622 255.744
222.14722 236.27109 255.744
222.13313 236.26317 255.744
222.15417 236.27502 255.744
222.12233 236.25703 255.744
222.13795 236.26588 255.744
222.12833 236.26042 255.744
222.12013 236.2558 255.744
222.10663 236.24823 255.744
222.12613 236.25917 255.744
222.1198 236.25563 255.744
222.1267 236.25952 255.744
222.11192 236.25117 255.744
222.11987 236.2557 255.744
222.12987 236.2613 255.744
222.14493 236.26979 255.744
222.12952 236.26111 255.744
222.12248 236.25716 255.744
222.14606 236.27043 255.744
222.10217 236.24568 255.744
222.14839 236.27179 255.744
222.14131 236.26775 255.744
222.12221 236.25697 255.744
222.1352 236.26431 255.744
222.1293 236.261 255.744
222.12355 236.25772 255.744
222.14244 236.26839 255.744
222.11911 236.25523 255.744
222.11545 236.25317 255.744
222.10947 236.24979 255.744
222.13669 236.26517 255.744
222.12053 236.25603 255.744
222.13133 236.26213 255.744
222.12457 236.25835 255.744
222.12251 236.25717 255.744
222.12209 236.2569 255.744
222.12984 236.2613 255.744
222.13199 236.26251 255.744
222.1115 236.25095 255.744
222.12343 236.25764 255.744
222.13177 236.2624 255.744
222.13252 236.2628 255.744
222.13892 236.2664 255.744
222.12718 236.25981 255.744
222.1101 236.25015 255.744
222.11292 236.25174 255.744
222.13535 236.2644 255.744
222.12653 236.25941 255.744
222.12857 236.26057 255.744
222.11893 236.25513 255.744
222.12164 236.2567 255.744
222.12468 236.25838 255.744
222.12242 236.2571 255.744
222.13016 236.26147 255.744
222.12717 236.25978 255.744
222.12613 236.25919 255.744
222.13628 236.26491 255.744
222.13347 236.26334 255.744
222.12303 236.25743 255.744
222.10893 236.2495 255.744
222.1242 236.25813 255.744
222.11652 236.25377 255.744
222.1321 236.26257 255.744
222.14343 236.26898 255.744
222.13425 236.26378 255.744
222.14227 236.26834 255.744
222.1257 236.25897 255.744
222.13112 236.26204 255.744
222.12704 236.25972 255.744
222.13982 236.26694 255.744
222.10193 236.24556 255.744
222.13399 236.26364 255.744
222.12006 236.25578 255.744
222.12912 236.26086 255.744
222.1629 236.27995 255.744
222.14546 236.27011 255.744
222.1508 236.27312 255.744
222.16443 236.28079 255.744
222.15247 236.27406 255.744
222.13074 236.26181 255.744
222.15993 236.27829 255.744
222.17308 236.28569 255.744
222.1489 236.27205 255.744
222.16821 236.2829 255.744
222.16064 236.27867 255.744
222.14264 236.26852 255.744
222.14987 236.27258 255.744
222.15031 236.27284 255.744
222.1561 236.2761 255.744
222.15434 236.27513 255.744
222.148 236.27158 255.744
222.16266 236.27982 255.744
222.1722 236.28519 255.744
222.1572 236.27673 255.744
222.16566 236.28151 255.744
222.17183 236.285 255.744
222.17766 236.28827 255.744
222.17886 236.28896 255.744
222.14838 236.27176 255.744
222.13823 236.26602 255.744
222.14313 236.26878 255.744
222.16557 236.28146 255.744
222.16682 236.28217 255.744
222.14018 236.26715 255.744
222.15755 236.27692 255.744
222.15768 236.27701 255.744
222.16197 236.27945 255.744
222.14569 236.27025 255.744
222.1372 236.26544 255.744
222.16321 236.28012 255.744
222.1583 236.27734 255.744
222.15121 236.27336 255.744
222.13713 236.26541 255.744
222.15884 236.27766 255.744
222.15016 236.27275 255.744
222.15063 236.27303 255.744
222.17007 236.28398 255.744
222.14194 236.26814 255.744
222.16844 236.28308 255.744
222.16357 236.28033 255.744
222.15436 236.27515 255.744
222.14774 236.27136 255.744
222.16353 236.28029 255.744
222.15115 236.27332 255.744
222.15443 236.27519 255.744
222.15729 236.2768 255.744
222.1699 236.28389 255.744
222.16772 236.28265 255.744
222.16277 236.27988 255.744
222.1515 236.27353 255.744
222.16356 236.28032 255.744
222.15611 236.27615 255.744
222.14706 236.271 255.744
222.1514 236.27347 255.744
222.15665 236.27641 255.744
222.17654 236.28764 255.744
222.16736 236.28246 255.744
222.16049 236.27858 255.744
222.14494 236.26982 255.744
222.16324 236.28014 255.744
222.16647 236.282 255.744
222.16751 236.28255 255.744
222.15578 236.27594 255.744
222.1515 236.2735 255.744
222.13263 236.26286 255.744
222.16306 236.28004 255.744
222.17526 236.28693 255.744
222.14331 236.2689 255.744
222.16621 236.28181 255.744
222.17747 236.28816 255.744
222.16785 236.28271 255.744
222.1553 236.27567 255.744
222.1785 236.28874 255.744
222.16013 236.27838 255.744
222.15619 236.27615 255.744
222.15831 236.27739 255.744
222.1661 236.28174 255.744
222.17126 236.28465 255.744
222.15875 236.2776 255.744
222.17245 236.28537 255.744
222.14684 236.2709 255.744
222.16573 236.28156 255.744
222.1456 236.27017 255.744
222.16289 236.2799 255.744
222.14185 236.26808 255.744
222.16664 236.28204 255.744
222.16609 236.28174 255.744
222.14351 236.26903 255.744
222.15015 236.27274 255.744
222.16566 236.28148 255.744
222.1508 236.2731 255.744
222.14236 236.26836 255.744
222.15785 236.27708 255.744
222.15898 236.27773 255.744
222.15747 236.27687 255.744
222.14912 236.27219 255.744
222.15604 236.27605 255.744
222.15161 236.27357 255.744
222.17531 236.28694 255.744
222.16362 236.28033 255.744
222.16298 236.28 255.744
222.16013 236.2784 255.744
222.15677 236.27646 255.744
222.17004 236.284 255.744
222.14453 236.26958 255.744
222.1682 236.28294 255.744
222.14809 236.2716 255.744
222.16081 236.2788 255.744
222.17259 236.28539 255.744
222.15321 236.27448 255.744
222.15706 236.27664 255.744
222.17737 236.28812 255.744
222.16336 236.2802 255.744
222.1534 236.27461 255.744
222.16203 236.27946 255.744
222.16428 236.28073 255.744
222.16351 236.28032 255.744
222.16011 236.27838 255.744
222.1615 236.27916 255.744
222.16534 236.28131 255.744
222.17482 236.28667 255.744
222.18251 236.291 255.744
222.16252 236.27972 255.744
222.17293 236.2856 255.744
222.1738 236.28609 255.744
222.1781 236.28853 255.744
222.17592 236.2873 255.744
222.1848 236.29231 255.744
222.1651 236.28117 255.744
222.16939 236.28362 255.744
222.1597 236.27815 255.744
222.17094 236.2845 255.744
222.17389 236.28612 255.744
222.18217 236.29085 255.744
222.15672 236.27643 255.744
222.17816 236.28856 255.744
222.16486 236.28105 255.744
222.16855 236.28314 255.744
222.17009 236.284 255.744
222.17082 236.2844 255.744
222.16034 236.27852 255.744
222.1675 236.28253 255.744
222.17108 236.28456 255.744
222.15012 236.27274 255.744
222.16763 236.28264 255.744
222.16493 236.2811 255.744
222.15672 236.27643 255.744
222.15646 236.27634 255.744
222.17499 236.28674 255.744
222.1781 236.28853 255.744
222.16713 236.28235 255.744
222.17029 236.28412 255.744
222.17743 236.28815 255.744
222.16017 236.27841 255.744
222.17656 236.28767 255.744
222.17604 236.28738 255.744
222.15773 236.27701 255.744
222.1505 236.27295 255.744
222.18292 236.29126 255.744
222.1708 236.28441 255.744
222.17282 236.28555 255.744
222.17334 236.28584 255.744
222.17044 236.28421 255.744
222.16026 236.27846 255.744
222.15256 236.2741 255.744
222.17632 236.2875 255.744
222.1569 236.27658 255.744
222.16623 236.28181 255.744
222.16641 236.28192 255.744
222.1797 236.28944 255.744
222.1749 236.2867 255.744
222.16953 236.28368 255.744
222.15099 236.27322 255.744
222.16403 236.28061 255.744
222.17319 236.28574 255.744
222.16449 236.28084 255.744
222.17021 236.28407 255.744
222.16965 236.28377 255.744
222.1668 236.28212 255.744
222.1602 236.27843 255.744
222.17995 236.28954 255.744
222.16403 236.28055 255.744
222.16171 236.27927 255.744
222.15672 236.27644 255.744
222.15259 236.27411 255.744
222.14758 236.27132 255.744
222.15538 236.27571 255.744
222.14706 236.27101 255.744
222.16646 236.28198 255.744
222.18327 236.29144 255.744
222.1427 236.26857 255.744
222.15622 236.27617 255.744
222.17604 236.28734 255.744
222.15717 236.27669 255.744
222.18712 236.29358 255.744
222.17403 236.28624 255.744
222.15877 236.2776 255.744
222.16801 236.28284 255.744
222.15945 236.27802 255.744
222.17615 236.2874 255.744
222.1777 236.28828 255.744
222.16432 236.28076 255.744
222.1675 236.28255 255.744
222.17915 236.28912 255.744
222.15433 236.2751 255.744
222.15631 236.27625 255.744
222.1796 236.28937 255.744
222.17532 236.28696 255.744
222.18349 236.29153 255.744
222.15173 236.27364 255.744
222.15933 236.27795 255.744
222.19586 236.29851 255.744
222.17871 236.28886 255.744
222.16618 236.28178 255.744
222.17969 236.28941 255.744
222.17418 236.28633 255.744
222.15521 236.2756 255.744
222.18552 236.2927 255.744
222.16219 236.27956 255.744
222.14865 236.27188 255.744
222.16148 236.27916 255.744
222.15855 236.27747 255.744
222.15811 236.27724 255.744
222.17274 236.28546 255.744
222.1877 236.29396 255.744
222.15953 236.27805 255.744
222.15257 236.27412 255.744
222.15843 236.27745 255.744
222.14989 236.27258 255.744
222.16843 236.28304 255.744
222.16974 236.28378 255.744
222.17824 236.28859 255.744
222.19344 236.29715 255.744
222.1853 236.2926 255.744
222.17026 236.28409 255.744
222.1675 236.28253 255.744
222.18141 236.29042 255.744
222.16125 236.27902 255.744
222.1594 236.27797 255.744
222.16068 236.27869 255.744
222.17616 236.28746 255.744
222.16934 236.2836 255.744
222.1631 236.28006 255.744
222.01944 236.199 255.744
216.10883 230.46327 250.50095
202.2678 216.4098 236.36717
195.79546 210.60054 231.51477
183.92453 200.01295 221.90305
170.7202 186.8313 209.15372
166.74474 184.73152 208.94379
156.73393 175.39587 199.93657
156.55626 174.98117 199.5909
156.70926 175.09644 199.76672
147.38792 166.11497 190.37335
148.26845 166.2511 190.59294
146.6763 165.3084 189.91632
143.98499 161.15324 184.50911
143.80954 162.05455 186.2452
144.39447 163.50877 188.74312
144.40968 161.9411 185.28767
141.24564 157.91093 180.76056
144.9636 162.20343 186.11948
144.11162 162.13872 186.30176
144.93617 164.86252 189.58337
141.234 157.04712 179.39581
141.36755 158.56694 182.30774
136.47699 153.62827 176.55524
140.86264 158.51207 182.27563
144.22336 162.93895 187.87181
139.44699 158.58426 183.58711
142.52847 159.90364 183.45323
139.77493 157.78949 181.26491
140.67958 158.51286 182.4297
135.09686 152.23335 175.52797
141.7069 158.46553 181.60025
141.35512 159.45766 183.58076
139.48827 158.13254 182.42331
138.24696 155.50339 178.27031
140.43771 159.96346 185.53955
143.47928 163.31363 188.09604
140.34946 159.23088 184.20702
139.27472 156.80423 180.56622
139.1985 157.38739 181.83145
141.67694 159.59047 183.71457
139.37027 159.31615 184.395
137.84085 154.92659 178.15204
141.45534 158.66837 182.41168
140.45053 158.82825 183.20424
136.96747 153.85995 177.23
135.71007 152.90662 175.88234
142.79442 163.03134 188.85352
136.42992 153.81737 176.42262
137.2007 154.21399 177.26584
138.13904 155.56792 179.59154
135.14622 153.77983 178.11798
142.31468 162.28127 187.72858
142.0909 159.97803 183.71953
139.98941 159.2236 183.1149
138.71156 155.98993 179.7868
138.43973 156.5046 179.96902
137.69806 155.56628 179.57861
140.18292 158.50941 182.23076
140.0381 157.32283 181.08397
136.18665 154.27164 178.22014
141.15457 158.83653 181.84503
138.75473 156.7424 181.01933
137.05699 154.48276 177.62581
140.76093 158.44531 181.4585
140.51372 159.54842 184.25462
139.83873 158.26788 182.82185
138.19632 155.25238 177.47423
137.5268 155.48611 178.25723
138.97829 157.31773 181.01294
138.9318 156.86601 179.84546
136.8541 153.38057 174.94386
136.60881 156.0254 180.63359
137.81725 157.44794 181.00003
142.58948 160.51674 183.07741
140.23125 157.98676 181.52937
142.51448 162.20915 184.48392
132.58607 150.25421 170.8088
136.6357 156.54826 177.26344
135.50183 152.76431 173.41144
136.2604 154.28357 175.22862
134.97182 154.93578 176.59404
136.17085 156.35048 177.11423
144.95709 162.50462 184.48018
140.17896 160.99254 181.77992
136.57439 157.57625 176.99211
124.80948 144.9156 161.5694
121.16802 144.68283 154.29083
122.39635 152.29239 157.82431
122.41802 153.35335 155.23186
125.693146 153.45882 157.86133
129.14839 158.05681 162.83978
136.86166 160.3273 171.08917
152.25781 176.41948 190.8049
158.0587 178.22676 194.20557
158.01929 176.18315 195.18321
177.94699 194.76477 213.7253
200.16814 216.45425 237.57721
213.23459 227.88257 248.10219
220.04997 234.29277 254.16486
219.62946 232.81194 251.38701
211.70389 222.01468 237.00995
189.8513 192.35075 197.11287
179.6476 179.79523 181.01933
177.99179 178.94627 181.01933
176.43254 178.15038 181.01933
175.51642 177.68436 181.01933
174.27493 177.0548 181.01933
173.3683 176.59645 181.01933
172.43965 176.1282 181.01933
171.6586 175.7354 181.01933
170.93513 175.37234 181.01933
170.23564 175.02211 181.01933
169.49716 174.65309 181.01933
168.9596 174.38503 181.01933
168.2998 174.0566 181.01933
167.71906 173.76805 181.01933
167.13307 173.47743 181.01933
166.60889 173.21793 181.01933
166.11703 172.97481 181.01933
165.79044 172.81358 181.01933
165.35176 172.59729 181.01933
164.7847 172.31816 181.01933
164.36337 172.1111 181.01933
164.00647 171.93593 181.01933
163.61588 171.7444 181.01933
163.2019 171.54175 181.01933
162.89465 171.39148 181.01933
162.50656 171.2019 181.01933
162.30467 171.1034 181.01933
161.97987 170.945 181.01933
161.64209 170.78052 181.01933
161.33275 170.63 181.01933
161.00044 170.46852 181.01933
160.8292 170.38536 181.01933
160.54924 170.24954 181.01933
160.32726 170.14189 181.01933
160.07959 170.02193 181.01933
159.93106 169.95003 181.01933
159.72572 169.85068 181.01933
159.51309 169.7479 181.01933
159.3362 169.66245 181.01933
159.07492 169.5363 181.01933
158.96861 169.48499 181.01933
158.79396 169.40077 181.01933
158.62717 169.32039 181.01933
158.66483 169.33852 181.01933
158.51482 169.26628 181.01933
158.36641 169.19482 181.01933
158.26096 169.14404 181.01933
158.17749 169.10393 181.01933
158.14662 169.08905 181.01933
158.09799 169.06567 181.01933
157.9904 169.01395 181.01933
157.94363 168.99146 181.01933
157.8998 168.9704 181.01933
157.92458 168.98228 181.01933
157.93784 168.98866 181.01933
157.86775 168.95497 181.01933
157.85863 168.95059 181.01933
157.81575 168.92998 181.01933
157.81436 168.92932 181.01933
157.90022 168.97058 181.01933
157.90018 168.97058 181.01933
157.97235 169.00526 181.01933
157.99246 169.01494 181.01933
158.05226 169.04366 181.01933
158.12231 169.07736 181.01933
158.30682 169.16612 181.01933
158.3515 169.18765 181.01933
158.43625 169.22844 181.01933
158.58374 169.29948 181.01933
158.64081 169.32695 181.01933
158.83449 169.42033 181.01933
158.93172 169.4672 181.01933
159.11949 169.5578 181.01933
159.24095 169.61644 181.01933
159.42184 169.7038 181.01933
159.55695 169.76909 181.01933
159.76906 169.87164 181.01933
159.96289 169.96544 181.01933
160.20137 170.0809 181.01933
160.33914 170.14769 181.01933
160.62746 170.28746 181.01933
160.9887 170.4628 181.01933
161.18695 170.55913 181.01933
161.4153 170.67017 181.01933
161.67778 170.79788 181.01933
162.02448 170.96678 181.01933
162.38387 171.14206 181.01933
162.58769 171.24153 181.01933
162.98494 171.43562 181.01933
163.30608 171.59271 181.01933
163.70215 171.7867 181.01933
164.12451 171.99384 181.01933
164.5414 172.19856 181.01933
164.92648 172.38794 181.01933
165.36844 172.60555 181.01933
165.84644 172.84122 181.01933
166.2919 173.0612 181.01933
166.83864 173.33162 181.01933
167.35211 173.586 181.01933
167.78183 173.79921 181.01933
168.53008 174.17113 181.01933
168.95508 174.38275 181.01933
169.74799 174.77834 181.01933
170.29294 175.05075 181.01933
170.99239 175.40106 181.01933
171.85423 175.8337 181.01933
172.58623 176.20204 181.01933
173.41338 176.6192 181.01933
174.4345 177.13559 181.01933
175.4314 177.64117 181.01933
176.79463 178.33487 181.01933
178.10803 179.00572 181.01933
180.61108 180.87315 182.30774
195.90866 200.7571 208.64954
212.71935 223.45726 238.97687
221.19832 234.92198 254.16486
222.1548 236.27538 255.744
222.17685 236.28783 255.744
222.17429 236.28636 255.744
222.14835 236.27173 255.744
222.16153 236.27917 255.744
222.16629 236.28185 255.744
222.14847 236.2718 255.744
222.16817 236.28291 255.744
222.16278 236.27988 255.744
222.1719 236.28502 255.744
222.17227 236.28525 255.744
222.14612 236.27048 255.744
222.15051 236.27296 255.744
222.16222 236.27956 255.744
222.15741 236.27681 255.744
222.15512 236.27556 255.744
222.16412 236.2806 255.744
222.18886 236.29462 255.744
222.17131 236.28468 255.744
222.16113 236.27895 255.744
222.15904 236.27773 255.744
222.18388 236.29176 255.744
222.15936 236.27795 255.744
222.17087 236.28445 255.744
222.16684 236.28218 255.744
222.16733 236.28242 255.744
222.14995 236.27264 255.744
222.15083 236.27316 255.744
222.17717 236.28798 255.744
222.16669 236.2821 255.744
222.14616 236.27052 255.744
222.16602 236.28166 255.744
222.16917 236.2835 255.744
222.16347 236.28026 255.744
222.16634 236.28189 255.744
222.17375 236.28607 255.744
222.15346 236.27461 255.744
222.15103 236.27325 255.744
222.17007 236.28398 255.744
222.16385 236.28047 255.744
222.17207 236.2851 255.744
222.17406 236.28622 255.744
222.1466 236.27074 255.744
222.16461 236.28093 255.744
222.18765 236.29391 255.744
222.18613 236.29306 255.744
222.15828 236.27733 255.744
222.1617 236.27928 255.744
222.16295 236.27997 255.744
222.16982 236.28383 255.744
222.16846 236.28308 255.744
222.16096 236.27885 255.744
222.17685 236.28784 255.744
222.1642 236.2807 255.744
222.16254 236.27972 255.744
222.1548 236.27538 255.744
222.15543 236.27574 255.744
222.15337 236.27457 255.744
222.16953 236.28369 255.744
222.16621 236.28181 255.744
222.17128 236.2847 255.744
222.16696 236.28224 255.744
222.14497 236.26984 255.744
222.15239 236.27403 255.744
222.16002 236.27834 255.744
222.16309 236.28004 255.744
222.16185 236.27936 255.744
222.16661 236.28204 255.744
222.15685 236.27655 255.744
222.1537 236.27477 255.744
222.16582 236.28162 255.744
222.16281 236.2799 255.744
222.14859 236.27185 255.744
222.14803 236.27153 255.744
222.15587 236.27597 255.744
222.13756 236.26567 255.744
222.17598 236.28734 255.744
222.16327 236.28015 255.744
222.13423 236.26376 255.744
222.14912 236.27219 255.744
222.15117 236.27332 255.744
222.13196 236.2625 255.744
222.17311 236.28568 255.744
222.15219 236.27391 255.744
222.15569 236.27585 255.744
222.14883 236.272 255.744
222.14392 236.26926 255.744
222.15437 236.27518 255.744
222.1494 236.27232 255.744
222.16064 236.27867 255.744
222.16086 236.27878 255.744
222.14984 236.27257 255.744
222.15508 236.2755 255.744
222.14308 236.26874 255.744
222.17503 236.28679 255.744
222.13945 236.26668 255.744
222.15845 236.27745 255.744
222.16249 236.27971 255.744
222.16284 236.2799 255.744
222.13467 236.26402 255.744
222.15826 236.27734 255.744
222.15256 236.27411 255.744
222.16124 236.279 255.744
222.1439 236.26923 255.744
222.14198 236.26813 255.744
222.15198 236.2738 255.744
222.15642 236.27626 255.744
222.17175 236.28494 255.744
222.15204 236.27383 255.744
222.15433 236.27512 255.744
222.15842 236.27744 255.744
222.15244 236.27403 255.744
222.15152 236.27353 255.744
222.17635 236.28754 255.744
222.15166 236.27362 255.744
222.14522 236.27 255.744
222.15727 236.27678 255.744
222.15627 236.27621 255.744
222.16992 236.2839 255.744
222.164 236.28056 255.744
222.14893 236.27206 255.744
222.15213 236.27388 255.744
222.1674 236.28249 255.744
222.15508 236.27554 255.744
222.14166 236.26796 255.744
222.16876 236.28325 255.744
222.16557 236.28145 255.744
222.15817 236.27728 255.744
222.17445 236.28648 255.744
222.13857 236.2662 255.744
222.14377 236.26915 255.744
222.14526 236.26999 255.744
222.1842 236.29195 255.744
222.19615 236.29874 255.744
222.19177 236.29625 255.744
222.1859 236.29294 255.744
222.18362 236.29164 255.744
222.17874 236.28888 255.744
222.1869 236.2935 255.744
222.18237 236.29091 255.744
222.19745 236.29944 255.744
222.1786 236.2888 255.744
222.20285 236.30247 255.744
222.16774 236.2827 255.744
222.19334 236.29713 255.744
222.20941 236.30618 255.744
222.1829 236.29124 255.744
222.19705 236.29921 255.744
222.19211 236.29645 255.744
222.18752 236.29384 255.744
222.20007 236.30092 255.744
222.1915 236.29608 255.744
222.18608 236.293 255.744
222.17899 236.28905 255.744
222.19365 236.29729 255.744
222.19707 236.29921 255.744
222.21309 236.30827 255.744
222.18568 236.29282 255.744
222.17644 236.28758 255.744
222.19325 236.29709 255.744
222.18077 236.29002 255.744
222.17607 236.28738 255.744
222.16963 236.28374 255.744
222.19461 236.29784 255.744
222.16638 236.2819 255.744
222.1799 236.28952 255.744
222.17274 236.28548 255.744
222.18001 236.28958 255.744
222.19917 236.30045 255.744
222.19331 236.2971 255.744
222.18413 236.29192 255.744
222.18709 236.29358 255.744
222.19803 236.29977 255.744
222.1742 236.28632 255.744
222.18776 236.29398 255.744
222.21375 236.30864 255.744
222.18552 236.2927 255.744
222.20523 236.30383 255.744
222.18431 236.29204 255.744
222.19345 236.29718 255.744
222.18419 236.29199 255.744
222.20949 236.30621 255.744
222.20145 236.30168 255.744
222.18547 236.2927 255.744
222.20299 236.30255 255.744
222.18266 236.29109 255.744
222.17726 236.28804 255.744
222.1875 236.29382 255.744
222.19603 236.29866 255.744
222.1867 236.29337 255.744
222.20955 236.30626 255.744
222.18791 236.29405 255.744
222.19398 236.29747 255.744
222.19543 236.29831 255.744
222.20743 236.30504 255.744
222.19713 236.29926 255.744
222.1844 236.29207 255.744
222.17712 236.28796 255.744
222.1872 236.29366 255.744
222.18044 236.28986 255.744
222.20169 236.30182 255.744
222.17664 236.28769 255.744
222.19383 236.2974 255.744
222.16728 236.28241 255.744
222.1921 236.2964 255.744
222.1795 236.28929 255.744
222.1885 236.2944 255.744
222.18341 236.29153 255.744
222.17645 236.28758 255.744
222.2163 236.31009 255.744
222.20032 236.30106 255.744
222.19121 236.29594 255.744
222.19957 236.30066 255.744
222.19139 236.296 255.744
222.19514 236.29814 255.744
222.1978 236.29964 255.744
222.2031 236.3026 255.744
222.18843 236.29436 255.744
222.19731 236.29936 255.744
222.17656 236.28766 255.744
222.20197 236.30199 255.744
222.1972 236.2993 255.744
222.18578 236.29283 255.744
222.18451 236.29214 255.744
222.17703 236.28793 255.744
222.16673 236.2821 255.744
222.1806 236.28992 255.744
222.20468 236.30353 255.744
222.19199 236.29637 255.744
222.20956 236.30629 255.744
222.19345 236.2972 255.744
222.17465 236.28656 255.744
222.18694 236.29349 255.744
222.20674 236.30467 255.744
222.19447 236.29778 255.744
222.19069 236.29562 255.744
222.20619 236.30435 255.744
222.18944 236.2949 255.744
222.20836 236.30559 255.744
222.19238 236.29657 255.744
222.17737 236.2881 255.744
222.20732 236.30501 255.744
222.18405 236.29189 255.744
222.18982 236.29514 255.744
222.18279 236.29115 255.744
222.2092 236.30605 255.744
222.21255 236.30794 255.744
222.18811 236.29416 255.744
222.19623 236.29874 255.744
222.1992 236.30043 255.744
222.20941 236.3062 255.744
222.19362 236.29729 255.744
222.18365 236.29166 255.744
222.19919 236.30045 255.744
222.18896 236.29465 255.744
222.1868 236.29341 255.744
222.19664 236.29898 255.744
222.1803 236.28975 255.744
222.19655 236.29892 255.744
222.19061 236.29556 255.744
222.19609 236.29868 255.744
222.19568 236.29843 255.744
222.20125 236.30157 255.744
222.19846 236.30002 255.744
222.18895 236.2946 255.744
222.19151 236.2961 255.744
222.19778 236.29964 255.744
222.20866 236.30577 255.744
222.20773 236.30527 255.744
222.17798 236.28845 255.744
222.18454 236.29216 255.744
222.19308 236.297 255.744
222.19768 236.29953 255.744
222.20737 236.30504 255.744
222.20229 236.30217 255.744
222.19244 236.2966 255.744
222.20773 236.30522 255.744
222.2149 236.30928 255.744
222.21086 236.307 255.744
222.1677 236.28265 255.744
222.1846 236.29219 255.744
222.19283 236.29683 255.744
222.18388 236.2918 255.744
222.20988 236.30646 255.744
222.19464 236.29787 255.744
222.21542 236.30956 255.744
222.2305 236.31807 255.744
222.18657 236.2933 255.744
222.20927 236.30609 255.744
222.19139 236.296 255.744
222.18431 236.29202 255.744
222.1944 236.29771 255.744
222.18803 236.29414 255.744
222.2014 236.30167 255.744
222.20605 236.30429 255.744
222.18631 236.29317 255.744
222.20416 236.30322 255.744
222.18513 236.29251 255.744
222.18169 236.29054 255.744
222.21326 236.30836 255.744
222.20436 236.30333 255.744
222.19077 236.29568 255.744
222.1986 236.30006 255.744
222.19846 236.30002 255.744
222.20512 236.3038 255.744
222.19606 236.29865 255.744
222.20064 236.30124 255.744
222.18675 236.2934 255.744
222.2153 236.30951 255.744
222.1896 236.29503 255.744
222.18118 236.29024 255.744
222.21426 236.30891 255.744
222.17477 236.28664 255.744
222.2007 236.30128 255.744
222.20256 236.30232 255.744
222.20615 236.3044 255.744
222.19308 236.29697 255.744
222.19695 236.29918 255.744
222.19633 236.29883 255.744
222.21617 236.30997 255.744
222.20718 236.30493 255.744
222.20224 236.30214 255.744
222.20314 236.30266 255.744
222.18321 236.2914 255.744
222.20543 236.30396 255.744
222.19809 236.2998 255.744
222.19185 236.29626 255.744
222.18729 236.2937 255.744
222.18587 236.2929 255.744
222.18541 236.29265 255.744
222.21936 236.31183 255.744
222.1946 236.29782 255.744
222.20499 236.3037 255.744
222.19066 236.2956 255.744
222.2148 236.30922 255.744
222.21597 236.30988 255.744
222.18663 236.29332 255.744
222.20775 236.30522 255.744
222.20065 236.30125 255.744
222.20575 236.30412 255.744
222.20003 236.30092 255.744
222.20477 236.30357 255.744
222.20343 236.30283 255.744
222.19127 236.29596 255.744
222.18929 236.29482 255.744
222.20105 236.30147 255.744
222.22592 236.31552 255.744
222.20924 236.30609 255.744
222.19496 236.29803 255.744
222.21062 236.30684 255.744
222.18884 236.29459 255.744
222.20424 236.30328 255.744
222.2128 236.30809 255.744
222.20197 236.30197 255.744
222.17833 236.28864 255.744
222.1925 236.29665 255.744
222.20317 236.30264 255.744
222.21092 236.30702 255.744
222.18854 236.29442 255.744
222.19984 236.30078 255.744
222.1931 236.297 255.744
222.21115 236.30717 255.744
222.19136 236.29602 255.744
222.2021 236.30205 255.744
222.20178 236.30188 255.744
222.18597 236.29297 255.744
222.20827 236.30556 255.744
222.2168 236.31035 255.744
222.19676 236.29906 255.744
222.20654 236.30455 255.744
222.21504 236.30937 255.744
222.20912 236.30602 255.744
222.18987 236.29518 255.744
222.17519 236.28687 255.744
222.19777 236.29962 255.744
222.19716 236.29926 255.744
222.19601 236.2986 255.744
222.1991 236.30037 255.744
222.20337 236.3028 255.744
222.21703 236.31049 255.744
221.99854 236.18721 255.744
216.33495 230.58029 250.64105
206.24252 220.81079 241.12195
190.80066 206.9134 229.07582
178.66692 195.42719 218.40523
168.45018 186.06496 210.10277
161.90996 180.05414 204.5713
168.71634 187.27075 212.3191
157.62318 176.06757 200.8301
151.31668 169.46729 194.13367
147.83034 165.53517 189.60796
144.2333 161.26321 184.67393
148.62762 167.02492 191.54782
143.72466 162.64178 187.68484
144.42123 161.96623 185.6788
140.69197 156.78145 178.9321
144.32864 163.05586 187.23541
146.54839 164.96246 189.73135
140.64891 158.05838 181.5358
143.20857 162.33574 187.43527
142.25867 160.16965 184.24332
136.9284 152.97302 175.37201
141.41994 158.58253 182.30774
140.79282 157.79428 181.60025
143.3042 161.44778 185.73361
137.95259 155.60155 178.79471
142.47713 161.15993 185.85126
140.44398 157.46559 181.08397
141.88934 160.59518 184.71835
141.91478 159.85995 183.27602
141.06848 159.27748 183.71457
138.66148 154.53209 176.87239
140.2692 158.27478 181.90938
138.90031 156.88734 180.77037
136.42783 154.24313 177.2116
138.2265 157.24236 180.86423
138.59743 155.56148 178.67679
138.72646 157.4138 182.17932
133.9691 149.85597 172.20667
134.24193 149.65556 171.24829
137.82768 155.49304 179.14645
137.82272 156.49619 179.95065
141.1188 159.2435 183.45958
138.90625 157.22401 181.79356
134.50902 151.09016 173.9307
141.12817 159.70146 184.08435
139.97308 157.83955 182.0508
138.6929 155.84825 179.21306
136.01215 154.26099 177.47556
138.34871 155.37766 178.80774
140.05872 159.75677 185.9625
139.69165 157.56752 181.92218
140.11201 159.05228 183.95651
140.74173 158.89828 182.87183
136.49748 154.38759 178.15213
140.06424 158.98232 184.10631
137.55995 154.86113 178.22064
141.23291 159.4564 182.66699
136.58597 154.02579 176.41602
138.44237 157.14316 181.20033
140.54424 156.5968 178.87317
139.4459 158.2178 182.03159
136.14807 155.82605 180.21602
139.07391 158.4063 183.71463
135.57431 151.85727 173.21613
139.91296 159.04831 182.92308
139.29904 156.97093 179.8975
136.9884 155.06943 178.66376
137.78555 155.75967 179.11649
141.4075 160.35103 184.07341
141.79149 159.36728 183.20424
134.85028 154.102 176.91957
137.98796 155.69151 178.7024
139.56902 158.66418 181.87733
141.43105 161.24527 186.60933
138.30182 156.79137 179.63586
143.8862 163.58452 188.98976
141.987 160.57375 185.3634
136.49275 154.32051 176.70857
141.42593 161.58488 186.59683
142.47473 160.10204 183.05734
137.19774 156.39827 178.487
138.29945 156.3562 178.74657
138.52892 157.33199 179.39981
137.4649 155.66331 177.55415
137.53758 157.38116 178.44786
145.59186 165.2454 186.9067
135.86586 155.66322 174.22444
132.13753 154.10028 171.29108
129.61856 152.18275 164.82613
127.629265 156.99316 164.33896
120.25324 153.293 153.8624
124.57182 156.84729 158.85812
129.68817 159.25838 162.3396
126.35118 154.18657 160.4347
138.66483 164.22676 173.42632
139.4958 161.66171 173.25775
147.17369 166.87119 182.07387
168.76442 186.3782 205.01085
192.45369 207.57631 227.40619
199.9352 211.95079 229.27982
192.4129 196.80219 204.11313
180.75063 180.94493 182.30774
178.4604 179.18614 181.01933
176.97174 178.42522 181.01933
175.51796 177.68515 181.01933
174.48775 177.16255 181.01933
173.625 176.72607 181.01933
172.58215 176.19998 181.01933
171.64595 175.72906 181.01933
171.08815 175.44907 181.01933
170.2363 175.02243 181.01933
169.6557 174.73225 181.01933
168.97058 174.39052 181.01933
168.1904 174.0022 181.01933
167.68013 173.74873 181.01933
167.13297 173.47737 181.01933
166.66922 173.24777 181.01933
166.0482 172.94084 181.01933
165.63948 172.73912 181.01933
165.13751 172.49178 181.01933
164.67389 172.26369 181.01933
164.31702 172.08833 181.01933
163.80669 171.83795 181.01933
163.48755 171.6816 181.01933
163.1072 171.49542 181.01933
162.64752 171.27075 181.01933
162.35242 171.1267 181.01933
161.98288 170.94649 181.01933
161.67596 170.797 181.01933
161.3727 170.64943 181.01933
161.08542 170.5098 181.01933
160.82265 170.38219 181.01933
160.50577 170.22845 181.01933
160.29277 170.12521 181.01933
159.99153 169.9793 181.01933
159.78831 169.88097 181.01933
159.57945 169.77997 181.01933
159.35527 169.67165 181.01933
159.15317 169.57404 181.01933
158.9709 169.48611 181.01933
158.8016 169.40445 181.01933
158.6193 169.3166 181.01933
158.45856 169.23917 181.01933
158.30403 169.16478 181.01933
158.1398 169.08577 181.01933
158.01222 169.02443 181.01933
157.88988 168.96559 181.01933
157.78262 168.9141 181.01933
157.67728 168.86348 181.01933
157.56255 168.80838 181.01933
157.52197 168.78893 181.01933
157.4561 168.75731 181.01933
157.30594 168.68529 181.01933
157.2982 168.68156 181.01933
157.25165 168.65924 181.01933
157.23486 168.65121 181.01933
157.25769 168.66214 181.01933
157.17459 168.6223 181.01933
157.18918 168.62929 181.01933
157.19339 168.63132 181.01933
157.15208 168.61151 181.01933
157.20749 168.63808 181.01933
157.20485 168.6368 181.01933
157.2048 168.63678 181.01933
157.37135 168.71666 181.01933
157.35387 168.70825 181.01933
157.40791 168.73419 181.01933
157.50374 168.78018 181.01933
157.60667 168.82959 181.01933
157.61415 168.83316 181.01933
157.7888 168.91707 181.01933
157.80121 168.92302 181.01933
158.02159 169.02893 181.01933
158.10979 169.07133 181.01933
158.22432 169.12643 181.01933
158.41852 169.2199 181.01933
158.55106 169.28372 181.01933
158.71489 169.36264 181.01933
158.89366 169.44887 181.01933
159.08438 169.54085 181.01933
159.34729 169.66779 181.01933
159.45349 169.7191 181.01933
159.65858 169.8182 181.01933
159.91167 169.94064 181.01933
160.08513 170.02461 181.01933
160.4119 170.18292 181.01933
160.63605 170.29164 181.01933
160.95317 170.44556 181.01933
161.15732 170.54475 181.01933
161.5411 170.73137 181.01933
161.77505 170.84525 181.01933
162.20934 171.0569 181.01933
162.46648 171.18234 181.01933
162.80948 171.34987 181.01933
163.19827 171.53996 181.01933
163.4874 171.6815 181.01933
163.92584 171.89638 181.01933
164.39497 172.12663 181.01933
164.81229 172.33173 181.01933
165.24196 172.54321 181.01933
165.773 172.80501 181.01933
166.25273 173.04185 181.01933
166.65785 173.24216 181.01933
167.22284 173.52188 181.01933
167.77745 173.79703 181.01933
168.44524 174.12892 181.01933
168.94836 174.3794 181.01933
169.66742 174.73808 181.01933
170.32375 175.06616 181.01933
171.15932 175.48479 181.01933
171.88275 175.84805 181.01933
172.68898 176.2538 181.01933
173.68848 176.75816 181.01933
174.74706 177.29393 181.01933
175.81133 177.83426 181.01933
177.14342 178.5128 181.01933
178.60176 179.25856 181.01933
181.568 181.94417 183.58711
197.97427 203.35324 211.98814
212.89616 223.5438 238.97687
222.20126 236.30159 255.744
222.19354 236.29724 255.744
222.19565 236.29842 255.744
222.20839 236.30562 255.744
222.19406 236.29753 255.744
222.18146 236.29039 255.744
222.18674 236.2934 255.744
222.19757 236.29953 255.744
222.20314 236.30266 255.744
222.1967 236.299 255.744
222.18907 236.29471 255.744
222.20201 236.30203 255.744
222.20717 236.30493 255.744
222.18904 236.29468 255.744
222.17691 236.28784 255.744
222.18726 236.29369 255.744
222.20311 236.30261 255.744
222.18059 236.28993 255.744
222.19336 236.29712 255.744
222.20122 236.30156 255.744
222.18567 236.29279 255.744
222.20602 236.30429 255.744
222.19986 236.30078 255.744
222.1865 236.29329 255.744
222.18445 236.29208 255.744
222.19914 236.30043 255.744
222.18573 236.29285 255.744
222.1891 236.29472 255.744
222.19603 236.29865 255.744
222.19356 236.29726 255.744
222.18658 236.2933 255.744
222.21071 236.30696 255.744
222.19124 236.29594 255.744
222.19945 236.30055 255.744
222.20482 236.30359 255.744
222.18494 236.2924 255.744
222.19272 236.29677 255.744
222.18587 236.2929 255.744
222.22034 236.31235 255.744
222.19472 236.2979 255.744
222.20024 236.30103 255.744
222.19862 236.30008 255.744
222.17844 236.28874 255.744
222.19017 236.29533 255.744
222.19525 236.29817 255.744
222.20566 236.30406 255.744
222.21332 236.30841 255.744
222.1873 236.29369 255.744
222.18604 236.29301 255.744
222.1735 236.2859 255.744
222.19348 236.29723 255.744
222.19066 236.2956 255.744
222.20238 236.30222 255.744
222.1871 236.29358 255.744
222.18575 236.29285 255.744
222.20337 236.30276 255.744
222.20741 236.30505 255.744
222.1952 236.29816 255.744
222.18962 236.295 255.744
222.19072 236.29562 255.744
222.17102 236.28452 255.744
222.2001 236.30092 255.744
222.1899 236.29517 255.744
222.19334 236.2971 255.744
222.17076 236.28436 255.744
222.1928 236.2968 255.744
222.20255 236.30232 255.744
222.1868 236.29346 255.744
222.17735 236.28809 255.744
222.1762 236.28745 255.744
222.17868 236.28885 255.744
222.1966 236.29897 255.744
222.20062 236.30124 255.744
222.19571 236.29843 255.744
222.19121 236.29591 255.744
222.2052 236.3038 255.744
222.18428 236.292 255.744
222.2071 236.30489 255.744
222.18132 236.29037 255.744
222.20007 236.30089 255.744
222.19978 236.30075 255.744
222.18803 236.29413 255.744
222.18054 236.28993 255.744
222.18723 236.29367 255.744
222.17442 236.28645 255.744
222.1924 236.29657 255.744
222.19768 236.29958 255.744
222.19643 236.29887 255.744
222.20245 236.30226 255.744
222.20282 236.30246 255.744
222.18758 236.29388 255.744
222.18529 236.29256 255.744
222.20753 236.30515 255.744
222.18694 236.29349 255.744
222.20395 236.3031 255.744
222.1701 236.284 255.744
222.15535 236.2757 255.744
222.18805 236.29413 255.744
222.18962 236.29503 255.744
222.1945 236.29776 255.744
222.20526 236.30382 255.744
222.19533 236.29826 255.744
222.1819 236.29065 255.744
222.20401 236.30312 255.744
222.19121 236.29593 255.744
222.1846 236.2922 255.744
222.19456 236.2978 255.744
222.18866 236.2945 255.744
222.19415 236.29759 255.744
222.21223 236.30779 255.744
222.18416 236.29193 255.744
222.19254 236.29669 255.744
222.17267 236.28545 255.744
222.18704 236.29358 255.744
222.17937 236.28923 255.744
222.19011 236.29529 255.744
222.17522 236.28688 255.744
222.18738 236.29375 255.744
222.19504 236.29807 255.744
222.1791 236.28908 255.744
222.1781 236.28848 255.744
222.18936 236.29486 255.744
222.17279 236.28552 255.744
222.19038 236.29544 255.744
222.17151 236.28476 255.744
222.16794 236.28278 255.744
222.1952 236.2982 255.744
222.19572 236.29848 255.744
222.17668 236.28769 255.744
222.1826 236.29108 255.744
222.1871 236.29361 255.744
222.21138 236.30733 255.744
222.22893 236.3172 255.744
222.2022 236.30211 255.744
222.22475 236.31485 255.744
222.2171 236.31052 255.744
222.23074 236.3182 255.744
222.2399 236.32338 255.744
222.2097 236.30637 255.744
222.21484 236.30925 255.744
222.2119 236.30759 255.744
222.21854 236.31131 255.744
222.22086 236.31264 255.744
222.21486 236.30928 255.744
222.21991 236.3121 255.744
222.21307 236.30829 255.744
222.21329 236.3084 255.744
222.2269 236.31606 255.744
222.23361 236.31982 255.744
222.21048 236.30681 255.744
222.21347 236.30847 255.744
222.21336 236.30841 255.744
222.20746 236.30507 255.744
222.20569 236.30408 255.744
222.2241 236.31445 255.744
222.21515 236.30943 255.744
222.20175 236.30186 255.744
222.24522 236.32635 255.744
222.23994 236.3234 255.744
222.24857 236.3283 255.744
222.21962 236.31195 255.744
222.21901 236.3116 255.744
222.22182 236.31317 255.744
222.20863 236.30574 255.744
222.20853 236.30568 255.744
222.19781 236.29965 255.744
222.231 236.31836 255.744
222.20763 236.30518 255.744
222.20868 236.30579 255.744
222.2148 236.30925 255.744
222.21156 236.3074 255.744
222.2316 236.3187 255.744
222.23051 236.3181 255.744
222.20169 236.30185 255.744
222.21303 236.30823 255.744
222.20735 236.30502 255.744
222.22148 236.31299 255.744
222.21222 236.30777 255.744
222.20772 236.30524 255.744
222.20943 236.30621 255.744
222.22388 236.31435 255.744
222.20013 236.30098 255.744
222.23389 236.31999 255.744
222.21541 236.30956 255.744
222.21788 236.31099 255.744
222.20313 236.30263 255.744
222.2136 236.30856 255.744
222.23042 236.31802 255.744
222.21347 236.30847 255.744
222.25053 236.32938 255.744
222.21596 236.30989 255.744
222.21413 236.30885 255.744
222.23538 236.3208 255.744
222.22885 236.31714 255.744
222.22809 236.31673 255.744
222.24072 236.32384 255.744
222.23886 236.3228 255.744
222.21936 236.31181 255.744
222.22363 236.31416 255.744
222.23296 236.31947 255.744
222.23813 236.32236 255.744
222.2259 236.3155 255.744
222.2409 236.32396 255.744
222.21933 236.31175 255.744
222.22147 236.31296 255.744
222.23888 236.3228 255.744
222.23532 236.3208 255.744
222.2126 236.308 255.744
222.23267 236.31929 255.744
222.24559 236.3266 255.744
222.2172 236.31058 255.744
222.22806 236.3167 255.744
222.21266 236.30803 255.744
222.23705 236.32178 255.744
222.23807 236.32234 255.744
222.21384 236.30865 255.744
222.21764 236.31082 255.744
222.24127 236.32417 255.744
222.23962 236.32324 255.744
222.2226 236.31361 255.744
222.22769 236.3165 255.744
222.21846 236.31131 255.744
222.24216 236.32466 255.744
222.24057 236.32376 255.744
222.20845 236.30563 255.744
222.22946 236.31749 255.744
222.23962 236.32324 255.744
222.20831 236.30557 255.744
222.22346 236.31412 255.744
222.22504 236.31502 255.744
222.22795 236.31667 255.744
222.22345 236.3141 255.744
222.252 236.33022 255.744
222.22371 236.31429 255.744
222.23962 236.32321 255.744
222.234 236.32007 255.744
222.2367 236.3216 255.744
222.23547 236.3209 255.744
222.23676 236.32161 255.744
222.23178 236.3188 255.744
222.20766 236.30522 255.744
222.24052 236.32376 255.744
222.23044 236.31804 255.744
222.22343 236.31407 255.744
222.22737 236.31631 255.744
222.22145 236.31299 255.744
222.2164 236.31013 255.744
222.23254 236.31927 255.744
222.24678 236.32724 255.744
222.22325 236.31401 255.744
222.2352 236.32074 255.744
222.2127 236.30804 255.744
222.2381 236.32237 255.744
222.23586 236.3211 255.744
222.22873 236.31708 255.744
222.23372 236.3199 255.744
222.23674 236.3216 255.744
222.22704 236.31612 255.744
222.23946 236.32314 255.744
222.2318 236.3188 255.744
222.23665 236.32156 255.744
222.23839 236.32256 255.744
222.23494 236.32057 255.744
222.20782 236.3053 255.744
222.24031 236.32362 255.744
222.22627 236.3157 255.744
222.22939 236.31747 255.744
222.24236 236.32477 255.744
222.23477 236.32047 255.744
222.22778 236.31656 255.744
222.22711 236.31621 255.744
222.22107 236.31276 255.744
222.23569 236.32101 255.744
222.21075 236.30693 255.744
222.23376 236.31993 255.744
222.21959 236.3119 255.744
222.22227 236.31345 255.744
222.22342 236.3141 255.744
222.23317 236.3196 255.744
222.22845 236.31694 255.744
222.22278 236.31375 255.744
222.23402 236.32008 255.744
222.23834 236.32251 255.744
222.22989 236.31776 255.744
222.23233 236.31909 255.744
222.23347 236.31978 255.744
222.24573 236.32668 255.744
222.22255 236.3136 255.744
222.23775 236.32216 255.744
222.21878 236.31145 255.744
222.21637 236.31012 255.744
222.2322 236.31905 255.744
222.23758 236.32207 255.744
222.22029 236.31233 255.744
222.23946 236.32314 255.744
222.25217 236.3303 255.744
222.23476 236.32048 255.744
222.22737 236.31633 255.744
222.22375 236.31427 255.744
222.23067 236.31819 255.744
222.2364 236.3214 255.744
222.22737 236.31631 255.744
222.21907 236.31163 255.744
222.23381 236.31998 255.744
222.22586 236.31548 255.744
222.2473 236.32755 255.744
222.2147 236.30919 255.744
222.23564 236.32101 255.744
222.23329 236.31969 255.744
222.23355 236.31982 255.744
222.25198 236.33023 255.744
222.23347 236.31976 255.744
222.2381 236.32237 255.744
222.23488 236.32056 255.744
222.23132 236.31853 255.744
222.24286 236.32504 255.744
222.2223 236.31345 255.744
222.23404 236.3201 255.744
222.24298 236.32513 255.744
222.2234 236.3141 255.744
222.22397 236.31438 255.744
222.21716 236.31055 255.744
222.20659 236.30458 255.744
222.25282 236.33067 255.744
222.21326 236.30836 255.744
222.2288 236.31712 255.744
222.22835 236.3169 255.744
222.22589 236.31549 255.744
222.23997 236.32343 255.744
222.24084 236.32393 255.744
222.2162 236.31 255.744
222.23416 236.32011 255.744
222.22685 236.31604 255.744
222.2225 236.31358 255.744
222.2539 236.3313 255.744
222.24165 236.32439 255.744
222.2304 236.31802 255.744
222.23723 236.32187 255.744
222.23318 236.3196 255.744
222.23961 236.32323 255.744
222.22823 236.3168 255.744
222.23468 236.3204 255.744
222.23798 236.3223 255.744
222.23743 236.32198 255.744
222.25511 236.33199 255.744
222.22864 236.31702 255.744
222.24254 236.32487 255.744
222.22775 236.31653 255.744
222.23286 236.31944 255.744
222.24911 236.32857 255.744
222.23563 236.32098 255.744
222.23677 236.32162 255.744
222.25717 236.33313 255.744
222.22173 236.31313 255.744
222.24956 236.32884 255.744
222.23274 236.31937 255.744
222.25858 236.33392 255.744
222.22163 236.31308 255.744
222.24399 236.32571 255.744
222.22139 236.31296 255.744
222.22873 236.31711 255.744
222.24002 236.32346 255.744
222.23746 236.32199 255.744
222.23582 236.32108 255.744
222.2315 236.31863 255.744
222.22018 236.31229 255.744
222.22957 236.31755 255.744
222.23535 236.32079 255.744
222.24095 236.32396 255.744
222.2133 236.30838 255.744
222.24303 236.32515 255.744
222.24313 236.32523 255.744
222.22836 236.31688 255.744
222.22353 236.31416 255.744
222.22485 236.31493 255.744
222.2156 236.30966 255.744
222.25003 236.32913 255.744
222.25188 236.33015 255.744
215.99347 230.39711 250.45422
211.19826 225.26857 245.165
205.53009 221.22054 242.86292
187.2715 203.6189 225.98953
170.84613 187.64998 210.65906
161.2253 176.9721 199.23878
158.03807 175.63332 199.5909
155.78679 173.92615 197.69391
153.52277 171.26407 195.32715
155.01024 173.59229 198.54507
151.71678 170.53903 195.68279
148.9078 167.64241 192.487
146.54366 164.68834 189.00212
147.68457 167.09357 191.82397
145.88455 164.90266 189.97792
148.10378 165.69075 190.10109
142.43146 157.39177 179.0421
138.06107 155.04904 178.02066
140.44374 156.9506 180.37167
145.50296 164.20457 189.11354
139.91508 156.42859 178.93858
141.56125 160.37912 185.49088
140.81337 158.10585 181.79349
139.514 157.57013 181.0711
145.01299 164.31818 189.34862
139.50807 157.5547 181.20033
136.96542 153.22269 176.0374
139.53761 155.56204 177.08472
142.56291 160.63425 184.99686
140.4433 158.36514 181.91579
139.5418 158.08447 182.82057
140.84747 159.46716 183.57443
139.07272 155.77827 178.74228
137.95093 154.32454 177.2432
139.98193 159.12111 184.27914
141.04675 160.01703 184.85764
140.22441 159.3705 184.73097
137.81711 154.00417 176.54126
137.75435 154.22472 176.42262
138.5323 156.34499 180.24187
141.55237 159.22061 183.33195
136.93823 154.13344 177.22342
137.21042 155.81252 179.70872
140.44731 159.49696 184.21713
134.9716 151.93755 174.98306
140.71129 158.20964 181.60025
137.12428 155.00346 178.74228
140.10991 158.96326 183.84192
140.4806 160.05319 185.23079
142.76152 162.4521 188.4937
139.81085 159.7652 185.22462
134.8927 151.69333 174.16734
140.97728 159.52333 184.47739
139.97447 159.8303 185.2245
137.27036 153.75224 176.38144
136.53545 154.45187 178.28593
134.96898 152.12074 174.55537
139.83852 158.53337 183.20424
138.71567 155.87479 179.06934
137.50085 155.86557 179.70872
138.64536 156.68433 179.69577
140.04808 158.96983 184.26741
134.51212 152.9776 175.67152
139.4954 156.67763 179.8454
142.96904 161.44775 185.47707
138.83939 156.81345 180.55461
138.14523 155.8031 178.60654
139.535 157.48366 181.40688
134.89131 153.95824 178.46062
137.71124 153.67766 175.10428
136.88152 154.09053 177.43985
143.93402 163.24353 188.10843
139.85107 157.09544 178.76865
141.59694 159.55821 183.63815
139.12975 158.44443 183.8432
135.81792 152.24335 174.63641
141.27542 159.38269 182.28856
138.62906 156.04584 178.7345
139.3116 156.79729 179.174
140.41713 159.3965 183.96289
138.32852 156.46751 179.70549
142.24202 161.25343 184.30623
138.89906 155.66364 178.67043
137.72673 157.76743 181.46385
141.98842 160.23944 184.33784
142.70715 162.78099 186.52333
142.035 161.67061 185.45206
142.73984 162.98773 186.88524
136.76271 157.2467 178.98021
139.1572 158.76753 180.78783
137.84904 160.13412 179.76945
123.655205 149.62103 160.0771
124.16976 157.31314 163.28098
122.25564 155.25764 158.7816
123.22274 158.35803 158.7519
127.067444 158.00688 161.82375
125.217865 155.70483 159.06316
135.53584 162.58163 169.71454
134.75627 156.42203 163.4994
155.53319 172.30977 182.84743
176.80281 182.61288 189.4008
178.16138 179.18205 181.24426
178.88397 179.40323 181.01933
177.07974 178.48032 181.01933
175.81088 177.83401 181.01933
174.79424 177.31787 181.01933
173.70128 176.76465 181.01933
172.77193 176.2956 181.01933
172.00482 175.90942 181.01933
171.09824 175.45413 181.01933
170.20004 175.00429 181.01933
169.628 174.7184 181.01933
168.98586 174.3981 181.01933
168.27643 174.04495 181.01933
167.75249 173.78465 181.01933
167.12244 173.47215 181.01933
166.61546 173.22119 181.01933
166.04971 172.94156 181.01933
165.5996 172.71947 181.01933
165.07625 172.46164 181.01933
164.5856 172.22029 181.01933
164.24725 172.0541 181.01933
163.78386 171.82674 181.01933
163.30399 171.5917 181.01933
162.89316 171.39075 181.01933
162.58487 171.24016 181.01933
162.2751 171.08896 181.01933
161.87741 170.89508 181.01933
161.50858 170.71553 181.01933
161.21445 170.57248 181.01933
160.96352 170.45058 181.01933
160.65508 170.30084 181.01933
160.30107 170.12921 181.01933
160.03699 170.00131 181.01933
159.78441 169.87906 181.01933
159.56422 169.77261 181.01933
159.28464 169.63753 181.01933
159.05875 169.52847 181.01933
158.86508 169.43506 181.01933
158.71315 169.36185 181.01933
158.49997 169.25912 181.01933
158.26913 169.148 181.01933
158.06932 169.05186 181.01933
157.92468 168.98235 181.01933
157.77278 168.90935 181.01933
157.66748 168.85876 181.01933
157.5592 168.8068 181.01933
157.45525 168.7569 181.01933
157.26501 168.66563 181.01933
157.12993 168.60086 181.01933
157.05696 168.56593 181.01933
156.95749 168.51828 181.01933
156.93393 168.50697 181.01933
156.80206 168.44383 181.01933
156.7371 168.41273 181.01933
156.74828 168.41809 181.01933
156.6638 168.37766 181.01933
156.65321 168.37257 181.01933
156.60312 168.34862 181.01933
156.58676 168.3408 181.01933
156.59319 168.34387 181.01933
156.59056 168.3426 181.01933
156.54222 168.31947 181.01933
156.56696 168.33133 181.01933
156.60677 168.35037 181.01933
156.63461 168.3637 181.01933
156.69305 168.39163 181.01933
156.77513 168.43095 181.01933
156.76549 168.42633 181.01933
156.83673 168.46043 181.01933
156.99092 168.53427 181.01933
157.01895 168.54771 181.01933
157.12439 168.59824 181.01933
157.23973 168.65352 181.01933
157.30794 168.68622 181.01933
157.46042 168.7594 181.01933
157.51909 168.78755 181.01933
157.6879 168.86858 181.01933
157.85445 168.94861 181.01933
158.03313 169.03445 181.01933
158.1941 169.1119 181.01933
158.37282 169.19789 181.01933
158.54778 169.28214 181.01933
158.75914 169.384 181.01933
158.96744 169.48444 181.01933
159.24374 169.61778 181.01933
159.47087 169.7275 181.01933
159.65434 169.81615 181.01933
159.91135 169.94048 181.01933
160.19154 170.07613 181.01933
160.45425 170.20346 181.01933
160.74715 170.34554 181.01933
161.01451 170.47536 181.01933
161.37585 170.65097 181.01933
161.71138 170.81421 181.01933
162.08156 170.99457 181.01933
162.43202 171.16554 181.01933
162.69862 171.2957 181.01933
163.0792 171.4817 181.01933
163.45668 171.66646 181.01933
163.98647 171.9261 181.01933
164.3706 172.11464 181.01933
164.81868 172.3349 181.01933
165.3415 172.59227 181.01933
165.72772 172.78265 181.01933
166.31241 173.07133 181.01933
166.68011 173.25317 181.01933
167.27908 173.54979 181.01933
167.97856 173.8969 181.01933
168.55055 174.18132 181.01933
169.0927 174.45134 181.01933
169.82355 174.81607 181.01933
170.45888 175.13379 181.01933
171.29834 175.55452 181.01933
172.0201 175.9171 181.01933
172.82205 176.32088 181.01933
173.87325 176.85158 181.01933
174.81033 177.326 181.01933
175.99985 177.93013 181.01933
177.43227 178.66026 181.01933
178.88528 179.40387 181.01933
184.71297 185.8424 188.61783
193.76103 197.56552 204.11313
218.14587 230.73494 248.57813
222.23845 236.32259 255.744
222.21263 236.308 255.744
222.2378 236.3222 255.744
222.22183 236.31319 255.744
222.21948 236.31183 255.744
222.22879 236.31712 255.744
222.21614 236.30997 255.744
222.22624 236.31567 255.744
222.23672 236.32158 255.744
222.23013 236.31789 255.744
222.23181 236.31883 255.744
222.2237 236.31424 255.744
222.22002 236.31218 255.744
222.22556 236.31529 255.744
222.2193 236.31175 255.744
222.23012 236.31784 255.744
222.22108 236.31279 255.744
222.22188 236.31322 255.744
222.21947 236.31187 255.744
222.22523 236.3151 255.744
222.23436 236.32024 255.744
222.24637 236.32707 255.744
222.2056 236.30405 255.744
222.22563 236.31532 255.744
222.21999 236.31216 255.744
222.23277 236.31938 255.744
222.23041 236.31802 255.744
222.20895 236.30592 255.744
222.21846 236.3113 255.744
222.21747 236.31073 255.744
222.23347 236.31975 255.744
222.22084 236.31264 255.744
222.22005 236.31218 255.744
222.2275 236.3164 255.744
222.2336 236.31981 255.744
222.23196 236.3189 255.744
222.23717 236.32184 255.744
222.22371 236.31427 255.744
222.2211 236.31279 255.744
222.22783 236.31659 255.744
222.22105 236.31274 255.744
222.20944 236.30621 255.744
222.20776 236.30524 255.744
222.19229 236.29652 255.744
222.2371 236.32185 255.744
222.22298 236.31381 255.744
222.21846 236.31128 255.744
222.21729 236.3106 255.744
222.22432 236.31458 255.744
222.22708 236.31615 255.744
222.2342 236.32019 255.744
222.22139 236.31294 255.744
222.21819 236.31116 255.744
222.2384 236.32254 255.744
222.20387 236.30309 255.744
222.23941 236.32312 255.744
222.23404 236.32007 255.744
222.2355 236.32089 255.744
222.22743 236.31636 255.744
222.2034 236.3028 255.744
222.21684 236.31035 255.744
222.23401 236.32008 255.744
222.22647 236.31583 255.744
222.21533 236.30952 255.744
222.22496 236.31493 255.744
222.23462 236.32042 255.744
222.21983 236.31207 255.744
222.235 236.32062 255.744
222.21167 236.30746 255.744
222.21577 236.30978 255.744
222.22932 236.31744 255.744
222.23538 236.32085 255.744
222.22697 236.31609 255.744
222.22363 236.31422 255.744
222.22192 236.31326 255.744
222.23503 236.32066 255.744
222.22087 236.31264 255.744
222.23093 236.31833 255.744
222.21164 236.30745 255.744
222.20882 236.30586 255.744
222.22943 236.31747 255.744
222.20744 236.30508 255.744
222.22308 236.31389 255.744
222.21288 236.30814 255.744
222.20956 236.30624 255.744
222.21017 236.30661 255.744
222.20514 236.30379 255.744
222.18805 236.29414 255.744
222.23657 236.32153 255.744
222.23053 236.31808 255.744
222.22583 236.31546 255.744
222.22214 236.31334 255.744
222.22943 236.31749 255.744
222.21413 236.30884 255.744
222.21492 236.3093 255.744
222.20003 236.30089 255.744
222.19821 236.29987 255.744
222.23251 236.31921 255.744
222.22295 236.31381 255.744
222.21834 236.31125 255.744
222.2202 236.31229 255.744
222.24208 236.32465 255.744
222.20407 236.30316 255.744
222.218 236.31102 255.744
222.2431 236.32521 255.744
222.23816 236.3224 255.744
222.21663 236.31027 255.744
222.22754 236.3164 255.744
222.22037 236.31238 255.744
222.22025 236.31232 255.744
222.21771 236.31088 255.744
222.21172 236.3075 255.744
222.20659 236.30458 255.744
222.21474 236.30917 255.744
222.21997 236.31215 255.744
222.23029 236.31798 255.744
222.2336 236.31981 255.744
222.2095 236.30624 255.744
222.22086 236.31264 255.744
222.21939 236.31183 255.744
222.23335 236.3197 255.744
222.20985 236.30644 255.744
222.22684 236.31601 255.744
222.23347 236.31975 255.744
222.21245 236.30789 255.744
222.20842 236.3056 255.744
222.2011 236.3015 255.744
222.23509 236.32066 255.744
222.22205 236.31334 255.744
222.24657 236.32713 255.744
222.24901 236.32855 255.744
222.25189 236.33015 255.744
222.25226 236.33037 255.744
222.2348 236.32051 255.744
222.2701 236.34042 255.744
222.25435 236.33153 255.744
222.25883 236.33409 255.744
222.23294 236.31947 255.744
222.2329 236.31943 255.744
222.24863 236.32831 255.744
222.25671 236.33289 255.744
222.2543 236.33154 255.744
222.24016 236.32353 255.744
222.24977 236.32896 255.744
222.23135 236.31859 255.744
222.24216 236.32466 255.744
222.26334 236.33661 255.744
222.24211 236.32465 255.744
222.24928 236.3287 255.744
222.24763 236.32776 255.744
222.2534 236.33101 255.744
222.24554 236.32657 255.744
222.24098 236.32399 255.744
222.24466 236.3261 255.744
222.26534 236.33772 255.744
222.24487 236.3262 255.744
222.25401 236.33133 255.744
222.25027 236.32921 255.744
222.23955 236.3232 255.744
222.225 236.31499 255.744
222.26715 236.33878 255.744
222.23416 236.32016 255.744
222.24284 236.32506 255.744
222.24648 236.32707 255.744
222.23637 236.32143 255.744
222.25233 236.33041 255.744
222.25076 236.3295 255.744
222.25536 236.33212 255.744
222.25536 236.33209 255.744
222.26625 236.33827 255.744
222.238 236.32234 255.744
222.25774 236.33347 255.744
222.23125 236.31853 255.744
222.26907 236.33984 255.744
222.25235 236.33038 255.744
222.25864 236.33397 255.744
222.24957 236.32886 255.744
222.26091 236.33525 255.744
222.25009 236.32915 255.744
222.25768 236.3334 255.744
222.2407 236.32385 255.744
222.23885 236.32278 255.744
222.25217 236.33029 255.744
222.24564 236.32661 255.744
222.25986 236.33467 255.744
222.24684 236.32732 255.744
222.25652 236.3328 255.744
222.25829 236.33374 255.744
222.26353 236.33673 255.744
222.25485 236.33183 255.744
222.26294 236.3364 255.744
222.25807 236.33363 255.744
222.24898 236.32848 255.744
222.23277 236.31937 255.744
222.26736 236.33891 255.744
222.25778 236.33348 255.744
222.25774 236.33345 255.744
222.26414 236.33705 255.744
222.24257 236.32489 255.744
222.26234 236.33603 255.744
222.25902 236.3342 255.744
222.24081 236.3239 255.744
222.26959 236.34016 255.744
222.25131 236.32985 255.744
222.25378 236.33122 255.744
222.25673 236.3329 255.744
222.25113 236.32971 255.744
222.22394 236.3144 255.744
222.24915 236.32858 255.744
222.2738 236.34251 255.744
222.25989 236.33467 255.744
222.25316 236.33084 255.744
222.26015 236.33481 255.744
222.23416 236.32016 255.744
222.23386 236.31996 255.744
222.2585 236.3339 255.744
222.2613 236.33545 255.744
222.23734 236.32196 255.744
222.26369 236.3368 255.744
222.24164 236.32437 255.744
222.24603 236.32687 255.744
222.23598 236.32118 255.744
222.27087 236.34085 255.744
222.2537 236.3312 255.744
222.25131 236.32982 255.744
222.26088 236.33522 255.744
222.25305 236.33083 255.744
222.24828 236.32813 255.744
222.25856 236.33394 255.744
222.27606 236.34377 255.744
222.24188 236.32452 255.744
222.22948 236.31749 255.744
222.23718 236.32187 255.744
222.26318 236.33655 255.744
222.27931 236.34563 255.744
222.2758 236.34369 255.744
222.25906 236.33421 255.744
222.2479 236.32791 255.744
222.26718 236.33879 255.744
222.25021 236.32922 255.744
222.24477 236.32614 255.744
222.27306 236.34206 255.744
222.26472 236.3374 255.744
222.23265 236.3193 255.744
222.29561 236.35484 255.744
222.26567 236.33792 255.744
222.26004 236.33476 255.744
222.26344 236.33667 255.744
222.26118 236.33539 255.744
222.23682 236.32167 255.744
222.24475 236.32616 255.744
222.23752 236.32205 255.744
222.2565 236.33275 255.744
222.25562 236.33226 255.744
222.24487 236.32619 255.744
222.24518 236.32637 255.744
222.24486 236.32619 255.744
222.2742 236.34273 255.744
222.26631 236.33832 255.744
222.2538 236.33122 255.744
222.24373 236.32552 255.744
222.25183 236.33012 255.744
222.25862 236.33397 255.744
222.26143 236.33554 255.744
222.267 236.33868 255.744
222.24454 236.32602 255.744
222.25218 236.33032 255.744
222.26913 236.33987 255.744
222.25769 236.33339 255.744
222.23946 236.32317 255.744
222.25371 236.33118 255.744
222.27296 236.34206 255.744
222.2429 236.32507 255.744
222.24747 236.32765 255.744
222.27095 236.34088 255.744
222.26321 236.33652 255.744
222.27187 236.3414 255.744
222.26053 236.335 255.744
222.28159 236.34691 255.744
222.24852 236.32825 255.744
222.25363 236.33113 255.744
222.26448 236.33727 255.744
222.27672 236.34416 255.744
222.26291 236.33636 255.744
222.25911 236.33423 255.744
222.28137 236.3468 255.744
222.26227 236.336 255.744
222.26912 236.33986 255.744
222.25735 236.33325 255.744
222.25957 236.33447 255.744
222.25842 236.33383 255.744
222.25848 236.3339 255.744
222.25899 236.33417 255.744
222.27051 236.34065 255.744
222.26459 236.33733 255.744
222.26492 236.33752 255.744
222.2536 236.33112 255.744
222.2721 236.34158 255.744
222.26456 236.33731 255.744
222.24611 236.32686 255.744
222.26273 236.33627 255.744
222.2714 236.34117 255.744
222.25325 236.33093 255.744
222.26164 236.33566 255.744
222.2497 236.32892 255.744
222.26434 236.33719 255.744
222.26637 236.33832 255.744
222.24048 236.32373 255.744
222.27887 236.34535 255.744
222.25853 236.33388 255.744
222.25128 236.32982 255.744
222.25702 236.33304 255.744
222.269 236.33984 255.744
222.26471 236.33739 255.744
222.26463 236.33734 255.744
222.25475 236.33177 255.744
222.2567 236.33289 255.744
222.26476 236.3374 255.744
222.25497 236.33191 255.744
222.24873 236.32835 255.744
222.26758 236.33897 255.744
222.27516 236.3433 255.744
222.24924 236.32864 255.744
222.27943 236.34569 255.744
222.26328 236.33656 255.744
222.27701 236.34433 255.744
222.27417 236.34276 255.744
222.27452 236.34294 255.744
222.2429 236.3251 255.744
222.25801 236.33362 255.744
222.25311 236.33083 255.744
222.25418 236.33144 255.744
222.27338 236.34227 255.744
222.26431 236.33716 255.744
222.25835 236.3338 255.744
222.2783 236.34508 255.744
222.26303 236.33643 255.744
222.24551 236.32655 255.744
222.26387 236.33693 255.744
222.26869 236.33966 255.744
222.26913 236.33987 255.744
222.2543 236.33153 255.744
222.27022 236.34048 255.744
222.25603 236.33247 255.744
222.25467 236.33173 255.744
222.2686 236.33958 255.744
222.27133 236.34108 255.744
222.25668 236.33289 255.744
222.25648 236.33278 255.744
222.27272 236.34192 255.744
222.27249 236.3418 255.744
222.25618 236.33257 255.744
222.2615 236.33557 255.744
222.27129 236.34111 255.744
222.2573 236.33319 255.744
222.27835 236.34508 255.744
222.27905 236.3455 255.744
222.26335 236.33661 255.744
222.26654 236.33841 255.744
222.26013 236.33481 255.744
222.28185 236.34708 255.744
222.27988 236.34592 255.744
222.26938 236.34003 255.744
222.26602 236.33817 255.744
222.28069 236.34642 255.744
222.26637 236.33832 255.744
222.26189 236.3358 255.744
222.25119 236.32976 255.744
222.26706 236.3387 255.744
222.27594 236.34373 255.744
222.24622 236.32697 255.744
222.26372 236.33682 255.744
222.25084 236.32954 255.744
222.27927 236.34561 255.744
222.27608 236.34381 255.744
217.50189 231.66641 251.4801
212.65373 227.30533 247.72926
193.63733 209.40788 231.31247
181.48683 198.16527 221.17401
171.61769 188.87726 212.65231
156.14957 171.62025 193.57828
161.69432 178.88737 202.50137
159.08984 176.67023 200.83125
149.97893 167.74396 191.75604
149.79071 167.63882 191.25499
148.75723 166.40842 190.31029
143.35907 160.69167 184.03343
146.66837 165.38814 190.28569
138.55156 154.61935 176.41196
143.39824 162.26239 186.48386
144.97235 163.87074 188.98973
139.6345 157.8857 181.52309
142.66794 160.95212 185.23709
145.6669 164.57893 188.91548
140.90576 159.39215 183.84192
142.55867 161.96558 185.71045
142.06332 161.42696 186.7472
142.52878 160.32796 184.8608
141.9893 161.10483 186.7472
139.86087 156.85065 180.35501
139.6455 158.07124 182.5451
143.94075 162.28214 187.12282
139.39804 158.18904 181.89656
141.4624 158.71274 182.46523
137.42906 155.8074 180.11195
137.57602 155.14706 178.61655
138.8833 155.66833 178.80774
137.74615 155.38817 179.19456
138.72575 157.10231 181.5641
140.13765 160.31212 185.4014
140.96423 160.09468 184.84503
141.34941 159.19382 183.45956
137.46199 154.12985 176.83336
139.64368 157.8594 181.90938
136.01758 154.16975 178.01407
140.52084 157.8544 181.71939
139.13602 155.86972 178.54309
137.45195 155.5388 178.51964
139.15067 157.85646 182.82057
138.3926 156.66096 181.14859
134.95824 151.60075 173.61436
142.68993 161.03079 185.8678
142.08035 161.2038 186.3708
133.48518 151.04652 174.31596
136.37315 153.18903 175.18867
136.46518 155.12657 178.25201
138.57057 155.39095 178.74228
137.14075 154.49492 178.28337
139.45555 159.54178 185.8678
137.4334 155.8265 180.50139
136.20604 153.16273 175.49156
139.81622 158.93015 183.57442
137.36589 154.16019 176.55524
137.14116 154.84418 178.80774
139.25166 157.58974 181.93506
138.92932 156.35382 180.24187
139.55357 158.12027 183.10202
140.91615 161.16003 187.70819
140.66643 159.36414 184.15465
139.90843 158.15125 182.37193
140.02617 156.60922 179.05847
141.09767 159.06577 183.58711
144.51895 164.7319 191.08353
141.35129 159.33829 184.17247
138.08006 156.83023 181.39397
137.15897 154.27118 177.75746
137.77216 155.4013 179.26529
137.24042 154.35596 177.35544
135.06525 152.64655 175.08426
139.89774 156.93483 179.8454
134.49579 151.9196 174.82458
140.85866 158.6043 182.17293
139.606 158.79373 183.72823
138.35231 156.47346 179.44812
138.92834 157.55644 181.05824
142.30971 160.21439 182.918
138.81612 159.21254 182.99873
137.85039 157.40733 181.24562
136.22606 154.69456 178.03474
139.74115 158.38777 181.76785
142.2957 160.24237 184.35297
138.29688 155.44334 177.3681
138.81168 156.42665 178.72958
135.0719 153.1766 174.10585
133.2857 151.72499 171.62413
136.04497 154.88576 176.10416
138.65915 158.05817 180.14355
129.07933 151.1514 166.21765
128.59746 152.74413 165.79364
122.74286 155.73628 161.04834
115.369095 151.23482 151.8032
124.6131 160.26753 160.5042
134.57591 166.69588 170.91595
143.90349 173.32437 177.2097
165.25677 174.84752 178.07559
175.39726 175.08258 175.09404
179.22255 179.5769 181.01933
177.5444 178.71756 181.01933
176.17236 178.0179 181.01933
174.99672 177.42055 181.01933
173.95389 176.89233 181.01933
172.95123 176.386 181.01933
172.28307 176.04938 181.01933
171.34787 175.57938 181.01933
170.55365 175.18124 181.01933
169.8898 174.8492 181.01933
169.13998 174.4749 181.01933
168.4403 174.12648 181.01933
167.82089 173.81862 181.01933
167.17845 173.49992 181.01933
166.68936 173.25774 181.01933
166.16154 172.99681 181.01933
165.64276 172.74075 181.01933
165.15529 172.50053 181.01933
164.54355 172.19958 181.01933
164.2406 172.05083 181.01933
163.78638 171.828 181.01933
163.33456 171.60666 181.01933
162.92725 171.40741 181.01933
162.51616 171.20657 181.01933
162.06349 170.98578 181.01933
161.77979 170.84758 181.01933
161.4433 170.68376 181.01933
161.14998 170.54117 181.01933
160.76866 170.35597 181.01933
160.42813 170.19078 181.01933
160.17284 170.06708 181.01933
159.93904 169.95387 181.01933
159.63492 169.80678 181.01933
159.41786 169.70187 181.01933
159.18365 169.58879 181.01933
158.89717 169.45056 181.01933
158.63242 169.32289 181.01933
158.43488 169.22777 181.01933
158.24083 169.13437 181.01933
158.01581 169.02612 181.01933
157.85065 168.94676 181.01933
157.69601 168.87247 181.01933
157.49928 168.77803 181.01933
157.36313 168.71269 181.01933
157.15053 168.61078 181.01933
157.03578 168.55576 181.01933
156.93938 168.50957 181.01933
156.776 168.43135 181.01933
156.73956 168.41391 181.01933
156.55 168.3232 181.01933
156.48969 168.29437 181.01933
156.44547 168.27322 181.01933
156.3124 168.20961 181.01933
156.3067 168.20691 181.01933
156.24477 168.1773 181.01933
156.12502 168.12009 181.01933
156.09145 168.10405 181.01933
156.03526 168.07722 181.01933
156.06522 168.09152 181.01933
156.06306 168.09052 181.01933
155.9836 168.05257 181.01933
156.00056 168.06068 181.01933
156.02562 168.07263 181.01933
156.00056 168.06068 181.01933
156.01253 168.06638 181.01933
156.05719 168.0877 181.01933
156.12727 168.12119 181.01933
156.16 168.1368 181.01933
156.25824 168.18373 181.01933
156.27824 168.1933 181.01933
156.3593 168.23206 181.01933
156.41032 168.25641 181.01933
156.53496 168.31604 181.01933
156.64844 168.37033 181.01933
156.76556 168.42638 181.01933
156.89977 168.49063 181.01933
157.03233 168.55414 181.01933
157.14227 168.6068 181.01933
157.26823 168.66718 181.01933
157.47243 168.76514 181.01933
157.53912 168.79713 181.01933
157.7571 168.90182 181.01933
157.94312 168.99118 181.01933
158.12912 169.08063 181.01933
158.35086 169.18735 181.01933
158.57484 169.2952 181.01933
158.77655 169.39236 181.01933
159.00214 169.50117 181.01933
159.26775 169.62936 181.01933
159.46964 169.7269 181.01933
159.75943 169.86697 181.01933
160.0464 170.00586 181.01933
160.3409 170.14851 181.01933
160.56596 170.25761 181.01933
160.93007 170.43434 181.01933
161.25572 170.59258 181.01933
161.63742 170.77824 181.01933
161.93654 170.9239 181.01933
162.24692 171.07523 181.01933
162.70833 171.30043 181.01933
162.98286 171.4346 181.01933
163.41808 171.64755 181.01933
163.85945 171.8638 181.01933
164.35136 172.10522 181.01933
164.79454 172.32301 181.01933
165.30875 172.57611 181.01933
165.77264 172.80481 181.01933
166.35611 173.09294 181.01933
166.72403 173.2749 181.01933
167.39682 173.6082 181.01933
167.98578 173.90048 181.01933
168.72244 174.26689 181.01933
169.28839 174.54893 181.01933
169.84357 174.82608 181.01933
170.70126 175.25514 181.01933
171.45715 175.63425 181.01933
172.42023 176.11844 181.01933
173.20311 176.51308 181.01933
174.04416 176.93802 181.01933
175.13597 177.4912 181.01933
176.37302 178.12006 181.01933
177.74997 178.82262 181.01933
179.46513 179.70148 181.01933
186.8168 188.60059 192.30452
207.86569 216.77785 229.99329
221.77016 235.65155 255.08408
222.27242 236.34172 255.744
222.25865 236.33395 255.744
222.24138 236.32423 255.744
222.25339 236.331 255.744
222.25227 236.33037 255.744
222.24956 236.32883 255.744
222.26268 236.33624 255.744
222.27448 236.3429 255.744
222.24704 236.32742 255.744
222.2516 236.33 255.744
222.24654 236.32715 255.744
222.25357 236.33112 255.744
222.25935 236.33437 255.744
222.25916 236.33426 255.744
222.26443 236.33725 255.744
222.26514 236.33765 255.744
222.25726 236.33315 255.744
222.26183 236.33575 255.744
222.25012 236.32915 255.744
222.25575 236.33234 255.744
222.27304 236.34206 255.744
222.27754 236.34465 255.744
222.2498 236.32898 255.744
222.25804 236.33362 255.744
222.27658 236.34409 255.744
222.27594 236.34372 255.744
222.25499 236.33191 255.744
222.26163 236.33566 255.744
222.2457 236.32668 255.744
222.26328 236.33656 255.744
222.27588 236.34369 255.744
222.2652 236.33765 255.744
222.25136 236.32983 255.744
222.2637 236.33682 255.744
222.26694 236.33864 255.744
222.26324 236.3366 255.744
222.24356 236.32545 255.744
222.25923 236.3343 255.744
222.26779 236.33908 255.744
222.26674 236.3385 255.744
222.24796 236.32796 255.744
222.25948 236.33446 255.744
222.2355 236.32092 255.744
222.26929 236.33997 255.744
222.25839 236.3338 255.744
222.25346 236.33105 255.744
222.26031 236.33488 255.744
222.23993 236.32343 255.744
222.24582 236.32672 255.744
222.25108 236.3297 255.744
222.26794 236.33923 255.744
222.26369 236.33684 255.744
222.25722 236.33313 255.744
222.25171 236.33006 255.744
222.24626 236.32698 255.744
222.24348 236.32538 255.744
222.26942 236.34006 255.744
222.24843 236.32816 255.744
222.25627 236.3326 255.744
222.26735 236.33888 255.744
222.24622 236.32697 255.744
222.24756 236.32771 255.744
222.25797 236.33362 255.744
222.26324 236.3366 255.744
222.24767 236.32777 255.744
222.25607 236.33252 255.744
222.25197 236.3302 255.744
222.2391 236.32295 255.744
222.2516 236.33 255.744
222.24873 236.32838 255.744
222.2745 236.34293 255.744
222.25256 236.3305 255.744
222.26373 236.33684 255.744
222.23866 236.3227 255.744
222.24112 236.32408 255.744
222.24715 236.32748 255.744
222.26247 236.33612 255.744
222.25851 236.3339 255.744
222.24728 236.32753 255.744
222.2361 236.32124 255.744
222.25572 236.33229 255.744
222.23814 236.3224 255.744
222.24971 236.32892 255.744
222.24727 236.32753 255.744
222.26276 236.3363 255.744
222.25555 236.33223 255.744
222.24756 236.32771 255.744
222.2641 236.33707 255.744
222.2596 236.33452 255.744
222.2449 236.32623 255.744
222.24832 236.32814 255.744
222.24203 236.32458 255.744
222.25438 236.3316 255.744
222.2551 236.33195 255.744
222.25342 236.33102 255.744
222.26407 236.33702 255.744
222.24976 236.32895 255.744
222.24767 236.32776 255.744
222.25432 236.33154 255.744
222.25514 236.332 255.744
222.23035 236.318 255.744
222.26682 236.33856 255.744
222.24025 236.32362 255.744
222.24513 236.32635 255.744
222.24179 236.32443 255.744
222.24188 236.32452 255.744
222.24567 236.32661 255.744
222.25288 236.33072 255.744
222.2471 236.32747 255.744
222.25325 236.3309 255.744
222.26236 236.33606 255.744
222.25598 236.33246 255.744
222.24168 236.32437 255.744
222.24146 236.32425 255.744
222.24431 236.32588 255.744
222.25513 236.332 255.744
222.24287 236.32509 255.744
222.24542 236.32652 255.744
222.26495 236.33752 255.744
222.23708 236.3218 255.744
222.23238 236.31914 255.744
222.22694 236.31606 255.744
222.23718 236.32185 255.744
222.2572 236.33313 255.744
222.24504 236.32628 255.744
222.23952 236.32315 255.744
222.24281 236.32504 255.744
222.27788 236.3448 255.744
222.28117 236.34668 255.744
222.29561 236.35481 255.744
222.27536 236.3434 255.744
222.27278 236.34195 255.744
222.26149 236.33556 255.744
222.27272 236.34192 255.744
222.27956 236.34575 255.744
222.28326 236.34787 255.744
222.2819 236.34708 255.744
222.28384 236.34818 255.744
222.28159 236.34694 255.744
222.27975 236.34587 255.744
222.26324 236.33655 255.744
222.2876 236.3503 255.744
222.2733 236.34224 255.744
222.28488 236.3488 255.744
222.29648 236.3553 255.744
222.29352 236.35365 255.744
222.28247 236.34741 255.744
222.25548 236.3322 255.744
222.29332 236.35356 255.744
222.2931 236.3534 255.744
222.28319 236.3478 255.744
222.2966 236.35536 255.744
222.28058 236.34637 255.744
222.28276 236.34756 255.744
222.27968 236.34584 255.744
222.26242 236.33609 255.744
222.27141 236.34116 255.744
222.29512 236.35457 255.744
222.26944 236.34009 255.744
222.27818 236.345 255.744
222.26851 236.33954 255.744
222.29597 236.35503 255.744
222.26779 236.33913 255.744
222.29472 236.35434 255.744
222.28406 236.34831 255.744
222.29051 236.35194 255.744
222.29172 236.35262 255.744
222.27214 236.34154 255.744
222.27927 236.34564 255.744
222.29008 236.35168 255.744
222.27737 236.34453 255.744
222.27654 236.34409 255.744
222.26682 236.3386 255.744
222.28806 236.35059 255.744
222.28964 236.35147 255.744
222.28944 236.35133 255.744
222.29189 236.3527 255.744
222.27774 236.34474 255.744
222.27736 236.34451 255.744
222.27618 236.34386 255.744
222.28853 236.35083 255.744
222.27391 236.34256 255.744
222.28064 236.34639 255.744
222.2808 236.34647 255.744
222.29353 236.35365 255.744
222.29462 236.35423 255.744
222.28952 236.3514 255.744
222.29884 236.35664 255.744
222.28635 236.34956 255.744
222.2792 236.34558 255.744
222.28758 236.35028 255.744
222.29242 236.35303 255.744
222.30867 236.3622 255.744
222.28473 236.34866 255.744
222.31125 236.36363 255.744
222.2858 236.3493 255.744
222.28223 236.34727 255.744
222.28375 236.34813 255.744
222.28595 236.34938 255.744
222.27621 236.34389 255.744
222.28178 236.34705 255.744
222.28534 236.34901 255.744
222.2805 236.34631 255.744
222.26935 236.34001 255.744
222.29602 236.35504 255.744
222.26218 236.33595 255.744
222.31189 236.36401 255.744
222.278 236.3449 255.744
222.30475 236.35994 255.744
222.29181 236.35268 255.744
222.30511 236.36021 255.744
222.28195 236.34712 255.744
222.26802 236.33926 255.744
222.2845 236.34853 255.744
222.27202 236.3415 255.744
222.29936 236.35695 255.744
222.28409 236.34831 255.744
222.27197 236.34148 255.744
222.27377 236.3425 255.744
222.28714 236.35007 255.744
222.28215 236.34723 255.744
222.28151 236.34688 255.744
222.28116 236.34666 255.744
222.29185 236.3527 255.744
222.29648 236.35529 255.744
222.29909 236.35677 255.744
222.29828 236.35634 255.744
222.29544 236.35474 255.744
222.27356 236.34239 255.744
222.3164 236.36656 255.744
222.28015 236.34613 255.744
222.2879 236.3505 255.744
222.29974 236.35715 255.744
222.30342 236.35924 255.744
222.29185 236.35269 255.744
222.30046 236.35756 255.744
222.28928 236.35127 255.744
222.30183 236.35835 255.744
222.28064 236.34634 255.744
222.27371 236.34247 255.744
222.28535 236.34903 255.744
222.26405 236.337 255.744
222.29956 236.35706 255.744
222.2738 236.34251 255.744
222.28407 236.34831 255.744
222.28653 236.34969 255.744
222.29756 236.35594 255.744
222.27983 236.34593 255.744
222.28502 236.34885 255.744
222.2919 236.35274 255.744
222.28902 236.3511 255.744
222.27878 236.34534 255.744
222.27798 236.3449 255.744
222.29015 236.35175 255.744
222.2996 236.35709 255.744
222.27983 236.34592 255.744
222.27498 236.34315 255.744
222.303 236.35896 255.744
222.29808 236.35623 255.744
222.31056 236.3633 255.744
222.27934 236.34567 255.744
222.28416 236.3484 255.744
222.30128 236.35803 255.744
222.29483 236.35439 255.744
222.27928 236.34558 255.744
222.29039 236.35188 255.744
222.2963 236.35518 255.744
222.29651 236.35533 255.744
222.2964 236.35527 255.744
222.29698 236.35564 255.744
222.2897 236.35149 255.744
222.3174 236.36711 255.744
222.27922 236.3456 255.744
222.30057 236.35764 255.744
222.28302 236.34772 255.744
222.28316 236.3478 255.744
222.29597 236.35506 255.744
222.29648 236.35532 255.744
222.29427 236.35408 255.744
222.29823 236.35632 255.744
222.29149 236.35251 255.744
222.28159 236.34692 255.744
222.29146 236.35246 255.744
222.28737 236.35017 255.744
222.3057 236.3605 255.744
222.29102 236.35223 255.744
222.30878 236.36227 255.744
222.2998 236.35721 255.744
222.29112 236.35228 255.744
222.31393 236.36516 255.744
222.30746 236.36153 255.744
222.30222 236.35854 255.744
222.29005 236.35165 255.744
222.30127 236.35802 255.744
222.28635 236.34961 255.744
222.29202 236.3528 255.744
222.29001 236.35167 255.744
222.27867 236.34526 255.744
222.31802 236.36748 255.744
222.30376 236.35942 255.744
222.28595 236.34935 255.744
222.29659 236.35538 255.744
222.30219 236.35854 255.744
222.30922 236.36249 255.744
222.26491 236.33748 255.744
222.30301 236.359 255.744
222.2946 236.35426 255.744
222.3039 236.3595 255.744
222.28612 236.34946 255.744
222.30025 236.35742 255.744
222.30888 236.36232 255.744
222.29034 236.35184 255.744
222.27486 236.3431 255.744
222.29686 236.35551 255.744
222.2858 236.34927 255.744
222.28813 236.3506 255.744
222.29236 236.353 255.744
222.28036 236.3462 255.744
222.30043 236.35757 255.744
222.30066 236.3577 255.744
222.28996 236.35165 255.744
222.30447 236.3598 255.744
222.29118 236.3523 255.744
222.30428 236.35971 255.744
222.2964 236.35527 255.744
222.31898 236.36806 255.744
222.28517 236.34892 255.744
222.30148 236.35815 255.744
222.28894 236.35106 255.744
222.27252 236.34183 255.744
222.31456 236.36551 255.744
222.28882 236.35097 255.744
222.3037 236.35939 255.744
222.30034 236.3575 255.744
222.30568 236.36049 255.744
222.30634 236.36087 255.744
222.27829 236.34505 255.744
222.28563 236.34917 255.744
222.29196 236.35274 255.744
222.2925 236.35307 255.744
222.28975 236.35152 255.744
222.29143 236.3525 255.744
222.29555 236.35478 255.744
222.3075 236.36153 255.744
222.30406 236.3596 255.744
222.28761 236.35028 255.744
222.30176 236.3583 255.744
222.30116 236.35794 255.744
222.29736 236.35579 255.744
222.31271 236.36447 255.744
222.30093 236.3578 255.744
222.30667 236.36105 255.744
222.30066 236.35771 255.744
222.2831 236.34776 255.744
222.28517 236.34892 255.744
222.30298 236.35896 255.744
222.30876 236.36224 255.744
222.2941 236.35396 255.744
222.30598 236.3607 255.744
222.30498 236.3601 255.744
222.30534 236.3603 255.744
222.28197 236.34714 255.744
222.27846 236.34515 255.744
222.30286 236.35889 255.744
222.28119 236.3467 255.744
222.30194 236.3584 255.744
222.28375 236.34813 255.744
222.29758 236.35596 255.744
222.28235 236.34734 255.744
222.29805 236.35622 255.744
222.27783 236.34482 255.744
221.21695 235.34933 255.08408
212.2166 226.84157 247.16171
202.17448 217.20502 238.14389
183.37703 198.69633 220.21973
174.77505 191.07649 213.47348
162.78177 179.50227 202.30421
165.81496 183.85747 208.26001
155.93489 174.14113 198.65053
153.99397 171.58531 195.80264
149.2686 165.67365 188.49991
146.42915 163.56587 186.94762
153.66377 172.38675 197.35141
142.50159 161.37201 186.18234
141.75992 160.14897 184.47751
144.15654 162.37349 186.87373
145.12654 162.23608 185.48962
146.90048 166.00981 191.20598
141.83643 158.10481 181.16164
143.81763 162.64464 187.49768
140.2812 157.89351 181.40683
141.02885 158.4051 181.61185
139.86311 157.37314 181.01935
139.47925 156.03392 178.40155
143.13649 161.125 185.12334
139.46721 158.05914 182.83337
141.69681 159.84889 184.09637
141.06381 158.9919 183.39578
140.3847 158.782 182.94855
139.20409 154.44083 176.30312
140.52568 159.58463 185.0629
139.2315 157.30127 181.16878
138.25577 155.79514 179.7217
139.05962 157.81702 182.69249
141.8667 160.56725 184.59161
134.99072 151.43744 173.32953
139.32593 157.85872 181.92224
140.71867 157.8131 181.09409
142.02399 161.17802 186.3708
138.56053 158.1782 183.0637
139.15651 156.33005 178.38847
138.69475 155.43295 178.41461
136.7473 154.84518 178.07324
139.74196 158.88509 183.57443
138.42094 156.24359 180.79211
139.73187 158.40858 183.20424
139.48257 157.1097 179.69577
142.38641 161.16437 185.60321
137.0733 154.3192 177.63892
139.44762 159.87967 185.60321
135.54245 151.9948 174.63576
135.17683 153.98105 178.27245
138.64838 155.42908 178.21902
142.37993 162.04024 187.36038
138.89088 157.26772 180.74767
138.00543 157.77856 182.74553
139.92413 157.46317 181.01933
141.54741 160.32074 185.11069
139.9404 158.63542 183.33195
134.86203 152.68896 176.70226
139.28488 157.97044 182.72452
140.76443 159.97107 184.33783
140.7195 160.48233 186.3708
138.9848 158.68806 184.47743
137.84793 155.63618 179.43752
135.90593 153.60545 176.53264
138.6505 156.62675 179.96901
138.45728 156.0554 179.7217
138.87726 156.97714 180.48848
139.74084 157.24042 180.89
138.78372 156.66167 179.94177
139.69919 156.96866 179.04332
142.38724 160.24269 184.35048
140.59038 158.90344 183.53703
138.2314 157.4242 182.038
140.42357 159.7458 185.11069
133.59721 150.87561 173.20259
138.03896 157.11316 181.12929
139.43604 158.04868 181.83542
141.21188 159.57256 184.22346
141.09447 157.95648 181.60025
139.34627 158.55438 182.14095
139.55965 159.58084 184.27313
139.41124 158.18747 181.87602
135.27052 153.0183 175.41347
135.49161 152.55188 174.68275
138.94322 155.48961 178.54642
135.25124 152.69849 175.48744
138.8354 156.30254 178.91255
137.74374 156.27788 178.76872
141.56804 160.63472 183.02553
139.87485 158.68047 182.80147
139.36916 158.97797 182.644
142.36958 161.49341 184.0394
140.94342 160.34291 183.28911
134.10556 154.15654 174.47133
133.80138 155.42801 175.07515
138.18073 162.0482 179.87502
117.06484 149.37221 152.9639
132.6726 169.44849 170.94269
143.62425 172.93115 172.109
173.5107 182.36426 181.32785
179.86023 180.62866 181.25204
178.03755 178.96971 181.01933
176.76236 178.31844 181.01933
175.4044 177.62747 181.01933
174.4263 177.13144 181.01933
173.34897 176.58669 181.01933
172.34338 176.07974 181.01933
171.547 175.67935 181.01933
170.76025 175.28471 181.01933
169.94188 174.87521 181.01933
169.39488 174.60205 181.01933
168.68465 174.24806 181.01933
167.99297 173.9041 181.01933
167.35394 173.58691 181.01933
166.81464 173.31975 181.01933
166.2274 173.02936 181.01933
165.65851 172.74852 181.01933
165.15977 172.50276 181.01933
164.63004 172.24213 181.01933
164.18634 172.02419 181.01933
163.6923 171.78188 181.01933
163.2879 171.58382 181.01933
162.8961 171.39221 181.01933
162.60393 171.24945 181.01933
162.06615 170.98708 181.01933
161.76433 170.84003 181.01933
161.39693 170.66121 181.01933
161.02309 170.47952 181.01933
160.76707 170.35518 181.01933
160.42133 170.1875 181.01933
160.1371 170.04977 181.01933
159.77469 169.87437 181.01933
159.52095 169.75171 181.01933
159.17256 169.5834 181.01933
159.01915 169.50938 181.01933
158.72305 169.3666 181.01933
158.52644 169.27187 181.01933
158.23906 169.13351 181.01933
158.02138 169.02881 181.01933
157.83705 168.94025 181.01933
157.59767 168.82526 181.01933
157.4275 168.74358 181.01933
157.30116 168.68298 181.01933
157.07986 168.57689 181.01933
156.94638 168.51292 181.01933
156.7906 168.43835 181.01933
156.62674 168.35992 181.01933
156.45555 168.27803 181.01933
156.33696 168.22136 181.01933
156.26532 168.18712 181.01933
156.12701 168.12103 181.01933
155.97942 168.05058 181.01933
155.93924 168.0314 181.01933
155.85693 167.99214 181.01933
155.7678 167.9496 181.01933
155.70804 167.9211 181.01933
155.69077 167.91286 181.01933
155.61864 167.87846 181.01933
155.56314 167.85199 181.01933
155.50789 167.82565 181.01933
155.55319 167.84726 181.01933
155.50471 167.82416 181.01933
155.45586 167.8009 181.01933
155.51115 167.82724 181.01933
155.49799 167.82098 181.01933
155.51814 167.83058 181.01933
155.51984 167.83138 181.01933
155.56364 167.85226 181.01933
155.61174 167.87521 181.01933
155.60341 167.8712 181.01933
155.65881 167.89763 181.01933
155.74272 167.93762 181.01933
155.81737 167.97325 181.01933
155.87866 168.00247 181.01933
155.95279 168.03784 181.01933
156.09592 168.1062 181.01933
156.23315 168.17175 181.01933
156.31227 168.20956 181.01933
156.43893 168.27011 181.01933
156.57693 168.33609 181.01933
156.70253 168.39621 181.01933
156.84705 168.46538 181.01933
157.04337 168.5594 181.01933
157.17703 168.62347 181.01933
157.30408 168.68439 181.01933
157.57451 168.81416 181.01933
157.75589 168.90125 181.01933
157.94 168.98969 181.01933
158.15031 169.09084 181.01933
158.36267 169.19301 181.01933
158.60345 169.30896 181.01933
158.87503 169.43987 181.01933
159.12668 169.56128 181.01933
159.44014 169.71265 181.01933
159.6877 169.8323 181.01933
159.92235 169.94582 181.01933
160.23294 170.0962 181.01933
160.51526 170.23303 181.01933
160.8622 170.40137 181.01933
161.21121 170.57094 181.01933
161.63528 170.7772 181.01933
161.98746 170.94873 181.01933
162.30724 171.10466 181.01933
162.6564 171.27509 181.01933
163.1214 171.50235 181.01933
163.53665 171.70563 181.01933
163.96327 171.91473 181.01933
164.52567 172.19084 181.01933
164.88055 172.36534 181.01933
165.33398 172.58855 181.01933
165.93832 172.88657 181.01933
166.4293 173.1291 181.01933
167.00174 173.41238 181.01933
167.60297 173.71045 181.01933
168.27808 174.04578 181.01933
168.81935 174.31514 181.01933
169.45862 174.63387 181.01933
170.17139 174.98994 181.01933
170.79626 175.30278 181.01933
171.71077 175.76161 181.01933
172.58159 176.19969 181.01933
173.682 176.7549 181.01933
174.50073 177.16913 181.01933
175.63042 177.74228 181.01933
177.02446 178.45209 181.01933
178.40047 179.15543 181.01933
181.06517 181.10663 182.30774
193.82115 197.59828 204.11313
215.11531 226.50554 242.86292
222.28725 236.3501 255.744
222.29112 236.3523 255.744
222.30016 236.3574 255.744
222.29283 236.35329 255.744
222.29004 236.35168 255.744
222.28659 236.34975 255.744
222.29193 236.35274 255.744
222.2929 236.35329 255.744
222.27747 236.3446 255.744
222.2854 236.34901 255.744
222.26796 236.33923 255.744
222.2972 236.35571 255.744
222.3052 236.36021 255.744
222.28458 236.3486 255.744
222.29314 236.35344 255.744
222.27089 236.34088 255.744
222.2941 236.35397 255.744
222.29282 236.35326 255.744
222.28139 236.34679 255.744
222.2886 236.35088 255.744
222.29317 236.35347 255.744
222.29189 236.35269 255.744
222.2769 236.34428 255.744
222.27992 236.34598 255.744
222.27391 236.34256 255.744
222.28152 236.34691 255.744
222.28432 236.34846 255.744
222.29555 236.35478 255.744
222.28629 236.34955 255.744
222.2902 236.35175 255.744
222.29453 236.3542 255.744
222.2802 236.34613 255.744
222.30069 236.35767 255.744
222.29425 236.35405 255.744
222.28094 236.34654 255.744
222.29453 236.35419 255.744
222.2754 236.34341 255.744
222.29547 236.35475 255.744
222.2876 236.35033 255.744
222.2835 236.34798 255.744
222.27832 236.34505 255.744
222.29097 236.35217 255.744
222.2732 236.34215 255.744
222.28517 236.34892 255.744
222.28333 236.3479 255.744
222.28757 236.35031 255.744
222.30135 236.35806 255.744
222.30493 236.36009 255.744
222.30092 236.35783 255.744
222.27922 236.34555 255.744
222.29434 236.3541 255.744
222.27963 236.34583 255.744
222.30418 236.35966 255.744
222.28157 236.34691 255.744
222.28079 236.34647 255.744
222.28278 236.3476 255.744
222.28334 236.3479 255.744
222.29698 236.35558 255.744
222.28284 236.34761 255.744
222.28307 236.34773 255.744
222.2711 236.341 255.744
222.26584 236.33806 255.744
222.2826 236.34749 255.744
222.29141 236.35248 255.744
222.29167 236.35263 255.744
222.29214 236.35287 255.744
222.26596 236.33809 255.744
222.29903 236.35677 255.744
222.2885 236.35081 255.744
222.27641 236.34398 255.744
222.30188 236.35835 255.744
222.2733 236.34224 255.744
222.28372 236.34811 255.744
222.30511 236.3602 255.744
222.29245 236.35304 255.744
222.26086 236.33522 255.744
222.28458 236.3486 255.744
222.27853 236.3452 255.744
222.2789 236.34538 255.744
222.30112 236.35793 255.744
222.29382 236.35382 255.744
222.27943 236.34572 255.744
222.30362 236.35936 255.744
222.26688 236.33862 255.744
222.28632 236.3496 255.744
222.2903 236.3518 255.744
222.28645 236.34966 255.744
222.27747 236.34459 255.744
222.31598 236.3663 255.744
222.29355 236.35367 255.744
222.29997 236.3573 255.744
222.26572 236.33794 255.744
222.25208 236.33028 255.744
222.29369 236.35374 255.744
222.25896 236.33412 255.744
222.28899 236.35107 255.744
222.27136 236.34114 255.744
222.28535 236.34901 255.744
222.29337 236.35356 255.744
222.28084 236.34644 255.744
222.28032 236.34622 255.744
222.28073 236.34647 255.744
222.28612 236.34946 255.744
222.28683 236.34987 255.744
222.28119 236.34671 255.744
222.26697 236.33864 255.744
222.27783 236.34479 255.744
222.27608 236.3438 255.744
222.26675 236.33855 255.744
222.26712 236.33875 255.744
222.2763 236.34392 255.744
222.2936 236.35368 255.744
222.2554 236.33215 255.744
222.29901 236.35672 255.744
222.31409 236.36523 255.744
222.27255 236.34183 255.744
222.27847 236.34515 255.744
222.29102 236.35219 255.744
222.28912 236.35118 255.744
222.2785 236.34514 255.744
222.28384 236.34819 255.744
222.28387 236.3482 255.744
222.28981 236.35158 255.744
222.2912 236.35237 255.744
222.28299 236.3477 255.744
222.27034 236.34058 255.744
222.3223 236.36984 255.744
222.31558 236.36612 255.744
222.32338 236.3705 255.744
222.33043 236.37447 255.744
222.2995 236.35703 255.744
222.30876 236.36227 255.744
222.30652 236.36096 255.744
222.30576 236.36057 255.744
222.30751 236.36153 255.744
222.30481 236.36002 255.744
222.30194 236.35841 255.744
222.31226 236.36424 255.744
222.29251 236.3531 255.744
222.30727 236.36142 255.744
222.30765 236.36163 255.744
222.32 236.36859 255.744
222.31224 236.3642 255.744
222.31973 236.36844 255.744
222.29839 236.35641 255.744
222.31645 236.36658 255.744
222.29936 236.35695 255.744
222.31403 236.36522 255.744
222.32306 236.37035 255.744
222.31432 236.36539 255.744
222.31326 236.36479 255.744
222.32707 236.37259 255.744
222.3148 236.36566 255.744
222.32907 236.3737 255.744
222.32349 236.37053 255.744
222.32187 236.36966 255.744
222.31976 236.36845 255.744
222.31015 236.36302 255.744
222.31197 236.36404 255.744
222.30283 236.35892 255.744
222.31108 236.36357 255.744
222.33168 236.37517 255.744
222.30005 236.35732 255.744
222.31831 236.36766 255.744
222.29588 236.35498 255.744
222.29744 236.35583 255.744
222.32281 236.37018 255.744
222.32085 236.36905 255.744
222.30988 236.36288 255.744
222.31496 236.3657 255.744
222.29616 236.35513 255.744
222.30748 236.36151 255.744
222.32617 236.37206 255.744
222.32008 236.3686 255.744
222.31357 236.36496 255.744
222.31021 236.36305 255.744
222.33156 236.37512 255.744
222.31403 236.36522 255.744
222.30464 236.35991 255.744
222.32126 236.36928 255.744
222.31259 236.36441 255.744
222.32732 236.3727 255.744
222.29768 236.35597 255.744
222.2995 236.35704 255.744
222.32771 236.37292 255.744
222.3196 236.36835 255.744
222.31654 236.36665 255.744
222.32005 236.3686 255.744
222.30606 236.3607 255.744
222.30826 236.36198 255.744
222.32521 236.37155 255.744
222.32332 236.37048 255.744
222.30717 236.36134 255.744
222.31761 236.36725 255.744
222.31938 236.36824 255.744
222.3237 236.3707 255.744
222.3078 236.36171 255.744
222.31114 236.36359 255.744
222.32396 236.37083 255.744
222.32274 236.37016 255.744
222.32692 236.3725 255.744
222.3119 236.36403 255.744
222.33357 236.37625 255.744
222.32146 236.3694 255.744
222.33307 236.37593 255.744
222.33968 236.3797 255.744
222.30269 236.35884 255.744
222.3166 236.36665 255.744
222.31657 236.36665 255.744
222.29942 236.35698 255.744
222.31526 236.36589 255.744
222.31496 236.36572 255.744
222.32425 236.37097 255.744
222.31157 236.36383 255.744
222.31824 236.3676 255.744
222.3215 236.36945 255.744
222.32794 236.37306 255.744
222.33104 236.37485 255.744
222.2964 236.35529 255.744
222.31802 236.36746 255.744
222.3246 236.37117 255.744
222.33157 236.37515 255.744
222.31403 236.36522 255.744
222.3445 236.3824 255.744
222.31216 236.36418 255.744
222.31703 236.36691 255.744
222.31618 236.36642 255.744
222.33089 236.37476 255.744
222.31538 236.36598 255.744
222.3289 236.37363 255.744
222.31369 236.36502 255.744
222.31561 236.3661 255.744
222.32474 236.37129 255.744
222.31284 236.36453 255.744
222.32957 236.37402 255.744
222.30453 236.35983 255.744
222.33917 236.37943 255.744
222.31537 236.36597 255.744
222.29968 236.35712 255.744
222.31195 236.36403 255.744
222.33475 236.37692 255.744
222.3253 236.37161 255.744
222.33273 236.37578 255.744
222.31152 236.3638 255.744
222.30914 236.36246 255.744
222.34082 236.38031 255.744
222.3097 236.36278 255.744
222.31815 236.36755 255.744
222.33206 236.37538 255.744
222.31451 236.3655 255.744
222.31406 236.36525 255.744
222.31265 236.36446 255.744
222.3061 236.36075 255.744
222.32391 236.3708 255.744
222.3138 236.3651 255.744
222.33694 236.37813 255.744
222.31833 236.36765 255.744
222.29828 236.35634 255.744
222.32495 236.3714 255.744
222.32747 236.37282 255.744
222.32516 236.37149 255.744
222.313 236.36462 255.744
222.3213 236.3693 255.744
222.31453 236.3655 255.744
222.31627 236.36649 255.744
222.31572 236.36613 255.744
222.33148 236.37509 255.744
222.3143 236.36536 255.744
222.33543 236.37732 255.744
222.32434 236.37103 255.744
222.31943 236.36826 255.744
222.3245 236.37114 255.744
222.31236 236.3643 255.744
222.33249 236.37566 255.744
222.31888 236.36797 255.744
222.32622 236.37209 255.744
222.3301 236.37427 255.744
222.3296 236.37401 255.744
222.31645 236.36656 255.744
222.32048 236.36885 255.744
222.3187 236.36787 255.744
222.31903 236.36803 255.744
222.31953 236.36832 255.744
222.31543 236.36603 255.744
222.31268 236.36446 255.744
222.33038 236.37447 255.744
222.33261 236.3757 255.744
222.31512 236.36583 255.744
222.31836 236.36769 255.744
222.30302 236.35901 255.744
222.34628 236.38344 255.744
222.32112 236.36923 255.744
222.32376 236.3707 255.744
222.31941 236.36826 255.744
222.32645 236.37222 255.744
222.33995 236.37982 255.744
222.31093 236.36348 255.744
222.33011 236.37431 255.744
222.30672 236.36108 255.744
222.31885 236.36792 255.744
222.33324 236.37608 255.744
222.30476 236.35997 255.744
222.3072 236.36136 255.744
222.35297 236.3872 255.744
222.32014 236.36867 255.744
222.31682 236.36678 255.744
222.33856 236.37907 255.744
222.33792 236.37871 255.744
222.32097 236.36914 255.744
222.34186 236.38095 255.744
222.32254 236.37009 255.744
222.33461 236.37683 255.744
222.31247 236.36435 255.744
222.34758 236.38416 255.744
222.33023 236.37436 255.744
222.32841 236.37334 255.744
222.33266 236.37572 255.744
222.34177 236.38086 255.744
222.32301 236.37029 255.744
222.33957 236.37964 255.744
222.33812 236.37881 255.744
222.32272 236.3701 255.744
222.3194 236.36824 255.744
222.3316 236.37514 255.744
222.32564 236.37177 255.744
222.32596 236.37196 255.744
222.32849 236.37338 255.744
222.32292 236.37025 255.744
222.32986 236.37413 255.744
222.32353 236.37062 255.744
222.3307 236.37462 255.744
222.32883 236.37355 255.744
222.34074 236.38031 255.744
222.35054 236.3858 255.744
222.33116 236.37492 255.744
222.32745 236.37282 255.744
222.31494 236.36574 255.744
222.33025 236.37437 255.744
222.33643 236.37784 255.744
222.32452 236.37114 255.744
222.33832 236.37892 255.744
222.32657 236.3723 255.744
222.3277 236.37296 255.744
222.32767 236.37292 255.744
222.33649 236.37793 255.744
222.32643 236.37221 255.744
222.3273 236.3727 255.744
222.32593 236.37193 255.744
222.33853 236.37907 255.744
222.34009 236.37996 255.744
222.33487 236.37695 255.744
222.32707 236.37262 255.744
222.32422 236.371 255.744
222.31255 236.36438 255.744
222.32104 236.36917 255.744
222.3162 236.36642 255.744
222.33228 236.37552 255.744
222.3157 236.36618 255.744
222.31471 236.3656 255.744
222.32555 236.37173 255.744
222.31618 236.36646 255.744
222.33565 236.37743 255.744
222.31409 236.36523 255.744
222.33333 236.37611 255.744
222.32285 236.3702 255.744
222.33792 236.37872 255.744
222.334 236.37645 255.744
222.34401 236.38214 255.744
222.32152 236.36943 255.744
221.0538 235.25734 255.08408
207.5878 221.91808 241.95532
200.912 216.23666 237.5229
182.21257 198.00581 219.74072
181.5015 198.60529 222.0717
168.19977 184.42877 207.04936
147.62009 163.46696 185.84511
154.15976 171.0894 194.30238
149.87262 166.91849 190.71814
141.34119 158.53812 181.92346
147.06013 164.60797 188.43161
147.38672 165.73839 190.30106
152.70924 171.87549 197.2909
139.30168 156.88695 180.09903
147.54109 167.2473 192.53568
145.34138 163.43207 187.87181
143.1097 161.94789 186.73094
139.39253 157.18918 181.19316
143.07454 162.95346 188.17064
140.40483 158.39598 182.76454
139.07368 156.01901 178.40155
142.38234 161.6008 186.87248
143.95557 161.57983 185.48962
142.13957 159.64935 183.14209
137.68434 156.41882 180.94931
137.7439 154.39612 177.296
145.44746 164.32597 189.66966
136.91043 154.1317 177.0913
142.67268 161.49724 186.62245
140.9507 157.91348 181.01933
139.9204 157.3989 181.27905
140.27736 158.30963 182.82057
138.43565 154.69693 177.362
141.21707 159.55112 183.96918
141.0535 158.32988 181.79349
137.73955 155.35889 179.13467
140.54004 159.21725 184.1091
137.0117 154.12561 176.75398
141.28233 161.06944 186.61557
135.82115 150.86055 172.56586
136.83331 154.53703 178.41461
135.59406 152.68764 175.63806
138.78609 156.9069 180.74767
138.38264 154.86832 178.08957
133.3251 150.5487 173.26479
138.36563 154.88582 177.8891
138.2572 157.91322 182.35052
133.72847 150.50412 172.66861
143.0183 162.86635 189.11354
137.75578 155.95221 179.98724
138.33002 156.2223 180.24203
139.01497 157.04547 180.80836
137.63496 157.0738 182.38797
137.35103 155.80902 180.37167
140.13068 158.95595 182.54218
139.05075 156.46973 179.58493
135.54182 153.24559 177.47337
138.01357 154.92241 178.15205
135.57378 151.86441 174.25
138.16312 157.90857 183.58711
140.41522 157.9724 181.26491
140.08987 157.92604 181.85783
141.30678 159.07013 183.1164
135.99815 153.75725 177.15009
139.32298 157.68604 181.9865
136.83386 154.44322 177.61263
139.66566 159.12047 184.08372
141.59894 160.94122 186.62181
139.90256 158.5305 182.94855
139.249 158.6554 183.35692
140.32626 158.82365 183.45958
138.97568 156.36436 180.24187
142.67358 160.0501 183.9692
138.00618 154.29305 176.96567
139.19284 157.1368 181.1486
138.99019 157.68 181.90938
141.07831 160.32068 184.23564
135.04198 152.85147 174.72977
137.47179 155.49039 179.5914
137.8306 154.88412 178.54575
140.68773 159.09044 183.9692
139.64719 158.05948 182.01085
137.36221 153.69124 176.17422
136.5608 152.41452 174.9705
141.06761 159.47354 183.83559
137.755 155.59303 178.99097
137.02432 152.34439 173.80449
143.1629 162.30785 186.72223
139.89355 159.39622 183.55286
140.18538 157.87941 181.79349
142.36089 160.62608 184.45845
142.02841 161.66661 186.21513
138.72316 157.86436 181.21213
139.46312 158.46227 182.41693
133.87306 151.86385 171.53381
140.48106 161.21672 184.78447
136.11661 156.03131 177.00247
147.00525 169.53154 192.80339
139.22343 162.1937 177.21149
158.15193 170.80115 176.26971
174.21225 176.51266 176.28377
178.78404 179.35197 181.01933
177.14513 178.51367 181.01933
176.02536 177.94312 181.01933
174.68661 177.26332 181.01933
173.74738 176.78796 181.01933
172.8619 176.34097 181.01933
171.93977 175.8767 181.01933
171.1694 175.48982 181.01933
170.26973 175.03915 181.01933
169.6925 174.75063 181.01933
168.8584 174.3346 181.01933
168.2417 174.0277 181.01933
167.61446 173.71616 181.01933
166.97412 173.39871 181.01933
166.42264 173.12584 181.01933
165.84404 172.84004 181.01933
165.30986 172.57666 181.01933
164.74062 172.2965 181.01933
164.40671 172.13239 181.01933
163.84172 171.85515 181.01933
163.46722 171.67162 181.01933
163.07353 171.47896 181.01933
162.61394 171.25435 181.01933
162.17165 171.0385 181.01933
161.79048 170.85275 181.01933
161.48521 170.70418 181.01933
161.10559 170.51959 181.01933
160.69981 170.32259 181.01933
160.4213 170.18747 181.01933
160.1316 170.0471 181.01933
159.81776 169.89519 181.01933
159.50435 169.74365 181.01933
159.1472 169.57117 181.01933
158.86382 169.43446 181.01933
158.65364 169.33316 181.01933
158.43494 169.2278 181.01933
158.15562 169.09338 181.01933
157.98137 169.00958 181.01933
157.67975 168.86465 181.01933
157.51053 168.78345 181.01933
157.31137 168.68788 181.01933
157.09319 168.58328 181.01933
156.88687 168.48444 181.01933
156.67812 168.38452 181.01933
156.5557 168.32594 181.01933
156.40196 168.25244 181.01933
156.27147 168.19005 181.01933
156.13335 168.12407 181.01933
155.97057 168.04636 181.01933
155.85846 167.99284 181.01933
155.74617 167.93927 181.01933
155.60403 167.87149 181.01933
155.53207 167.83719 181.01933
155.43983 167.79326 181.01933
155.36935 167.75967 181.01933
155.27922 167.71677 181.01933
155.23477 167.69559 181.01933
155.18912 167.67387 181.01933
155.15182 167.65611 181.01933
155.04929 167.6073 181.01933
155.01927 167.59305 181.01933
155.01381 167.59045 181.01933
154.96378 167.56664 181.01933
155.01747 167.59218 181.01933
154.98163 167.57513 181.01933
155.00247 167.58505 181.01933
154.97568 167.5723 181.01933
155.06424 167.61443 181.01933
155.05222 167.60872 181.01933
155.06622 167.61536 181.01933
155.1606 167.6603 181.01933
155.20935 167.6835 181.01933
155.30446 167.72876 181.01933
155.38031 167.7649 181.01933
155.41795 167.78284 181.01933
155.50586 167.82472 181.01933
155.59007 167.86485 181.01933
155.69386 167.91434 181.01933
155.82695 167.97783 181.01933
155.95256 168.03775 181.01933
156.08237 168.09972 181.01933
156.21136 168.16135 181.01933
156.33946 168.22253 181.01933
156.47012 168.28502 181.01933
156.63408 168.36343 181.01933
156.84427 168.46405 181.01933
157.01018 168.54352 181.01933
157.2293 168.64853 181.01933
157.39874 168.72981 181.01933
157.65706 168.85378 181.01933
157.79234 168.91876 181.01933
158.05234 169.0437 181.01933
158.27208 169.1494 181.01933
158.52487 169.27112 181.01933
158.80598 169.40659 181.01933
159.05635 169.52733 181.01933
159.34415 169.66624 181.01933
159.63443 169.80653 181.01933
159.92307 169.94615 181.01933
160.24106 170.10014 181.01933
160.45644 170.20453 181.01933
160.92676 170.43272 181.01933
161.21474 170.57263 181.01933
161.62228 170.77087 181.01933
161.9562 170.93347 181.01933
162.313 171.10745 181.01933
162.75754 171.3245 181.01933
163.1934 171.53758 181.01933
163.63075 171.75172 181.01933
164.031 171.94797 181.01933
164.51208 172.18416 181.01933
165.00066 172.42442 181.01933
165.55164 172.69583 181.01933
165.96718 172.90083 181.01933
166.71584 173.27084 181.01933
167.18372 173.50252 181.01933
167.79558 173.80603 181.01933
168.38145 174.0972 181.01933
169.0128 174.41153 181.01933
169.68373 174.74622 181.01933
170.43895 175.1238 181.01933
171.22302 175.51672 181.01933
172.14577 175.98032 181.01933
172.97607 176.39853 181.01933
173.8979 176.86404 181.01933
175.0666 177.45601 181.01933
176.35587 178.11131 181.01933
177.60724 178.74968 181.01933
179.05782 179.4924 181.01933
183.6968 184.18565 186.11948
206.34344 214.56891 226.91974
221.2947 234.9785 254.16486
222.33824 236.37888 255.744
222.32353 236.37057 255.744
222.32336 236.37048 255.744
222.32076 236.36902 255.744
222.30415 236.35966 255.744
222.32039 236.36879 255.744
222.32077 236.36902 255.744
222.33022 236.37431 255.744
222.32428 236.371 255.744
222.31119 236.3636 255.744
222.3304 236.37445 255.744
222.2982 236.35631 255.744
222.32918 236.37376 255.744
222.33571 236.37746 255.744
222.33604 236.37764 255.744
222.32289 236.37018 255.744
222.32626 236.37212 255.744
222.32977 236.37415 255.744
222.31786 236.36739 255.744
222.29921 236.35686 255.744
222.32124 236.36932 255.744
222.31882 236.36794 255.744
222.3155 236.36606 255.744
222.3181 236.3675 255.744
222.32172 236.36955 255.744
222.30258 236.35875 255.744
222.32596 236.37195 255.744
222.3119 236.36401 255.744
222.32336 236.37051 255.744
222.30943 236.36266 255.744
222.3193 236.3682 255.744
222.317 236.36691 255.744
222.33011 236.37428 255.744
222.32176 236.3696 255.744
222.3088 236.36227 255.744
222.30774 236.36166 255.744
222.32 236.36862 255.744
222.34688 236.38374 255.744
222.30688 236.36116 255.744
222.31029 236.36311 255.744
222.31854 236.36777 255.744
222.32109 236.36919 255.744
222.3039 236.35951 255.744
222.31831 236.36763 255.744
222.30846 236.36208 255.744
222.31831 236.36761 255.744
222.32246 236.36995 255.744
222.31499 236.36577 255.744
222.31233 236.36427 255.744
222.31554 236.3661 255.744
222.33136 236.37498 255.744
222.3095 236.36267 255.744
222.32103 236.36919 255.744
222.31631 236.3665 255.744
222.29956 236.35704 255.744
222.3261 236.37204 255.744
222.30354 236.35931 255.744
222.31117 236.3636 255.744
222.31113 236.36357 255.744
222.30447 236.35983 255.744
222.32228 236.36989 255.744
222.32045 236.3688 255.744
222.3054 236.36035 255.744
222.31143 236.36371 255.744
222.2972 236.35571 255.744
222.31802 236.36746 255.744
222.3192 236.36813 255.744
222.33757 236.3785 255.744
222.30602 236.36066 255.744
222.2986 236.35654 255.744
222.32312 236.37038 255.744
222.30597 236.36069 255.744
222.30733 236.36145 255.744
222.33516 236.37714 255.744
222.31581 236.36621 255.744
222.31172 236.36392 255.744
222.30763 236.36162 255.744
222.30174 236.35826 255.744
222.32133 236.36932 255.744
222.29944 236.35696 255.744
222.3162 236.36646 255.744
222.3141 236.36525 255.744
222.31393 236.36519 255.744
222.31157 236.36383 255.744
222.31833 236.36761 255.744
222.31111 236.36357 255.744
222.29955 236.35706 255.744
222.32803 236.37312 255.744
222.31056 236.36325 255.744
222.30179 236.3583 255.744
222.29985 236.35721 255.744
222.29774 236.35605 255.744
222.30933 236.36256 255.744
222.3086 236.36214 255.744
222.2981 236.35623 255.744
222.3155 236.36606 255.744
222.32271 236.37009 255.744
222.30887 236.3623 255.744
222.31578 236.36618 255.744
222.30367 236.35938 255.744
222.30579 236.36052 255.744
222.31139 236.36374 255.744
222.2993 236.35687 255.744
222.33202 236.37537 255.744
222.30826 236.36198 255.744
222.33684 236.3781 255.744
222.31277 236.36453 255.744
222.30943 236.3626 255.744
222.29634 236.35522 255.744
222.30852 236.36209 255.744
222.32228 236.36987 255.744
222.31354 236.36496 255.744
222.32095 236.36916 255.744
222.30685 236.36119 255.744
222.32396 236.37082 255.744
222.3223 236.36987 255.744
222.29999 236.35728 255.744
222.32654 236.37228 255.744
222.32231 236.36992 255.744
222.29504 236.3545 255.744
222.31644 236.36658 255.744
222.31303 236.36469 255.744
222.29309 236.35342 255.744
222.3126 236.36441 255.744
222.34111 236.3805 255.744
222.35912 236.39066 255.744
222.34555 236.38303 255.744
222.35254 236.38698 255.744
222.34538 236.3829 255.744
222.34808 236.38445 255.744
222.36554 236.3943 255.744
222.3441 236.38219 255.744
222.33502 236.37708 255.744
222.32611 236.37204 255.744
222.34982 236.38542 255.744
222.34656 236.38358 255.744
222.30727 236.36142 255.744
222.34683 236.38371 255.744
222.34166 236.38083 255.744
222.32768 236.37296 255.744
222.34106 236.38046 255.744
222.33128 236.37494 255.744
222.35074 236.38593 255.744
222.35509 236.38838 255.744
222.34055 236.38019 255.744
222.33801 236.37874 255.744
222.35155 236.38641 255.744
222.34056 236.3802 255.744
222.3542 236.3879 255.744
222.36305 236.39288 255.744
222.3561 236.38895 255.744
222.34203 236.38103 255.744
222.3392 236.37943 255.744
222.3253 236.37157 255.744
222.3246 236.37119 255.744
222.35904 236.39061 255.744
222.34227 236.38118 255.744
222.32593 236.37195 255.744
222.34099 236.38043 255.744
222.3575 236.38974 255.744
222.33568 236.37744 255.744
222.35793 236.38998 255.744
222.34854 236.38469 255.744
222.36418 236.39352 255.744
222.34708 236.3839 255.744
222.35283 236.38712 255.744
222.34662 236.3836 255.744
222.35652 236.38919 255.744
222.34723 236.38394 255.744
222.35071 236.3859 255.744
222.34761 236.38417 255.744
222.35696 236.38948 255.744
222.35739 236.38968 255.744
222.3656 236.39433 255.744
222.34262 236.38138 255.744
222.32349 236.37054 255.744
222.3554 236.38857 255.744
222.37216 236.39803 255.744
222.34764 236.38417 255.744
222.35422 236.3879 255.744
222.34555 236.38303 255.744
222.35045 236.38579 255.744
222.34297 236.38156 255.744
222.33464 236.37688 255.744
222.35912 236.39069 255.744
222.3587 236.39041 255.744
222.37141 236.39763 255.744
222.35982 236.39105 255.744
222.35046 236.38579 255.744
222.35431 236.38794 255.744
222.33792 236.37868 255.744
222.34367 236.38196 255.744
222.35503 236.38835 255.744
222.35104 236.3861 255.744
222.33658 236.37793 255.744
222.35959 236.39095 255.744
222.34926 236.38509 255.744
222.35522 236.38847 255.744
222.32959 236.37398 255.744
222.34352 236.38187 255.744
222.3449 236.38263 255.744
222.3501 236.38556 255.744
222.34537 236.3829 255.744
222.34193 236.38098 255.744
222.33533 236.37726 255.744
222.33893 236.3793 255.744
222.34378 236.382 255.744
222.34549 236.38297 255.744
222.35947 236.39085 255.744
222.36148 236.392 255.744
222.3547 236.38818 255.744
222.34792 236.38431 255.744
222.36601 236.39458 255.744
222.35085 236.38602 255.744
222.33624 236.37775 255.744
222.33846 236.37901 255.744
222.34506 236.38272 255.744
222.35204 236.38667 255.744
222.35211 236.38673 255.744
222.34007 236.37993 255.744
222.35031 236.3857 255.744
222.3442 236.38223 255.744
222.34906 236.38498 255.744
222.37106 236.39743 255.744
222.35999 236.39114 255.744
222.36626 236.39467 255.744
222.3573 236.38966 255.744
222.36987 236.39674 255.744
222.36104 236.39175 255.744
222.35977 236.39105 255.744
222.33595 236.37758 255.744
222.34943 236.38521 255.744
222.37029 236.39696 255.744
222.36067 236.39156 255.744
222.36003 236.39116 255.744
222.35495 236.38834 255.744
222.3522 236.38673 255.744
222.34753 236.38416 255.744
222.36813 236.39575 255.744
222.34619 236.38339 255.744
222.36157 236.39204 255.744
222.36536 236.39415 255.744
222.3453 236.38287 255.744
222.36494 236.39397 255.744
222.34613 236.38332 255.744
222.33826 236.37889 255.744
222.36893 236.39618 255.744
222.34116 236.38051 255.744
222.34837 236.3846 255.744
222.36473 236.39383 255.744
222.34102 236.38046 255.744
222.3564 236.3891 255.744
222.3527 236.38701 255.744
222.34547 236.38292 255.744
222.3586 236.39035 255.744
222.34802 236.38438 255.744
222.36911 236.3963 255.744
222.35103 236.38611 255.744
222.36615 236.39464 255.744
222.37401 236.39906 255.744
222.35605 236.38892 255.744
222.36545 236.39426 255.744
222.35239 236.38684 255.744
222.35732 236.3896 255.744
222.35094 236.38608 255.744
222.35706 236.38948 255.744
222.35094 236.38608 255.744
222.36276 236.39275 255.744
222.37825 236.40147 255.744
222.34174 236.38086 255.744
222.34734 236.384 255.744
222.35994 236.39116 255.744
222.36926 236.39638 255.744
222.32777 236.37297 255.744
222.35478 236.38823 255.744
222.35889 236.39053 255.744
222.36856 236.39601 255.744
222.34259 236.38133 255.744
222.35056 236.38585 255.744
222.34756 236.38416 255.744
222.37267 236.39833 255.744
222.34 236.37988 255.744
222.36063 236.39153 255.744
222.35953 236.3909 255.744
222.3648 236.39389 255.744
222.36688 236.39503 255.744
222.35765 236.38985 255.744
222.34587 236.3832 255.744
222.33644 236.37785 255.744
222.34851 236.3847 255.744
222.33295 236.37587 255.744
222.34015 236.37996 255.744
222.34688 236.38376 255.744
222.35603 236.38892 255.744
222.34921 236.38507 255.744
222.37524 236.39978 255.744
222.35191 236.38658 255.744
222.34935 236.38516 255.744
222.3672 236.39522 255.744
222.37277 236.39838 255.744
222.34253 236.3813 255.744
222.34038 236.38011 255.744
222.3676 236.39545 255.744
222.37936 236.4021 255.744
222.36977 236.39665 255.744
222.35649 236.3892 255.744
222.35817 236.39015 255.744
222.3686 236.39604 255.744
222.36424 236.39357 255.744
222.3412 236.38052 255.744
222.36227 236.39246 255.744
222.35974 236.39099 255.744
222.37466 236.39941 255.744
222.36171 236.3921 255.744
222.36319 236.39294 255.744
222.36833 236.39586 255.744
222.35721 236.38956 255.744
222.35254 236.38692 255.744
222.34663 236.38364 255.744
222.37144 236.39761 255.744
222.35928 236.39078 255.744
222.36627 236.39473 255.744
222.35236 236.38687 255.744
222.35019 236.3856 255.744
222.36057 236.39146 255.744
222.34402 236.38216 255.744
222.36055 236.39146 255.744
222.3587 236.39043 255.744
222.36775 236.39557 255.744
222.33463 236.37685 255.744
222.36021 236.3913 255.744
222.34738 236.38403 255.744
222.37267 236.39828 255.744
222.35684 236.38937 255.744
222.35765 236.38985 255.744
222.35815 236.3901 255.744
222.37271 236.39836 255.744
222.3583 236.39023 255.744
222.34116 236.38055 255.744
222.3533 236.38737 255.744
222.34378 236.38199 255.744
222.35739 236.3897 255.744
222.35718 236.38954 255.744
222.3575 236.38974 255.744
222.36696 236.3951 255.744
222.35036 236.38573 255.744
222.37187 236.39786 255.744
222.35187 236.38657 255.744
222.35991 236.39108 255.744
222.3609 236.39168 255.744
222.36679 236.395 255.744
222.35422 236.38792 255.744
222.35701 236.3895 255.744
222.37276 236.39835 255.744
222.36389 236.39336 255.744
222.37057 236.39713 255.744
222.35736 236.38968 255.744
222.34822 236.38454 255.744
222.38226 236.40375 255.744
222.35135 236.38628 255.744
222.3769 236.40071 255.744
222.34727 236.384 255.744
222.36789 236.3956 255.744
222.35199 236.38667 255.744
222.3602 236.39127 255.744
222.35266 236.38701 255.744
219.26079 233.4477 253.2423
215.09993 229.89499 250.45422
193.66705 208.57813 229.43289
176.78914 193.63266 216.62978
173.31226 190.76068 214.458
162.24313 179.09494 202.1823
156.8972 174.64946 198.65053
152.91809 170.67091 194.72955
158.51425 176.45877 200.93495
150.93523 168.71906 192.65356
145.59059 162.81181 186.3708
152.88081 169.74968 193.15462
144.20549 162.31667 186.3708
143.37836 161.62318 185.99367
142.97046 161.15529 185.48962
149.16855 167.5248 192.36537
142.29823 160.71355 185.23772
142.80891 159.1418 181.79347
139.61708 157.30269 181.01933
143.66998 160.79982 184.78476
141.49718 156.34976 177.6916
139.78654 156.73885 179.70828
144.52046 162.22273 185.99367
138.5199 156.33894 180.5014
142.24199 160.77185 185.80481
142.1904 160.11792 184.09637
142.53227 160.81744 185.50223
140.26619 159.49545 184.85986
140.9926 159.4042 183.84192
137.53722 156.73506 181.4004
142.44077 160.72644 185.13597
139.48238 157.15811 180.64832
130.72757 146.42116 168.35771
140.23518 159.44243 183.16225
136.82495 155.53088 180.37167
138.14096 157.89696 183.58711
142.51102 161.14574 185.99368
139.35349 156.81837 180.50139
138.68477 156.72139 180.50139
138.30588 156.21045 180.24187
139.33298 158.34978 183.76865
137.7084 153.9142 176.43582
140.75159 157.14783 180.04698
138.21912 155.94913 179.85188
136.63647 154.8666 178.40155
138.7981 156.43835 180.37167
139.56194 156.3869 179.46103
141.15482 159.01857 183.07643
135.30911 151.86325 174.76973
138.01767 154.87602 177.81642
141.31848 159.13219 183.45956
137.05367 153.97562 176.2899
137.68872 154.42053 176.96892
140.05177 158.4289 182.55157
135.8167 151.89793 174.43594
137.96547 156.06525 180.11195
137.84529 156.88943 182.19217
137.51746 154.11914 177.09787
136.64407 153.3941 176.17032
136.99586 155.0148 178.79683
138.10208 155.09648 178.41461
137.25775 155.34813 179.59142
136.83397 154.55405 178.41461
137.13966 156.17802 181.01933
142.94698 161.04218 185.61577
137.09857 155.33127 179.59142
136.65718 154.39966 177.00546
139.53688 156.9472 180.37167
140.30753 159.03902 183.58711
138.34947 156.68909 180.35876
135.08476 152.62845 175.77475
139.50662 158.03894 182.43608
138.20688 156.26045 180.28632
139.14482 158.54556 183.31924
138.61472 156.02863 179.187
138.9794 156.63516 180.24187
137.34958 153.32619 175.63806
141.2794 159.78986 184.21082
136.87288 154.39117 177.8836
138.90594 157.18666 181.79349
139.45482 156.33969 179.11993
138.62408 154.263 176.63469
140.65468 159.56606 182.91367
143.15115 162.5562 188.2452
135.07895 152.48816 175.09094
137.40439 156.33673 181.27774
137.6804 154.06766 175.3902
134.71707 150.64905 171.71275
138.07086 156.52043 180.48848
136.99512 154.09135 177.09143
139.21608 157.47578 181.52296
136.24997 153.45514 176.89952
138.69954 157.96558 180.71544
140.89777 160.38362 184.96533
140.05801 157.2866 181.4323
139.14635 156.90688 179.0303
140.98494 159.62802 183.3714
141.54776 160.83633 184.47693
149.38733 164.17682 182.2156
174.23358 176.27507 179.96902
179.84651 179.89745 181.01933
178.15056 179.0275 181.01933
176.70914 178.29129 181.01933
175.38911 177.6197 181.01933
174.32953 177.08244 181.01933
173.17407 176.49841 181.01933
172.24039 176.02791 181.01933
171.5257 175.66864 181.01933
170.5885 175.19868 181.01933
169.91177 174.86015 181.01933
169.31363 174.56151 181.01933
168.51431 174.16328 181.01933
167.83565 173.82591 181.01933
167.26276 173.54173 181.01933
166.70985 173.26788 181.01933
166.05434 172.94386 181.01933
165.5541 172.69704 181.01933
164.99657 172.42242 181.01933
164.503 172.1797 181.01933
164.06837 171.9663 181.01933
163.5817 171.72768 181.01933
163.10103 171.49239 181.01933
162.66573 171.27963 181.01933
162.2409 171.0723 181.01933
161.91614 170.91399 181.01933
161.51425 170.71829 181.01933
161.14851 170.54047 181.01933
160.78737 170.36507 181.01933
160.44604 170.1995 181.01933
160.09381 170.02882 181.01933
159.7871 169.88037 181.01933
159.46126 169.72285 181.01933
159.16911 169.58174 181.01933
158.96857 169.48499 181.01933
158.61626 169.31516 181.01933
158.38092 169.2018 181.01933
158.07979 169.05692 181.01933
157.89732 168.9692 181.01933
157.64177 168.84644 181.01933
157.35161 168.70717 181.01933
157.1857 168.62764 181.01933
156.9573 168.5182 181.01933
156.7626 168.42496 181.01933
156.56555 168.33066 181.01933
156.41096 168.25674 181.01933
156.24509 168.17744 181.01933
156.08937 168.10307 181.01933
155.96143 168.04199 181.01933
155.7537 167.94286 181.01933
155.61453 167.8765 181.01933
155.50925 167.82632 181.01933
155.37204 167.76096 181.01933
155.27356 167.71407 181.01933
155.15323 167.6568 181.01933
155.05853 167.61171 181.01933
155 167.5839 181.01933
154.92393 167.5477 181.01933
154.84119 167.50835 181.01933
154.76749 167.47334 181.01933
154.71481 167.44829 181.01933
154.694 167.43842 181.01933
154.65283 167.41882 181.01933
154.60849 167.39778 181.01933
154.60081 167.39415 181.01933
154.5411 167.36578 181.01933
154.52924 167.36014 181.01933
154.55325 167.37154 181.01933
154.571 167.37999 181.01933
154.57695 167.3828 181.01933
154.61067 167.3988 181.01933
154.63669 167.41116 181.01933
154.65396 167.41937 181.01933
154.70422 167.44325 181.01933
154.75514 167.46745 181.01933
154.81262 167.49477 181.01933
154.90866 167.54045 181.01933
154.98787 167.5781 181.01933
155.08127 167.62253 181.01933
155.14627 167.65346 181.01933
155.2563 167.70587 181.01933
155.33852 167.745 181.01933
155.45052 167.79834 181.01933
155.60199 167.87054 181.01933
155.73907 167.93591 181.01933
155.84836 167.98802 181.01933
156.01619 168.06815 181.01933
156.17055 168.14185 181.01933
156.37547 168.23976 181.01933
156.56648 168.3311 181.01933
156.70393 168.39687 181.01933
156.90488 168.49307 181.01933
157.05829 168.56654 181.01933
157.33241 168.69797 181.01933
157.46724 168.76265 181.01933
157.72217 168.88504 181.01933
157.96893 169.00362 181.01933
158.23216 169.13022 181.01933
158.50803 169.263 181.01933
158.73296 169.37137 181.01933
159.04788 169.52325 181.01933
159.32144 169.65532 181.01933
159.68164 169.82938 181.01933
159.91353 169.94156 181.01933
160.30025 170.12881 181.01933
160.58545 170.26707 181.01933
160.96788 170.4527 181.01933
161.35075 170.63876 181.01933
161.67712 170.79759 181.01933
162.09578 171.00151 181.01933
162.4068 171.15321 181.01933
162.86015 171.37462 181.01933
163.33919 171.60896 181.01933
163.78107 171.82541 181.01933
164.2112 172.03638 181.01933
164.68571 172.2695 181.01933
165.24512 172.54478 181.01933
165.76726 172.80215 181.01933
166.22609 173.02872 181.01933
166.81404 173.31944 181.01933
167.4971 173.65791 181.01933
168.08507 173.94984 181.01933
168.64876 174.2302 181.01933
169.41504 174.6121 181.01933
170.05711 174.9328 181.01933
170.91595 175.36276 181.01933
171.66115 175.73668 181.01933
172.47682 176.14693 181.01933
173.47429 176.64996 181.01933
174.501 177.1693 181.01933
175.4788 177.66525 181.01933
176.85124 178.36375 181.01933
178.41048 179.16058 181.01933
179.9736 179.9628 181.01933
188.39697 189.9635 193.5178
211.39424 221.84215 237.00995
222.35434 236.38797 255.744
222.37059 236.39713 255.744
222.35167 236.38647 255.744
222.3628 236.39275 255.744
222.3537 236.38762 255.744
222.34875 236.38483 255.744
222.34872 236.3848 255.744
222.36113 236.3918 255.744
222.3575 236.38976 255.744
222.37288 236.39844 255.744
222.35117 236.38617 255.744
222.35605 236.38895 255.744
222.34953 236.38528 255.744
222.35312 236.38727 255.744
222.35307 236.38727 255.744
222.34119 236.38054 255.744
222.35553 236.38867 255.744
222.35489 236.3883 255.744
222.35112 236.38612 255.744
222.343 236.38156 255.744
222.33629 236.37776 255.744
222.33525 236.37721 255.744
222.34885 236.38487 255.744
222.36238 236.39252 255.744
222.34186 236.38092 255.744
222.34778 236.38426 255.744
222.36218 236.3924 255.744
222.35728 236.38963 255.744
222.35985 236.39107 255.744
222.35002 236.38556 255.744
222.36743 236.39536 255.744
222.36334 236.39308 255.744
222.33777 236.3786 255.744
222.36229 236.39247 255.744
222.35889 236.39053 255.744
222.34785 236.3843 255.744
222.34807 236.38441 255.744
222.34819 236.38448 255.744
222.33974 236.37971 255.744
222.32658 236.3723 255.744
222.3583 236.3902 255.744
222.33038 236.37444 255.744
222.33978 236.37976 255.744
222.36307 236.39291 255.744
222.34381 236.38203 255.744
222.34433 236.38232 255.744
222.33243 236.37558 255.744
222.3293 236.37384 255.744
222.34795 236.38438 255.744
222.34583 236.38315 255.744
222.35197 236.38663 255.744
222.34909 236.38501 255.744
222.34668 236.3836 255.744
222.33133 236.375 255.744
222.32916 236.37376 255.744
222.36237 236.39249 255.744
222.34459 236.38249 255.744
222.34712 236.38391 255.744
222.33626 236.37775 255.744
222.35617 236.38899 255.744
222.35583 236.38882 255.744
222.3625 236.39256 255.744
222.34456 236.38243 255.744
222.37665 236.40054 255.744
222.32841 236.37332 255.744
222.36153 236.39203 255.744
222.3474 236.38408 255.744
222.34773 236.38423 255.744
222.36472 236.39383 255.744
222.33363 236.37627 255.744
222.32166 236.3695 255.744
222.33092 236.37473 255.744
222.35197 236.38664 255.744
222.34148 236.38069 255.744
222.34752 236.38412 255.744
222.34662 236.38362 255.744
222.37257 236.39827 255.744
222.34589 236.38318 255.744
222.35104 236.38612 255.744
222.35095 236.38608 255.744
222.35553 236.38863 255.744
222.34807 236.38443 255.744
222.31992 236.36855 255.744
222.33376 236.37634 255.744
222.34303 236.38156 255.744
222.33783 236.37865 255.744
222.33463 236.37683 255.744
222.36528 236.39415 255.744
222.34439 236.38235 255.744
222.35695 236.38942 255.744
222.33307 236.37595 255.744
222.31981 236.36848 255.744
222.35016 236.38564 255.744
222.35034 236.38571 255.744
222.34334 236.38177 255.744
222.3558 236.3888 255.744
222.34721 236.38394 255.744
222.33224 236.37549 255.744
222.34937 236.38515 255.744
222.32889 236.37363 255.744
222.3423 236.38116 255.744
222.33717 236.3783 255.744
222.33531 236.37723 255.744
222.33636 236.37782 255.744
222.34915 236.38503 255.744
222.34668 236.38365 255.744
222.34401 236.38213 255.744
222.34438 236.38235 255.744
222.33945 236.37955 255.744
222.32657 236.37233 255.744
222.35036 236.3857 255.744
222.3617 236.39209 255.744
222.35684 236.3894 255.744
222.32918 236.37378 255.744
222.32118 236.36928 255.744
222.35074 236.38594 255.744
222.33641 236.37782 255.744
222.34523 236.38283 255.744
222.33423 236.3766 255.744
222.34183 236.3809 255.744
222.36076 236.39159 255.744
222.35748 236.38974 255.744
222.3589 236.39053 255.744
222.36255 236.39258 255.744
222.38043 236.4027 255.744
222.37677 236.40062 255.744
222.36256 236.3926 255.744
222.36395 236.39339 255.744
222.36032 236.39136 255.744
222.37625 236.40034 255.744
222.37642 236.40045 255.744
222.38252 236.40388 255.744
222.37212 236.39803 255.744
222.39174 236.40906 255.744
222.37256 236.39825 255.744
222.35674 236.3893 255.744
222.38054 236.40276 255.744
222.37408 236.39911 255.744
222.38202 236.4036 255.744
222.37503 236.39964 255.744
222.34947 236.38524 255.744
222.37466 236.39946 255.744
222.37671 236.40059 255.744
222.36865 236.39604 255.744
222.37607 236.40024 255.744
222.36673 236.39496 255.744
222.37294 236.39844 255.744
222.37761 236.40111 255.744
222.38203 236.4036 255.744
222.37068 236.39719 255.744
222.38753 236.4067 255.744
222.35089 236.38602 255.744
222.35951 236.39088 255.744
222.37926 236.40204 255.744
222.3748 236.39952 255.744
222.36989 236.39674 255.744
222.36475 236.39386 255.744
222.365 236.39398 255.744
222.37228 236.3981 255.744
222.3882 236.40706 255.744
222.37987 236.40236 255.744
222.40175 236.41476 255.744
222.37483 236.39952 255.744
222.37752 236.40106 255.744
222.36476 236.39384 255.744
222.3595 236.39087 255.744
222.37758 236.40106 255.744
222.38577 236.40569 255.744
222.36746 236.39537 255.744
222.35852 236.39032 255.744
222.373 236.39848 255.744
222.40198 236.41486 255.744
222.38504 236.40529 255.744
222.38531 236.40544 255.744
222.38158 236.40334 255.744
222.39172 236.40906 255.744
222.39381 236.41026 255.744
222.37662 236.40056 255.744
222.37537 236.39983 255.744
222.37257 236.39825 255.744
222.38354 236.40446 255.744
222.37434 236.39926 255.744
222.39554 236.41122 255.744
222.37628 236.40036 255.744
222.38974 236.40794 255.744
222.37267 236.39832 255.744
222.39508 236.41095 255.744
222.37753 236.40106 255.744
222.37318 236.39857 255.744
222.3863 236.40602 255.744
222.39796 236.41261 255.744
222.3758 236.40005 255.744
222.38239 236.40381 255.744
222.3794 236.40215 255.744
222.37907 236.40192 255.744
222.38846 236.40721 255.744
222.38249 236.40387 255.744
222.35391 236.38773 255.744
222.37973 236.4023 255.744
222.38457 236.40503 255.744
222.37791 236.40128 255.744
222.40144 236.41454 255.744
222.39775 236.41248 255.744
222.40222 236.41496 255.744
222.39488 236.41084 255.744
222.37871 236.40172 255.744
222.37712 236.4008 255.744
222.37067 236.39717 255.744
222.37029 236.39697 255.744
222.39816 236.4127 255.744
222.3807 236.40286 255.744
222.39319 236.40991 255.744
222.38664 236.4062 255.744
222.36311 236.39293 255.744
222.38008 236.40248 255.744
222.36722 236.39522 255.744
222.39938 236.41339 255.744
222.3636 236.39319 255.744
222.37631 236.40038 255.744
222.3826 236.40395 255.744
222.37244 236.39816 255.744
222.386 236.40584 255.744
222.37334 236.3987 255.744
222.38985 236.408 255.744
222.36862 236.39604 255.744
222.40227 236.41501 255.744
222.3856 236.40564 255.744
222.38718 236.4065 255.744
222.39572 236.4113 255.744
222.36339 236.39307 255.744
222.38188 236.40349 255.744
222.39456 236.41068 255.744
222.37207 236.39796 255.744
222.39021 236.40825 255.744
222.37175 236.3978 255.744
222.39157 236.40895 255.744
222.37299 236.39848 255.744
222.39842 236.41283 255.744
222.38597 236.40582 255.744
222.37437 236.39928 255.744
222.3844 236.40497 255.744
222.37921 236.40201 255.744
222.38771 236.40683 255.744
222.38542 236.4055 255.744
222.39351 236.41008 255.744
222.37752 236.40103 255.744
222.37479 236.3995 255.744
222.39107 236.40868 255.744
222.38611 236.40588 255.744
222.36958 236.39656 255.744
222.38847 236.40727 255.744
222.3885 236.40726 255.744
222.36845 236.39594 255.744
222.40112 236.41438 255.744
222.38701 236.4064 255.744
222.39426 236.4105 255.744
222.38321 236.40428 255.744
222.39398 236.41034 255.744
222.37971 236.40233 255.744
222.41248 236.42078 255.744
222.38252 236.40388 255.744
222.38173 236.40341 255.744
222.39154 236.40898 255.744
222.36865 236.39606 255.744
222.3782 236.40141 255.744
222.39262 236.40958 255.744
222.3698 236.39673 255.744
222.39183 236.40915 255.744
222.39047 236.40839 255.744
222.37762 236.40111 255.744
222.40486 236.41649 255.744
222.38605 236.40585 255.744
222.37587 236.40013 255.744
222.3827 236.40398 255.744
222.36383 236.39331 255.744
222.39894 236.41316 255.744
222.3719 236.39787 255.744
222.39345 236.41005 255.744
222.3773 236.40094 255.744
222.36784 236.3956 255.744
222.40852 236.41856 255.744
222.3901 236.40816 255.744
222.38669 236.40623 255.744
222.38557 236.4056 255.744
222.37982 236.40234 255.744
222.41734 236.42351 255.744
222.39674 236.41188 255.744
222.37857 236.40167 255.744
222.4009 236.41423 255.744
222.38289 236.40408 255.744
222.37883 236.40178 255.744
222.378 236.40132 255.744
222.4177 236.42375 255.744
222.38045 236.4027 255.744
222.37903 236.40192 255.744
222.38777 236.40683 255.744
222.40495 236.41653 255.744
222.41396 236.42159 255.744
222.36787 236.3956 255.744
222.37552 236.3999 255.744
222.38504 236.4053 255.744
222.38287 236.40408 255.744
222.3709 236.39728 255.744
222.38634 236.40604 255.744
222.37444 236.39928 255.744
222.39302 236.40977 255.744
222.40773 236.41808 255.744
222.3797 236.40228 255.744
222.38644 236.4061 255.744
222.37642 236.40045 255.744
222.37772 236.40114 255.744
222.38983 236.408 255.744
222.39908 236.41322 255.744
222.38524 236.40543 255.744
222.3798 236.40237 255.744
222.38333 236.4043 255.744
222.39781 236.41249 255.744
222.40056 236.41405 255.744
222.39507 236.41095 255.744
222.38951 236.4078 255.744
222.37935 236.4021 255.744
222.39601 236.41148 255.744
222.38719 236.40651 255.744
222.38666 236.4062 255.744
222.39043 236.40834 255.744
222.39201 236.40921 255.744
222.36984 236.39673 255.744
222.39188 236.40918 255.744
222.3848 236.40515 255.744
222.39343 236.41 255.744
222.38785 236.40692 255.744
222.3864 236.40605 255.744
222.40154 236.4146 255.744
222.38805 236.407 255.744
222.39996 236.41371 255.744
222.40004 236.41376 255.744
222.39134 236.40886 255.744
222.39597 236.41147 255.744
222.39763 236.41241 255.744
222.40137 236.41452 255.744
222.40738 236.41792 255.744
222.39229 236.40938 255.744
222.37486 236.39955 255.744
222.39468 236.41072 255.744
222.3995 236.41348 255.744
222.39345 236.41002 255.744
222.37811 236.40138 255.744
222.40326 236.41559 255.744
222.3946 236.41072 255.744
222.40378 236.41586 255.744
222.40053 236.41403 255.744
222.39502 236.41092 255.744
222.38321 236.40427 255.744
222.4051 236.41663 255.744
222.387 236.4064 255.744
222.3762 236.40028 255.744
222.40471 236.4164 255.744
222.38457 236.40501 255.744
222.40369 236.41579 255.744
222.37761 236.4011 255.744
222.40367 236.4158 255.744
222.38704 236.40643 255.744
222.38847 236.40723 255.744
222.39528 236.41107 255.744
220.99976 235.2269 255.08408
211.01031 225.55473 245.92755
199.89235 215.50563 237.05933
184.23451 199.62567 221.30095
172.77478 188.73776 211.15845
161.40468 177.47397 199.70813
157.70131 175.12422 198.88603
153.0441 171.10045 194.15791
152.17293 168.88696 192.19615
149.29688 168.36964 193.63889
147.0089 165.48434 189.85588
146.86308 163.96608 187.43527
138.08832 154.04536 175.8246
146.17424 163.38898 186.87248
143.74408 161.21503 184.92091
146.66533 166.46434 192.66931
138.08089 155.2669 178.43796
145.06548 163.89294 188.67987
142.29431 160.09492 184.10907
140.3711 158.51865 182.82185
141.35515 158.2341 181.80635
137.57106 155.14386 178.51587
141.77165 159.63237 183.71455
138.24173 155.12318 178.28337
142.05608 159.49413 183.39578
139.83223 157.50899 180.87196
139.47765 158.07791 182.16862
140.05347 158.66774 183.45958
141.50291 159.40868 183.12764
140.35722 157.41833 180.76056
138.235 155.64362 179.34361
139.41202 157.5177 181.92218
137.31932 154.99477 178.00098
142.9955 161.66441 186.3708
139.43738 157.39458 181.92218
136.35164 153.11804 176.23674
140.69893 159.3823 183.31924
139.38757 155.88707 178.27031
140.25092 157.95676 181.79347
140.33658 158.781 183.33195
137.7877 156.45271 181.2406
139.60294 158.1867 183.6816
141.30055 159.17906 183.33202
137.64388 154.67892 177.62639
139.27362 158.1529 182.67973
137.04054 154.22221 177.0913
139.31058 158.22028 182.43614
138.81345 155.36708 178.15204
140.92848 160.27512 185.61577
140.10243 159.62898 185.3634
136.72711 155.54106 180.43655
136.2987 155.00935 178.79471
136.55704 154.79416 178.90591
139.3579 158.57416 183.66678
136.57762 153.6439 176.42262
138.0477 158.4943 185.11069
138.22177 157.93938 183.58711
137.16632 155.64532 180.24187
136.57942 155.37386 179.45457
135.79 154.359 178.13896
137.18729 156.58931 181.65858
135.7401 152.63834 175.70468
139.41129 156.03923 179.06934
140.38979 157.77063 181.40683
139.16966 156.25697 179.74203
136.19499 154.05748 177.48079
140.73402 159.2045 183.693
137.36714 154.4331 178.28337
140.19243 158.44456 182.82056
140.03365 157.69055 181.59247
137.95958 155.10425 179.04256
136.99277 156.69275 182.3078
140.10938 157.29741 181.01933
139.7208 159.06978 183.84761
139.2447 158.53351 183.33202
139.38803 158.21428 181.76785
138.02376 155.91753 179.8454
137.2633 156.28593 181.27774
135.60027 152.802 176.11583
138.56659 157.20563 182.19217
135.76155 153.54626 174.38116
139.58788 159.26184 183.39885
138.4117 156.08087 178.9729
136.83846 153.0324 175.23119
141.21744 158.69064 181.9865
142.3752 159.7688 183.39578
141.29178 159.16418 182.0316
138.49747 156.99854 178.62613
139.07011 156.90991 180.56499
140.70735 159.89781 184.46477
140.2031 156.38379 178.67679
138.66306 155.95561 179.46103
140.68753 159.94586 184.33783
138.63701 156.55641 180.10045
138.78203 158.18651 182.99977
148.64673 168.6404 194.96379
139.29036 157.66933 182.18182
140.8673 157.7862 179.04333
160.88222 167.3819 177.08473
177.8862 177.85634 178.20464
179.04764 179.48715 181.01933
177.45447 178.6716 181.01933
175.79843 177.82767 181.01933
174.80315 177.32237 181.01933
173.72408 176.77615 181.01933
172.76527 176.29227 181.01933
171.97238 175.89311 181.01933
171.06198 175.43593 181.01933
170.25896 175.03375 181.01933
169.55504 174.68199 181.01933
168.85991 174.33534 181.01933
168.17755 173.9958 181.01933
167.50644 173.66255 181.01933
166.91614 173.37 181.01933
166.4118 173.12045 181.01933
165.82503 172.83066 181.01933
165.3123 172.57787 181.01933
164.76685 172.30942 181.01933
164.31348 172.08661 181.01933
163.82231 171.8456 181.01933
163.36353 171.62086 181.01933
162.89095 171.38966 181.01933
162.44997 171.17429 181.01933
162.00383 170.95671 181.01933
161.64438 170.78163 181.01933
161.23958 170.58472 181.01933
160.88165 170.41081 181.01933
160.52835 170.2394 181.01933
160.22592 170.0928 181.01933
159.84439 169.90808 181.01933
159.52237 169.75238 181.01933
159.20198 169.59763 181.01933
158.93614 169.46935 181.01933
158.63167 169.32257 181.01933
158.33498 169.17969 181.01933
158.06657 169.05054 181.01933
157.81682 168.93051 181.01933
157.56789 168.81096 181.01933
157.32193 168.69295 181.01933
157.10661 168.58972 181.01933
156.87775 168.48009 181.01933
156.65692 168.37434 181.01933
156.52719 168.3123 181.01933
156.30037 168.20384 181.01933
156.1155 168.11555 181.01933
155.96144 168.04199 181.01933
155.801 167.96544 181.01933
155.61983 167.87903 181.01933
155.46387 167.8047 181.01933
155.36736 167.75874 181.01933
155.18248 167.67072 181.01933
155.07813 167.62103 181.01933
154.95679 167.56332 181.01933
154.85178 167.5134 181.01933
154.76749 167.47331 181.01933
154.64983 167.41743 181.01933
154.58566 167.38692 181.01933
154.51161 167.35176 181.01933
154.42294 167.30966 181.01933
154.35106 167.27557 181.01933
154.29181 167.24744 181.01933
154.26161 167.23311 181.01933
154.23251 167.21931 181.01933
154.17867 167.19377 181.01933
154.16336 167.18651 181.01933
154.15118 167.18074 181.01933
154.1718 167.19052 181.01933
154.15857 167.18423 181.01933
154.16118 167.18547 181.01933
154.13635 167.17372 181.01933
154.16481 167.1872 181.01933
154.22974 167.21799 181.01933
154.264 167.23425 181.01933
154.29291 167.24797 181.01933
154.37434 167.28662 181.01933
154.4 167.2988 181.01933
154.45517 167.32495 181.01933
154.56636 167.37776 181.01933
154.66545 167.42484 181.01933
154.75017 167.46509 181.01933
154.83548 167.50565 181.01933
154.90924 167.54073 181.01933
155.02713 167.5968 181.01933
155.14511 167.65291 181.01933
155.2904 167.72209 181.01933
155.40118 167.77483 181.01933
155.5283 167.8354 181.01933
155.73158 167.93233 181.01933
155.8589 167.99306 181.01933
156.01453 168.06734 181.01933
156.25052 168.18005 181.01933
156.43665 168.269 181.01933
156.63153 168.3622 181.01933
156.82202 168.45341 181.01933
157.04329 168.55936 181.01933
157.27156 168.6688 181.01933
157.48723 168.77226 181.01933
157.75946 168.90297 181.01933
157.94861 168.99384 181.01933
158.30188 169.16374 181.01933
158.49689 169.25763 181.01933
158.78372 169.39584 181.01933
159.08621 169.54175 181.01933
159.3729 169.68015 181.01933
159.70769 169.842 181.01933
160.04149 170.0035 181.01933
160.3699 170.16257 181.01933
160.66301 170.30473 181.01933
161.03935 170.48741 181.01933
161.42538 170.67508 181.01933
161.7741 170.84479 181.01933
162.20055 171.05261 181.01933
162.60353 171.24924 181.01933
163.05965 171.47214 181.01933
163.52527 171.70004 181.01933
163.9669 171.9165 181.01933
164.39102 172.1247 181.01933
164.97331 172.41098 181.01933
165.4308 172.63626 181.01933
166.01884 172.9263 181.01933
166.49614 173.16217 181.01933
167.19435 173.5078 181.01933
167.73306 173.77501 181.01933
168.32265 174.06795 181.01933
169.02798 174.4191 181.01933
169.73254 174.77063 181.01933
170.53053 175.16966 181.01933
171.28185 175.54623 181.01933
172.05058 175.93243 181.01933
172.9958 176.40848 181.01933
174.06306 176.94757 181.01933
174.87666 177.35966 181.01933
176.08102 177.97142 181.01933
177.64012 178.76648 181.01933
179.28009 179.60645 181.01933
182.75214 183.12877 184.85764
202.90651 209.89293 220.64426
219.84998 232.93594 251.38701
222.37926 236.40202 255.744
222.38345 236.4044 255.744
222.38443 236.40494 255.744
222.38333 236.40434 255.744
222.38007 236.4025 255.744
222.41127 236.42007 255.744
222.39854 236.4129 255.744
222.40166 236.41469 255.744
222.38364 236.4045 255.744
222.38065 236.40282 255.744
222.37915 236.40196 255.744
222.4068 236.41759 255.744
222.36829 236.39584 255.744
222.37785 236.40128 255.744
222.37973 236.40233 255.744
222.38797 236.40695 255.744
222.36592 236.39453 255.744
222.3977 236.41245 255.744
222.38173 236.40341 255.744
222.37764 236.40111 255.744
222.37167 236.39778 255.744
222.368 236.39566 255.744
222.40375 236.41586 255.744
222.38242 236.40376 255.744
222.36597 236.39455 255.744
222.37648 236.40047 255.744
222.41273 236.42093 255.744
222.3959 236.41142 255.744
222.38916 236.40764 255.744
222.37744 236.40102 255.744
222.39174 236.40909 255.744
222.36827 236.39584 255.744
222.37814 236.40143 255.744
222.3802 236.40253 255.744
222.36963 236.39659 255.744
222.38475 236.40512 255.744
222.386 236.4058 255.744
222.36913 236.39633 255.744
222.39415 236.41043 255.744
222.38803 236.407 255.744
222.37776 236.40117 255.744
222.36555 236.39432 255.744
222.37799 236.4013 255.744
222.38132 236.40317 255.744
222.3929 236.40974 255.744
222.36206 236.3923 255.744
222.37549 236.39989 255.744
222.3763 236.40036 255.744
222.37906 236.40193 255.744
222.38908 236.4076 255.744
222.3813 236.4032 255.744
222.36569 236.39438 255.744
222.38655 236.40614 255.744
222.37482 236.39954 255.744
222.35985 236.39107 255.744
222.38283 236.40402 255.744
222.38438 236.40494 255.744
222.3759 236.40013 255.744
222.38326 236.40431 255.744
222.36464 236.3938 255.744
222.3621 236.39233 255.744
222.37688 236.40071 255.744
222.374 236.39906 255.744
222.37524 236.39977 255.744
222.38855 236.40726 255.744
222.38177 236.40344 255.744
222.3873 236.40657 255.744
222.38327 236.40431 255.744
222.39204 236.40923 255.744
222.36302 236.39288 255.744
222.39462 236.41072 255.744
222.37204 236.39795 255.744
222.3985 236.41289 255.744
222.37485 236.39957 255.744
222.35123 236.38622 255.744
222.3591 236.39064 255.744
222.37782 236.40121 255.744
222.38411 236.40477 255.744
222.37288 236.39842 255.744
222.37996 236.40244 255.744
222.36295 236.39278 255.744
222.38641 236.40608 255.744
222.36742 236.39534 255.744
222.36427 236.39357 255.744
222.37122 236.39752 255.744
222.3796 236.40222 255.744
222.35957 236.39091 255.744
222.37315 236.39862 255.744
222.35933 236.3908 255.744
222.36319 236.39296 255.744
222.38025 236.4026 255.744
222.37288 236.39838 255.744
222.38043 236.40273 255.744
222.36266 236.39267 255.744
222.35258 236.38696 255.744
222.38358 236.40446 255.744
222.37524 236.39975 255.744
222.3648 236.39388 255.744
222.38911 236.40758 255.744
222.3693 236.39635 255.744
222.36668 236.39496 255.744
222.37372 236.39891 255.744
222.35281 236.3871 255.744
222.36761 236.39545 255.744
222.36006 236.39119 255.744
222.37584 236.40013 255.744
222.38962 236.40788 255.744
222.3562 236.38902 255.744
222.35417 236.38788 255.744
222.38521 236.40538 255.744
222.36224 236.39244 255.744
222.37683 236.40067 255.744
222.39265 236.40959 255.744
222.35641 236.38916 255.744
222.37935 236.40208 255.744
222.37392 236.39902 255.744
222.36908 236.3963 255.744
222.34764 236.38419 255.744
222.3622 236.39244 255.744
222.37202 236.39793 255.744
222.38554 236.40558 255.744
222.41058 236.41971 255.744
222.38951 236.40779 255.744
222.38727 236.40656 255.744
222.40715 236.41777 255.744
222.41008 236.41943 255.744
222.40794 236.41821 255.744
222.39905 236.4132 255.744
222.39264 236.40958 255.744
222.40826 236.41838 255.744
222.3971 236.41212 255.744
222.40265 236.41524 255.744
222.38837 236.40718 255.744
222.40181 236.41478 255.744
222.40482 236.41647 255.744
222.39333 236.40997 255.744
222.41586 236.4227 255.744
222.40323 236.41557 255.744
222.40959 236.41916 255.744
222.402 236.4149 255.744
222.4022 236.415 255.744
222.39949 236.41347 255.744
222.40285 236.41537 255.744
222.4025 236.41515 255.744
222.41867 236.42429 255.744
222.41985 236.42496 255.744
222.38603 236.40587 255.744
222.42606 236.42844 255.744
222.3974 236.41228 255.744
222.4005 236.414 255.744
222.39919 236.4133 255.744
222.40134 236.41449 255.744
222.39531 236.41109 255.744
222.40695 236.41766 255.744
222.41196 236.42047 255.744
222.40169 236.41469 255.744
222.3906 236.40845 255.744
222.39919 236.41327 255.744
222.40665 236.4175 255.744
222.41956 236.42477 255.744
222.41722 236.42345 255.744
222.43074 236.43108 255.744
222.39679 236.41194 255.744
222.41629 236.42296 255.744
222.40733 236.4179 255.744
222.39621 236.41159 255.744
222.4166 236.42311 255.744
222.42537 236.42804 255.744
222.4257 236.42824 255.744
222.40768 236.41808 255.744
222.39267 236.40965 255.744
222.43251 236.43213 255.744
222.40672 236.41756 255.744
222.40881 236.41875 255.744
222.40872 236.41866 255.744
222.4007 236.41414 255.744
222.4182 236.424 255.744
222.40358 236.41576 255.744
222.44748 236.44055 255.744
222.42244 236.42639 255.744
222.4148 236.4221 255.744
222.41893 236.42441 255.744
222.41016 236.41946 255.744
222.4107 236.41978 255.744
222.40622 236.41724 255.744
222.40584 236.41705 255.744
222.41254 236.42085 255.744
222.41219 236.4206 255.744
222.39282 236.4097 255.744
222.41153 236.42024 255.744
222.41971 236.42487 255.744
222.41808 236.42393 255.744
222.40977 236.41927 255.744
222.4131 236.42116 255.744
222.39647 236.41174 255.744
222.41403 236.42165 255.744
222.40811 236.41829 255.744
222.40584 236.417 255.744
222.40564 236.4169 255.744
222.41937 236.4247 255.744
222.39963 236.41353 255.744
222.42691 236.42896 255.744
222.43404 236.43295 255.744
222.41376 236.42151 255.744
222.41968 236.42485 255.744
222.41284 236.421 255.744
222.41327 236.42122 255.744
222.40776 236.4181 255.744
222.4072 236.41782 255.744
222.4015 236.41458 255.744
222.40164 236.41461 255.744
222.40823 236.41838 255.744
222.41861 236.42424 255.744
222.42712 236.42906 255.744
222.40831 236.41843 255.744
222.41396 236.42162 255.744
222.4049 236.4165 255.744
222.40968 236.41919 255.744
222.4121 236.42055 255.744
222.42809 236.42958 255.744
222.41158 236.42029 255.744
222.42107 236.42566 255.744
222.41411 236.42168 255.744
222.40025 236.41388 255.744
222.41576 236.42265 255.744
222.40785 236.41817 255.744
222.417 236.42334 255.744
222.40683 236.41759 255.744
222.39648 236.41179 255.744
222.4158 236.42265 255.744
222.4233 236.42691 255.744
222.43126 236.43138 255.744
222.41061 236.41972 255.744
222.43492 236.43346 255.744
222.4052 236.41666 255.744
222.41437 236.42184 255.744
222.39522 236.41104 255.744
222.40717 236.41779 255.744
222.41539 236.42242 255.744
222.44452 236.43889 255.744
222.40634 236.41731 255.744
222.42723 236.42912 255.744
222.42725 236.42908 255.744
222.42274 236.42657 255.744
222.41396 236.4216 255.744
222.41335 236.42131 255.744
222.40321 236.41554 255.744
222.39117 236.40875 255.744
222.4225 236.42644 255.744
222.4018 236.41475 255.744
222.41756 236.42365 255.744
222.41368 236.42146 255.744
222.42905 236.4301 255.744
222.42305 236.42679 255.744
222.42427 236.42743 255.744
222.42973 236.43054 255.744
222.41177 236.4204 255.744
222.40074 236.41414 255.744
222.41943 236.42471 255.744
222.42918 236.43019 255.744
222.41342 236.42133 255.744
222.42438 236.42749 255.744
222.41165 236.4203 255.744
222.4349 236.43346 255.744
222.4112 236.42006 255.744
222.40128 236.41447 255.744
222.43034 236.43085 255.744
222.42004 236.42505 255.744
222.42033 236.42523 255.744
222.42233 236.42635 255.744
222.41002 236.41937 255.744
222.41753 236.4236 255.744
222.4081 236.41829 255.744
222.42487 236.42776 255.744
222.43646 236.43433 255.744
222.42458 236.4276 255.744
222.41002 236.4194 255.744
222.408 236.41827 255.744
222.40869 236.41866 255.744
222.42601 236.4284 255.744
222.41502 236.42223 255.744
222.43376 236.4328 255.744
222.4363 236.43423 255.744
222.418 236.4239 255.744
222.43367 236.43274 255.744
222.40991 236.41936 255.744
222.42482 236.42775 255.744
222.41855 236.42424 255.744
222.40717 236.41779 255.744
222.40192 236.41484 255.744
222.42387 236.4272 255.744
222.41887 236.42441 255.744
222.41858 236.42421 255.744
222.40886 236.41873 255.744
222.41028 236.41953 255.744
222.43234 236.43202 255.744
222.4096 236.41917 255.744
222.40556 236.41689 255.744
222.41183 236.42041 255.744
222.42117 236.42567 255.744
222.41943 236.42471 255.744
222.42712 236.42905 255.744
222.39438 236.41058 255.744
222.39487 236.41083 255.744
222.43121 236.43135 255.744
222.40259 236.41519 255.744
222.4249 236.42781 255.744
222.43001 236.43068 255.744
222.41725 236.42346 255.744
222.42963 236.43045 255.744
222.43495 236.43346 255.744
222.41629 236.42296 255.744
222.41978 236.4249 255.744
222.40865 236.41861 255.744
222.42737 236.42917 255.744
222.42747 236.42923 255.744
222.4044 236.41623 255.744
222.42346 236.42699 255.744
222.41066 236.41975 255.744
222.42256 236.42648 255.744
222.42314 236.4268 255.744
222.39664 236.41185 255.744
222.41042 236.41965 255.744
222.4208 236.4255 255.744
222.43079 236.43114 255.744
222.43196 236.43178 255.744
222.4175 236.42358 255.744
222.4315 236.43153 255.744
222.42697 236.42896 255.744
222.44128 236.43704 255.744
222.42903 236.4301 255.744
222.43329 236.43253 255.744
222.42061 236.42538 255.744
222.40248 236.41515 255.744
222.41512 236.42224 255.744
222.40356 236.41573 255.744
222.43108 236.43127 255.744
222.43248 236.43204 255.744
222.42456 236.42761 255.744
222.42566 236.42819 255.744
222.42616 236.4285 255.744
222.41563 236.42258 255.744
222.4171 236.42339 255.744
222.43697 236.43459 255.744
222.41037 236.41959 255.744
222.43546 236.43372 255.744
222.42178 236.42604 255.744
222.41971 236.42487 255.744
222.41718 236.42342 255.744
222.4198 236.42491 255.744
222.43173 236.43164 255.744
222.43852 236.43547 255.744
222.4289 236.43002 255.744
222.44719 236.44037 255.744
222.42139 236.4258 255.744
222.43636 236.43425 255.744
222.4243 236.42746 255.744
222.42664 236.42876 255.744
222.41832 236.42406 255.744
222.42586 236.42833 255.744
221.40134 235.4534 255.08408
218.67218 233.11623 253.2423
209.45837 224.25688 244.78282
199.2935 214.72137 236.2186
172.83261 188.52339 210.44785
164.59637 181.3234 203.64479
155.3447 172.29863 195.43745
150.3104 168.39705 192.79076
147.39908 165.15147 189.11354
149.28403 166.4716 189.54623
155.07553 173.27621 197.3977
156.03755 174.81088 199.9424
145.9767 163.84477 187.68488
148.7694 166.74112 191.0862
144.57759 162.56833 186.80984
142.77086 161.29977 185.77455
138.88004 156.3351 179.5907
141.56616 158.38527 181.79991
141.76678 158.99849 182.1793
146.04497 164.47168 189.12592
146.21576 165.16354 190.4701
146.38487 165.5341 190.08884
142.6092 160.49435 184.6369
141.57047 160.9089 186.37326
141.35187 158.09094 180.23024
141.16298 159.24329 183.20424
142.13928 160.4037 184.73097
139.1916 157.40239 181.79349
137.68596 153.65845 176.17032
138.55869 155.22113 178.15202
140.35014 159.08478 183.71455
140.09995 157.29634 180.76056
136.7339 152.63008 174.97736
139.03207 156.93553 180.89
140.12381 158.08342 181.79347
142.14162 159.53424 182.68182
140.21605 159.5784 184.85764
140.86601 159.6558 184.60423
139.59949 156.7307 179.85188
140.23532 159.06393 184.09637
144.01959 162.85666 187.36038
140.3385 158.5208 182.6925
137.64032 156.05511 180.52232
142.11105 161.24918 186.87248
139.2523 158.88626 183.44054
139.91245 157.83623 181.95436
139.17683 157.30185 181.92218
136.8835 155.30293 179.31757
139.58876 158.40402 183.20424
137.02827 153.93 177.23
139.2448 158.22534 183.2937
141.69641 159.90742 184.3508
137.63329 154.4616 177.5153
138.27432 155.11385 178.15204
136.48119 155.34969 180.37167
136.64818 154.78378 178.84045
136.19217 154.47574 177.5995
139.26723 157.9465 182.82057
138.6369 156.8125 180.35876
136.1581 154.19096 178.35034
138.80426 157.44006 181.45848
136.47508 154.66476 179.07065
138.42773 156.14153 179.98198
136.35742 155.13 179.9171
138.24973 156.59749 180.61821
140.29489 157.62566 181.01933
137.0908 155.4808 179.31888
135.71768 154.03212 178.01407
138.11108 155.64845 179.46103
138.2699 157.37233 181.93512
136.78896 154.32747 177.95486
141.58788 161.5128 187.62247
136.74883 153.89645 177.1548
138.90128 156.60464 179.31758
137.94568 155.61278 179.5647
138.23927 157.06946 182.0508
133.88005 151.89142 175.34299
135.52605 154.53885 178.41472
137.3856 155.81197 179.72176
135.65341 151.01735 172.95232
134.90303 151.23135 173.07634
136.99373 154.94835 178.93858
137.78423 155.35307 178.93858
139.73901 157.77644 182.04439
143.98953 163.48724 189.2991
137.0357 154.23665 176.2833
141.84955 160.41644 185.11069
136.96915 153.23897 175.35806
139.88223 158.29053 182.69249
140.0363 158.323 183.20424
135.21248 152.82521 174.5287
141.06705 158.93445 182.3078
138.32005 157.41696 182.89737
133.99496 151.34904 174.49095
138.3113 155.31711 177.80362
136.89125 155.46768 178.86542
143.37445 161.0018 183.81657
134.13266 151.7394 174.1796
148.94664 163.10365 182.04439
170.3687 175.2145 182.42331
180.20447 180.0816 181.01933
178.44547 179.17848 181.01933
176.82892 178.35236 181.01933
175.59282 177.72316 181.01933
174.45125 177.14404 181.01933
173.36607 176.59532 181.01933
172.49036 176.15373 181.01933
171.59467 175.70331 181.01933
170.71712 175.2631 181.01933
170.02782 174.91815 181.01933
169.26917 174.53934 181.01933
168.546 174.17906 181.01933
167.86516 173.8406 181.01933
167.31548 173.56783 181.01933
166.68565 173.25592 181.01933
166.19902 173.01532 181.01933
165.51068 172.67561 181.01933
164.99136 172.41983 181.01933
164.50392 172.18016 181.01933
164.0563 171.96036 181.01933
163.51274 171.6939 181.01933
163.0569 171.4708 181.01933
162.6536 171.27373 181.01933
162.23206 171.06796 181.01933
161.82191 170.86809 181.01933
161.43391 170.67921 181.01933
161.02197 170.47896 181.01933
160.67116 170.30867 181.01933
160.32333 170.13998 181.01933
159.9567 169.96245 181.01933
159.64026 169.80937 181.01933
159.35336 169.67073 181.01933
158.97383 169.48752 181.01933
158.67044 169.34126 181.01933
158.4357 169.22816 181.01933
158.11688 169.07474 181.01933
157.90683 168.97377 181.01933
157.57353 168.81367 181.01933
157.34314 168.70313 181.01933
157.10466 168.58878 181.01933
156.90813 168.49463 181.01933
156.65556 168.3737 181.01933
156.44191 168.27153 181.01933
156.22227 168.16656 181.01933
156.0604 168.08923 181.01933
155.8478 167.98776 181.01933
155.70956 167.92181 181.01933
155.50732 167.82541 181.01933
155.36145 167.75592 181.01933
155.2407 167.69841 181.01933
155.04254 167.60411 181.01933
154.90083 167.53674 181.01933
154.75507 167.46744 181.01933
154.69485 167.43881 181.01933
154.57686 167.38275 181.01933
154.46452 167.3294 181.01933
154.36992 167.28448 181.01933
154.27298 167.23853 181.01933
154.20428 167.20593 181.01933
154.1296 167.1705 181.01933
154.03409 167.12523 181.01933
154.00839 167.11304 181.01933
153.92548 167.07375 181.01933
153.91324 167.06796 181.01933
153.84363 167.03496 181.01933
153.82614 167.02669 181.01933
153.77896 167.00436 181.01933
153.75911 166.99493 181.01933
153.78046 167.00504 181.01933
153.75478 166.99289 181.01933
153.77669 167.00327 181.01933
153.81273 167.02034 181.01933
153.80803 167.01813 181.01933
153.8576 167.04163 181.01933
153.85779 167.04167 181.01933
153.91946 167.0709 181.01933
153.95769 167.08904 181.01933
154.01675 167.11702 181.01933
154.07722 167.14566 181.01933
154.16354 167.1866 181.01933
154.27513 167.23955 181.01933
154.32704 167.26418 181.01933
154.46815 167.33113 181.01933
154.54175 167.36607 181.01933
154.66537 167.42479 181.01933
154.77144 167.4752 181.01933
154.86392 167.51915 181.01933
155.01956 167.59317 181.01933
155.16199 167.66093 181.01933
155.31644 167.73448 181.01933
155.47023 167.80772 181.01933
155.63472 167.88614 181.01933
155.8033 167.96652 181.01933
156.02077 168.07033 181.01933
156.17766 168.14525 181.01933
156.3738 168.23897 181.01933
156.59319 168.34386 181.01933
156.77249 168.42967 181.01933
157.0395 168.55757 181.01933
157.22034 168.64423 181.01933
157.51483 168.78548 181.01933
157.77365 168.90977 181.01933
158.03998 169.03778 181.01933
158.28024 169.15337 181.01933
158.54164 169.2792 181.01933
158.88121 169.44284 181.01933
159.13972 169.56755 181.01933
159.46066 169.72255 181.01933
159.79105 169.8823 181.01933
160.17416 170.06773 181.01933
160.5003 170.22581 181.01933
160.84119 170.39119 181.01933
161.18216 170.55681 181.01933
161.5846 170.75253 181.01933
161.9947 170.95226 181.01933
162.45692 171.17769 181.01933
162.78773 171.33923 181.01933
163.21486 171.5481 181.01933
163.79243 171.83096 181.01933
164.19254 172.02722 181.01933
164.74574 172.29903 181.01933
165.21623 172.53056 181.01933
165.77959 172.80823 181.01933
166.25476 173.04285 181.01933
166.85542 173.33994 181.01933
167.44884 173.63399 181.01933
168.15994 173.98706 181.01933
168.81929 174.31511 181.01933
169.50269 174.65587 181.01933
170.19426 175.00139 181.01933
170.97798 175.39384 181.01933
171.63168 175.72186 181.01933
172.69522 176.25694 181.01933
173.6 176.71347 181.01933
174.68283 177.26138 181.01933
175.59145 177.72249 181.01933
176.98332 178.43114 181.01933
178.52258 179.21799 181.01933
181.21356 181.18329 182.30774
192.97507 196.10446 201.80669
215.70439 227.26567 243.82477
222.40416 236.41609 255.744
222.4136 236.4214 255.744
222.42673 236.42885 255.744
222.41591 236.42273 255.744
222.40381 236.41586 255.744
222.41626 236.4229 255.744
222.43312 236.43246 255.744
222.42378 236.42714 255.744
222.39697 236.41203 255.744
222.41803 236.42392 255.744
222.41711 236.4234 255.744
222.41359 236.42142 255.744
222.42043 236.42526 255.744
222.42714 236.42905 255.744
222.41116 236.42001 255.744
222.41965 236.4248 255.744
222.42632 236.42859 255.744
222.42207 236.4262 255.744
222.4081 236.41829 255.744
222.41939 236.42471 255.744
222.42036 236.42525 255.744
222.41333 236.42125 255.744
222.42624 236.42854 255.744
222.39854 236.41293 255.744
222.41364 236.42142 255.744
222.41338 236.4213 255.744
222.39731 236.41222 255.744
222.41751 236.42363 255.744
222.41603 236.42279 255.744
222.4074 236.41791 255.744
222.39915 236.4133 255.744
222.40685 236.41759 255.744
222.41333 236.42126 255.744
222.42157 236.4259 255.744
222.4035 236.41571 255.744
222.39578 236.41133 255.744
222.41565 236.42258 255.744
222.42125 236.42575 255.744
222.42477 236.4277 255.744
222.41624 236.42291 255.744
222.42241 236.42639 255.744
222.41507 236.42224 255.744
222.407 236.41768 255.744
222.4236 236.4271 255.744
222.42627 236.42854 255.744
222.4123 236.42068 255.744
222.42116 236.42569 255.744
222.42151 236.42587 255.744
222.42604 236.42844 255.744
222.4182 236.424 255.744
222.4053 236.41672 255.744
222.39703 236.41208 255.744
222.41136 236.42015 255.744
222.40416 236.4161 255.744
222.40031 236.41391 255.744
222.40125 236.41446 255.744
222.41153 236.42026 255.744
222.41658 236.42311 255.744
222.41951 236.42476 255.744
222.41702 236.42339 255.744
222.4061 236.41716 255.744
222.41313 236.42114 255.744
222.4056 236.4169 255.744
222.40875 236.4187 255.744
222.41492 236.42216 255.744
222.38461 236.40504 255.744
222.39825 236.41277 255.744
222.39076 236.40852 255.744
222.42195 236.42612 255.744
222.41098 236.41992 255.744
222.41441 236.4219 255.744
222.42279 236.42657 255.744
222.40314 236.41551 255.744
222.41159 236.42026 255.744
222.39613 236.41158 255.744
222.41496 236.42218 255.744
222.39514 236.41098 255.744
222.39508 236.41098 255.744
222.41653 236.42308 255.744
222.4183 236.42409 255.744
222.39651 236.41174 255.744
222.41397 236.42165 255.744
222.40738 236.4179 255.744
222.40733 236.41788 255.744
222.40701 236.4177 255.744
222.41418 236.42174 255.744
222.4021 236.41492 255.744
222.40369 236.41582 255.744
222.40936 236.41905 255.744
222.42638 236.42865 255.744
222.41022 236.41951 255.744
222.4174 236.42355 255.744
222.42787 236.42947 255.744
222.41159 236.42029 255.744
222.40088 236.41426 255.744
222.42328 236.42686 255.744
222.40953 236.41913 255.744
222.40523 236.4167 255.744
222.39554 236.41124 255.744
222.40979 236.41927 255.744
222.40913 236.41888 255.744
222.39612 236.41154 255.744
222.40323 236.41554 255.744
222.39157 236.40897 255.744
222.38258 236.40392 255.744
222.4006 236.41408 255.744
222.433 236.43234 255.744
222.40593 236.41705 255.744
222.40698 236.41768 255.744
222.38885 236.40744 255.744
222.40302 236.41542 255.744
222.39719 236.41212 255.744
222.40955 236.41913 255.744
222.40474 236.41641 255.744
222.40292 236.41539 255.744
222.396 236.41147 255.744
222.41844 236.42415 255.744
222.38922 236.40765 255.744
222.38078 236.4029 255.744
222.39633 236.41165 255.744
222.4271 236.42903 255.744
222.42519 236.42793 255.744
222.43983 236.43619 255.744
222.4218 236.42607 255.744
222.43076 236.43108 255.744
222.4505 236.44223 255.744
222.43631 236.43423 255.744
222.43544 236.4337 255.744
222.44252 236.43773 255.744
222.43918 236.43584 255.744
222.42578 236.42827 255.744
222.4254 236.42804 255.744
222.42633 236.4286 255.744
222.42511 236.4279 255.744
222.43602 236.43407 255.744
222.44096 236.43687 255.744
222.42929 236.43028 255.744
222.4272 236.42908 255.744
222.42532 236.42801 255.744
222.42792 236.42949 255.744
222.42036 236.42525 255.744
222.41505 236.42224 255.744
222.4424 236.43768 255.744
222.4373 236.43477 255.744
222.43623 236.43419 255.744
222.42496 236.42786 255.744
222.45 236.44194 255.744
222.43687 236.43454 255.744
222.44066 236.43668 255.744
222.42862 236.4299 255.744
222.4457 236.43951 255.744
222.42114 236.42567 255.744
222.42961 236.43048 255.744
222.42711 236.42903 255.744
222.43787 236.4351 255.744
222.43828 236.43535 255.744
222.43571 236.43388 255.744
222.43793 236.43513 255.744
222.44615 236.43979 255.744
222.44452 236.43889 255.744
222.44333 236.4382 255.744
222.45576 236.44522 255.744
222.45465 236.44458 255.744
222.42609 236.42848 255.744
222.4488 236.44131 255.744
222.4601 236.44768 255.744
222.45 236.44196 255.744
222.45612 236.44539 255.744
222.45387 236.44418 255.744
222.4505 236.44223 255.744
222.44205 236.43748 255.744
222.45354 236.44395 255.744
222.43811 236.43524 255.744
222.44147 236.43716 255.744
222.42897 236.43007 255.744
222.43968 236.43616 255.744
222.43655 236.43439 255.744
222.42688 236.42896 255.744
222.42995 236.43065 255.744
222.40958 236.41913 255.744
222.44489 236.43907 255.744
222.42267 236.42653 255.744
222.44328 236.43817 255.744
222.44464 236.43895 255.744
222.44093 236.43686 255.744
222.45314 236.44376 255.744
222.4445 236.43887 255.744
222.4371 236.43468 255.744
222.46881 236.4526 255.744
222.45058 236.4423 255.744
222.42816 236.42964 255.744
222.4479 236.44077 255.744
222.43954 236.43607 255.744
222.442 236.43745 255.744
222.44281 236.43791 255.744
222.44604 236.43973 255.744
222.46342 236.44955 255.744
222.43541 236.43373 255.744
222.45454 236.44453 255.744
222.46042 236.44783 255.744
222.46294 236.44925 255.744
222.46164 236.44856 255.744
222.41402 236.42165 255.744
222.4693 236.45285 255.744
222.43787 236.43512 255.744
222.4379 236.43513 255.744
222.43402 236.43292 255.744
222.43091 236.43117 255.744
222.44424 236.4387 255.744
222.432 236.43181 255.744
222.45613 236.44542 255.744
222.45525 236.44492 255.744
222.44673 236.44012 255.744
222.4464 236.43993 255.744
222.4309 236.43118 255.744
222.42503 236.42789 255.744
222.45387 236.44415 255.744
222.43071 236.43109 255.744
222.4498 236.44183 255.744
222.44862 236.44118 255.744
222.45767 236.44627 255.744
222.4321 236.43185 255.744
222.44363 236.43834 255.744
222.44157 236.4372 255.744
222.45172 236.44292 255.744
222.42795 236.42953 255.744
222.43352 236.43265 255.744
222.43776 236.43504 255.744
222.42407 236.4273 255.744
222.45076 236.44238 255.744
222.44397 236.43855 255.744
222.43835 236.4354 255.744
222.43863 236.43556 255.744
222.46596 236.45097 255.744
222.44026 236.43645 255.744
222.44228 236.43758 255.744
222.43587 236.43396 255.744
222.45772 236.44635 255.744
222.44339 236.43823 255.744
222.45316 236.44374 255.744
222.44453 236.43887 255.744
222.43105 236.43126 255.744
222.45494 236.44472 255.744
222.44534 236.43933 255.744
222.4535 236.44392 255.744
222.44617 236.4398 255.744
222.43312 236.43243 255.744
222.435 236.4335 255.744
222.42584 236.42831 255.744
222.4433 236.43819 255.744
222.45099 236.4425 255.744
222.44939 236.44162 255.744
222.46358 236.44965 255.744
222.43332 236.43257 255.744
222.45445 236.44447 255.744
222.45744 236.44617 255.744
222.45134 236.44272 255.744
222.43942 236.43599 255.744
222.45663 236.4457 255.744
222.439 236.43573 255.744
222.44354 236.43831 255.744
222.44522 236.43927 255.744
222.44362 236.43837 255.744
222.45184 236.44298 255.744
222.44453 236.43889 255.744
222.44144 236.43715 255.744
222.45636 236.44557 255.744
222.45699 236.4459 255.744
222.44603 236.43976 255.744
222.44739 236.44049 255.744
222.42258 236.42648 255.744
222.44286 236.43794 255.744
222.44868 236.44121 255.744
222.45857 236.44676 255.744
222.45262 236.44342 255.744
222.452 236.4431 255.744
222.44461 236.43892 255.744
222.46718 236.45164 255.744
222.43146 236.43153 255.744
222.46222 236.44888 255.744
222.44789 236.44077 255.744
222.43358 236.43271 255.744
222.45534 236.44498 255.744
222.44775 236.44066 255.744
222.44092 236.43684 255.744
222.44858 236.44116 255.744
222.46558 236.45076 255.744
222.44466 236.43893 255.744
222.45445 236.44446 255.744
222.46223 236.44887 255.744
222.4615 236.44846 255.744
222.45203 236.44308 255.744
222.45378 236.44412 255.744
222.43646 236.43433 255.744
222.46718 236.45168 255.744
222.4536 236.44402 255.744
222.44084 236.43678 255.744
222.45612 236.44542 255.744
222.47311 236.455 255.744
222.46584 236.45091 255.744
222.45181 236.44298 255.744
222.46346 236.44955 255.744
222.43806 236.43523 255.744
222.45326 236.44382 255.744
222.4507 236.44234 255.744
222.44571 236.43954 255.744
222.44894 236.44138 255.744
222.4527 236.44348 255.744
222.44836 236.44106 255.744
222.46463 236.45023 255.744
222.47627 236.4568 255.744
222.46188 236.44867 255.744
222.44362 236.43837 255.744
222.45291 236.44362 255.744
222.47522 236.45619 255.744
222.47836 236.45796 255.744
222.43956 236.43608 255.744
222.44527 236.43932 255.744
222.45813 236.44655 255.744
222.46132 236.44835 255.744
222.44261 236.43777 255.744
222.44386 236.4385 255.744
222.45656 236.44566 255.744
222.46758 236.4519 255.744
222.44452 236.43889 255.744
222.45798 236.44647 255.744
222.44879 236.44127 255.744
222.45044 236.44218 255.744
222.46175 236.44861 255.744
222.47108 236.45389 255.744
222.44756 236.44057 255.744
222.42032 236.4252 255.744
222.45778 236.44635 255.744
222.45947 236.44731 255.744
222.45842 236.4467 255.744
222.4401 236.43637 255.744
222.47487 236.456 255.744
222.48291 236.46054 255.744
222.45503 236.44481 255.744
222.45337 236.44386 255.744
222.4454 236.43938 255.744
222.44284 236.43794 255.744
222.45645 236.44559 255.744
222.44223 236.43758 255.744
222.45752 236.44621 255.744
222.43544 236.43373 255.744
222.45905 236.44705 255.744
222.44807 236.4409 255.744
222.4614 236.4484 255.744
222.46454 236.45018 255.744
222.44453 236.43889 255.744
222.44904 236.44142 255.744
222.44977 236.44185 255.744
222.46266 236.44911 255.744
222.45279 236.44356 255.744
222.45325 236.44382 255.744
222.45912 236.4471 255.744
222.47122 236.45396 255.744
221.49977 235.50891 255.08408
220.12727 234.33633 254.16486
207.52513 222.34239 242.95927
185.88869 201.94064 224.01317
175.77292 192.07463 214.51811
172.66367 189.23524 212.42932
159.59871 176.37389 199.39702
156.56468 173.85811 197.48064
148.06123 165.13142 188.31058
154.68407 172.46822 196.63733
152.9893 171.74324 196.75752
150.81789 167.96239 191.51175
143.41367 160.30191 182.60072
143.26038 160.15648 183.26811
140.55148 156.92174 179.98198
141.132 158.37257 181.53781
141.08778 158.61168 182.4425
142.77216 159.96208 183.45958
141.05128 159.87442 184.33783
137.24971 153.6363 176.11716
138.39468 155.64401 178.81598
139.63768 155.33058 177.362
143.79268 163.20685 188.61783
136.81203 155.69064 179.68431
136.02711 152.62814 175.63808
142.10445 160.38336 184.73096
136.00137 151.52881 173.57372
140.3445 158.75726 183.07643
138.90776 156.49387 180.11197
138.47182 154.02791 175.77261
137.53127 156.57243 180.34598
138.7514 158.26663 183.84192
138.90565 156.56729 179.98196
138.99997 157.46217 181.7291
137.64609 155.28941 179.0116
141.2743 160.447 185.74182
134.72438 151.14214 173.7624
137.49298 155.32317 179.20001
139.74559 158.24567 182.94858
137.73703 155.43678 179.2653
143.15897 162.29628 187.37282
136.67168 154.77808 177.86288
136.55794 154.61789 178.82887
139.48999 158.11394 182.82057
142.5684 162.35657 188.4937
135.92697 151.58856 173.7962
136.73442 153.7451 177.09787
139.49612 156.94202 180.63101
141.91951 159.94061 184.35048
135.58401 152.12595 174.7041
139.46153 157.1454 180.89
140.05797 158.18611 182.4361
139.1393 157.68417 182.4297
137.32135 154.2895 177.62573
137.9425 155.61606 179.2803
139.56198 156.2893 179.23265
138.8951 158.73752 184.55035
138.27348 159.20546 185.60382
139.3627 157.67168 182.17694
136.09924 152.42593 174.85005
138.61647 157.09253 181.00647
139.78354 157.93352 181.92218
136.61128 154.16568 178.17831
135.3103 152.34714 175.63806
138.39143 154.83984 177.49391
137.92433 154.84459 178.15337
139.82123 156.21446 178.80786
135.40742 152.93736 176.43582
138.89848 156.61488 180.63101
139.88553 158.44348 182.29497
137.73566 154.77084 177.89037
138.6664 158.46329 184.22346
138.77635 156.07182 178.92557
137.71793 155.97963 180.37167
138.56003 155.96173 178.66388
140.50092 158.60435 182.82056
139.64317 157.78212 181.58742
137.35878 155.79396 179.44806
136.49232 154.42747 178.28339
141.08238 159.80624 184.01178
136.8679 152.64375 174.9036
137.52841 154.94939 178.28337
142.46965 160.68413 185.42651
135.55325 153.88632 177.88252
141.70377 159.88995 184.22346
136.70982 153.83296 176.97227
140.09666 160.1013 186.11948
139.59494 157.41808 179.95607
143.94121 162.82692 187.36038
139.01201 157.25282 181.40683
135.3419 154.35686 179.46103
137.65071 156.1936 179.16751
138.83295 157.60501 181.65186
137.76161 156.64702 181.00647
135.84369 154.47958 177.99863
139.35059 157.64954 181.62488
143.55563 163.25563 188.7258
141.1879 158.59929 181.90938
154.08907 164.44969 179.59142
178.50821 178.7763 180.37167
179.34761 179.64114 181.01933
177.76093 178.82822 181.01933
176.19997 178.03197 181.01933
175.163 177.50491 181.01933
174.04654 176.93924 181.01933
173.02501 176.42322 181.01933
172.06967 175.94203 181.01933
171.26118 175.53587 181.01933
170.47746 175.14308 181.01933
169.72878 174.76874 181.01933
169.02196 174.41608 181.01933
168.31543 174.06436 181.01933
167.68204 173.74968 181.01933
167.09892 173.46054 181.01933
166.47751 173.15295 181.01933
165.91846 172.87679 181.01933
165.28061 172.56226 181.01933
164.83302 172.34195 181.01933
164.33203 172.09573 181.01933
163.75723 171.8137 181.01933
163.38826 171.63295 181.01933
162.88861 171.38852 181.01933
162.45003 171.17429 181.01933
162.04344 170.976 181.01933
161.67693 170.79749 181.01933
161.27484 170.60185 181.01933
160.81813 170.38 181.01933
